( pcb2gcode 2.1.0 )
( Software-independent Gcode )

G94 ( Inches per minute feed rate. )
G20 ( Units == INCHES. )

G90 ( Absolute coordinates. )
G00 S30000 ( RPM spindle speed. )
G01 F100.00000 ( Feedrate. )


G00 Z2.00000 (Retract to tool change height)
G04 P0.00000 (Wait for spindle to stop)
(MSG, Change tool bit to cutter diameter 0.12500in)
G04 P0.00000 (Wait for spindle to get up to speed)
G04 P0 ( dwell for no time -- G64 should not smooth over this point )
G00 Z0.05000 ( retract )

G00 X-0.06447 Y0.12697 ( rapid move to begin. )
G01 Z-0.11600 F30.00000 ( plunge. )
G04 P0 ( dwell for no time -- G64 should not smooth over this point )
G01 F100.00000
G01 X-0.06447 Y0.23334
G01 X-0.06447 Y4.05735
G01 X-0.06447 Y4.12697
G01 X-0.06567 Y4.13916
G01 X-0.06923 Y4.15089
G01 X-0.07500 Y4.16169
G01 X-0.08277 Y4.17116
G01 X-0.09224 Y4.17894
G01 X-0.10305 Y4.18471
G01 X-0.11477 Y4.18827
G01 X-0.12697 Y4.18947
G01 X-0.18433 Y4.18947
G01 X-6.02059 Y4.18947
G01 X-6.12697 Y4.18947
G01 X-6.13916 Y4.18827
G01 X-6.15089 Y4.18471
G01 X-6.16169 Y4.17894
G01 X-6.17116 Y4.17116
G01 X-6.17893 Y4.16169
G01 X-6.18471 Y4.15089
G01 X-6.18827 Y4.13916
G01 X-6.18947 Y4.12697
G01 X-6.18947 Y4.10636
G01 X-6.18947 Y0.23334
G01 X-6.18947 Y0.13115
G01 X-6.18947 Y0.12697
G01 X-6.18827 Y0.11478
G01 X-6.18471 Y0.10305
G01 X-6.17893 Y0.09225
G01 X-6.17116 Y0.08277
G01 X-6.16169 Y0.07500
G01 X-6.15089 Y0.06923
G01 X-6.13916 Y0.06567
G01 X-6.12697 Y0.06447
G01 X-6.10636 Y0.06447
G01 X-6.00416 Y0.06447
G01 X-0.14758 Y0.06447
G01 X-0.12697 Y0.06447
G01 X-0.11477 Y0.06567
G01 X-0.10305 Y0.06923
G01 X-0.09224 Y0.07500
G01 X-0.08277 Y0.08277
G01 X-0.07500 Y0.09225
G01 X-0.06923 Y0.10305
G01 X-0.06567 Y0.11478
G01 X-0.06447 Y0.12697
G01 Z-0.23200 F30.00000 ( plunge. )
G04 P0 ( dwell for no time -- G64 should not smooth over this point )
G01 F100.00000
G01 X-0.06447 Y0.23334
G01 X-0.06447 Y4.05735
G01 X-0.06447 Y4.12697
G01 X-0.06567 Y4.13916
G01 X-0.06923 Y4.15089
G01 X-0.07500 Y4.16169
G01 X-0.08277 Y4.17116
G01 X-0.09224 Y4.17894
G01 X-0.10305 Y4.18471
G01 X-0.11477 Y4.18827
G01 X-0.12697 Y4.18947
G01 X-0.18433 Y4.18947
G01 X-6.02059 Y4.18947
G01 X-6.12697 Y4.18947
G01 X-6.13916 Y4.18827
G01 X-6.15089 Y4.18471
G01 X-6.16169 Y4.17894
G01 X-6.17116 Y4.17116
G01 X-6.17893 Y4.16169
G01 X-6.18471 Y4.15089
G01 X-6.18827 Y4.13916
G01 X-6.18947 Y4.12697
G01 X-6.18947 Y4.10636
G01 X-6.18947 Y0.23334
G01 X-6.18947 Y0.13115
G01 X-6.18947 Y0.12697
G01 X-6.18827 Y0.11478
G01 X-6.18471 Y0.10305
G01 X-6.17893 Y0.09225
G01 X-6.17116 Y0.08277
G01 X-6.16169 Y0.07500
G01 X-6.15089 Y0.06923
G01 X-6.13916 Y0.06567
G01 X-6.12697 Y0.06447
G01 X-6.10636 Y0.06447
G01 X-6.00416 Y0.06447
G01 X-0.14758 Y0.06447
G01 X-0.12697 Y0.06447
G01 X-0.11477 Y0.06567
G01 X-0.10305 Y0.06923
G01 X-0.09224 Y0.07500
G01 X-0.08277 Y0.08277
G01 X-0.07500 Y0.09225
G01 X-0.06923 Y0.10305
G01 X-0.06567 Y0.11478
G01 X-0.06447 Y0.12697
G01 Z-0.34800 F30.00000 ( plunge. )
G04 P0 ( dwell for no time -- G64 should not smooth over this point )
G01 F100.00000
G00 Z-0.30000
G01 X-0.06447 Y0.23334
G01 Z-0.34800 F30.00000
G01 F100.00000
G01 X-0.06447 Y4.05735
G00 Z-0.30000
G01 X-0.06447 Y4.12697
G01 X-0.06567 Y4.13916
G01 X-0.06923 Y4.15089
G01 X-0.07500 Y4.16169
G01 X-0.08277 Y4.17116
G01 X-0.09224 Y4.17894
G01 X-0.10305 Y4.18471
G01 X-0.11477 Y4.18827
G01 X-0.12697 Y4.18947
G01 X-0.18433 Y4.18947
G01 Z-0.34800 F30.00000
G01 F100.00000
G01 X-6.02059 Y4.18947
G00 Z-0.30000
G01 X-6.12697 Y4.18947
G01 X-6.13916 Y4.18827
G01 X-6.15089 Y4.18471
G01 X-6.16169 Y4.17894
G01 X-6.17116 Y4.17116
G01 X-6.17893 Y4.16169
G01 X-6.18471 Y4.15089
G01 X-6.18827 Y4.13916
G01 X-6.18947 Y4.12697
G01 X-6.18947 Y4.10636
G01 Z-0.34800 F30.00000
G01 F100.00000
G01 X-6.18947 Y0.23334
G00 Z-0.30000
G01 X-6.18947 Y0.13115
G01 X-6.18947 Y0.12697
G01 X-6.18827 Y0.11478
G01 X-6.18471 Y0.10305
G01 X-6.17893 Y0.09225
G01 X-6.17116 Y0.08277
G01 X-6.16169 Y0.07500
G01 X-6.15089 Y0.06923
G01 X-6.13916 Y0.06567
G01 X-6.12697 Y0.06447
G01 X-6.10636 Y0.06447
G01 X-6.00416 Y0.06447
G01 Z-0.34800 F30.00000
G01 F100.00000
G01 X-0.14758 Y0.06447
G00 Z-0.30000
G01 X-0.12697 Y0.06447
G01 X-0.11477 Y0.06567
G01 X-0.10305 Y0.06923
G01 X-0.09224 Y0.07500
G01 X-0.08277 Y0.08277
G01 X-0.07500 Y0.09225
G01 X-0.06923 Y0.10305
G01 X-0.06567 Y0.11478
G01 X-0.06447 Y0.12697

G04 P0 ( dwell for no time -- G64 should not smooth over this point )
G00 Z2.000000 ( retract )

G04 P0.000000
M2 ( Program end. )

