( pcb2gcode 2.1.0 )
( Software-independent Gcode )

G94 ( Millimeters per minute feed rate. )
G21 ( Units == Millimeters. )

G90 ( Absolute coordinates. )
G00 S10000 ( RPM spindle speed. )
G64 P0.01016 ( set maximum deviation from commanded toolpath )
G01 F600.00000 ( Feedrate. )


G00 Z10.00000 (Retract to tool change height)
T0
M5      (Spindle stop.)
G04 P1.00000 (Wait for spindle to stop)
(MSG, Change tool bit to mill diameter 0.20000mm)
M6      (Tool change.)
M0      (Temporary machine stop.)
M3 ( Spindle on clockwise. )
G04 P1.00000 (Wait for spindle to get up to speed)
G04 P0 ( dwell for no time -- G64 should not smooth over this point )
G00 Z5.00000 ( retract )

G00 X-0.09997 Y33.60100 ( rapid move to begin. )
G01 F300.00000
( Mill infeed pass 1/1 )
G01 Z-0.05000
G04 P0 ( dwell for no time -- G64 should not smooth over this point )
G01 F600.00000
G01 X-0.09997 Y33.60100
G01 X-0.12271 Y33.38482
G01 X-0.18613 Y33.18787
G01 X-0.30516 Y32.98170
G01 X-0.44402 Y32.82828
G01 X-0.61989 Y32.70052
G01 X-0.81846 Y32.61210
G01 X-1.03109 Y32.56692
G01 X-1.24849 Y32.56692
G01 X-1.45100 Y32.60938
G01 X-1.65969 Y32.70052
G01 X-1.84295 Y32.83570
G01 X-1.98105 Y32.98990
G01 X-2.05656 Y33.12000
G01 X-5.30301 Y33.12000
G01 X-5.37853 Y32.98990
G01 X-5.52402 Y32.82828
G01 X-5.69989 Y32.70052
G01 X-5.89846 Y32.61210
G01 X-6.11109 Y32.56692
G01 X-6.32849 Y32.56692
G01 X-6.54108 Y32.61210
G01 X-6.73969 Y32.70052
G01 X-6.91553 Y32.82828
G01 X-7.06671 Y32.99861
G01 X-7.16968 Y33.17809
G01 X-7.23412 Y33.37471
G01 X-7.25960 Y33.60100
G01 X-7.23412 Y33.82731
G01 X-7.16968 Y34.02394
G01 X-7.06671 Y34.20341
G01 X-6.91553 Y34.37374
G01 X-6.74848 Y34.49582
G01 X-6.70077 Y34.51944
G01 X-6.70080 Y35.94179
G01 X-10.22901 Y39.47000
G01 X-13.35880 Y39.47000
G01 X-13.35880 Y38.32944
G01 X-13.31110 Y38.30582
G01 X-13.14402 Y38.18374
G01 X-12.99286 Y38.01341
G01 X-12.88989 Y37.83394
G01 X-12.82543 Y37.63731
G01 X-12.79997 Y37.41100
G01 X-12.82543 Y37.18471
G01 X-12.88989 Y36.98809
G01 X-12.99286 Y36.80861
G01 X-13.14402 Y36.63828
G01 X-13.31110 Y36.51621
G01 X-13.35880 Y36.49259
G01 X-13.35880 Y34.51944
G01 X-13.31110 Y34.49582
G01 X-13.14402 Y34.37374
G01 X-12.99286 Y34.20341
G01 X-12.88989 Y34.02394
G01 X-12.82543 Y33.82731
G01 X-12.80053 Y33.59056
G01 X-12.82271 Y33.38482
G01 X-12.88989 Y33.17809
G01 X-12.99858 Y32.98983
G01 X-13.13663 Y32.83570
G01 X-13.32921 Y32.69577
G01 X-13.51846 Y32.61210
G01 X-13.74155 Y32.56636
G01 X-13.94849 Y32.56692
G01 X-14.16111 Y32.61210
G01 X-14.35969 Y32.70052
G01 X-14.53556 Y32.82828
G01 X-14.68100 Y32.98983
G01 X-14.78968 Y33.17809
G01 X-14.85687 Y33.38482
G01 X-14.87904 Y33.59056
G01 X-14.85415 Y33.82731
G01 X-14.78968 Y34.02394
G01 X-14.68671 Y34.20341
G01 X-14.53556 Y34.37374
G01 X-14.36848 Y34.49582
G01 X-14.32077 Y34.51944
G01 X-14.32077 Y36.49259
G01 X-14.36848 Y36.51621
G01 X-14.53556 Y36.63828
G01 X-14.68671 Y36.80861
G01 X-14.78968 Y36.98809
G01 X-14.85415 Y37.18471
G01 X-14.87960 Y37.41100
G01 X-14.85415 Y37.63731
G01 X-14.78968 Y37.83394
G01 X-14.68671 Y38.01341
G01 X-14.53556 Y38.18374
G01 X-14.36848 Y38.30582
G01 X-14.32077 Y38.32944
G01 X-14.32080 Y39.47000
G01 X-18.43877 Y39.47000
G01 X-18.43877 Y38.32941
G01 X-18.39110 Y38.30582
G01 X-18.22402 Y38.18374
G01 X-18.07286 Y38.01341
G01 X-17.96989 Y37.83394
G01 X-17.90543 Y37.63731
G01 X-17.87997 Y37.41100
G01 X-17.90543 Y37.18471
G01 X-17.96989 Y36.98809
G01 X-18.07286 Y36.80861
G01 X-18.22402 Y36.63828
G01 X-18.39110 Y36.51621
G01 X-18.43877 Y36.49261
G01 X-18.43877 Y34.51941
G01 X-18.39110 Y34.49582
G01 X-18.22402 Y34.37374
G01 X-18.07286 Y34.20341
G01 X-17.96989 Y34.02394
G01 X-17.90543 Y33.82731
G01 X-17.88053 Y33.59056
G01 X-17.90271 Y33.38482
G01 X-17.96989 Y33.17809
G01 X-18.07858 Y32.98983
G01 X-18.21663 Y32.83570
G01 X-18.40921 Y32.69577
G01 X-18.59846 Y32.61210
G01 X-18.82155 Y32.56636
G01 X-19.02849 Y32.56692
G01 X-19.24111 Y32.61210
G01 X-19.43969 Y32.70052
G01 X-19.61556 Y32.82828
G01 X-19.76100 Y32.98983
G01 X-19.86968 Y33.17809
G01 X-19.93687 Y33.38482
G01 X-19.95904 Y33.59056
G01 X-19.93415 Y33.82731
G01 X-19.86968 Y34.02394
G01 X-19.76671 Y34.20341
G01 X-19.61556 Y34.37374
G01 X-19.44848 Y34.49582
G01 X-19.40077 Y34.51944
G01 X-19.40077 Y36.49259
G01 X-19.44848 Y36.51621
G01 X-19.61556 Y36.63828
G01 X-19.76671 Y36.80861
G01 X-19.86968 Y36.98809
G01 X-19.93415 Y37.18471
G01 X-19.95960 Y37.41100
G01 X-19.93415 Y37.63731
G01 X-19.86968 Y37.83394
G01 X-19.76671 Y38.01341
G01 X-19.61556 Y38.18374
G01 X-19.44848 Y38.30582
G01 X-19.40077 Y38.32944
G01 X-19.40080 Y39.47000
G01 X-23.51877 Y39.47000
G01 X-23.51877 Y38.32941
G01 X-23.47110 Y38.30582
G01 X-23.30402 Y38.18374
G01 X-23.15286 Y38.01341
G01 X-23.04989 Y37.83394
G01 X-22.98543 Y37.63731
G01 X-22.95997 Y37.41100
G01 X-22.98543 Y37.18471
G01 X-23.04989 Y36.98809
G01 X-23.15286 Y36.80861
G01 X-23.30402 Y36.63828
G01 X-23.47110 Y36.51621
G01 X-23.51877 Y36.49261
G01 X-23.51877 Y34.51941
G01 X-23.47110 Y34.49582
G01 X-23.30402 Y34.37374
G01 X-23.15286 Y34.20341
G01 X-23.04989 Y34.02394
G01 X-22.98543 Y33.82731
G01 X-22.96053 Y33.59056
G01 X-22.98271 Y33.38482
G01 X-23.04989 Y33.17809
G01 X-23.15858 Y32.98983
G01 X-23.29663 Y32.83570
G01 X-23.48921 Y32.69577
G01 X-23.67846 Y32.61210
G01 X-23.90155 Y32.56636
G01 X-24.10849 Y32.56692
G01 X-24.32111 Y32.61210
G01 X-24.51969 Y32.70052
G01 X-24.69556 Y32.82828
G01 X-24.84100 Y32.98983
G01 X-24.94968 Y33.17809
G01 X-25.01687 Y33.38482
G01 X-25.03904 Y33.59056
G01 X-25.01415 Y33.82731
G01 X-24.94968 Y34.02394
G01 X-24.84671 Y34.20341
G01 X-24.69556 Y34.37374
G01 X-24.52848 Y34.49582
G01 X-24.48077 Y34.51944
G01 X-24.48077 Y36.49259
G01 X-24.52848 Y36.51621
G01 X-24.69556 Y36.63828
G01 X-24.84671 Y36.80861
G01 X-24.94968 Y36.98809
G01 X-25.01415 Y37.18471
G01 X-25.03960 Y37.41100
G01 X-25.01415 Y37.63731
G01 X-24.94968 Y37.83394
G01 X-24.84671 Y38.01341
G01 X-24.69556 Y38.18374
G01 X-24.52848 Y38.30582
G01 X-24.48077 Y38.32944
G01 X-24.48077 Y39.47000
G01 X-28.59880 Y39.47000
G01 X-28.59880 Y38.32944
G01 X-28.55110 Y38.30582
G01 X-28.38402 Y38.18374
G01 X-28.23286 Y38.01341
G01 X-28.12989 Y37.83394
G01 X-28.06543 Y37.63731
G01 X-28.03997 Y37.41100
G01 X-28.06543 Y37.18471
G01 X-28.12989 Y36.98809
G01 X-28.23286 Y36.80861
G01 X-28.38402 Y36.63828
G01 X-28.55110 Y36.51621
G01 X-28.59880 Y36.49259
G01 X-28.59880 Y34.51944
G01 X-28.55110 Y34.49582
G01 X-28.38402 Y34.37374
G01 X-28.23286 Y34.20341
G01 X-28.12989 Y34.02394
G01 X-28.06543 Y33.82731
G01 X-28.04053 Y33.59056
G01 X-28.06271 Y33.38482
G01 X-28.12989 Y33.17809
G01 X-28.23858 Y32.98983
G01 X-28.37663 Y32.83570
G01 X-28.56921 Y32.69577
G01 X-28.75846 Y32.61210
G01 X-28.98155 Y32.56636
G01 X-29.18849 Y32.56692
G01 X-29.40111 Y32.61210
G01 X-29.59969 Y32.70052
G01 X-29.77556 Y32.82828
G01 X-29.92100 Y32.98983
G01 X-30.02968 Y33.17809
G01 X-30.09687 Y33.38482
G01 X-30.11904 Y33.59056
G01 X-30.09415 Y33.82731
G01 X-30.02968 Y34.02394
G01 X-29.92671 Y34.20341
G01 X-29.77556 Y34.37374
G01 X-29.60848 Y34.49582
G01 X-29.56077 Y34.51944
G01 X-29.56077 Y36.49259
G01 X-29.60848 Y36.51621
G01 X-29.77556 Y36.63828
G01 X-29.92671 Y36.80861
G01 X-30.02968 Y36.98809
G01 X-30.09415 Y37.18471
G01 X-30.11960 Y37.41100
G01 X-30.09415 Y37.63731
G01 X-30.02968 Y37.83394
G01 X-29.92671 Y38.01341
G01 X-29.77556 Y38.18374
G01 X-29.60848 Y38.30582
G01 X-29.56077 Y38.32944
G01 X-29.56080 Y39.47000
G01 X-33.67877 Y39.47000
G01 X-33.67877 Y38.32941
G01 X-33.63110 Y38.30582
G01 X-33.46402 Y38.18374
G01 X-33.31286 Y38.01341
G01 X-33.20989 Y37.83394
G01 X-33.14543 Y37.63731
G01 X-33.11997 Y37.41100
G01 X-33.14543 Y37.18471
G01 X-33.20989 Y36.98809
G01 X-33.31286 Y36.80861
G01 X-33.46402 Y36.63828
G01 X-33.63110 Y36.51621
G01 X-33.67877 Y36.49261
G01 X-33.67877 Y34.51941
G01 X-33.63110 Y34.49582
G01 X-33.46402 Y34.37374
G01 X-33.31286 Y34.20341
G01 X-33.20989 Y34.02394
G01 X-33.14543 Y33.82731
G01 X-33.12053 Y33.59056
G01 X-33.14271 Y33.38482
G01 X-33.20989 Y33.17809
G01 X-33.31858 Y32.98983
G01 X-33.45663 Y32.83570
G01 X-33.64921 Y32.69577
G01 X-33.83846 Y32.61210
G01 X-34.06155 Y32.56636
G01 X-34.26849 Y32.56692
G01 X-34.48111 Y32.61210
G01 X-34.67969 Y32.70052
G01 X-34.85556 Y32.82828
G01 X-35.00100 Y32.98983
G01 X-35.10968 Y33.17809
G01 X-35.17687 Y33.38482
G01 X-35.19904 Y33.59056
G01 X-35.17415 Y33.82731
G01 X-35.10968 Y34.02394
G01 X-35.00671 Y34.20341
G01 X-34.85556 Y34.37374
G01 X-34.68848 Y34.49582
G01 X-34.64080 Y34.51941
G01 X-34.64080 Y36.49261
G01 X-34.68848 Y36.51621
G01 X-34.85556 Y36.63828
G01 X-35.00671 Y36.80861
G01 X-35.10968 Y36.98809
G01 X-35.17415 Y37.18471
G01 X-35.19960 Y37.41100
G01 X-35.17415 Y37.63731
G01 X-35.10968 Y37.83394
G01 X-35.00671 Y38.01341
G01 X-34.85556 Y38.18374
G01 X-34.68848 Y38.30582
G01 X-34.64080 Y38.32941
G01 X-34.64080 Y39.47000
G01 X-38.75880 Y39.47000
G01 X-38.75880 Y38.32944
G01 X-38.71110 Y38.30582
G01 X-38.54402 Y38.18374
G01 X-38.39286 Y38.01341
G01 X-38.28989 Y37.83394
G01 X-38.22543 Y37.63731
G01 X-38.19997 Y37.41100
G01 X-38.22543 Y37.18471
G01 X-38.28989 Y36.98809
G01 X-38.39286 Y36.80861
G01 X-38.54402 Y36.63828
G01 X-38.71110 Y36.51621
G01 X-38.75880 Y36.49259
G01 X-38.75880 Y34.51944
G01 X-38.71110 Y34.49582
G01 X-38.54402 Y34.37374
G01 X-38.39286 Y34.20341
G01 X-38.28989 Y34.02394
G01 X-38.22543 Y33.82731
G01 X-38.20053 Y33.59056
G01 X-38.22271 Y33.38482
G01 X-38.28989 Y33.17809
G01 X-38.39858 Y32.98983
G01 X-38.53663 Y32.83570
G01 X-38.72921 Y32.69577
G01 X-38.91846 Y32.61210
G01 X-39.14155 Y32.56636
G01 X-39.34849 Y32.56692
G01 X-39.56111 Y32.61210
G01 X-39.75969 Y32.70052
G01 X-39.93556 Y32.82828
G01 X-40.08100 Y32.98983
G01 X-40.18968 Y33.17809
G01 X-40.25687 Y33.38482
G01 X-40.27904 Y33.59056
G01 X-40.25415 Y33.82731
G01 X-40.18968 Y34.02394
G01 X-40.08671 Y34.20341
G01 X-39.93556 Y34.37374
G01 X-39.76848 Y34.49582
G01 X-39.72077 Y34.51944
G01 X-39.72077 Y36.49259
G01 X-39.76848 Y36.51621
G01 X-39.93556 Y36.63828
G01 X-40.08671 Y36.80861
G01 X-40.18968 Y36.98809
G01 X-40.25415 Y37.18471
G01 X-40.27960 Y37.41100
G01 X-40.25415 Y37.63731
G01 X-40.18968 Y37.83394
G01 X-40.08671 Y38.01341
G01 X-39.93556 Y38.18374
G01 X-39.76848 Y38.30582
G01 X-39.72077 Y38.32944
G01 X-39.72080 Y39.47000
G01 X-43.83877 Y39.47000
G01 X-43.83877 Y38.32941
G01 X-43.79110 Y38.30582
G01 X-43.62402 Y38.18374
G01 X-43.47286 Y38.01341
G01 X-43.36989 Y37.83394
G01 X-43.30543 Y37.63731
G01 X-43.27997 Y37.41100
G01 X-43.30543 Y37.18471
G01 X-43.36989 Y36.98809
G01 X-43.47286 Y36.80861
G01 X-43.62402 Y36.63828
G01 X-43.79110 Y36.51621
G01 X-43.83877 Y36.49261
G01 X-43.83877 Y34.51941
G01 X-43.79110 Y34.49582
G01 X-43.62402 Y34.37374
G01 X-43.47286 Y34.20341
G01 X-43.36989 Y34.02394
G01 X-43.30543 Y33.82731
G01 X-43.28053 Y33.59056
G01 X-43.30271 Y33.38482
G01 X-43.36989 Y33.17809
G01 X-43.47858 Y32.98983
G01 X-43.61663 Y32.83570
G01 X-43.80921 Y32.69577
G01 X-43.99846 Y32.61210
G01 X-44.22155 Y32.56636
G01 X-44.42849 Y32.56692
G01 X-44.64111 Y32.61210
G01 X-44.83969 Y32.70052
G01 X-45.01556 Y32.82828
G01 X-45.16100 Y32.98983
G01 X-45.26968 Y33.17809
G01 X-45.33687 Y33.38482
G01 X-45.35904 Y33.59056
G01 X-45.33415 Y33.82731
G01 X-45.26968 Y34.02394
G01 X-45.16671 Y34.20341
G01 X-45.01556 Y34.37374
G01 X-44.84848 Y34.49582
G01 X-44.80077 Y34.51944
G01 X-44.80077 Y36.49259
G01 X-44.84848 Y36.51621
G01 X-45.01556 Y36.63828
G01 X-45.16671 Y36.80861
G01 X-45.26968 Y36.98809
G01 X-45.33415 Y37.18471
G01 X-45.35960 Y37.41100
G01 X-45.33415 Y37.63731
G01 X-45.26968 Y37.83394
G01 X-45.16671 Y38.01341
G01 X-45.01556 Y38.18374
G01 X-44.84848 Y38.30582
G01 X-44.80077 Y38.32944
G01 X-44.80080 Y39.47000
G01 X-48.91877 Y39.47000
G01 X-48.91877 Y38.32941
G01 X-48.87110 Y38.30582
G01 X-48.70402 Y38.18374
G01 X-48.55286 Y38.01341
G01 X-48.44989 Y37.83394
G01 X-48.38543 Y37.63731
G01 X-48.35997 Y37.41100
G01 X-48.38543 Y37.18471
G01 X-48.44989 Y36.98809
G01 X-48.55286 Y36.80861
G01 X-48.70402 Y36.63828
G01 X-48.87110 Y36.51621
G01 X-48.91877 Y36.49261
G01 X-48.91877 Y34.51941
G01 X-48.87110 Y34.49582
G01 X-48.70402 Y34.37374
G01 X-48.55286 Y34.20341
G01 X-48.44989 Y34.02394
G01 X-48.38543 Y33.82731
G01 X-48.36053 Y33.59056
G01 X-48.38271 Y33.38482
G01 X-48.44989 Y33.17809
G01 X-48.55858 Y32.98983
G01 X-48.69663 Y32.83570
G01 X-48.88921 Y32.69577
G01 X-49.07846 Y32.61210
G01 X-49.30155 Y32.56636
G01 X-49.50849 Y32.56692
G01 X-49.72111 Y32.61210
G01 X-49.91969 Y32.70052
G01 X-50.09556 Y32.82828
G01 X-50.24100 Y32.98983
G01 X-50.34968 Y33.17809
G01 X-50.41687 Y33.38482
G01 X-50.43904 Y33.59056
G01 X-50.41415 Y33.82731
G01 X-50.34968 Y34.02394
G01 X-50.24671 Y34.20341
G01 X-50.09556 Y34.37374
G01 X-49.92848 Y34.49582
G01 X-49.88077 Y34.51944
G01 X-49.88077 Y36.49259
G01 X-49.92848 Y36.51621
G01 X-50.09556 Y36.63828
G01 X-50.24671 Y36.80861
G01 X-50.34968 Y36.98809
G01 X-50.41415 Y37.18471
G01 X-50.43960 Y37.41100
G01 X-50.41415 Y37.63731
G01 X-50.34968 Y37.83394
G01 X-50.24671 Y38.01341
G01 X-50.09556 Y38.18374
G01 X-49.92848 Y38.30582
G01 X-49.88077 Y38.32944
G01 X-49.88077 Y39.47000
G01 X-53.99880 Y39.47000
G01 X-53.99880 Y38.32944
G01 X-53.95110 Y38.30582
G01 X-53.78402 Y38.18374
G01 X-53.63286 Y38.01341
G01 X-53.52989 Y37.83394
G01 X-53.46543 Y37.63731
G01 X-53.43997 Y37.41100
G01 X-53.46543 Y37.18471
G01 X-53.52989 Y36.98809
G01 X-53.63286 Y36.80861
G01 X-53.78402 Y36.63828
G01 X-53.95110 Y36.51621
G01 X-53.99880 Y36.49259
G01 X-53.99880 Y34.51944
G01 X-53.95110 Y34.49582
G01 X-53.78402 Y34.37374
G01 X-53.63286 Y34.20341
G01 X-53.52989 Y34.02394
G01 X-53.46543 Y33.82731
G01 X-53.44053 Y33.59056
G01 X-53.46271 Y33.38482
G01 X-53.52989 Y33.17809
G01 X-53.63858 Y32.98983
G01 X-53.77663 Y32.83570
G01 X-53.96921 Y32.69577
G01 X-54.15846 Y32.61210
G01 X-54.38155 Y32.56636
G01 X-54.58849 Y32.56692
G01 X-54.80111 Y32.61210
G01 X-54.99969 Y32.70052
G01 X-55.17556 Y32.82828
G01 X-55.32100 Y32.98983
G01 X-55.42968 Y33.17809
G01 X-55.49687 Y33.38482
G01 X-55.51904 Y33.59056
G01 X-55.49415 Y33.82731
G01 X-55.42968 Y34.02394
G01 X-55.32671 Y34.20341
G01 X-55.17556 Y34.37374
G01 X-55.00848 Y34.49582
G01 X-54.96077 Y34.51944
G01 X-54.96077 Y36.49259
G01 X-55.00848 Y36.51621
G01 X-55.17556 Y36.63828
G01 X-55.32671 Y36.80861
G01 X-55.42968 Y36.98809
G01 X-55.49415 Y37.18471
G01 X-55.51960 Y37.41100
G01 X-55.49415 Y37.63731
G01 X-55.42968 Y37.83394
G01 X-55.32671 Y38.01341
G01 X-55.17556 Y38.18374
G01 X-55.00848 Y38.30582
G01 X-54.96077 Y38.32944
G01 X-54.96080 Y39.47000
G01 X-59.07877 Y39.47000
G01 X-59.07877 Y38.32941
G01 X-59.03110 Y38.30582
G01 X-58.86402 Y38.18374
G01 X-58.71286 Y38.01341
G01 X-58.60989 Y37.83394
G01 X-58.54543 Y37.63731
G01 X-58.51997 Y37.41100
G01 X-58.54543 Y37.18471
G01 X-58.60989 Y36.98809
G01 X-58.71286 Y36.80861
G01 X-58.86402 Y36.63828
G01 X-59.03110 Y36.51621
G01 X-59.07877 Y36.49261
G01 X-59.07877 Y34.51941
G01 X-59.03110 Y34.49582
G01 X-58.86402 Y34.37374
G01 X-58.71286 Y34.20341
G01 X-58.60989 Y34.02394
G01 X-58.54543 Y33.82731
G01 X-58.52053 Y33.59056
G01 X-58.54271 Y33.38482
G01 X-58.60989 Y33.17809
G01 X-58.71858 Y32.98983
G01 X-58.85663 Y32.83570
G01 X-59.04921 Y32.69577
G01 X-59.23846 Y32.61210
G01 X-59.46155 Y32.56636
G01 X-59.66849 Y32.56692
G01 X-59.88111 Y32.61210
G01 X-60.07969 Y32.70052
G01 X-60.25556 Y32.82828
G01 X-60.40100 Y32.98983
G01 X-60.50968 Y33.17809
G01 X-60.57687 Y33.38482
G01 X-60.59904 Y33.59056
G01 X-60.57415 Y33.82731
G01 X-60.50968 Y34.02394
G01 X-60.40671 Y34.20341
G01 X-60.25556 Y34.37374
G01 X-60.08848 Y34.49582
G01 X-60.04080 Y34.51941
G01 X-60.04080 Y36.49261
G01 X-60.08848 Y36.51621
G01 X-60.25556 Y36.63828
G01 X-60.40671 Y36.80861
G01 X-60.50968 Y36.98809
G01 X-60.57415 Y37.18471
G01 X-60.59960 Y37.41100
G01 X-60.57415 Y37.63731
G01 X-60.50968 Y37.83394
G01 X-60.40671 Y38.01341
G01 X-60.25556 Y38.18374
G01 X-60.08848 Y38.30582
G01 X-60.04080 Y38.32941
G01 X-60.04080 Y39.47000
G01 X-66.69877 Y39.47000
G01 X-66.69880 Y38.32944
G01 X-66.65110 Y38.30582
G01 X-66.48402 Y38.18374
G01 X-66.33286 Y38.01341
G01 X-66.22989 Y37.83394
G01 X-66.16543 Y37.63731
G01 X-66.13997 Y37.41100
G01 X-66.16543 Y37.18471
G01 X-66.22989 Y36.98809
G01 X-66.33286 Y36.80861
G01 X-66.48402 Y36.63828
G01 X-66.65110 Y36.51621
G01 X-66.69880 Y36.49259
G01 X-66.69880 Y34.51944
G01 X-66.65110 Y34.49582
G01 X-66.48402 Y34.37374
G01 X-66.33286 Y34.20341
G01 X-66.22989 Y34.02394
G01 X-66.16543 Y33.82731
G01 X-66.14053 Y33.59056
G01 X-66.16271 Y33.38482
G01 X-66.22989 Y33.17809
G01 X-66.33858 Y32.98983
G01 X-66.47663 Y32.83570
G01 X-66.66921 Y32.69577
G01 X-66.85846 Y32.61210
G01 X-67.08155 Y32.56636
G01 X-67.28849 Y32.56692
G01 X-67.50111 Y32.61210
G01 X-67.69969 Y32.70052
G01 X-67.87556 Y32.82828
G01 X-68.02100 Y32.98983
G01 X-68.12968 Y33.17809
G01 X-68.19687 Y33.38482
G01 X-68.21904 Y33.59056
G01 X-68.19415 Y33.82731
G01 X-68.12968 Y34.02394
G01 X-68.02671 Y34.20341
G01 X-67.87556 Y34.37374
G01 X-67.70848 Y34.49582
G01 X-67.66080 Y34.51941
G01 X-67.66080 Y36.49261
G01 X-67.70848 Y36.51621
G01 X-67.87556 Y36.63828
G01 X-68.02671 Y36.80861
G01 X-68.12968 Y36.98809
G01 X-68.19415 Y37.18471
G01 X-68.21960 Y37.41100
G01 X-68.19415 Y37.63731
G01 X-68.12968 Y37.83394
G01 X-68.02671 Y38.01341
G01 X-67.87556 Y38.18374
G01 X-67.70848 Y38.30582
G01 X-67.66080 Y38.32941
G01 X-67.66080 Y39.47000
G01 X-71.77880 Y39.47000
G01 X-71.77880 Y38.32944
G01 X-71.73110 Y38.30582
G01 X-71.56402 Y38.18374
G01 X-71.41286 Y38.01341
G01 X-71.30989 Y37.83394
G01 X-71.24543 Y37.63731
G01 X-71.21997 Y37.41100
G01 X-71.24543 Y37.18471
G01 X-71.30989 Y36.98809
G01 X-71.41286 Y36.80861
G01 X-71.56402 Y36.63828
G01 X-71.73110 Y36.51621
G01 X-71.77880 Y36.49259
G01 X-71.77880 Y34.51944
G01 X-71.73110 Y34.49582
G01 X-71.56402 Y34.37374
G01 X-71.41286 Y34.20341
G01 X-71.30989 Y34.02394
G01 X-71.24543 Y33.82731
G01 X-71.22053 Y33.59056
G01 X-71.24271 Y33.38482
G01 X-71.30989 Y33.17809
G01 X-71.41858 Y32.98983
G01 X-71.55663 Y32.83570
G01 X-71.74921 Y32.69577
G01 X-71.93846 Y32.61210
G01 X-72.15109 Y32.56692
G01 X-72.36849 Y32.56692
G01 X-72.58111 Y32.61210
G01 X-72.77969 Y32.70052
G01 X-72.95556 Y32.82828
G01 X-73.10100 Y32.98983
G01 X-73.20968 Y33.17809
G01 X-73.27687 Y33.38482
G01 X-73.29904 Y33.59056
G01 X-73.27415 Y33.82731
G01 X-73.20968 Y34.02394
G01 X-73.10671 Y34.20341
G01 X-72.95556 Y34.37374
G01 X-72.78848 Y34.49582
G01 X-72.74080 Y34.51941
G01 X-72.74080 Y36.49261
G01 X-72.78848 Y36.51621
G01 X-72.95556 Y36.63828
G01 X-73.10671 Y36.80861
G01 X-73.20968 Y36.98809
G01 X-73.27415 Y37.18471
G01 X-73.29960 Y37.41100
G01 X-73.27415 Y37.63731
G01 X-73.20968 Y37.83394
G01 X-73.10671 Y38.01341
G01 X-72.95556 Y38.18374
G01 X-72.78848 Y38.30582
G01 X-72.74080 Y38.32941
G01 X-72.74080 Y39.47000
G01 X-76.85877 Y39.47000
G01 X-76.85880 Y38.32944
G01 X-76.81110 Y38.30582
G01 X-76.64402 Y38.18374
G01 X-76.49286 Y38.01341
G01 X-76.38989 Y37.83394
G01 X-76.32543 Y37.63731
G01 X-76.29997 Y37.41100
G01 X-76.32543 Y37.18471
G01 X-76.38989 Y36.98809
G01 X-76.49286 Y36.80861
G01 X-76.64402 Y36.63828
G01 X-76.81110 Y36.51621
G01 X-76.85880 Y36.49259
G01 X-76.85880 Y34.51944
G01 X-76.81110 Y34.49582
G01 X-76.64402 Y34.37374
G01 X-76.49286 Y34.20341
G01 X-76.38989 Y34.02394
G01 X-76.32543 Y33.82731
G01 X-76.30053 Y33.59056
G01 X-76.32271 Y33.38482
G01 X-76.38989 Y33.17809
G01 X-76.49858 Y32.98983
G01 X-76.63663 Y32.83570
G01 X-76.82921 Y32.69577
G01 X-77.01846 Y32.61210
G01 X-77.23109 Y32.56692
G01 X-77.44849 Y32.56692
G01 X-77.66111 Y32.61210
G01 X-77.85969 Y32.70052
G01 X-78.03556 Y32.82828
G01 X-78.18100 Y32.98983
G01 X-78.28968 Y33.17809
G01 X-78.35687 Y33.38482
G01 X-78.37904 Y33.59056
G01 X-78.35415 Y33.82731
G01 X-78.28968 Y34.02394
G01 X-78.18671 Y34.20341
G01 X-78.03556 Y34.37374
G01 X-77.86848 Y34.49582
G01 X-77.82080 Y34.51941
G01 X-77.82080 Y36.49261
G01 X-77.86848 Y36.51621
G01 X-78.03556 Y36.63828
G01 X-78.18671 Y36.80861
G01 X-78.28968 Y36.98809
G01 X-78.35415 Y37.18471
G01 X-78.37960 Y37.41100
G01 X-78.35415 Y37.63731
G01 X-78.28968 Y37.83394
G01 X-78.18671 Y38.01341
G01 X-78.03556 Y38.18374
G01 X-77.86848 Y38.30582
G01 X-77.82080 Y38.32941
G01 X-77.82080 Y39.47000
G01 X-81.93877 Y39.47000
G01 X-81.93880 Y38.32944
G01 X-81.89110 Y38.30582
G01 X-81.72402 Y38.18374
G01 X-81.57286 Y38.01341
G01 X-81.46989 Y37.83394
G01 X-81.40543 Y37.63731
G01 X-81.37997 Y37.41100
G01 X-81.40543 Y37.18471
G01 X-81.46989 Y36.98809
G01 X-81.57286 Y36.80861
G01 X-81.72402 Y36.63828
G01 X-81.89110 Y36.51621
G01 X-81.93880 Y36.49259
G01 X-81.93880 Y34.51944
G01 X-81.89110 Y34.49582
G01 X-81.72402 Y34.37374
G01 X-81.57286 Y34.20341
G01 X-81.46989 Y34.02394
G01 X-81.40543 Y33.82731
G01 X-81.38053 Y33.59056
G01 X-81.40271 Y33.38482
G01 X-81.46989 Y33.17809
G01 X-81.57858 Y32.98983
G01 X-81.71663 Y32.83570
G01 X-81.90921 Y32.69577
G01 X-82.09846 Y32.61210
G01 X-82.31109 Y32.56692
G01 X-82.52849 Y32.56692
G01 X-82.74111 Y32.61210
G01 X-82.93969 Y32.70052
G01 X-83.11556 Y32.82828
G01 X-83.26100 Y32.98983
G01 X-83.36968 Y33.17809
G01 X-83.43687 Y33.38482
G01 X-83.45904 Y33.59056
G01 X-83.43415 Y33.82731
G01 X-83.36968 Y34.02394
G01 X-83.26671 Y34.20341
G01 X-83.11556 Y34.37374
G01 X-82.94848 Y34.49582
G01 X-82.90077 Y34.51944
G01 X-82.90077 Y36.49259
G01 X-82.94848 Y36.51621
G01 X-83.11556 Y36.63828
G01 X-83.26671 Y36.80861
G01 X-83.36968 Y36.98809
G01 X-83.43415 Y37.18471
G01 X-83.45960 Y37.41100
G01 X-83.43415 Y37.63731
G01 X-83.36968 Y37.83394
G01 X-83.26671 Y38.01341
G01 X-83.11556 Y38.18374
G01 X-82.94848 Y38.30582
G01 X-82.90077 Y38.32944
G01 X-82.90077 Y39.47000
G01 X-87.01877 Y39.47000
G01 X-87.01877 Y38.32941
G01 X-86.97110 Y38.30582
G01 X-86.80402 Y38.18374
G01 X-86.65286 Y38.01341
G01 X-86.54989 Y37.83394
G01 X-86.48543 Y37.63731
G01 X-86.45997 Y37.41100
G01 X-86.48543 Y37.18471
G01 X-86.54989 Y36.98809
G01 X-86.65286 Y36.80861
G01 X-86.80402 Y36.63828
G01 X-86.97110 Y36.51621
G01 X-87.01877 Y36.49261
G01 X-87.01877 Y34.51941
G01 X-86.97110 Y34.49582
G01 X-86.80402 Y34.37374
G01 X-86.65286 Y34.20341
G01 X-86.54989 Y34.02394
G01 X-86.48543 Y33.82731
G01 X-86.46053 Y33.59056
G01 X-86.48271 Y33.38482
G01 X-86.54989 Y33.17809
G01 X-86.65858 Y32.98983
G01 X-86.79663 Y32.83570
G01 X-86.98921 Y32.69577
G01 X-87.17846 Y32.61210
G01 X-87.39109 Y32.56692
G01 X-87.60849 Y32.56692
G01 X-87.82111 Y32.61210
G01 X-88.01969 Y32.70052
G01 X-88.19556 Y32.82828
G01 X-88.34100 Y32.98983
G01 X-88.44968 Y33.17809
G01 X-88.51687 Y33.38482
G01 X-88.53904 Y33.59056
G01 X-88.51415 Y33.82731
G01 X-88.44968 Y34.02394
G01 X-88.34671 Y34.20341
G01 X-88.19556 Y34.37374
G01 X-88.02848 Y34.49582
G01 X-87.98080 Y34.51941
G01 X-87.98080 Y36.49261
G01 X-88.02848 Y36.51621
G01 X-88.19556 Y36.63828
G01 X-88.34671 Y36.80861
G01 X-88.44968 Y36.98809
G01 X-88.51415 Y37.18471
G01 X-88.53960 Y37.41100
G01 X-88.51415 Y37.63731
G01 X-88.44968 Y37.83394
G01 X-88.34671 Y38.01341
G01 X-88.19556 Y38.18374
G01 X-88.02848 Y38.30582
G01 X-87.98080 Y38.32941
G01 X-87.98080 Y39.47000
G01 X-92.09877 Y39.47000
G01 X-92.09880 Y38.32944
G01 X-92.05110 Y38.30582
G01 X-91.88402 Y38.18374
G01 X-91.73286 Y38.01341
G01 X-91.62989 Y37.83394
G01 X-91.56543 Y37.63731
G01 X-91.53997 Y37.41100
G01 X-91.56543 Y37.18471
G01 X-91.62989 Y36.98809
G01 X-91.73286 Y36.80861
G01 X-91.88402 Y36.63828
G01 X-92.05110 Y36.51621
G01 X-92.09880 Y36.49259
G01 X-92.09880 Y34.51944
G01 X-92.05110 Y34.49582
G01 X-91.88402 Y34.37374
G01 X-91.73286 Y34.20341
G01 X-91.62989 Y34.02394
G01 X-91.56543 Y33.82731
G01 X-91.54053 Y33.59056
G01 X-91.56271 Y33.38482
G01 X-91.62989 Y33.17809
G01 X-91.73858 Y32.98983
G01 X-91.87663 Y32.83570
G01 X-92.06921 Y32.69577
G01 X-92.25846 Y32.61210
G01 X-92.47109 Y32.56692
G01 X-92.68849 Y32.56692
G01 X-92.90111 Y32.61210
G01 X-93.09969 Y32.70052
G01 X-93.27556 Y32.82828
G01 X-93.42100 Y32.98983
G01 X-93.52968 Y33.17809
G01 X-93.59687 Y33.38482
G01 X-93.61904 Y33.59056
G01 X-93.59415 Y33.82731
G01 X-93.52968 Y34.02394
G01 X-93.42671 Y34.20341
G01 X-93.27556 Y34.37374
G01 X-93.10848 Y34.49582
G01 X-93.06080 Y34.51941
G01 X-93.06080 Y36.49261
G01 X-93.10848 Y36.51621
G01 X-93.27556 Y36.63828
G01 X-93.42671 Y36.80861
G01 X-93.52968 Y36.98809
G01 X-93.59415 Y37.18471
G01 X-93.61960 Y37.41100
G01 X-93.59415 Y37.63731
G01 X-93.52968 Y37.83394
G01 X-93.42671 Y38.01341
G01 X-93.27556 Y38.18374
G01 X-93.10848 Y38.30582
G01 X-93.06080 Y38.32941
G01 X-93.06080 Y39.47000
G01 X-97.17880 Y39.47000
G01 X-97.17880 Y38.32944
G01 X-97.13110 Y38.30582
G01 X-96.96402 Y38.18374
G01 X-96.81286 Y38.01341
G01 X-96.70989 Y37.83394
G01 X-96.64543 Y37.63731
G01 X-96.61997 Y37.41100
G01 X-96.64543 Y37.18471
G01 X-96.70989 Y36.98809
G01 X-96.81286 Y36.80861
G01 X-96.96402 Y36.63828
G01 X-97.13110 Y36.51621
G01 X-97.17880 Y36.49259
G01 X-97.17880 Y34.51944
G01 X-97.13110 Y34.49582
G01 X-96.96402 Y34.37374
G01 X-96.81286 Y34.20341
G01 X-96.70989 Y34.02394
G01 X-96.64543 Y33.82731
G01 X-96.61997 Y33.60100
G01 X-96.64271 Y33.38482
G01 X-96.70613 Y33.18787
G01 X-96.82516 Y32.98170
G01 X-96.96402 Y32.82828
G01 X-97.13989 Y32.70052
G01 X-97.33846 Y32.61210
G01 X-97.54075 Y32.56854
G01 X-97.76849 Y32.56692
G01 X-97.98111 Y32.61210
G01 X-98.17969 Y32.70052
G01 X-98.35556 Y32.82828
G01 X-98.50100 Y32.98983
G01 X-98.60968 Y33.17809
G01 X-98.67687 Y33.38482
G01 X-98.69904 Y33.59056
G01 X-98.67415 Y33.82731
G01 X-98.60968 Y34.02394
G01 X-98.50671 Y34.20341
G01 X-98.35556 Y34.37374
G01 X-98.18848 Y34.49582
G01 X-98.14080 Y34.51941
G01 X-98.14080 Y36.49261
G01 X-98.18848 Y36.51621
G01 X-98.35556 Y36.63828
G01 X-98.50671 Y36.80861
G01 X-98.60968 Y36.98809
G01 X-98.67415 Y37.18471
G01 X-98.69960 Y37.41100
G01 X-98.67415 Y37.63731
G01 X-98.60968 Y37.83394
G01 X-98.50671 Y38.01341
G01 X-98.35556 Y38.18374
G01 X-98.18848 Y38.30582
G01 X-98.14080 Y38.32941
G01 X-98.14080 Y39.47000
G01 X-101.32962 Y39.47000
G01 X-102.25877 Y38.54084
G01 X-102.25880 Y38.32944
G01 X-102.21110 Y38.30582
G01 X-102.03663 Y38.17633
G01 X-101.89858 Y38.02220
G01 X-101.78989 Y37.83394
G01 X-101.72271 Y37.62720
G01 X-101.69997 Y37.41100
G01 X-101.72543 Y37.18471
G01 X-101.78989 Y36.98809
G01 X-101.89286 Y36.80861
G01 X-102.04402 Y36.63828
G01 X-102.21110 Y36.51621
G01 X-102.25880 Y36.49259
G01 X-102.25880 Y34.51944
G01 X-102.21110 Y34.49582
G01 X-102.04402 Y34.37374
G01 X-101.89286 Y34.20341
G01 X-101.78989 Y34.02394
G01 X-101.72543 Y33.82731
G01 X-101.69997 Y33.60100
G01 X-101.72271 Y33.38482
G01 X-101.78613 Y33.18787
G01 X-101.89858 Y32.98983
G01 X-102.04402 Y32.82828
G01 X-102.21110 Y32.70621
G01 X-102.41846 Y32.61210
G01 X-102.63109 Y32.56692
G01 X-102.84849 Y32.56692
G01 X-103.06111 Y32.61210
G01 X-103.25969 Y32.70052
G01 X-103.43556 Y32.82828
G01 X-103.58100 Y32.98983
G01 X-103.68968 Y33.17809
G01 X-103.75415 Y33.37471
G01 X-103.77904 Y33.61146
G01 X-103.75687 Y33.81720
G01 X-103.68968 Y34.02394
G01 X-103.58100 Y34.21220
G01 X-103.44295 Y34.36633
G01 X-103.26848 Y34.49582
G01 X-103.22080 Y34.51941
G01 X-103.22080 Y36.49261
G01 X-103.26848 Y36.51621
G01 X-103.43556 Y36.63828
G01 X-103.58671 Y36.80861
G01 X-103.68968 Y36.98809
G01 X-103.75415 Y37.18471
G01 X-103.77960 Y37.41100
G01 X-103.75415 Y37.63731
G01 X-103.68968 Y37.83394
G01 X-103.58671 Y38.01341
G01 X-103.43556 Y38.18374
G01 X-103.26848 Y38.30582
G01 X-103.22080 Y38.32941
G01 X-103.22080 Y38.74011
G01 X-103.21580 Y38.80754
G01 X-103.19939 Y38.88118
G01 X-103.17165 Y38.95133
G01 X-103.12405 Y39.02898
G01 X-103.07991 Y39.08021
G01 X-101.86170 Y40.29774
G01 X-101.78766 Y40.35600
G01 X-101.70368 Y40.39870
G01 X-101.61298 Y40.42420
G01 X-101.52885 Y40.43203
G01 X-10.02980 Y40.43203
G01 X-9.92642 Y40.42039
G01 X-9.83681 Y40.39121
G01 X-9.75464 Y40.34511
G01 X-9.68967 Y40.29113
G01 X-5.87967 Y36.48113
G01 X-5.82569 Y36.41613
G01 X-5.77210 Y36.31585
G01 X-5.74660 Y36.22515
G01 X-5.73877 Y36.14100
G01 X-5.73877 Y34.51944
G01 X-5.69110 Y34.49582
G01 X-5.51663 Y34.36633
G01 X-5.37853 Y34.21212
G01 X-5.30301 Y34.08203
G01 X-2.05656 Y34.08203
G01 X-1.98105 Y34.21212
G01 X-1.84295 Y34.36633
G01 X-1.65969 Y34.50151
G01 X-1.45100 Y34.59264
G01 X-1.24849 Y34.63511
G01 X-1.03109 Y34.63511
G01 X-0.81846 Y34.58992
G01 X-0.61989 Y34.50151
G01 X-0.44402 Y34.37374
G01 X-0.30516 Y34.22033
G01 X-0.18613 Y34.01416
G01 X-0.12271 Y33.81720
G01 X-0.09997 Y33.60100
G04 P0 ( dwell for no time -- G64 should not smooth over this point )
G00 Z5.00000 ( retract )

G00 X-0.09997 Y25.98100 ( rapid move to begin. )
G01 F300.00000
( Mill infeed pass 1/1 )
G01 Z-0.05000
G04 P0 ( dwell for no time -- G64 should not smooth over this point )
G01 F600.00000
G01 X-0.09997 Y25.98100
G01 X-0.12271 Y25.76482
G01 X-0.18989 Y25.55809
G01 X-0.29858 Y25.36983
G01 X-0.44402 Y25.20831
G01 X-0.61989 Y25.08052
G01 X-0.82857 Y24.98938
G01 X-1.04155 Y24.94638
G01 X-1.24849 Y24.94692
G01 X-1.45100 Y24.98938
G01 X-26.19967 Y0.24089
G01 X-26.27257 Y0.18108
G01 X-26.36495 Y0.13332
G01 X-26.44595 Y0.10925
G01 X-26.53980 Y0.10000
G01 X-61.97095 Y0.10048
G01 X-62.05499 Y0.10925
G01 X-62.15411 Y0.14082
G01 X-62.22837 Y0.18108
G01 X-62.29401 Y0.23432
G01 X-63.71648 Y1.65679
G01 X-63.76972 Y1.72243
G01 X-63.80998 Y1.79669
G01 X-63.84155 Y1.89581
G01 X-63.85080 Y1.98963
G01 X-63.85080 Y2.36344
G01 X-63.97201 Y2.45219
G01 X-64.09131 Y2.58387
G01 X-64.19573 Y2.76471
G01 X-64.25011 Y2.93390
G01 X-64.26924 Y3.11056
G01 X-64.25011 Y3.30812
G01 X-64.18722 Y3.49641
G01 X-64.09789 Y3.65003
G01 X-63.97201 Y3.78983
G01 X-63.81979 Y3.90042
G01 X-63.65768 Y3.97322
G01 X-63.46386 Y4.01607
G01 X-63.27572 Y4.01607
G01 X-63.10178 Y3.97967
G01 X-62.91100 Y3.89473
G01 X-62.76757 Y3.78983
G01 X-62.64826 Y3.65816
G01 X-62.55235 Y3.49641
G01 X-62.48946 Y3.30812
G01 X-62.46978 Y3.12100
G01 X-62.48946 Y2.93390
G01 X-62.54760 Y2.75496
G01 X-62.64826 Y2.58387
G01 X-62.76757 Y2.45219
G01 X-62.88880 Y2.36344
G01 X-62.88880 Y2.18890
G01 X-61.76193 Y1.06203
G01 X-26.73901 Y1.06203
G01 X-2.12771 Y25.67333
G01 X-2.15687 Y25.76482
G01 X-2.17960 Y25.98100
G01 X-2.15415 Y26.20731
G01 X-2.08968 Y26.40394
G01 X-1.98671 Y26.58341
G01 X-1.83556 Y26.75374
G01 X-1.65037 Y26.88626
G01 X-1.46111 Y26.96992
G01 X-1.24849 Y27.01511
G01 X-1.02075 Y27.01348
G01 X-0.81846 Y26.96992
G01 X-0.62921 Y26.88626
G01 X-0.44402 Y26.75374
G01 X-0.29286 Y26.58341
G01 X-0.18989 Y26.40394
G01 X-0.12543 Y26.20731
G01 X-0.09997 Y25.98100
G04 P0 ( dwell for no time -- G64 should not smooth over this point )
G00 Z5.00000 ( retract )

G00 X-5.17997 Y25.98100 ( rapid move to begin. )
G01 F300.00000
( Mill infeed pass 1/1 )
G01 Z-0.05000
G04 P0 ( dwell for no time -- G64 should not smooth over this point )
G01 F600.00000
G01 X-5.17997 Y25.98100
G01 X-5.20543 Y25.75471
G01 X-5.26989 Y25.55809
G01 X-5.37286 Y25.37861
G01 X-5.52402 Y25.20831
G01 X-5.69110 Y25.08621
G01 X-5.73877 Y25.06261
G01 X-5.73877 Y24.71105
G01 X-5.74799 Y24.61717
G01 X-5.77210 Y24.53617
G01 X-5.81480 Y24.45220
G01 X-5.87967 Y24.37089
G01 X-26.90978 Y3.34079
G01 X-26.90978 Y2.32100
G01 X-26.91740 Y2.28275
G01 X-26.93909 Y2.25031
G01 X-26.97152 Y2.22862
G01 X-27.00978 Y2.22100
G01 X-28.60980 Y2.22100
G01 X-28.64805 Y2.22862
G01 X-28.68049 Y2.25031
G01 X-28.70218 Y2.28275
G01 X-28.70980 Y2.32100
G01 X-28.70980 Y3.92102
G01 X-28.70218 Y3.95928
G01 X-28.68049 Y3.99171
G01 X-28.64805 Y4.01340
G01 X-28.60980 Y4.02102
G01 X-27.59001 Y4.02102
G01 X-6.70080 Y24.91024
G01 X-6.70077 Y25.06259
G01 X-6.74848 Y25.08621
G01 X-6.91553 Y25.20831
G01 X-7.06100 Y25.36983
G01 X-7.16968 Y25.55809
G01 X-7.23847 Y25.77516
G01 X-7.25904 Y25.99146
G01 X-7.23687 Y26.19720
G01 X-7.17344 Y26.39416
G01 X-7.06100 Y26.59220
G01 X-6.92295 Y26.74633
G01 X-6.73969 Y26.88151
G01 X-6.53100 Y26.97264
G01 X-6.32849 Y27.01511
G01 X-6.12155 Y27.01567
G01 X-5.88871 Y26.96616
G01 X-5.69989 Y26.88151
G01 X-5.53217 Y26.76032
G01 X-5.37855 Y26.59220
G01 X-5.26989 Y26.40394
G01 X-5.20543 Y26.20731
G01 X-5.17997 Y25.98100
G04 P0 ( dwell for no time -- G64 should not smooth over this point )
G00 Z5.00000 ( retract )

G00 X-10.25997 Y25.98100 ( rapid move to begin. )
G01 F300.00000
( Mill infeed pass 1/1 )
G01 Z-0.05000
G04 P0 ( dwell for no time -- G64 should not smooth over this point )
G01 F600.00000
G01 X-10.25997 Y25.98100
G01 X-10.28271 Y25.76482
G01 X-10.34613 Y25.56789
G01 X-10.46516 Y25.36170
G01 X-10.60402 Y25.20831
G01 X-10.77989 Y25.08052
G01 X-10.97846 Y24.99210
G01 X-11.18075 Y24.94854
G01 X-11.41882 Y24.94854
G01 X-11.62111 Y24.99210
G01 X-11.81969 Y25.08052
G01 X-12.00295 Y25.21570
G01 X-12.14105 Y25.36990
G01 X-12.21656 Y25.50000
G01 X-12.92301 Y25.50000
G01 X-12.99853 Y25.36990
G01 X-13.13663 Y25.21570
G01 X-13.31110 Y25.08621
G01 X-13.35880 Y25.06259
G01 X-13.35926 Y23.43125
G01 X-13.37041 Y23.33767
G01 X-13.39959 Y23.24809
G01 X-13.44569 Y23.16592
G01 X-13.49309 Y23.10821
G01 X-26.19967 Y10.40089
G01 X-26.26360 Y10.34750
G01 X-26.32855 Y10.30915
G01 X-26.38379 Y10.28626
G01 X-26.45684 Y10.26747
G01 X-26.53980 Y10.26000
G01 X-36.86762 Y10.26000
G01 X-36.97097 Y10.27163
G01 X-37.06056 Y10.30082
G01 X-37.12642 Y10.33602
G01 X-37.20772 Y10.40089
G01 X-40.84991 Y14.04308
G01 X-40.90972 Y14.11597
G01 X-40.95747 Y14.20835
G01 X-40.98155 Y14.28935
G01 X-40.99080 Y14.38321
G01 X-40.99077 Y15.06344
G01 X-41.11201 Y15.15219
G01 X-41.23131 Y15.28387
G01 X-41.32722 Y15.44561
G01 X-41.39011 Y15.63390
G01 X-41.40980 Y15.82100
G01 X-41.39011 Y16.00812
G01 X-41.32722 Y16.19641
G01 X-41.23131 Y16.35816
G01 X-41.11201 Y16.48983
G01 X-40.99077 Y16.57858
G01 X-40.99077 Y17.60345
G01 X-41.11201 Y17.69219
G01 X-41.23131 Y17.82387
G01 X-41.33197 Y17.99496
G01 X-41.39176 Y18.18424
G01 X-41.40980 Y18.36100
G01 X-41.39176 Y18.53778
G01 X-41.32722 Y18.73641
G01 X-41.23789 Y18.89003
G01 X-41.10388 Y19.03644
G01 X-40.95979 Y19.14042
G01 X-40.78790 Y19.21695
G01 X-40.60386 Y19.25607
G01 X-40.41572 Y19.25607
G01 X-40.23167 Y19.21695
G01 X-40.06911 Y19.14520
G01 X-39.90017 Y19.02244
G01 X-39.78168 Y18.89003
G01 X-39.68760 Y18.72706
G01 X-39.62946 Y18.54812
G01 X-39.61034 Y18.37146
G01 X-39.62946 Y18.17390
G01 X-39.69235 Y17.98561
G01 X-39.78826 Y17.82387
G01 X-39.90757 Y17.69219
G01 X-40.02880 Y17.60345
G01 X-40.02880 Y16.57858
G01 X-39.90757 Y16.48983
G01 X-39.78826 Y16.35816
G01 X-39.69235 Y16.19641
G01 X-39.62946 Y16.00812
G01 X-39.60978 Y15.82100
G01 X-39.62946 Y15.63390
G01 X-39.69235 Y15.44561
G01 X-39.78826 Y15.28387
G01 X-39.90757 Y15.15219
G01 X-40.02880 Y15.06344
G01 X-40.02877 Y14.58242
G01 X-36.66838 Y11.22203
G01 X-26.73901 Y11.22200
G01 X-14.32080 Y23.64026
G01 X-14.32080 Y25.06261
G01 X-14.36848 Y25.08621
G01 X-14.53556 Y25.20831
G01 X-14.68671 Y25.37861
G01 X-14.78968 Y25.55809
G01 X-14.85415 Y25.75471
G01 X-14.87904 Y25.97059
G01 X-14.85687 Y26.19720
G01 X-14.78968 Y26.40394
G01 X-14.68100 Y26.59220
G01 X-14.53556 Y26.75374
G01 X-14.35969 Y26.88151
G01 X-14.16111 Y26.96992
G01 X-13.94849 Y27.01511
G01 X-13.73109 Y27.01511
G01 X-13.51846 Y26.96992
G01 X-13.31110 Y26.87582
G01 X-13.13663 Y26.74633
G01 X-12.99853 Y26.59212
G01 X-12.92301 Y26.46203
G01 X-12.21656 Y26.46203
G01 X-12.14105 Y26.59212
G01 X-12.00295 Y26.74633
G01 X-11.81969 Y26.88151
G01 X-11.62111 Y26.96992
G01 X-11.41882 Y27.01348
G01 X-11.18075 Y27.01348
G01 X-10.97846 Y26.96992
G01 X-10.77989 Y26.88151
G01 X-10.60402 Y26.75374
G01 X-10.46516 Y26.60033
G01 X-10.34613 Y26.39416
G01 X-10.28271 Y26.19720
G01 X-10.25997 Y25.98100
G04 P0 ( dwell for no time -- G64 should not smooth over this point )
G00 Z5.00000 ( retract )

G00 X-15.33997 Y25.98100 ( rapid move to begin. )
G01 F300.00000
( Mill infeed pass 1/1 )
G01 Z-0.05000
G04 P0 ( dwell for no time -- G64 should not smooth over this point )
G01 F600.00000
G01 X-15.33997 Y25.98100
G01 X-15.36271 Y25.76482
G01 X-15.42613 Y25.56789
G01 X-15.54516 Y25.36170
G01 X-15.68402 Y25.20831
G01 X-15.85989 Y25.08052
G01 X-16.05846 Y24.99210
G01 X-16.26075 Y24.94854
G01 X-16.49882 Y24.94854
G01 X-16.70111 Y24.99210
G01 X-16.89969 Y25.08052
G01 X-17.08295 Y25.21570
G01 X-17.22105 Y25.36990
G01 X-17.29656 Y25.50000
G01 X-18.00301 Y25.50000
G01 X-18.07853 Y25.36990
G01 X-18.21663 Y25.21570
G01 X-18.39110 Y25.08621
G01 X-18.43877 Y25.06261
G01 X-18.43926 Y23.43135
G01 X-18.44642 Y23.35779
G01 X-18.47139 Y23.26800
G01 X-18.51325 Y23.18466
G01 X-18.57037 Y23.11100
G01 X-28.56901 Y12.94374
G01 X-28.63319 Y12.88931
G01 X-28.69862 Y12.85019
G01 X-28.76941 Y12.82187
G01 X-28.82814 Y12.80762
G01 X-28.91196 Y12.80000
G01 X-36.77105 Y12.80000
G01 X-36.86487 Y12.80925
G01 X-36.94588 Y12.83332
G01 X-37.02985 Y12.87602
G01 X-37.11115 Y12.94089
G01 X-38.30991 Y14.13965
G01 X-38.36972 Y14.21254
G01 X-38.40998 Y14.28681
G01 X-38.44155 Y14.38593
G01 X-38.45032 Y14.46997
G01 X-38.45077 Y15.06344
G01 X-38.57201 Y15.15219
G01 X-38.69131 Y15.28387
G01 X-38.78722 Y15.44561
G01 X-38.85011 Y15.63390
G01 X-38.86980 Y15.82100
G01 X-38.85011 Y16.00812
G01 X-38.78722 Y16.19641
G01 X-38.69131 Y16.35816
G01 X-38.57201 Y16.48983
G01 X-38.45077 Y16.57861
G01 X-38.45077 Y17.60342
G01 X-38.57201 Y17.69219
G01 X-38.69131 Y17.82387
G01 X-38.79197 Y17.99496
G01 X-38.85176 Y18.18424
G01 X-38.86980 Y18.36100
G01 X-38.85176 Y18.53778
G01 X-38.78722 Y18.73641
G01 X-38.69789 Y18.89003
G01 X-38.56388 Y19.03644
G01 X-38.41979 Y19.14042
G01 X-38.24790 Y19.21695
G01 X-38.06386 Y19.25607
G01 X-37.87572 Y19.25607
G01 X-37.69167 Y19.21695
G01 X-37.52911 Y19.14520
G01 X-37.36017 Y19.02244
G01 X-37.24168 Y18.89003
G01 X-37.14760 Y18.72706
G01 X-37.08946 Y18.54812
G01 X-37.07034 Y18.37146
G01 X-37.08946 Y18.17390
G01 X-37.15235 Y17.98561
G01 X-37.24826 Y17.82387
G01 X-37.36757 Y17.69219
G01 X-37.48880 Y17.60345
G01 X-37.48880 Y16.57858
G01 X-37.36757 Y16.48983
G01 X-37.24826 Y16.35816
G01 X-37.15235 Y16.19641
G01 X-37.08946 Y16.00812
G01 X-37.06978 Y15.82100
G01 X-37.08946 Y15.63390
G01 X-37.15235 Y15.44561
G01 X-37.24826 Y15.28387
G01 X-37.36757 Y15.15219
G01 X-37.48880 Y15.06344
G01 X-37.48880 Y14.67899
G01 X-36.57181 Y13.76203
G01 X-29.11353 Y13.76203
G01 X-19.40080 Y23.63793
G01 X-19.40080 Y25.06261
G01 X-19.44848 Y25.08621
G01 X-19.61556 Y25.20831
G01 X-19.76671 Y25.37861
G01 X-19.86968 Y25.55809
G01 X-19.93415 Y25.75471
G01 X-19.95904 Y25.97059
G01 X-19.93687 Y26.19720
G01 X-19.86968 Y26.40394
G01 X-19.76100 Y26.59220
G01 X-19.61556 Y26.75374
G01 X-19.43969 Y26.88151
G01 X-19.24111 Y26.96992
G01 X-19.02849 Y27.01511
G01 X-18.81109 Y27.01511
G01 X-18.59846 Y26.96992
G01 X-18.39110 Y26.87582
G01 X-18.21663 Y26.74633
G01 X-18.07853 Y26.59212
G01 X-18.00301 Y26.46200
G01 X-17.29656 Y26.46200
G01 X-17.22105 Y26.59212
G01 X-17.08295 Y26.74633
G01 X-16.89969 Y26.88151
G01 X-16.70111 Y26.96992
G01 X-16.49882 Y27.01348
G01 X-16.26075 Y27.01348
G01 X-16.05846 Y26.96992
G01 X-15.85989 Y26.88151
G01 X-15.68402 Y26.75374
G01 X-15.54516 Y26.60033
G01 X-15.42613 Y26.39416
G01 X-15.36271 Y26.19720
G01 X-15.33997 Y25.98100
G04 P0 ( dwell for no time -- G64 should not smooth over this point )
G00 Z5.00000 ( retract )

G00 X-10.25997 Y33.60100 ( rapid move to begin. )
G01 F300.00000
( Mill infeed pass 1/1 )
G01 Z-0.05000
G04 P0 ( dwell for no time -- G64 should not smooth over this point )
G01 F600.00000
G01 X-10.25997 Y33.60100
G01 X-10.28271 Y33.38482
G01 X-10.34613 Y33.18787
G01 X-10.46516 Y32.98170
G01 X-10.60402 Y32.82828
G01 X-10.77989 Y32.70052
G01 X-10.97846 Y32.61210
G01 X-11.19109 Y32.56692
G01 X-11.40849 Y32.56692
G01 X-11.61100 Y32.60938
G01 X-11.82848 Y32.70621
G01 X-11.99556 Y32.82828
G01 X-12.14100 Y32.98983
G01 X-12.24968 Y33.17809
G01 X-12.31415 Y33.37471
G01 X-12.33904 Y33.61146
G01 X-12.31687 Y33.81720
G01 X-12.24968 Y34.02394
G01 X-12.14100 Y34.21220
G01 X-12.00295 Y34.36633
G01 X-11.82848 Y34.49582
G01 X-11.78080 Y34.51941
G01 X-11.78080 Y36.49261
G01 X-11.82848 Y36.51621
G01 X-12.00295 Y36.64570
G01 X-12.14100 Y36.79983
G01 X-12.24968 Y36.98809
G01 X-12.31849 Y37.20516
G01 X-12.33960 Y37.41100
G01 X-12.31849 Y37.61687
G01 X-12.24968 Y37.83394
G01 X-12.13442 Y38.03033
G01 X-11.99556 Y38.18374
G01 X-11.82848 Y38.30582
G01 X-11.62111 Y38.39992
G01 X-11.40849 Y38.44511
G01 X-11.19109 Y38.44511
G01 X-10.97846 Y38.39992
G01 X-10.77989 Y38.31151
G01 X-10.60402 Y38.18374
G01 X-10.45858 Y38.02220
G01 X-10.34989 Y37.83394
G01 X-10.28543 Y37.63731
G01 X-10.26053 Y37.40056
G01 X-10.28271 Y37.19482
G01 X-10.34989 Y36.98809
G01 X-10.45858 Y36.79983
G01 X-10.59663 Y36.64570
G01 X-10.77110 Y36.51621
G01 X-10.81877 Y36.49261
G01 X-10.81877 Y34.51941
G01 X-10.77110 Y34.49582
G01 X-10.60402 Y34.37374
G01 X-10.45286 Y34.20341
G01 X-10.34989 Y34.02394
G01 X-10.28543 Y33.82731
G01 X-10.25997 Y33.60100
G04 P0 ( dwell for no time -- G64 should not smooth over this point )
G00 Z5.00000 ( retract )

G00 X-15.33997 Y33.60100 ( rapid move to begin. )
G01 F300.00000
( Mill infeed pass 1/1 )
G01 Z-0.05000
G04 P0 ( dwell for no time -- G64 should not smooth over this point )
G01 F600.00000
G01 X-15.33997 Y33.60100
G01 X-15.36271 Y33.38482
G01 X-15.42613 Y33.18787
G01 X-15.54516 Y32.98170
G01 X-15.68402 Y32.82828
G01 X-15.85989 Y32.70052
G01 X-16.05846 Y32.61210
G01 X-16.27109 Y32.56692
G01 X-16.48849 Y32.56692
G01 X-16.69100 Y32.60938
G01 X-16.90848 Y32.70621
G01 X-17.07556 Y32.82828
G01 X-17.22100 Y32.98983
G01 X-17.32968 Y33.17809
G01 X-17.39415 Y33.37471
G01 X-17.41904 Y33.61146
G01 X-17.39687 Y33.81720
G01 X-17.32968 Y34.02394
G01 X-17.22100 Y34.21220
G01 X-17.08295 Y34.36633
G01 X-16.90848 Y34.49582
G01 X-16.86080 Y34.51941
G01 X-16.86080 Y36.49261
G01 X-16.90848 Y36.51621
G01 X-17.08295 Y36.64570
G01 X-17.22100 Y36.79983
G01 X-17.32968 Y36.98809
G01 X-17.39849 Y37.20516
G01 X-17.41960 Y37.41100
G01 X-17.39849 Y37.61687
G01 X-17.32968 Y37.83394
G01 X-17.21442 Y38.03033
G01 X-17.07556 Y38.18374
G01 X-16.90848 Y38.30582
G01 X-16.70111 Y38.39992
G01 X-16.48849 Y38.44511
G01 X-16.27109 Y38.44511
G01 X-16.05846 Y38.39992
G01 X-15.85989 Y38.31151
G01 X-15.68402 Y38.18374
G01 X-15.53858 Y38.02220
G01 X-15.42989 Y37.83394
G01 X-15.36543 Y37.63731
G01 X-15.34053 Y37.40056
G01 X-15.36271 Y37.19482
G01 X-15.42989 Y36.98809
G01 X-15.53858 Y36.79983
G01 X-15.67663 Y36.64570
G01 X-15.85110 Y36.51621
G01 X-15.89880 Y36.49261
G01 X-15.89880 Y34.51941
G01 X-15.85110 Y34.49582
G01 X-15.68402 Y34.37374
G01 X-15.53286 Y34.20341
G01 X-15.42989 Y34.02394
G01 X-15.36543 Y33.82731
G01 X-15.33997 Y33.60100
G04 P0 ( dwell for no time -- G64 should not smooth over this point )
G00 Z5.00000 ( retract )

G00 X-22.95997 Y25.98100 ( rapid move to begin. )
G01 F300.00000
( Mill infeed pass 1/1 )
G01 Z-0.05000
G04 P0 ( dwell for no time -- G64 should not smooth over this point )
G01 F600.00000
G01 X-22.95997 Y25.98100
G01 X-22.98271 Y25.76482
G01 X-23.04989 Y25.55809
G01 X-23.15858 Y25.36983
G01 X-23.30402 Y25.20831
G01 X-23.47989 Y25.08052
G01 X-23.68857 Y24.98938
G01 X-23.90155 Y24.94638
G01 X-24.10849 Y24.94692
G01 X-24.31100 Y24.98938
G01 X-28.73967 Y20.56089
G01 X-28.81257 Y20.50108
G01 X-28.88684 Y20.46082
G01 X-28.97642 Y20.43163
G01 X-29.07977 Y20.42000
G01 X-33.82193 Y20.42000
G01 X-34.94877 Y19.29315
G01 X-34.94877 Y19.11858
G01 X-34.82757 Y19.02983
G01 X-34.70826 Y18.89816
G01 X-34.60760 Y18.72706
G01 X-34.54946 Y18.54812
G01 X-34.53034 Y18.37146
G01 X-34.54946 Y18.17390
G01 X-34.60760 Y17.99496
G01 X-34.70168 Y17.83199
G01 X-34.82017 Y17.69958
G01 X-34.97979 Y17.58160
G01 X-35.15167 Y17.50507
G01 X-35.33572 Y17.46595
G01 X-35.52386 Y17.46595
G01 X-35.70790 Y17.50507
G01 X-35.87979 Y17.58160
G01 X-36.03201 Y17.69219
G01 X-36.16361 Y17.84078
G01 X-36.25197 Y17.99496
G01 X-36.31011 Y18.17390
G01 X-36.32980 Y18.36100
G01 X-36.31011 Y18.54812
G01 X-36.25197 Y18.72706
G01 X-36.15789 Y18.89003
G01 X-36.03201 Y19.02983
G01 X-35.91080 Y19.11858
G01 X-35.91080 Y19.49242
G01 X-35.90580 Y19.55985
G01 X-35.88939 Y19.63349
G01 X-35.85451 Y19.71764
G01 X-35.81405 Y19.78129
G01 X-35.76991 Y19.83252
G01 X-34.36127 Y21.24113
G01 X-34.29627 Y21.29511
G01 X-34.19599 Y21.34870
G01 X-34.10529 Y21.37420
G01 X-34.02117 Y21.38203
G01 X-29.27901 Y21.38203
G01 X-24.98771 Y25.67333
G01 X-25.01687 Y25.76482
G01 X-25.03960 Y25.98100
G01 X-25.01687 Y26.19720
G01 X-24.98771 Y26.28870
G01 X-26.87991 Y28.18089
G01 X-26.93972 Y28.25379
G01 X-26.97998 Y28.32806
G01 X-27.01298 Y28.43688
G01 X-27.02080 Y28.52100
G01 X-27.02080 Y36.49261
G01 X-27.06848 Y36.51621
G01 X-27.23556 Y36.63828
G01 X-27.38671 Y36.80861
G01 X-27.48968 Y36.98809
G01 X-27.55415 Y37.18471
G01 X-27.57960 Y37.41100
G01 X-27.55687 Y37.62720
G01 X-27.49344 Y37.82416
G01 X-27.38100 Y38.02220
G01 X-27.23556 Y38.18374
G01 X-27.06848 Y38.30582
G01 X-26.86111 Y38.39992
G01 X-26.64849 Y38.44511
G01 X-26.43109 Y38.44511
G01 X-26.21846 Y38.39992
G01 X-26.01110 Y38.30582
G01 X-25.84402 Y38.18374
G01 X-25.69286 Y38.01341
G01 X-25.58613 Y37.82416
G01 X-25.52271 Y37.62720
G01 X-25.50053 Y37.42146
G01 X-25.52543 Y37.18471
G01 X-25.58989 Y36.98809
G01 X-25.69286 Y36.80861
G01 X-25.84402 Y36.63828
G01 X-26.01110 Y36.51621
G01 X-26.05877 Y36.49261
G01 X-26.05877 Y28.72024
G01 X-24.31100 Y26.97264
G01 X-24.09802 Y27.01567
G01 X-23.89109 Y27.01511
G01 X-23.68857 Y26.97264
G01 X-23.47989 Y26.88151
G01 X-23.30402 Y26.75374
G01 X-23.15858 Y26.59220
G01 X-23.04989 Y26.40394
G01 X-22.98271 Y26.19720
G01 X-22.95997 Y25.98100
G04 P0 ( dwell for no time -- G64 should not smooth over this point )
G00 Z5.00000 ( retract )

G00 X-28.03997 Y25.98100 ( rapid move to begin. )
G01 F300.00000
( Mill infeed pass 1/1 )
G01 Z-0.05000
G04 P0 ( dwell for no time -- G64 should not smooth over this point )
G01 F600.00000
G01 X-28.03997 Y25.98100
G01 X-28.06271 Y25.76482
G01 X-28.12989 Y25.55809
G01 X-28.23858 Y25.36983
G01 X-28.38402 Y25.20831
G01 X-28.55989 Y25.08052
G01 X-28.76857 Y24.98938
G01 X-28.98155 Y24.94638
G01 X-29.18849 Y24.94692
G01 X-29.39100 Y24.98938
G01 X-31.67276 Y22.70780
G01 X-31.74566 Y22.64799
G01 X-31.81993 Y22.60773
G01 X-31.91904 Y22.57616
G01 X-32.01289 Y22.56691
G01 X-34.35767 Y22.56691
G01 X-36.36366 Y20.56089
G01 X-36.41489 Y20.51675
G01 X-36.47857 Y20.47629
G01 X-36.54778 Y20.44626
G01 X-36.62083 Y20.42747
G01 X-36.70376 Y20.42000
G01 X-41.03820 Y20.42000
G01 X-42.43809 Y19.02013
G01 X-42.32168 Y18.89003
G01 X-42.22760 Y18.72706
G01 X-42.16946 Y18.54812
G01 X-42.14978 Y18.36100
G01 X-42.16946 Y18.17390
G01 X-42.22760 Y17.99496
G01 X-42.32168 Y17.83199
G01 X-42.44757 Y17.69219
G01 X-42.59979 Y17.58160
G01 X-42.78178 Y17.50235
G01 X-42.96616 Y17.46540
G01 X-43.14386 Y17.46595
G01 X-43.31780 Y17.50235
G01 X-43.49979 Y17.58160
G01 X-43.65201 Y17.69219
G01 X-43.77789 Y17.83199
G01 X-43.87197 Y17.99496
G01 X-43.93011 Y18.17390
G01 X-43.94924 Y18.35056
G01 X-43.92742 Y18.55826
G01 X-43.87197 Y18.72706
G01 X-43.77789 Y18.89003
G01 X-43.65201 Y19.02983
G01 X-43.52775 Y19.12079
G01 X-43.52333 Y19.17162
G01 X-43.50454 Y19.24467
G01 X-43.48165 Y19.29991
G01 X-43.44330 Y19.36486
G01 X-43.38991 Y19.42879
G01 X-41.57754 Y21.24113
G01 X-41.49623 Y21.30600
G01 X-41.43037 Y21.34123
G01 X-41.34079 Y21.37039
G01 X-41.23743 Y21.38203
G01 X-36.90303 Y21.38203
G01 X-34.89701 Y23.38807
G01 X-34.83308 Y23.44143
G01 X-34.76813 Y23.47979
G01 X-34.69798 Y23.50752
G01 X-34.63983 Y23.52147
G01 X-34.55690 Y23.52893
G01 X-32.21213 Y23.52893
G01 X-30.06771 Y25.67333
G01 X-30.09687 Y25.76482
G01 X-30.11960 Y25.98100
G01 X-30.09687 Y26.19720
G01 X-30.06771 Y26.28872
G01 X-31.95991 Y28.18089
G01 X-32.01972 Y28.25379
G01 X-32.05998 Y28.32806
G01 X-32.09298 Y28.43688
G01 X-32.10080 Y28.52103
G01 X-32.10077 Y36.49259
G01 X-32.14848 Y36.51621
G01 X-32.31556 Y36.63828
G01 X-32.46671 Y36.80861
G01 X-32.56968 Y36.98809
G01 X-32.63415 Y37.18471
G01 X-32.65960 Y37.41100
G01 X-32.63687 Y37.62720
G01 X-32.57344 Y37.82416
G01 X-32.46100 Y38.02220
G01 X-32.31556 Y38.18374
G01 X-32.14848 Y38.30582
G01 X-31.94111 Y38.39992
G01 X-31.72849 Y38.44511
G01 X-31.51109 Y38.44511
G01 X-31.29846 Y38.39992
G01 X-31.09110 Y38.30582
G01 X-30.92402 Y38.18374
G01 X-30.77286 Y38.01341
G01 X-30.66613 Y37.82416
G01 X-30.60271 Y37.62720
G01 X-30.58053 Y37.42146
G01 X-30.60543 Y37.18471
G01 X-30.66989 Y36.98809
G01 X-30.77286 Y36.80861
G01 X-30.92402 Y36.63828
G01 X-31.09110 Y36.51621
G01 X-31.13877 Y36.49261
G01 X-31.13877 Y28.72024
G01 X-29.39100 Y26.97264
G01 X-29.17802 Y27.01567
G01 X-28.97109 Y27.01511
G01 X-28.76857 Y26.97264
G01 X-28.55989 Y26.88151
G01 X-28.38402 Y26.75374
G01 X-28.23858 Y26.59220
G01 X-28.12989 Y26.40394
G01 X-28.06271 Y26.19720
G01 X-28.03997 Y25.98100
G04 P0 ( dwell for no time -- G64 should not smooth over this point )
G00 Z5.00000 ( retract )

G00 X-33.11997 Y25.98100 ( rapid move to begin. )
G01 F300.00000
( Mill infeed pass 1/1 )
G01 Z-0.05000
G04 P0 ( dwell for no time -- G64 should not smooth over this point )
G01 F600.00000
G01 X-33.11997 Y25.98100
G01 X-33.14271 Y25.76482
G01 X-33.20989 Y25.55809
G01 X-33.31858 Y25.36983
G01 X-33.46402 Y25.20831
G01 X-33.63989 Y25.08052
G01 X-33.84857 Y24.98938
G01 X-34.06155 Y24.94638
G01 X-34.26849 Y24.94692
G01 X-34.47100 Y24.98938
G01 X-36.58428 Y22.87631
G01 X-36.65718 Y22.81646
G01 X-36.74956 Y22.76871
G01 X-36.83056 Y22.74463
G01 X-36.92441 Y22.73541
G01 X-41.26398 Y22.73541
G01 X-44.97865 Y19.02074
G01 X-44.86168 Y18.89003
G01 X-44.76760 Y18.72706
G01 X-44.70946 Y18.54812
G01 X-44.68978 Y18.36100
G01 X-44.70946 Y18.17390
G01 X-44.76760 Y17.99496
G01 X-44.86168 Y17.83199
G01 X-44.98757 Y17.69219
G01 X-45.13979 Y17.58160
G01 X-45.31167 Y17.50507
G01 X-45.49572 Y17.46595
G01 X-45.68386 Y17.46595
G01 X-45.86790 Y17.50507
G01 X-46.03979 Y17.58160
G01 X-46.19201 Y17.69219
G01 X-46.32361 Y17.84078
G01 X-46.41197 Y17.99496
G01 X-46.47011 Y18.17390
G01 X-46.48980 Y18.36100
G01 X-46.47011 Y18.54812
G01 X-46.41197 Y18.72706
G01 X-46.31789 Y18.89003
G01 X-46.19201 Y19.02983
G01 X-46.06679 Y19.12150
G01 X-46.06178 Y19.18239
G01 X-46.03748 Y19.26468
G01 X-45.98388 Y19.36496
G01 X-45.92991 Y19.42996
G01 X-41.80335 Y23.55652
G01 X-41.73045 Y23.61634
G01 X-41.65618 Y23.65660
G01 X-41.56659 Y23.68578
G01 X-41.46321 Y23.69741
G01 X-37.12362 Y23.69739
G01 X-35.14771 Y25.67333
G01 X-35.17687 Y25.76482
G01 X-35.19960 Y25.98100
G01 X-35.17687 Y26.19720
G01 X-35.14771 Y26.28870
G01 X-37.03991 Y28.18089
G01 X-37.09972 Y28.25379
G01 X-37.13998 Y28.32806
G01 X-37.17298 Y28.43688
G01 X-37.18080 Y28.52103
G01 X-37.18080 Y36.49261
G01 X-37.22848 Y36.51621
G01 X-37.39556 Y36.63828
G01 X-37.54671 Y36.80861
G01 X-37.64968 Y36.98809
G01 X-37.71415 Y37.18471
G01 X-37.73960 Y37.41100
G01 X-37.71687 Y37.62720
G01 X-37.65344 Y37.82416
G01 X-37.54100 Y38.02220
G01 X-37.39556 Y38.18374
G01 X-37.22848 Y38.30582
G01 X-37.02111 Y38.39992
G01 X-36.80849 Y38.44511
G01 X-36.59109 Y38.44511
G01 X-36.37846 Y38.39992
G01 X-36.17110 Y38.30582
G01 X-36.00402 Y38.18374
G01 X-35.85286 Y38.01341
G01 X-35.74613 Y37.82416
G01 X-35.68271 Y37.62720
G01 X-35.66053 Y37.42146
G01 X-35.68543 Y37.18471
G01 X-35.74989 Y36.98809
G01 X-35.85286 Y36.80861
G01 X-36.00402 Y36.63828
G01 X-36.17110 Y36.51621
G01 X-36.21877 Y36.49261
G01 X-36.21877 Y28.72024
G01 X-34.47100 Y26.97264
G01 X-34.25802 Y27.01567
G01 X-34.05109 Y27.01511
G01 X-33.84857 Y26.97264
G01 X-33.63989 Y26.88151
G01 X-33.46402 Y26.75374
G01 X-33.31858 Y26.59220
G01 X-33.20989 Y26.40394
G01 X-33.14271 Y26.19720
G01 X-33.11997 Y25.98100
G04 P0 ( dwell for no time -- G64 should not smooth over this point )
G00 Z5.00000 ( retract )

G00 X-38.19997 Y25.98100 ( rapid move to begin. )
G01 F300.00000
( Mill infeed pass 1/1 )
G01 Z-0.05000
G04 P0 ( dwell for no time -- G64 should not smooth over this point )
G01 F600.00000
G01 X-38.19997 Y25.98100
G01 X-38.22271 Y25.76482
G01 X-38.28613 Y25.56789
G01 X-38.39858 Y25.36983
G01 X-38.54402 Y25.20831
G01 X-38.71110 Y25.08621
G01 X-38.91846 Y24.99210
G01 X-39.13109 Y24.94692
G01 X-39.33802 Y24.94638
G01 X-39.55100 Y24.98938
G01 X-39.62921 Y25.02182
G01 X-40.20617 Y24.53450
G01 X-40.27587 Y24.48720
G01 X-40.33632 Y24.45885
G01 X-40.43451 Y24.43239
G01 X-40.50980 Y24.42614
G01 X-42.26227 Y24.42614
G01 X-47.60303 Y19.08536
G01 X-47.52757 Y19.02983
G01 X-47.40826 Y18.89816
G01 X-47.31235 Y18.73641
G01 X-47.24946 Y18.54812
G01 X-47.23034 Y18.37146
G01 X-47.24946 Y18.17390
G01 X-47.30760 Y17.99496
G01 X-47.40168 Y17.83199
G01 X-47.52757 Y17.69219
G01 X-47.67979 Y17.58160
G01 X-47.85167 Y17.50507
G01 X-48.03572 Y17.46595
G01 X-48.22386 Y17.46595
G01 X-48.40790 Y17.50507
G01 X-48.57979 Y17.58160
G01 X-48.73201 Y17.69219
G01 X-48.85789 Y17.83199
G01 X-48.95197 Y17.99496
G01 X-49.01011 Y18.17390
G01 X-49.02980 Y18.36100
G01 X-49.01011 Y18.54812
G01 X-48.95197 Y18.72706
G01 X-48.85789 Y18.89003
G01 X-48.73201 Y19.02983
G01 X-48.61080 Y19.11858
G01 X-48.61032 Y19.24863
G01 X-48.59917 Y19.34220
G01 X-48.56998 Y19.43179
G01 X-48.52388 Y19.51396
G01 X-48.46991 Y19.57896
G01 X-42.79585 Y25.25260
G01 X-42.73768 Y25.30066
G01 X-42.67274 Y25.33904
G01 X-42.60258 Y25.36675
G01 X-42.52895 Y25.38316
G01 X-42.46933 Y25.38783
G01 X-40.68590 Y25.38816
G01 X-40.25377 Y25.75352
G01 X-40.27960 Y25.98100
G01 X-40.25687 Y26.19720
G01 X-40.22771 Y26.28870
G01 X-42.11991 Y28.18089
G01 X-42.17972 Y28.25379
G01 X-42.21998 Y28.32806
G01 X-42.25298 Y28.43688
G01 X-42.26080 Y28.52100
G01 X-42.26080 Y36.49261
G01 X-42.30848 Y36.51621
G01 X-42.47556 Y36.63828
G01 X-42.62671 Y36.80861
G01 X-42.72968 Y36.98809
G01 X-42.79415 Y37.18471
G01 X-42.81960 Y37.41100
G01 X-42.79687 Y37.62720
G01 X-42.73344 Y37.82416
G01 X-42.62100 Y38.02220
G01 X-42.47556 Y38.18374
G01 X-42.30848 Y38.30582
G01 X-42.10111 Y38.39992
G01 X-41.88849 Y38.44511
G01 X-41.67109 Y38.44511
G01 X-41.45846 Y38.39992
G01 X-41.25110 Y38.30582
G01 X-41.08402 Y38.18374
G01 X-40.93286 Y38.01341
G01 X-40.82613 Y37.82416
G01 X-40.76271 Y37.62720
G01 X-40.74053 Y37.42146
G01 X-40.76543 Y37.18471
G01 X-40.82989 Y36.98809
G01 X-40.93286 Y36.80861
G01 X-41.08402 Y36.63828
G01 X-41.25110 Y36.51621
G01 X-41.29877 Y36.49261
G01 X-41.29877 Y28.72024
G01 X-39.55100 Y26.97264
G01 X-39.33802 Y27.01567
G01 X-39.13109 Y27.01511
G01 X-38.92857 Y26.97264
G01 X-38.71989 Y26.88151
G01 X-38.54402 Y26.75374
G01 X-38.39858 Y26.59220
G01 X-38.28989 Y26.40394
G01 X-38.22271 Y26.19720
G01 X-38.19997 Y25.98100
G04 P0 ( dwell for no time -- G64 should not smooth over this point )
G00 Z5.00000 ( retract )

G00 X-43.27997 Y25.98100 ( rapid move to begin. )
G01 F300.00000
( Mill infeed pass 1/1 )
G01 Z-0.05000
G04 P0 ( dwell for no time -- G64 should not smooth over this point )
G01 F600.00000
G01 X-43.27997 Y25.98100
G01 X-43.30271 Y25.76482
G01 X-43.36989 Y25.55809
G01 X-43.47858 Y25.36983
G01 X-43.62402 Y25.20831
G01 X-43.79989 Y25.08052
G01 X-44.00857 Y24.98938
G01 X-44.22155 Y24.94638
G01 X-44.42849 Y24.94692
G01 X-44.63100 Y24.98938
G01 X-50.18880 Y19.43179
G01 X-50.18880 Y19.11858
G01 X-50.06757 Y19.02983
G01 X-49.94826 Y18.89816
G01 X-49.85235 Y18.73641
G01 X-49.78946 Y18.54812
G01 X-49.77034 Y18.37146
G01 X-49.78946 Y18.17390
G01 X-49.84760 Y17.99496
G01 X-49.94168 Y17.83199
G01 X-50.06017 Y17.69958
G01 X-50.22911 Y17.57683
G01 X-50.39167 Y17.50507
G01 X-50.58616 Y17.46540
G01 X-50.76386 Y17.46595
G01 X-50.94790 Y17.50507
G01 X-51.11979 Y17.58160
G01 X-51.27201 Y17.69219
G01 X-51.39789 Y17.83199
G01 X-51.49197 Y17.99496
G01 X-51.55011 Y18.17390
G01 X-51.56924 Y18.37146
G01 X-51.55011 Y18.54812
G01 X-51.48722 Y18.73641
G01 X-51.39131 Y18.89816
G01 X-51.27201 Y19.02983
G01 X-51.15077 Y19.11858
G01 X-51.15080 Y19.63100
G01 X-51.14298 Y19.71515
G01 X-51.10998 Y19.82396
G01 X-51.06388 Y19.90613
G01 X-51.00991 Y19.97113
G01 X-45.30771 Y25.67333
G01 X-45.33687 Y25.76482
G01 X-45.35960 Y25.98100
G01 X-45.33687 Y26.19720
G01 X-45.30771 Y26.28870
G01 X-47.19991 Y28.18089
G01 X-47.25972 Y28.25379
G01 X-47.29998 Y28.32806
G01 X-47.33298 Y28.43688
G01 X-47.34080 Y28.52103
G01 X-47.34080 Y36.49261
G01 X-47.38848 Y36.51621
G01 X-47.55556 Y36.63828
G01 X-47.70671 Y36.80861
G01 X-47.80968 Y36.98809
G01 X-47.87415 Y37.18471
G01 X-47.89960 Y37.41100
G01 X-47.87687 Y37.62720
G01 X-47.81344 Y37.82416
G01 X-47.70100 Y38.02220
G01 X-47.55556 Y38.18374
G01 X-47.38848 Y38.30582
G01 X-47.18111 Y38.39992
G01 X-46.96849 Y38.44511
G01 X-46.75109 Y38.44511
G01 X-46.53846 Y38.39992
G01 X-46.33110 Y38.30582
G01 X-46.16402 Y38.18374
G01 X-46.01286 Y38.01341
G01 X-45.90613 Y37.82416
G01 X-45.84271 Y37.62720
G01 X-45.82053 Y37.42146
G01 X-45.84543 Y37.18471
G01 X-45.90989 Y36.98809
G01 X-46.01286 Y36.80861
G01 X-46.16402 Y36.63828
G01 X-46.33110 Y36.51621
G01 X-46.37880 Y36.49259
G01 X-46.37877 Y28.72024
G01 X-44.63100 Y26.97264
G01 X-44.41802 Y27.01567
G01 X-44.21109 Y27.01511
G01 X-44.00857 Y26.97264
G01 X-43.79989 Y26.88151
G01 X-43.62402 Y26.75374
G01 X-43.47858 Y26.59220
G01 X-43.36989 Y26.40394
G01 X-43.30271 Y26.19720
G01 X-43.27997 Y25.98100
G04 P0 ( dwell for no time -- G64 should not smooth over this point )
G00 Z5.00000 ( retract )

G00 X-48.35997 Y25.98100 ( rapid move to begin. )
G01 F300.00000
( Mill infeed pass 1/1 )
G01 Z-0.05000
G04 P0 ( dwell for no time -- G64 should not smooth over this point )
G01 F600.00000
G01 X-48.35997 Y25.98100
G01 X-48.38271 Y25.76482
G01 X-48.44989 Y25.55809
G01 X-48.55858 Y25.36983
G01 X-48.70402 Y25.20831
G01 X-48.87989 Y25.08052
G01 X-49.08857 Y24.98938
G01 X-49.30155 Y24.94638
G01 X-49.50849 Y24.94692
G01 X-49.71100 Y24.98938
G01 X-52.72877 Y21.97181
G01 X-52.72880 Y19.11858
G01 X-52.60757 Y19.02983
G01 X-52.48826 Y18.89816
G01 X-52.38760 Y18.72706
G01 X-52.32781 Y18.53778
G01 X-52.30978 Y18.36100
G01 X-52.32946 Y18.17390
G01 X-52.38760 Y17.99496
G01 X-52.48168 Y17.83199
G01 X-52.60757 Y17.69219
G01 X-52.76911 Y17.57683
G01 X-52.93167 Y17.50507
G01 X-53.10538 Y17.46758
G01 X-53.29342 Y17.46540
G01 X-53.48790 Y17.50507
G01 X-53.65979 Y17.58160
G01 X-53.81201 Y17.69219
G01 X-53.94361 Y17.84078
G01 X-54.03197 Y17.99496
G01 X-54.08742 Y18.16377
G01 X-54.10980 Y18.36100
G01 X-54.09011 Y18.54812
G01 X-54.02722 Y18.73641
G01 X-53.93131 Y18.89816
G01 X-53.81201 Y19.02983
G01 X-53.69077 Y19.11858
G01 X-53.69080 Y22.17100
G01 X-53.68155 Y22.26485
G01 X-53.65747 Y22.34585
G01 X-53.60972 Y22.43826
G01 X-53.54991 Y22.51113
G01 X-50.38771 Y25.67333
G01 X-50.41687 Y25.76482
G01 X-50.43960 Y25.98100
G01 X-50.41687 Y26.19720
G01 X-50.38771 Y26.28870
G01 X-52.27991 Y28.18089
G01 X-52.33972 Y28.25379
G01 X-52.37998 Y28.32806
G01 X-52.41298 Y28.43688
G01 X-52.42080 Y28.52100
G01 X-52.42080 Y36.49261
G01 X-52.46848 Y36.51621
G01 X-52.63556 Y36.63828
G01 X-52.78671 Y36.80861
G01 X-52.88968 Y36.98809
G01 X-52.95415 Y37.18471
G01 X-52.97960 Y37.41100
G01 X-52.95687 Y37.62720
G01 X-52.89344 Y37.82416
G01 X-52.78100 Y38.02220
G01 X-52.63556 Y38.18374
G01 X-52.46848 Y38.30582
G01 X-52.26111 Y38.39992
G01 X-52.04849 Y38.44511
G01 X-51.83109 Y38.44511
G01 X-51.61846 Y38.39992
G01 X-51.41110 Y38.30582
G01 X-51.24402 Y38.18374
G01 X-51.09286 Y38.01341
G01 X-50.98613 Y37.82416
G01 X-50.92271 Y37.62720
G01 X-50.90053 Y37.42146
G01 X-50.92543 Y37.18471
G01 X-50.98989 Y36.98809
G01 X-51.09286 Y36.80861
G01 X-51.24402 Y36.63828
G01 X-51.41110 Y36.51621
G01 X-51.45877 Y36.49261
G01 X-51.45877 Y28.72024
G01 X-49.71100 Y26.97264
G01 X-49.49802 Y27.01567
G01 X-49.29109 Y27.01511
G01 X-49.08857 Y26.97264
G01 X-48.87989 Y26.88151
G01 X-48.70402 Y26.75374
G01 X-48.55858 Y26.59220
G01 X-48.44989 Y26.40394
G01 X-48.38271 Y26.19720
G01 X-48.35997 Y25.98100
G04 P0 ( dwell for no time -- G64 should not smooth over this point )
G00 Z5.00000 ( retract )

G00 X-53.43997 Y25.98100 ( rapid move to begin. )
G01 F300.00000
( Mill infeed pass 1/1 )
G01 Z-0.05000
G04 P0 ( dwell for no time -- G64 should not smooth over this point )
G01 F600.00000
G01 X-53.43997 Y25.98100
G01 X-53.46271 Y25.76482
G01 X-53.52989 Y25.55809
G01 X-53.63858 Y25.36983
G01 X-53.79217 Y25.20170
G01 X-53.95989 Y25.08052
G01 X-54.16857 Y24.98938
G01 X-54.38155 Y24.94638
G01 X-54.58849 Y24.94692
G01 X-54.79100 Y24.98938
G01 X-55.26880 Y24.51176
G01 X-55.26880 Y19.11858
G01 X-55.14757 Y19.02983
G01 X-55.02826 Y18.89816
G01 X-54.92760 Y18.72706
G01 X-54.86781 Y18.53778
G01 X-54.84978 Y18.36100
G01 X-54.86781 Y18.18424
G01 X-54.92760 Y17.99496
G01 X-55.02168 Y17.83199
G01 X-55.14757 Y17.69219
G01 X-55.29979 Y17.58160
G01 X-55.47167 Y17.50507
G01 X-55.65572 Y17.46595
G01 X-55.84386 Y17.46595
G01 X-56.02790 Y17.50507
G01 X-56.19979 Y17.58160
G01 X-56.34388 Y17.68559
G01 X-56.47789 Y17.83199
G01 X-56.57197 Y17.99496
G01 X-56.62742 Y18.16377
G01 X-56.64924 Y18.37146
G01 X-56.63011 Y18.54812
G01 X-56.56722 Y18.73641
G01 X-56.47131 Y18.89816
G01 X-56.35201 Y19.02983
G01 X-56.23077 Y19.11858
G01 X-56.23080 Y24.71100
G01 X-56.22155 Y24.80485
G01 X-56.18998 Y24.90396
G01 X-56.14972 Y24.97823
G01 X-56.09648 Y25.04387
G01 X-55.46771 Y25.67333
G01 X-55.49687 Y25.76482
G01 X-55.51960 Y25.98100
G01 X-55.49687 Y26.19720
G01 X-55.46771 Y26.28872
G01 X-57.35991 Y28.18089
G01 X-57.41972 Y28.25379
G01 X-57.45998 Y28.32806
G01 X-57.49298 Y28.43688
G01 X-57.50080 Y28.52103
G01 X-57.50077 Y36.49259
G01 X-57.54848 Y36.51621
G01 X-57.71556 Y36.63828
G01 X-57.86671 Y36.80861
G01 X-57.96968 Y36.98809
G01 X-58.03415 Y37.18471
G01 X-58.05960 Y37.41100
G01 X-58.03687 Y37.62720
G01 X-57.97344 Y37.82416
G01 X-57.86100 Y38.02220
G01 X-57.71556 Y38.18374
G01 X-57.54848 Y38.30582
G01 X-57.34111 Y38.39992
G01 X-57.12849 Y38.44511
G01 X-56.91109 Y38.44511
G01 X-56.69846 Y38.39992
G01 X-56.49110 Y38.30582
G01 X-56.32402 Y38.18374
G01 X-56.17286 Y38.01341
G01 X-56.06613 Y37.82416
G01 X-56.00271 Y37.62720
G01 X-55.98053 Y37.42146
G01 X-56.00543 Y37.18471
G01 X-56.06989 Y36.98809
G01 X-56.17286 Y36.80861
G01 X-56.32402 Y36.63828
G01 X-56.49110 Y36.51621
G01 X-56.53877 Y36.49261
G01 X-56.53877 Y28.72024
G01 X-54.79100 Y26.97264
G01 X-54.57802 Y27.01567
G01 X-54.37109 Y27.01511
G01 X-54.16857 Y26.97264
G01 X-53.95989 Y26.88151
G01 X-53.78402 Y26.75374
G01 X-53.63858 Y26.59220
G01 X-53.52989 Y26.40394
G01 X-53.46271 Y26.19720
G01 X-53.43997 Y25.98100
G04 P0 ( dwell for no time -- G64 should not smooth over this point )
G00 Z5.00000 ( retract )

G00 X-57.38978 Y18.36100 ( rapid move to begin. )
G01 F300.00000
( Mill infeed pass 1/1 )
G01 Z-0.05000
G04 P0 ( dwell for no time -- G64 should not smooth over this point )
G01 F600.00000
G01 X-57.38978 Y18.36100
G01 X-57.41215 Y18.16377
G01 X-57.46760 Y17.99496
G01 X-57.56168 Y17.83199
G01 X-57.68757 Y17.69219
G01 X-57.83100 Y17.58729
G01 X-58.02178 Y17.50235
G01 X-58.19572 Y17.46595
G01 X-58.37342 Y17.46540
G01 X-58.57768 Y17.50880
G01 X-58.73979 Y17.58160
G01 X-58.89201 Y17.69219
G01 X-59.01789 Y17.83199
G01 X-59.10722 Y17.98561
G01 X-59.17176 Y18.18424
G01 X-59.18980 Y18.36100
G01 X-59.16742 Y18.55826
G01 X-59.11197 Y18.72706
G01 X-59.01789 Y18.89003
G01 X-58.89201 Y19.02983
G01 X-58.77080 Y19.11858
G01 X-58.77077 Y24.51179
G01 X-59.24845 Y24.98946
G01 X-59.46155 Y24.94638
G01 X-59.66849 Y24.94692
G01 X-59.87100 Y24.98938
G01 X-60.07969 Y25.08052
G01 X-60.26295 Y25.21570
G01 X-60.40100 Y25.36983
G01 X-60.50493 Y25.54877
G01 X-60.57687 Y25.76482
G01 X-60.59904 Y25.99146
G01 X-60.57687 Y26.19720
G01 X-60.54771 Y26.28870
G01 X-62.43991 Y28.18089
G01 X-62.50478 Y28.26220
G01 X-62.53998 Y28.32806
G01 X-62.56917 Y28.41765
G01 X-62.58080 Y28.52103
G01 X-62.58080 Y36.49261
G01 X-62.62848 Y36.51621
G01 X-62.79556 Y36.63828
G01 X-62.94671 Y36.80861
G01 X-63.04968 Y36.98809
G01 X-63.11415 Y37.18471
G01 X-63.13960 Y37.41100
G01 X-63.11687 Y37.62720
G01 X-63.05344 Y37.82416
G01 X-62.94100 Y38.02220
G01 X-62.79556 Y38.18374
G01 X-62.62848 Y38.30582
G01 X-62.41100 Y38.40264
G01 X-62.20849 Y38.44511
G01 X-61.99109 Y38.44511
G01 X-61.77846 Y38.39992
G01 X-61.57110 Y38.30582
G01 X-61.40402 Y38.18374
G01 X-61.25286 Y38.01341
G01 X-61.14613 Y37.82416
G01 X-61.08271 Y37.62720
G01 X-61.06053 Y37.42146
G01 X-61.08543 Y37.18471
G01 X-61.14989 Y36.98809
G01 X-61.25286 Y36.80861
G01 X-61.40402 Y36.63828
G01 X-61.57110 Y36.51621
G01 X-61.61877 Y36.49261
G01 X-61.61877 Y28.72026
G01 X-59.87100 Y26.97264
G01 X-59.65802 Y27.01567
G01 X-59.45109 Y27.01511
G01 X-59.24857 Y26.97264
G01 X-59.03989 Y26.88151
G01 X-58.85663 Y26.74633
G01 X-58.71858 Y26.59220
G01 X-58.61464 Y26.41326
G01 X-58.54271 Y26.19720
G01 X-58.52053 Y25.97059
G01 X-58.54271 Y25.76482
G01 X-58.57187 Y25.67333
G01 X-57.94967 Y25.05113
G01 X-57.88985 Y24.97823
G01 X-57.84210 Y24.88585
G01 X-57.81802 Y24.80485
G01 X-57.80877 Y24.71100
G01 X-57.80880 Y19.11861
G01 X-57.68757 Y19.02983
G01 X-57.56826 Y18.89816
G01 X-57.47235 Y18.73641
G01 X-57.40946 Y18.54812
G01 X-57.38978 Y18.36100
G04 P0 ( dwell for no time -- G64 should not smooth over this point )
G00 Z5.00000 ( retract )

G00 X-59.92978 Y18.36100 ( rapid move to begin. )
G01 F300.00000
( Mill infeed pass 1/1 )
G01 Z-0.05000
G04 P0 ( dwell for no time -- G64 should not smooth over this point )
G01 F600.00000
G01 X-59.92978 Y18.36100
G01 X-59.94946 Y18.17390
G01 X-60.00760 Y17.99496
G01 X-60.10168 Y17.83199
G01 X-60.22017 Y17.69958
G01 X-60.38911 Y17.57683
G01 X-60.55167 Y17.50507
G01 X-60.74616 Y17.46540
G01 X-60.92386 Y17.46595
G01 X-61.10790 Y17.50507
G01 X-61.27979 Y17.58160
G01 X-61.43201 Y17.69219
G01 X-61.55789 Y17.83199
G01 X-61.65197 Y17.99496
G01 X-61.71011 Y18.17390
G01 X-61.72980 Y18.36100
G01 X-61.71011 Y18.54812
G01 X-61.65197 Y18.72706
G01 X-61.55789 Y18.89003
G01 X-61.43940 Y19.02244
G01 X-61.27046 Y19.14520
G01 X-61.10790 Y19.21695
G01 X-60.91342 Y19.25663
G01 X-60.73572 Y19.25607
G01 X-60.55167 Y19.21695
G01 X-60.37979 Y19.14042
G01 X-60.22757 Y19.02983
G01 X-60.10168 Y18.89003
G01 X-60.00760 Y18.72706
G01 X-59.94946 Y18.54812
G01 X-59.92978 Y18.36100
G04 P0 ( dwell for no time -- G64 should not smooth over this point )
G00 Z5.00000 ( retract )

G00 X-62.46978 Y18.36100 ( rapid move to begin. )
G01 F300.00000
( Mill infeed pass 1/1 )
G01 Z-0.05000
G04 P0 ( dwell for no time -- G64 should not smooth over this point )
G01 F600.00000
G01 X-62.46978 Y18.36100
G01 X-62.48946 Y18.17390
G01 X-62.54760 Y17.99496
G01 X-62.64168 Y17.83199
G01 X-62.76017 Y17.69958
G01 X-62.92911 Y17.57683
G01 X-63.09167 Y17.50507
G01 X-63.28616 Y17.46540
G01 X-63.46386 Y17.46595
G01 X-63.64790 Y17.50507
G01 X-63.81979 Y17.58160
G01 X-63.97201 Y17.69219
G01 X-64.09789 Y17.83199
G01 X-64.19197 Y17.99496
G01 X-64.25011 Y18.17390
G01 X-64.26980 Y18.36100
G01 X-64.25011 Y18.54812
G01 X-64.19197 Y18.72706
G01 X-64.09789 Y18.89003
G01 X-63.97940 Y19.02244
G01 X-63.81046 Y19.14520
G01 X-63.64790 Y19.21695
G01 X-63.45342 Y19.25663
G01 X-63.27572 Y19.25607
G01 X-63.09167 Y19.21695
G01 X-62.91979 Y19.14042
G01 X-62.76757 Y19.02983
G01 X-62.64168 Y18.89003
G01 X-62.54760 Y18.72706
G01 X-62.48946 Y18.54812
G01 X-62.46978 Y18.36100
G04 P0 ( dwell for no time -- G64 should not smooth over this point )
G00 Z5.00000 ( retract )

G00 X-65.00978 Y18.36100 ( rapid move to begin. )
G01 F300.00000
( Mill infeed pass 1/1 )
G01 Z-0.05000
G04 P0 ( dwell for no time -- G64 should not smooth over this point )
G01 F600.00000
G01 X-65.00978 Y18.36100
G01 X-65.03215 Y18.16377
G01 X-65.08760 Y17.99496
G01 X-65.18168 Y17.83199
G01 X-65.30757 Y17.69219
G01 X-65.45100 Y17.58729
G01 X-65.64178 Y17.50235
G01 X-65.81572 Y17.46595
G01 X-65.99342 Y17.46540
G01 X-66.19768 Y17.50880
G01 X-66.35979 Y17.58160
G01 X-66.51201 Y17.69219
G01 X-66.63789 Y17.83199
G01 X-66.72722 Y17.98561
G01 X-66.79176 Y18.18424
G01 X-66.80980 Y18.36100
G01 X-66.78742 Y18.55826
G01 X-66.73197 Y18.72706
G01 X-66.63789 Y18.89003
G01 X-66.51201 Y19.02983
G01 X-66.39077 Y19.11858
G01 X-66.39077 Y24.51176
G01 X-66.86845 Y24.98946
G01 X-67.08155 Y24.94638
G01 X-67.28849 Y24.94692
G01 X-67.49100 Y24.98938
G01 X-67.69969 Y25.08052
G01 X-67.88295 Y25.21570
G01 X-68.02100 Y25.36983
G01 X-68.12493 Y25.54877
G01 X-68.19687 Y25.76482
G01 X-68.21904 Y25.99146
G01 X-68.19687 Y26.19720
G01 X-68.16771 Y26.28870
G01 X-70.05991 Y28.18089
G01 X-70.12478 Y28.26220
G01 X-70.15998 Y28.32806
G01 X-70.18917 Y28.41765
G01 X-70.20080 Y28.52103
G01 X-70.20080 Y36.49261
G01 X-70.24848 Y36.51621
G01 X-70.41556 Y36.63828
G01 X-70.56671 Y36.80861
G01 X-70.66968 Y36.98809
G01 X-70.73415 Y37.18471
G01 X-70.75960 Y37.41100
G01 X-70.73687 Y37.62720
G01 X-70.67344 Y37.82416
G01 X-70.56100 Y38.02220
G01 X-70.41556 Y38.18374
G01 X-70.24848 Y38.30582
G01 X-70.03100 Y38.40264
G01 X-69.82849 Y38.44511
G01 X-69.61109 Y38.44511
G01 X-69.39846 Y38.39992
G01 X-69.19110 Y38.30582
G01 X-69.02402 Y38.18374
G01 X-68.87286 Y38.01341
G01 X-68.76613 Y37.82416
G01 X-68.70271 Y37.62720
G01 X-68.68053 Y37.42146
G01 X-68.70543 Y37.18471
G01 X-68.76989 Y36.98809
G01 X-68.87286 Y36.80861
G01 X-69.02402 Y36.63828
G01 X-69.19110 Y36.51621
G01 X-69.23877 Y36.49261
G01 X-69.23877 Y28.72026
G01 X-67.49100 Y26.97264
G01 X-67.27802 Y27.01567
G01 X-67.07109 Y27.01511
G01 X-66.86857 Y26.97264
G01 X-66.65989 Y26.88151
G01 X-66.47663 Y26.74633
G01 X-66.33858 Y26.59220
G01 X-66.23464 Y26.41326
G01 X-66.16271 Y26.19720
G01 X-66.14053 Y25.97059
G01 X-66.16271 Y25.76482
G01 X-66.19187 Y25.67333
G01 X-65.56967 Y25.05113
G01 X-65.50985 Y24.97823
G01 X-65.46210 Y24.88585
G01 X-65.43802 Y24.80485
G01 X-65.42877 Y24.71100
G01 X-65.42880 Y19.11858
G01 X-65.30757 Y19.02983
G01 X-65.18826 Y18.89816
G01 X-65.09235 Y18.73641
G01 X-65.02946 Y18.54812
G01 X-65.00978 Y18.36100
G04 P0 ( dwell for no time -- G64 should not smooth over this point )
G00 Z5.00000 ( retract )

G00 X-67.54978 Y18.36100 ( rapid move to begin. )
G01 F300.00000
( Mill infeed pass 1/1 )
G01 Z-0.05000
G04 P0 ( dwell for no time -- G64 should not smooth over this point )
G01 F600.00000
G01 X-67.54978 Y18.36100
G01 X-67.56946 Y18.17390
G01 X-67.62760 Y17.99496
G01 X-67.72168 Y17.83199
G01 X-67.84017 Y17.69958
G01 X-68.00911 Y17.57683
G01 X-68.17167 Y17.50507
G01 X-68.36616 Y17.46540
G01 X-68.54386 Y17.46595
G01 X-68.72790 Y17.50507
G01 X-68.89979 Y17.58160
G01 X-69.05201 Y17.69219
G01 X-69.17789 Y17.83199
G01 X-69.27197 Y17.99496
G01 X-69.33011 Y18.17390
G01 X-69.34980 Y18.36100
G01 X-69.33011 Y18.54812
G01 X-69.27197 Y18.72706
G01 X-69.17789 Y18.89003
G01 X-69.05940 Y19.02244
G01 X-68.89046 Y19.14520
G01 X-68.72790 Y19.21695
G01 X-68.53342 Y19.25663
G01 X-68.35572 Y19.25607
G01 X-68.17167 Y19.21695
G01 X-67.99979 Y19.14042
G01 X-67.84757 Y19.02983
G01 X-67.72168 Y18.89003
G01 X-67.62760 Y18.72706
G01 X-67.56946 Y18.54812
G01 X-67.54978 Y18.36100
G04 P0 ( dwell for no time -- G64 should not smooth over this point )
G00 Z5.00000 ( retract )

G00 X-70.08978 Y18.36100 ( rapid move to begin. )
G01 F300.00000
( Mill infeed pass 1/1 )
G01 Z-0.05000
G04 P0 ( dwell for no time -- G64 should not smooth over this point )
G01 F600.00000
G01 X-70.08978 Y18.36100
G01 X-70.11215 Y18.16377
G01 X-70.16760 Y17.99496
G01 X-70.26168 Y17.83199
G01 X-70.38757 Y17.69219
G01 X-70.53100 Y17.58729
G01 X-70.72178 Y17.50235
G01 X-70.89572 Y17.46595
G01 X-71.07342 Y17.46540
G01 X-71.27768 Y17.50880
G01 X-71.43979 Y17.58160
G01 X-71.59201 Y17.69219
G01 X-71.71789 Y17.83199
G01 X-71.80722 Y17.98561
G01 X-71.87176 Y18.18424
G01 X-71.88980 Y18.36100
G01 X-71.86742 Y18.55826
G01 X-71.81197 Y18.72706
G01 X-71.71789 Y18.89003
G01 X-71.59201 Y19.02983
G01 X-71.47080 Y19.11858
G01 X-71.47077 Y24.51176
G01 X-71.94845 Y24.98946
G01 X-72.16155 Y24.94638
G01 X-72.36849 Y24.94692
G01 X-72.57100 Y24.98938
G01 X-72.77969 Y25.08052
G01 X-72.96295 Y25.21570
G01 X-73.10100 Y25.36983
G01 X-73.20493 Y25.54877
G01 X-73.27687 Y25.76482
G01 X-73.29904 Y25.99146
G01 X-73.27687 Y26.19720
G01 X-73.24771 Y26.28870
G01 X-75.13991 Y28.18089
G01 X-75.20478 Y28.26220
G01 X-75.23998 Y28.32806
G01 X-75.26917 Y28.41765
G01 X-75.28080 Y28.52103
G01 X-75.28077 Y36.49259
G01 X-75.32848 Y36.51621
G01 X-75.49556 Y36.63828
G01 X-75.64671 Y36.80861
G01 X-75.74968 Y36.98809
G01 X-75.81415 Y37.18471
G01 X-75.83960 Y37.41100
G01 X-75.81687 Y37.62720
G01 X-75.75344 Y37.82416
G01 X-75.64100 Y38.02220
G01 X-75.49556 Y38.18374
G01 X-75.32848 Y38.30582
G01 X-75.11100 Y38.40264
G01 X-74.90849 Y38.44511
G01 X-74.69109 Y38.44511
G01 X-74.47846 Y38.39992
G01 X-74.27110 Y38.30582
G01 X-74.10402 Y38.18374
G01 X-73.95286 Y38.01341
G01 X-73.84613 Y37.82416
G01 X-73.78271 Y37.62720
G01 X-73.76053 Y37.42146
G01 X-73.78543 Y37.18471
G01 X-73.84989 Y36.98809
G01 X-73.95286 Y36.80861
G01 X-74.10402 Y36.63828
G01 X-74.27110 Y36.51621
G01 X-74.31877 Y36.49261
G01 X-74.31877 Y28.72026
G01 X-72.57100 Y26.97264
G01 X-72.35802 Y27.01567
G01 X-72.15109 Y27.01511
G01 X-71.94857 Y26.97264
G01 X-71.73989 Y26.88151
G01 X-71.55663 Y26.74633
G01 X-71.41858 Y26.59220
G01 X-71.31464 Y26.41326
G01 X-71.24271 Y26.19720
G01 X-71.22053 Y25.97059
G01 X-71.24271 Y25.76482
G01 X-71.27187 Y25.67333
G01 X-70.64967 Y25.05113
G01 X-70.58985 Y24.97823
G01 X-70.54210 Y24.88585
G01 X-70.51802 Y24.80485
G01 X-70.50877 Y24.71105
G01 X-70.50877 Y19.11858
G01 X-70.38757 Y19.02983
G01 X-70.26826 Y18.89816
G01 X-70.17235 Y18.73641
G01 X-70.10946 Y18.54812
G01 X-70.08978 Y18.36100
G04 P0 ( dwell for no time -- G64 should not smooth over this point )
G00 Z5.00000 ( retract )

G00 X-72.62978 Y18.36100 ( rapid move to begin. )
G01 F300.00000
( Mill infeed pass 1/1 )
G01 Z-0.05000
G04 P0 ( dwell for no time -- G64 should not smooth over this point )
G01 F600.00000
G01 X-72.62978 Y18.36100
G01 X-72.65215 Y18.16377
G01 X-72.70760 Y17.99496
G01 X-72.80168 Y17.83199
G01 X-72.93569 Y17.68559
G01 X-73.07979 Y17.58160
G01 X-73.25167 Y17.50507
G01 X-73.44616 Y17.46540
G01 X-73.62386 Y17.46595
G01 X-73.80790 Y17.50507
G01 X-73.97979 Y17.58160
G01 X-74.12388 Y17.68559
G01 X-74.25789 Y17.83199
G01 X-74.35197 Y17.99496
G01 X-74.40742 Y18.16377
G01 X-74.42924 Y18.37146
G01 X-74.41011 Y18.54812
G01 X-74.34722 Y18.73641
G01 X-74.25131 Y18.89816
G01 X-74.13201 Y19.02983
G01 X-74.01080 Y19.11858
G01 X-74.01080 Y21.97181
G01 X-77.02845 Y24.98946
G01 X-77.24155 Y24.94638
G01 X-77.44849 Y24.94692
G01 X-77.65100 Y24.98938
G01 X-77.85969 Y25.08052
G01 X-78.04295 Y25.21570
G01 X-78.18100 Y25.36983
G01 X-78.28493 Y25.54877
G01 X-78.35687 Y25.76482
G01 X-78.37904 Y25.99146
G01 X-78.35687 Y26.19720
G01 X-78.32771 Y26.28870
G01 X-80.21991 Y28.18089
G01 X-80.27972 Y28.25379
G01 X-80.32747 Y28.34617
G01 X-80.35298 Y28.43688
G01 X-80.36080 Y28.52103
G01 X-80.36080 Y36.49261
G01 X-80.40848 Y36.51621
G01 X-80.57556 Y36.63828
G01 X-80.72671 Y36.80861
G01 X-80.82968 Y36.98809
G01 X-80.89415 Y37.18471
G01 X-80.91960 Y37.41100
G01 X-80.89687 Y37.62720
G01 X-80.83344 Y37.82416
G01 X-80.72100 Y38.02220
G01 X-80.57556 Y38.18374
G01 X-80.40848 Y38.30582
G01 X-80.20111 Y38.39992
G01 X-79.98849 Y38.44511
G01 X-79.77109 Y38.44511
G01 X-79.55846 Y38.39992
G01 X-79.35110 Y38.30582
G01 X-79.18402 Y38.18374
G01 X-79.03286 Y38.01341
G01 X-78.92613 Y37.82416
G01 X-78.86271 Y37.62720
G01 X-78.84053 Y37.42146
G01 X-78.86543 Y37.18471
G01 X-78.92989 Y36.98809
G01 X-79.03286 Y36.80861
G01 X-79.18402 Y36.63828
G01 X-79.35110 Y36.51621
G01 X-79.39880 Y36.49259
G01 X-79.39877 Y28.72026
G01 X-77.65100 Y26.97264
G01 X-77.43802 Y27.01567
G01 X-77.23109 Y27.01511
G01 X-77.02857 Y26.97264
G01 X-76.81989 Y26.88151
G01 X-76.64402 Y26.75374
G01 X-76.49286 Y26.58341
G01 X-76.38989 Y26.40394
G01 X-76.32543 Y26.20731
G01 X-76.29997 Y25.98100
G01 X-76.32271 Y25.76482
G01 X-76.35187 Y25.67333
G01 X-73.18967 Y22.51113
G01 X-73.12985 Y22.43826
G01 X-73.08959 Y22.36396
G01 X-73.06041 Y22.27438
G01 X-73.04877 Y22.17103
G01 X-73.04877 Y19.11858
G01 X-72.92757 Y19.02983
G01 X-72.80826 Y18.89816
G01 X-72.71235 Y18.73641
G01 X-72.64946 Y18.54812
G01 X-72.62978 Y18.36100
G04 P0 ( dwell for no time -- G64 should not smooth over this point )
G00 Z5.00000 ( retract )

G00 X-75.16978 Y18.36100 ( rapid move to begin. )
G01 F300.00000
( Mill infeed pass 1/1 )
G01 Z-0.05000
G04 P0 ( dwell for no time -- G64 should not smooth over this point )
G01 F600.00000
G01 X-75.16978 Y18.36100
G01 X-75.19215 Y18.16377
G01 X-75.24760 Y17.99496
G01 X-75.34168 Y17.83199
G01 X-75.47569 Y17.68559
G01 X-75.61979 Y17.58160
G01 X-75.78189 Y17.50880
G01 X-75.97572 Y17.46595
G01 X-76.17419 Y17.46758
G01 X-76.34790 Y17.50507
G01 X-76.51046 Y17.57683
G01 X-76.67201 Y17.69219
G01 X-76.79789 Y17.83199
G01 X-76.89197 Y17.99496
G01 X-76.95011 Y18.17390
G01 X-76.96924 Y18.37146
G01 X-76.95011 Y18.54812
G01 X-76.88722 Y18.73641
G01 X-76.79131 Y18.89816
G01 X-76.67201 Y19.02983
G01 X-76.55080 Y19.11858
G01 X-76.55080 Y19.43179
G01 X-82.10845 Y24.98946
G01 X-82.32155 Y24.94638
G01 X-82.52849 Y24.94692
G01 X-82.73100 Y24.98938
G01 X-82.93969 Y25.08052
G01 X-83.12295 Y25.21570
G01 X-83.26100 Y25.36983
G01 X-83.36493 Y25.54877
G01 X-83.43687 Y25.76482
G01 X-83.45904 Y25.99146
G01 X-83.43687 Y26.19720
G01 X-83.40771 Y26.28870
G01 X-85.29991 Y28.18089
G01 X-85.35972 Y28.25379
G01 X-85.39998 Y28.32806
G01 X-85.42917 Y28.41765
G01 X-85.44080 Y28.52100
G01 X-85.44080 Y36.49261
G01 X-85.48848 Y36.51621
G01 X-85.65556 Y36.63828
G01 X-85.80671 Y36.80861
G01 X-85.90968 Y36.98809
G01 X-85.97415 Y37.18471
G01 X-85.99960 Y37.41100
G01 X-85.97415 Y37.63731
G01 X-85.90968 Y37.83394
G01 X-85.80671 Y38.01341
G01 X-85.65556 Y38.18374
G01 X-85.47969 Y38.31151
G01 X-85.28111 Y38.39992
G01 X-85.05802 Y38.44567
G01 X-84.85109 Y38.44511
G01 X-84.64857 Y38.40264
G01 X-84.43989 Y38.31151
G01 X-84.26402 Y38.18374
G01 X-84.11286 Y38.01341
G01 X-84.00613 Y37.82416
G01 X-83.94271 Y37.62720
G01 X-83.92053 Y37.42146
G01 X-83.94543 Y37.18471
G01 X-84.00989 Y36.98809
G01 X-84.11286 Y36.80861
G01 X-84.26402 Y36.63828
G01 X-84.43110 Y36.51621
G01 X-84.47877 Y36.49261
G01 X-84.47877 Y28.72026
G01 X-82.73100 Y26.97264
G01 X-82.52849 Y27.01511
G01 X-82.32155 Y27.01567
G01 X-82.09846 Y26.96992
G01 X-81.89110 Y26.87582
G01 X-81.72402 Y26.75374
G01 X-81.58516 Y26.60033
G01 X-81.46989 Y26.40394
G01 X-81.40271 Y26.19720
G01 X-81.38053 Y25.97059
G01 X-81.40271 Y25.76482
G01 X-81.43187 Y25.67333
G01 X-75.72967 Y19.97113
G01 X-75.67569 Y19.90613
G01 X-75.62959 Y19.82396
G01 X-75.59660 Y19.71515
G01 X-75.58877 Y19.63100
G01 X-75.58880 Y19.11861
G01 X-75.46757 Y19.02983
G01 X-75.34826 Y18.89816
G01 X-75.25235 Y18.73641
G01 X-75.18946 Y18.54812
G01 X-75.16978 Y18.36100
G04 P0 ( dwell for no time -- G64 should not smooth over this point )
G00 Z5.00000 ( retract )

G00 X-77.70978 Y18.36100 ( rapid move to begin. )
G01 F300.00000
( Mill infeed pass 1/1 )
G01 Z-0.05000
G04 P0 ( dwell for no time -- G64 should not smooth over this point )
G01 F600.00000
G01 X-77.70978 Y18.36100
G01 X-77.73215 Y18.16377
G01 X-77.78760 Y17.99496
G01 X-77.87597 Y17.84078
G01 X-78.00757 Y17.69219
G01 X-78.16911 Y17.57683
G01 X-78.33167 Y17.50507
G01 X-78.50538 Y17.46758
G01 X-78.70386 Y17.46595
G01 X-78.89768 Y17.50880
G01 X-79.05979 Y17.58160
G01 X-79.20388 Y17.68559
G01 X-79.33789 Y17.83199
G01 X-79.43197 Y17.99496
G01 X-79.49011 Y18.17390
G01 X-79.50980 Y18.36100
G01 X-79.49011 Y18.54812
G01 X-79.42722 Y18.73641
G01 X-79.33131 Y18.89816
G01 X-79.21201 Y19.02983
G01 X-79.14452 Y19.07957
G01 X-83.02495 Y22.96005
G01 X-84.95980 Y22.96005
G01 X-85.04392 Y22.96785
G01 X-85.13463 Y22.99335
G01 X-85.23491 Y23.04694
G01 X-85.29991 Y23.10094
G01 X-87.18842 Y24.98946
G01 X-87.40155 Y24.94638
G01 X-87.60849 Y24.94692
G01 X-87.81100 Y24.98938
G01 X-88.01969 Y25.08052
G01 X-88.19556 Y25.20831
G01 X-88.34671 Y25.37861
G01 X-88.44968 Y25.55809
G01 X-88.51415 Y25.75471
G01 X-88.53960 Y25.98100
G01 X-88.51687 Y26.19720
G01 X-88.48771 Y26.28870
G01 X-90.37991 Y28.18089
G01 X-90.43330 Y28.24483
G01 X-90.47165 Y28.30977
G01 X-90.49939 Y28.37993
G01 X-90.51580 Y28.45356
G01 X-90.52080 Y28.52103
G01 X-90.52080 Y36.49261
G01 X-90.56848 Y36.51621
G01 X-90.73556 Y36.63828
G01 X-90.88671 Y36.80861
G01 X-90.98968 Y36.98809
G01 X-91.05415 Y37.18471
G01 X-91.07960 Y37.41100
G01 X-91.05415 Y37.63731
G01 X-90.98968 Y37.83394
G01 X-90.88671 Y38.01341
G01 X-90.73556 Y38.18374
G01 X-90.55969 Y38.31151
G01 X-90.36111 Y38.39992
G01 X-90.13802 Y38.44567
G01 X-89.93109 Y38.44511
G01 X-89.72857 Y38.40264
G01 X-89.51989 Y38.31151
G01 X-89.34402 Y38.18374
G01 X-89.19286 Y38.01341
G01 X-89.08613 Y37.82416
G01 X-89.02271 Y37.62720
G01 X-89.00053 Y37.42146
G01 X-89.02543 Y37.18471
G01 X-89.08989 Y36.98809
G01 X-89.19286 Y36.80861
G01 X-89.34402 Y36.63828
G01 X-89.51110 Y36.51621
G01 X-89.55880 Y36.49259
G01 X-89.55877 Y28.72024
G01 X-87.81100 Y26.97264
G01 X-87.59802 Y27.01567
G01 X-87.39109 Y27.01511
G01 X-87.18857 Y26.97264
G01 X-86.97989 Y26.88151
G01 X-86.80402 Y26.75374
G01 X-86.65286 Y26.58341
G01 X-86.54989 Y26.40394
G01 X-86.48543 Y26.20731
G01 X-86.45997 Y25.98100
G01 X-86.48271 Y25.76482
G01 X-86.51187 Y25.67333
G01 X-84.76054 Y23.92205
G01 X-82.81789 Y23.92172
G01 X-82.75828 Y23.91705
G01 X-82.68465 Y23.90066
G01 X-82.61449 Y23.87293
G01 X-82.54954 Y23.83455
G01 X-82.49138 Y23.78649
G01 X-78.26309 Y19.55792
G01 X-78.20480 Y19.48388
G01 X-78.16210 Y19.39991
G01 X-78.13660 Y19.30921
G01 X-78.12877 Y19.22508
G01 X-78.12877 Y19.11858
G01 X-78.00757 Y19.02983
G01 X-77.88826 Y18.89816
G01 X-77.78760 Y18.72706
G01 X-77.72946 Y18.54812
G01 X-77.70978 Y18.36100
G04 P0 ( dwell for no time -- G64 should not smooth over this point )
G00 Z5.00000 ( retract )

G00 X-80.24978 Y18.36100 ( rapid move to begin. )
G01 F300.00000
( Mill infeed pass 1/1 )
G01 Z-0.05000
G04 P0 ( dwell for no time -- G64 should not smooth over this point )
G01 F600.00000
G01 X-80.24978 Y18.36100
G01 X-80.26946 Y18.17390
G01 X-80.32760 Y17.99496
G01 X-80.42168 Y17.83199
G01 X-80.55569 Y17.68559
G01 X-80.69979 Y17.58160
G01 X-80.86189 Y17.50880
G01 X-81.04538 Y17.46758
G01 X-81.24386 Y17.46595
G01 X-81.42790 Y17.50507
G01 X-81.59979 Y17.58160
G01 X-81.75201 Y17.69219
G01 X-81.87789 Y17.83199
G01 X-81.97197 Y17.99496
G01 X-82.03011 Y18.17390
G01 X-82.04980 Y18.36100
G01 X-82.03011 Y18.54812
G01 X-81.98193 Y18.69821
G01 X-83.70372 Y20.42003
G01 X-87.49980 Y20.42000
G01 X-87.59363 Y20.42925
G01 X-87.69274 Y20.46082
G01 X-87.76701 Y20.50108
G01 X-87.83991 Y20.56089
G01 X-92.26845 Y24.98946
G01 X-92.47109 Y24.94692
G01 X-92.67802 Y24.94638
G01 X-92.90111 Y24.99210
G01 X-93.10848 Y25.08621
G01 X-93.27556 Y25.20831
G01 X-93.42100 Y25.36983
G01 X-93.52968 Y25.55809
G01 X-93.59687 Y25.76482
G01 X-93.61904 Y25.99146
G01 X-93.59687 Y26.19720
G01 X-93.56771 Y26.28870
G01 X-95.45991 Y28.18089
G01 X-95.51972 Y28.25379
G01 X-95.55998 Y28.32806
G01 X-95.59298 Y28.43688
G01 X-95.60080 Y28.52103
G01 X-95.60080 Y36.49261
G01 X-95.64848 Y36.51621
G01 X-95.81556 Y36.63828
G01 X-95.96671 Y36.80861
G01 X-96.06968 Y36.98809
G01 X-96.13415 Y37.18471
G01 X-96.15960 Y37.41100
G01 X-96.13687 Y37.62720
G01 X-96.06968 Y37.83394
G01 X-95.96100 Y38.02220
G01 X-95.80740 Y38.19032
G01 X-95.63037 Y38.31626
G01 X-95.44111 Y38.39992
G01 X-95.23882 Y38.44348
G01 X-95.01109 Y38.44511
G01 X-94.79846 Y38.39992
G01 X-94.59110 Y38.30582
G01 X-94.42402 Y38.18374
G01 X-94.28516 Y38.03033
G01 X-94.16989 Y37.83394
G01 X-94.10108 Y37.61687
G01 X-94.07997 Y37.41100
G01 X-94.10108 Y37.20516
G01 X-94.16989 Y36.98809
G01 X-94.27858 Y36.79983
G01 X-94.41663 Y36.64570
G01 X-94.59110 Y36.51621
G01 X-94.63877 Y36.49261
G01 X-94.63877 Y28.72026
G01 X-92.89100 Y26.97264
G01 X-92.67802 Y27.01567
G01 X-92.47109 Y27.01511
G01 X-92.26857 Y26.97264
G01 X-92.05989 Y26.88151
G01 X-91.88402 Y26.75374
G01 X-91.73286 Y26.58341
G01 X-91.62989 Y26.40394
G01 X-91.56543 Y26.20731
G01 X-91.53997 Y25.98100
G01 X-91.56271 Y25.76482
G01 X-91.59187 Y25.67333
G01 X-87.30056 Y21.38200
G01 X-83.50451 Y21.38203
G01 X-83.41065 Y21.37278
G01 X-83.31154 Y21.34123
G01 X-83.23727 Y21.30095
G01 X-83.16438 Y21.24113
G01 X-81.17987 Y19.25663
G01 X-81.05572 Y19.25607
G01 X-80.87167 Y19.21695
G01 X-80.69979 Y19.14042
G01 X-80.54757 Y19.02983
G01 X-80.42168 Y18.89003
G01 X-80.32760 Y18.72706
G01 X-80.26946 Y18.54812
G01 X-80.24978 Y18.36100
G04 P0 ( dwell for no time -- G64 should not smooth over this point )
G00 Z5.00000 ( retract )

G00 X-82.78978 Y18.36100 ( rapid move to begin. )
G01 F300.00000
( Mill infeed pass 1/1 )
G01 Z-0.05000
G04 P0 ( dwell for no time -- G64 should not smooth over this point )
G01 F600.00000
G01 X-82.78978 Y18.36100
G01 X-82.80946 Y18.17390
G01 X-82.86760 Y17.99496
G01 X-82.96168 Y17.83199
G01 X-83.08017 Y17.69958
G01 X-83.24911 Y17.57683
G01 X-83.41167 Y17.50507
G01 X-83.60616 Y17.46540
G01 X-83.78386 Y17.46595
G01 X-83.96790 Y17.50507
G01 X-84.13979 Y17.58160
G01 X-84.29201 Y17.69219
G01 X-84.41789 Y17.83199
G01 X-84.51197 Y17.99496
G01 X-84.57011 Y18.17390
G01 X-84.58980 Y18.36100
G01 X-84.57011 Y18.54812
G01 X-84.51197 Y18.72706
G01 X-84.41789 Y18.89003
G01 X-84.29940 Y19.02244
G01 X-84.13046 Y19.14520
G01 X-83.96790 Y19.21695
G01 X-83.77342 Y19.25663
G01 X-83.59572 Y19.25607
G01 X-83.41167 Y19.21695
G01 X-83.23979 Y19.14042
G01 X-83.08757 Y19.02983
G01 X-82.96168 Y18.89003
G01 X-82.86760 Y18.72706
G01 X-82.80946 Y18.54812
G01 X-82.78978 Y18.36100
G04 P0 ( dwell for no time -- G64 should not smooth over this point )
G00 Z5.00000 ( retract )

G00 X-85.32978 Y18.36100 ( rapid move to begin. )
G01 F300.00000
( Mill infeed pass 1/1 )
G01 Z-0.05000
G04 P0 ( dwell for no time -- G64 should not smooth over this point )
G01 F600.00000
G01 X-85.32978 Y18.36100
G01 X-85.34946 Y18.17390
G01 X-85.40760 Y17.99496
G01 X-85.50168 Y17.83199
G01 X-85.62017 Y17.69958
G01 X-85.78911 Y17.57683
G01 X-85.95167 Y17.50507
G01 X-86.14616 Y17.46540
G01 X-86.32386 Y17.46595
G01 X-86.50790 Y17.50507
G01 X-86.67979 Y17.58160
G01 X-86.83201 Y17.69219
G01 X-86.95789 Y17.83199
G01 X-87.05197 Y17.99496
G01 X-87.11011 Y18.17390
G01 X-87.12980 Y18.36100
G01 X-87.11011 Y18.54812
G01 X-87.05197 Y18.72706
G01 X-86.95789 Y18.89003
G01 X-86.83940 Y19.02244
G01 X-86.67046 Y19.14520
G01 X-86.50790 Y19.21695
G01 X-86.31342 Y19.25663
G01 X-86.13572 Y19.25607
G01 X-85.95167 Y19.21695
G01 X-85.77979 Y19.14042
G01 X-85.62757 Y19.02983
G01 X-85.50168 Y18.89003
G01 X-85.40760 Y18.72706
G01 X-85.34946 Y18.54812
G01 X-85.32978 Y18.36100
G04 P0 ( dwell for no time -- G64 should not smooth over this point )
G00 Z5.00000 ( retract )

G00 X-72.62978 Y10.74100 ( rapid move to begin. )
G01 F300.00000
( Mill infeed pass 1/1 )
G01 Z-0.05000
G04 P0 ( dwell for no time -- G64 should not smooth over this point )
G01 F600.00000
G01 X-72.62978 Y10.74100
G01 X-72.64946 Y10.92812
G01 X-72.70760 Y11.10706
G01 X-72.80168 Y11.27003
G01 X-72.92017 Y11.40244
G01 X-73.08911 Y11.52520
G01 X-73.25167 Y11.59695
G01 X-73.44616 Y11.63663
G01 X-73.62386 Y11.63607
G01 X-73.80790 Y11.59695
G01 X-73.97979 Y11.52042
G01 X-74.13201 Y11.40983
G01 X-74.25789 Y11.27003
G01 X-74.35197 Y11.10706
G01 X-74.41011 Y10.92812
G01 X-74.42980 Y10.74100
G01 X-74.41011 Y10.55390
G01 X-74.35197 Y10.37496
G01 X-74.25789 Y10.21199
G01 X-74.13940 Y10.07958
G01 X-73.97046 Y9.95683
G01 X-73.80790 Y9.88507
G01 X-73.61342 Y9.84540
G01 X-73.43572 Y9.84595
G01 X-73.25167 Y9.88507
G01 X-73.07979 Y9.96160
G01 X-72.92757 Y10.07219
G01 X-72.80168 Y10.21199
G01 X-72.70760 Y10.37496
G01 X-72.64946 Y10.55390
G01 X-72.62978 Y10.74100
G04 P0 ( dwell for no time -- G64 should not smooth over this point )
G00 Z5.00000 ( retract )

G00 X-72.62978 Y13.28100 ( rapid move to begin. )
G01 F300.00000
( Mill infeed pass 1/1 )
G01 Z-0.05000
G04 P0 ( dwell for no time -- G64 should not smooth over this point )
G01 F600.00000
G01 X-72.62978 Y13.28100
G01 X-72.64946 Y13.46812
G01 X-72.70760 Y13.64706
G01 X-72.80168 Y13.81003
G01 X-72.92017 Y13.94244
G01 X-73.08911 Y14.06520
G01 X-73.25167 Y14.13695
G01 X-73.44616 Y14.17663
G01 X-73.62386 Y14.17607
G01 X-73.80790 Y14.13695
G01 X-73.97979 Y14.06042
G01 X-74.13201 Y13.94983
G01 X-74.25789 Y13.81003
G01 X-74.35197 Y13.64706
G01 X-74.41011 Y13.46812
G01 X-74.42980 Y13.28100
G01 X-74.41011 Y13.09390
G01 X-74.35197 Y12.91496
G01 X-74.25789 Y12.75199
G01 X-74.13940 Y12.61958
G01 X-73.97046 Y12.49683
G01 X-73.80790 Y12.42507
G01 X-73.61342 Y12.38540
G01 X-73.43572 Y12.38595
G01 X-73.25167 Y12.42507
G01 X-73.07979 Y12.50160
G01 X-72.92757 Y12.61219
G01 X-72.80168 Y12.75199
G01 X-72.70760 Y12.91496
G01 X-72.64946 Y13.09390
G01 X-72.62978 Y13.28100
G04 P0 ( dwell for no time -- G64 should not smooth over this point )
G00 Z5.00000 ( retract )

G00 X-72.62978 Y15.82100 ( rapid move to begin. )
G01 F300.00000
( Mill infeed pass 1/1 )
G01 Z-0.05000
G04 P0 ( dwell for no time -- G64 should not smooth over this point )
G01 F600.00000
G01 X-72.62978 Y15.82100
G01 X-72.64946 Y16.00812
G01 X-72.70760 Y16.18706
G01 X-72.80168 Y16.35003
G01 X-72.92017 Y16.48244
G01 X-73.08911 Y16.60520
G01 X-73.25167 Y16.67695
G01 X-73.44616 Y16.71663
G01 X-73.62386 Y16.71607
G01 X-73.80790 Y16.67695
G01 X-73.97979 Y16.60042
G01 X-74.13201 Y16.48983
G01 X-74.25789 Y16.35003
G01 X-74.35197 Y16.18706
G01 X-74.41011 Y16.00812
G01 X-74.42980 Y15.82100
G01 X-74.41011 Y15.63390
G01 X-74.35197 Y15.45496
G01 X-74.25789 Y15.29199
G01 X-74.13940 Y15.15958
G01 X-73.97046 Y15.03683
G01 X-73.80790 Y14.96507
G01 X-73.61342 Y14.92540
G01 X-73.43572 Y14.92595
G01 X-73.25167 Y14.96507
G01 X-73.07979 Y15.04160
G01 X-72.92757 Y15.15219
G01 X-72.80168 Y15.29199
G01 X-72.70760 Y15.45496
G01 X-72.64946 Y15.63390
G01 X-72.62978 Y15.82100
G04 P0 ( dwell for no time -- G64 should not smooth over this point )
G00 Z5.00000 ( retract )

G00 X-85.32978 Y3.12100 ( rapid move to begin. )
G01 F300.00000
( Mill infeed pass 1/1 )
G01 Z-0.05000
G04 P0 ( dwell for no time -- G64 should not smooth over this point )
G01 F600.00000
G01 X-85.32978 Y3.12100
G01 X-85.34946 Y3.30812
G01 X-85.41235 Y3.49641
G01 X-85.50826 Y3.65816
G01 X-85.62757 Y3.78983
G01 X-85.74877 Y3.87858
G01 X-85.74877 Y14.55103
G01 X-85.75802 Y14.64485
G01 X-85.78959 Y14.74396
G01 X-85.82985 Y14.81823
G01 X-85.88967 Y14.89113
G01 X-96.67187 Y25.67333
G01 X-96.64271 Y25.76482
G01 X-96.61997 Y25.98100
G01 X-96.64543 Y26.20731
G01 X-96.70989 Y26.40394
G01 X-96.81286 Y26.58341
G01 X-96.96402 Y26.75374
G01 X-97.13989 Y26.88151
G01 X-97.34857 Y26.97264
G01 X-97.56155 Y27.01567
G01 X-97.76849 Y27.01511
G01 X-97.97100 Y26.97264
G01 X-99.71877 Y28.72024
G01 X-99.71877 Y36.49261
G01 X-99.67110 Y36.51621
G01 X-99.50402 Y36.63828
G01 X-99.35286 Y36.80861
G01 X-99.24989 Y36.98809
G01 X-99.18543 Y37.18471
G01 X-99.16053 Y37.42146
G01 X-99.18271 Y37.62720
G01 X-99.24613 Y37.82416
G01 X-99.35286 Y38.01341
G01 X-99.50402 Y38.18374
G01 X-99.67110 Y38.30582
G01 X-99.87846 Y38.39992
G01 X-100.09109 Y38.44511
G01 X-100.30849 Y38.44511
G01 X-100.53086 Y38.39616
G01 X-100.71969 Y38.31151
G01 X-100.88740 Y38.19032
G01 X-101.04100 Y38.02220
G01 X-101.15344 Y37.82416
G01 X-101.21687 Y37.62720
G01 X-101.23960 Y37.41100
G01 X-101.21415 Y37.18471
G01 X-101.14968 Y36.98809
G01 X-101.04671 Y36.80861
G01 X-100.89556 Y36.63828
G01 X-100.72848 Y36.51621
G01 X-100.68077 Y36.49259
G01 X-100.68080 Y28.52103
G01 X-100.66917 Y28.41765
G01 X-100.63998 Y28.32806
G01 X-100.59972 Y28.25379
G01 X-100.53991 Y28.18089
G01 X-98.64771 Y26.28870
G01 X-98.67687 Y26.19720
G01 X-98.69904 Y25.99146
G01 X-98.67687 Y25.76482
G01 X-98.60493 Y25.54877
G01 X-98.50100 Y25.36983
G01 X-98.36295 Y25.21570
G01 X-98.17969 Y25.08052
G01 X-97.97100 Y24.98938
G01 X-97.76849 Y24.94692
G01 X-97.56155 Y24.94638
G01 X-97.34845 Y24.98946
G01 X-86.71077 Y14.35179
G01 X-86.71080 Y3.87858
G01 X-86.83201 Y3.78983
G01 X-86.95131 Y3.65816
G01 X-87.05197 Y3.48706
G01 X-87.11176 Y3.29778
G01 X-87.12980 Y3.12100
G01 X-87.11176 Y2.94424
G01 X-87.04722 Y2.74561
G01 X-86.95789 Y2.59199
G01 X-86.82388 Y2.44559
G01 X-86.67979 Y2.34160
G01 X-86.50790 Y2.26507
G01 X-86.32386 Y2.22595
G01 X-86.13572 Y2.22595
G01 X-85.95167 Y2.26507
G01 X-85.77979 Y2.34160
G01 X-85.62757 Y2.45219
G01 X-85.50826 Y2.58387
G01 X-85.40384 Y2.76471
G01 X-85.34946 Y2.93390
G01 X-85.32978 Y3.12100
G04 P0 ( dwell for no time -- G64 should not smooth over this point )
G00 Z5.00000 ( retract )

G00 X-82.78978 Y3.12100 ( rapid move to begin. )
G01 F300.00000
( Mill infeed pass 1/1 )
G01 Z-0.05000
G04 P0 ( dwell for no time -- G64 should not smooth over this point )
G01 F600.00000
G01 X-82.78978 Y3.12100
G01 X-82.81215 Y3.31826
G01 X-82.86760 Y3.48706
G01 X-82.95597 Y3.64124
G01 X-83.08757 Y3.78983
G01 X-83.24911 Y3.90520
G01 X-83.41167 Y3.97695
G01 X-83.58538 Y4.01444
G01 X-83.78386 Y4.01607
G01 X-83.97768 Y3.97322
G01 X-84.13979 Y3.90042
G01 X-84.29201 Y3.78983
G01 X-84.41789 Y3.65003
G01 X-84.51197 Y3.48706
G01 X-84.57011 Y3.30812
G01 X-84.58924 Y3.11056
G01 X-84.57011 Y2.93390
G01 X-84.50722 Y2.74561
G01 X-84.41131 Y2.58387
G01 X-84.29201 Y2.45219
G01 X-84.17077 Y2.36344
G01 X-84.17080 Y2.05024
G01 X-85.15904 Y1.06200
G01 X-86.75817 Y1.06203
G01 X-88.28877 Y2.59260
G01 X-88.28877 Y12.01103
G01 X-88.29802 Y12.10485
G01 X-88.32959 Y12.20396
G01 X-88.36985 Y12.27823
G01 X-88.42967 Y12.35113
G01 X-101.75187 Y25.67333
G01 X-101.72271 Y25.76482
G01 X-101.69997 Y25.98100
G01 X-101.72543 Y26.20731
G01 X-101.78989 Y26.40394
G01 X-101.89286 Y26.58341
G01 X-102.04402 Y26.75374
G01 X-102.21989 Y26.88151
G01 X-102.42857 Y26.97264
G01 X-102.64155 Y27.01567
G01 X-102.84849 Y27.01511
G01 X-103.05100 Y26.97264
G01 X-104.79877 Y28.72024
G01 X-104.79880 Y36.49261
G01 X-104.75110 Y36.51621
G01 X-104.57663 Y36.64570
G01 X-104.43858 Y36.79983
G01 X-104.32989 Y36.98809
G01 X-104.26108 Y37.20516
G01 X-104.23997 Y37.41100
G01 X-104.26108 Y37.61687
G01 X-104.32989 Y37.83394
G01 X-104.43858 Y38.02220
G01 X-104.58402 Y38.18374
G01 X-104.76921 Y38.31626
G01 X-104.96857 Y38.40264
G01 X-105.17109 Y38.44511
G01 X-105.37802 Y38.44567
G01 X-105.60111 Y38.39992
G01 X-105.80848 Y38.30582
G01 X-105.97556 Y38.18374
G01 X-106.11442 Y38.03033
G01 X-106.22493 Y37.84326
G01 X-106.29687 Y37.62720
G01 X-106.31960 Y37.41100
G01 X-106.29415 Y37.18471
G01 X-106.22968 Y36.98809
G01 X-106.12671 Y36.80861
G01 X-105.97556 Y36.63828
G01 X-105.80848 Y36.51621
G01 X-105.76077 Y36.49259
G01 X-105.76080 Y28.52103
G01 X-105.74917 Y28.41765
G01 X-105.71998 Y28.32806
G01 X-105.67972 Y28.25379
G01 X-105.61991 Y28.18089
G01 X-103.72771 Y26.28870
G01 X-103.75687 Y26.19720
G01 X-103.77904 Y25.99146
G01 X-103.75687 Y25.76482
G01 X-103.68493 Y25.54877
G01 X-103.58100 Y25.36983
G01 X-103.44295 Y25.21570
G01 X-103.25969 Y25.08052
G01 X-103.05100 Y24.98938
G01 X-102.84849 Y24.94692
G01 X-102.64155 Y24.94638
G01 X-102.42845 Y24.98946
G01 X-89.25077 Y11.81179
G01 X-89.25080 Y2.39339
G01 X-89.23917 Y2.29001
G01 X-89.20998 Y2.20043
G01 X-89.16972 Y2.12616
G01 X-89.10991 Y2.05326
G01 X-87.29754 Y0.24089
G01 X-87.22464 Y0.18108
G01 X-87.15037 Y0.14082
G01 X-87.05126 Y0.10925
G01 X-86.95743 Y0.10000
G01 X-84.95980 Y0.10000
G01 X-84.86595 Y0.10925
G01 X-84.78495 Y0.13332
G01 X-84.70097 Y0.17602
G01 X-84.61967 Y0.24089
G01 X-83.34967 Y1.51089
G01 X-83.28985 Y1.58379
G01 X-83.24210 Y1.67617
G01 X-83.21660 Y1.76688
G01 X-83.20877 Y1.85100
G01 X-83.20877 Y2.36344
G01 X-83.08757 Y2.45219
G01 X-82.96826 Y2.58387
G01 X-82.87235 Y2.74561
G01 X-82.80946 Y2.93390
G01 X-82.78978 Y3.12100
G04 P0 ( dwell for no time -- G64 should not smooth over this point )
G00 Z5.00000 ( retract )

G00 X-80.24978 Y3.12100 ( rapid move to begin. )
G01 F300.00000
( Mill infeed pass 1/1 )
G01 Z-0.05000
G04 P0 ( dwell for no time -- G64 should not smooth over this point )
G01 F600.00000
G01 X-80.24978 Y3.12100
G01 X-80.26946 Y3.30812
G01 X-80.32760 Y3.48706
G01 X-80.42168 Y3.65003
G01 X-80.54017 Y3.78244
G01 X-80.70911 Y3.90520
G01 X-80.87167 Y3.97695
G01 X-81.06616 Y4.01663
G01 X-81.24386 Y4.01607
G01 X-81.42790 Y3.97695
G01 X-81.59979 Y3.90042
G01 X-81.75201 Y3.78983
G01 X-81.87789 Y3.65003
G01 X-81.97197 Y3.48706
G01 X-82.03011 Y3.30812
G01 X-82.04980 Y3.12100
G01 X-82.03011 Y2.93390
G01 X-81.97197 Y2.75496
G01 X-81.87789 Y2.59199
G01 X-81.75940 Y2.45958
G01 X-81.59046 Y2.33683
G01 X-81.42790 Y2.26507
G01 X-81.23342 Y2.22540
G01 X-81.05572 Y2.22595
G01 X-80.87167 Y2.26507
G01 X-80.69979 Y2.34160
G01 X-80.54757 Y2.45219
G01 X-80.42168 Y2.59199
G01 X-80.32760 Y2.75496
G01 X-80.26946 Y2.93390
G01 X-80.24978 Y3.12100
G04 P0 ( dwell for no time -- G64 should not smooth over this point )
G00 Z5.00000 ( retract )

G00 X-77.70978 Y3.12100 ( rapid move to begin. )
G01 F300.00000
( Mill infeed pass 1/1 )
G01 Z-0.05000
G04 P0 ( dwell for no time -- G64 should not smooth over this point )
G01 F600.00000
G01 X-77.70978 Y3.12100
G01 X-77.72946 Y3.30812
G01 X-77.78760 Y3.48706
G01 X-77.88168 Y3.65003
G01 X-78.00017 Y3.78244
G01 X-78.16911 Y3.90520
G01 X-78.33167 Y3.97695
G01 X-78.52616 Y4.01663
G01 X-78.70386 Y4.01607
G01 X-78.88790 Y3.97695
G01 X-79.05979 Y3.90042
G01 X-79.21201 Y3.78983
G01 X-79.33789 Y3.65003
G01 X-79.43197 Y3.48706
G01 X-79.49011 Y3.30812
G01 X-79.50980 Y3.12100
G01 X-79.49011 Y2.93390
G01 X-79.43197 Y2.75496
G01 X-79.33789 Y2.59199
G01 X-79.21940 Y2.45958
G01 X-79.05046 Y2.33683
G01 X-78.88790 Y2.26507
G01 X-78.69342 Y2.22540
G01 X-78.51572 Y2.22595
G01 X-78.33167 Y2.26507
G01 X-78.15979 Y2.34160
G01 X-78.00757 Y2.45219
G01 X-77.88168 Y2.59199
G01 X-77.78760 Y2.75496
G01 X-77.72946 Y2.93390
G01 X-77.70978 Y3.12100
G04 P0 ( dwell for no time -- G64 should not smooth over this point )
G00 Z5.00000 ( retract )

G00 X-75.16978 Y3.12100 ( rapid move to begin. )
G01 F300.00000
( Mill infeed pass 1/1 )
G01 Z-0.05000
G04 P0 ( dwell for no time -- G64 should not smooth over this point )
G01 F600.00000
G01 X-75.16978 Y3.12100
G01 X-75.18946 Y3.30812
G01 X-75.24760 Y3.48706
G01 X-75.34168 Y3.65003
G01 X-75.46017 Y3.78244
G01 X-75.62911 Y3.90520
G01 X-75.79167 Y3.97695
G01 X-75.98616 Y4.01663
G01 X-76.16386 Y4.01607
G01 X-76.34790 Y3.97695
G01 X-76.51979 Y3.90042
G01 X-76.67201 Y3.78983
G01 X-76.79789 Y3.65003
G01 X-76.89197 Y3.48706
G01 X-76.95011 Y3.30812
G01 X-76.96980 Y3.12100
G01 X-76.95011 Y2.93390
G01 X-76.89197 Y2.75496
G01 X-76.79789 Y2.59199
G01 X-76.67940 Y2.45958
G01 X-76.51046 Y2.33683
G01 X-76.34790 Y2.26507
G01 X-76.15342 Y2.22540
G01 X-75.97572 Y2.22595
G01 X-75.79167 Y2.26507
G01 X-75.61979 Y2.34160
G01 X-75.46757 Y2.45219
G01 X-75.34168 Y2.59199
G01 X-75.24760 Y2.75496
G01 X-75.18946 Y2.93390
G01 X-75.16978 Y3.12100
G04 P0 ( dwell for no time -- G64 should not smooth over this point )
G00 Z5.00000 ( retract )

G00 X-72.62978 Y3.12100 ( rapid move to begin. )
G01 F300.00000
( Mill infeed pass 1/1 )
G01 Z-0.05000
G04 P0 ( dwell for no time -- G64 should not smooth over this point )
G01 F600.00000
G01 X-72.62978 Y3.12100
G01 X-72.64946 Y3.30812
G01 X-72.70760 Y3.48706
G01 X-72.80168 Y3.65003
G01 X-72.92017 Y3.78244
G01 X-73.08911 Y3.90520
G01 X-73.25167 Y3.97695
G01 X-73.44616 Y4.01663
G01 X-73.62386 Y4.01607
G01 X-73.80790 Y3.97695
G01 X-73.97979 Y3.90042
G01 X-74.13201 Y3.78983
G01 X-74.25789 Y3.65003
G01 X-74.35197 Y3.48706
G01 X-74.41011 Y3.30812
G01 X-74.42980 Y3.12100
G01 X-74.41011 Y2.93390
G01 X-74.35197 Y2.75496
G01 X-74.25789 Y2.59199
G01 X-74.13940 Y2.45958
G01 X-73.97046 Y2.33683
G01 X-73.80790 Y2.26507
G01 X-73.61342 Y2.22540
G01 X-73.43572 Y2.22595
G01 X-73.25167 Y2.26507
G01 X-73.07979 Y2.34160
G01 X-72.92757 Y2.45219
G01 X-72.80168 Y2.59199
G01 X-72.70760 Y2.75496
G01 X-72.64946 Y2.93390
G01 X-72.62978 Y3.12100
G04 P0 ( dwell for no time -- G64 should not smooth over this point )
G00 Z5.00000 ( retract )

G00 X-70.08978 Y3.12100 ( rapid move to begin. )
G01 F300.00000
( Mill infeed pass 1/1 )
G01 Z-0.05000
G04 P0 ( dwell for no time -- G64 should not smooth over this point )
G01 F600.00000
G01 X-70.08978 Y3.12100
G01 X-70.10946 Y3.30812
G01 X-70.16760 Y3.48706
G01 X-70.26168 Y3.65003
G01 X-70.38017 Y3.78244
G01 X-70.54911 Y3.90520
G01 X-70.71167 Y3.97695
G01 X-70.90616 Y4.01663
G01 X-71.08386 Y4.01607
G01 X-71.26790 Y3.97695
G01 X-71.43979 Y3.90042
G01 X-71.59201 Y3.78983
G01 X-71.71789 Y3.65003
G01 X-71.81197 Y3.48706
G01 X-71.87011 Y3.30812
G01 X-71.88980 Y3.12100
G01 X-71.87011 Y2.93390
G01 X-71.81197 Y2.75496
G01 X-71.71789 Y2.59199
G01 X-71.59940 Y2.45958
G01 X-71.43046 Y2.33683
G01 X-71.26790 Y2.26507
G01 X-71.07342 Y2.22540
G01 X-70.89572 Y2.22595
G01 X-70.71167 Y2.26507
G01 X-70.53979 Y2.34160
G01 X-70.38757 Y2.45219
G01 X-70.26168 Y2.59199
G01 X-70.16760 Y2.75496
G01 X-70.10946 Y2.93390
G01 X-70.08978 Y3.12100
G04 P0 ( dwell for no time -- G64 should not smooth over this point )
G00 Z5.00000 ( retract )

G00 X-72.62978 Y5.66100 ( rapid move to begin. )
G01 F300.00000
( Mill infeed pass 1/1 )
G01 Z-0.05000
G04 P0 ( dwell for no time -- G64 should not smooth over this point )
G01 F600.00000
G01 X-72.62978 Y5.66100
G01 X-72.64946 Y5.84812
G01 X-72.70760 Y6.02706
G01 X-72.80168 Y6.19003
G01 X-72.92017 Y6.32244
G01 X-73.08911 Y6.44520
G01 X-73.25167 Y6.51695
G01 X-73.44616 Y6.55663
G01 X-73.62386 Y6.55607
G01 X-73.80790 Y6.51695
G01 X-73.97979 Y6.44042
G01 X-74.13201 Y6.32983
G01 X-74.25789 Y6.19003
G01 X-74.35197 Y6.02706
G01 X-74.41011 Y5.84812
G01 X-74.42980 Y5.66100
G01 X-74.41011 Y5.47390
G01 X-74.35197 Y5.29496
G01 X-74.25789 Y5.13199
G01 X-74.13940 Y4.99958
G01 X-73.97046 Y4.87683
G01 X-73.80790 Y4.80507
G01 X-73.61342 Y4.76540
G01 X-73.43572 Y4.76595
G01 X-73.25167 Y4.80507
G01 X-73.07979 Y4.88160
G01 X-72.92757 Y4.99219
G01 X-72.80168 Y5.13199
G01 X-72.70760 Y5.29496
G01 X-72.64946 Y5.47390
G01 X-72.62978 Y5.66100
G04 P0 ( dwell for no time -- G64 should not smooth over this point )
