( pcb2gcode 2.1.0 )
( Software-independent Gcode )

G94 ( Millimeters per minute feed rate. )
G21 ( Units == Millimeters. )

G90 ( Absolute coordinates. )
G00 S10000 ( RPM spindle speed. )
G64 P0.01016 ( set maximum deviation from commanded toolpath )
G01 F600.00000 ( Feedrate. )


G00 Z10.00000 (Retract to tool change height)
T0
M5      (Spindle stop.)
G04 P1.00000 (Wait for spindle to stop)
(MSG, Change tool bit to mill diameter 0.00500mm)
M6      (Tool change.)
M0      (Temporary machine stop.)
M3 ( Spindle on clockwise. )
G04 P1.00000 (Wait for spindle to get up to speed)
G04 P0 ( dwell for no time -- G64 should not smooth over this point )
G00 Z5.00000 ( retract )

G00 X-0.00248 Y33.54100 ( rapid move to begin. )
G01 F300.00000
( Mill infeed pass 1/1 )
G01 Z-0.05000
G04 P0 ( dwell for no time -- G64 should not smooth over this point )
G01 F600.00000
G01 X-0.00248 Y33.54100
G01 X-0.02603 Y33.31702
G01 X-0.09047 Y33.11626
G01 X-0.10215 Y33.09002
G01 X-0.20040 Y32.91987
G01 X-0.21729 Y32.89660
G01 X-0.35892 Y32.74042
G01 X-0.54114 Y32.60803
G01 X-0.74688 Y32.51644
G01 X-0.96718 Y32.46960
G01 X-1.19240 Y32.46960
G01 X-1.39880 Y32.51271
G01 X-1.42613 Y32.52160
G01 X-1.61843 Y32.60803
G01 X-1.78945 Y32.73137
G01 X-1.81081 Y32.75060
G01 X-1.95140 Y32.90788
G01 X-2.01808 Y33.02284
G01 X-5.22150 Y33.02284
G01 X-5.28817 Y32.90788
G01 X-5.43892 Y32.74042
G01 X-5.62114 Y32.60803
G01 X-5.82688 Y32.51644
G01 X-6.04718 Y32.46960
G01 X-6.27240 Y32.46960
G01 X-6.49269 Y32.51644
G01 X-6.69843 Y32.60803
G01 X-6.86943 Y32.73137
G01 X-6.89081 Y32.75060
G01 X-7.03135 Y32.90780
G01 X-7.13742 Y33.09002
G01 X-7.14910 Y33.11626
G01 X-7.21352 Y33.31702
G01 X-7.23706 Y33.54100
G01 X-7.21578 Y33.75078
G01 X-7.20979 Y33.77890
G01 X-7.14395 Y33.97920
G01 X-7.03917 Y34.16216
G01 X-7.02226 Y34.18542
G01 X-6.88065 Y34.34161
G01 X-6.71050 Y34.46614
G01 X-6.67799 Y34.48364
G01 X-6.67809 Y35.86632
G01 X-10.18448 Y39.37271
G01 X-13.26202 Y39.37325
G01 X-13.26156 Y38.29362
G01 X-13.22908 Y38.27614
G01 X-13.05892 Y38.15161
G01 X-12.91729 Y37.99542
G01 X-12.90040 Y37.97216
G01 X-12.79563 Y37.78920
G01 X-12.72976 Y37.58890
G01 X-12.72377 Y37.56078
G01 X-12.70248 Y37.35100
G01 X-12.72377 Y37.14125
G01 X-12.72976 Y37.11313
G01 X-12.79563 Y36.91282
G01 X-12.90040 Y36.72987
G01 X-12.91729 Y36.70660
G01 X-13.05892 Y36.55042
G01 X-13.22908 Y36.42588
G01 X-13.26156 Y36.40841
G01 X-13.26156 Y34.48364
G01 X-13.22908 Y34.46614
G01 X-13.05892 Y34.34161
G01 X-12.91729 Y34.18542
G01 X-12.90040 Y34.16216
G01 X-12.79563 Y33.97920
G01 X-12.72976 Y33.77890
G01 X-12.72377 Y33.75078
G01 X-12.70325 Y33.55538
G01 X-12.70325 Y33.52665
G01 X-12.72603 Y33.31702
G01 X-12.79563 Y33.10282
G01 X-12.90822 Y32.90780
G01 X-13.04876 Y32.75060
G01 X-13.07012 Y32.73137
G01 X-13.24114 Y32.60803
G01 X-13.43345 Y32.52160
G01 X-13.46078 Y32.51271
G01 X-13.65295 Y32.47186
G01 X-13.68155 Y32.46887
G01 X-13.89240 Y32.46960
G01 X-14.11269 Y32.51644
G01 X-14.31843 Y32.60803
G01 X-14.50065 Y32.74042
G01 X-14.65135 Y32.90780
G01 X-14.76395 Y33.10282
G01 X-14.83354 Y33.31702
G01 X-14.85633 Y33.52665
G01 X-14.85633 Y33.55538
G01 X-14.83580 Y33.75078
G01 X-14.82981 Y33.77890
G01 X-14.76395 Y33.97920
G01 X-14.65917 Y34.16216
G01 X-14.64228 Y34.18542
G01 X-14.50065 Y34.34161
G01 X-14.33050 Y34.46614
G01 X-14.29801 Y34.48362
G01 X-14.29801 Y36.40841
G01 X-14.33050 Y36.42588
G01 X-14.50065 Y36.55042
G01 X-14.64228 Y36.70660
G01 X-14.65917 Y36.72987
G01 X-14.76395 Y36.91282
G01 X-14.82981 Y37.11313
G01 X-14.83580 Y37.14125
G01 X-14.85709 Y37.35100
G01 X-14.83580 Y37.56078
G01 X-14.82981 Y37.58890
G01 X-14.76395 Y37.78920
G01 X-14.65917 Y37.97216
G01 X-14.64228 Y37.99542
G01 X-14.50065 Y38.15161
G01 X-14.33050 Y38.27614
G01 X-14.29801 Y38.29362
G01 X-14.29755 Y39.37325
G01 X-18.34202 Y39.37325
G01 X-18.34156 Y38.29362
G01 X-18.30908 Y38.27614
G01 X-18.13892 Y38.15161
G01 X-17.99729 Y37.99542
G01 X-17.98040 Y37.97216
G01 X-17.87563 Y37.78920
G01 X-17.80976 Y37.58890
G01 X-17.80377 Y37.56078
G01 X-17.78248 Y37.35100
G01 X-17.80377 Y37.14125
G01 X-17.80976 Y37.11313
G01 X-17.87563 Y36.91282
G01 X-17.98040 Y36.72987
G01 X-17.99729 Y36.70660
G01 X-18.13892 Y36.55042
G01 X-18.30908 Y36.42588
G01 X-18.34156 Y36.40841
G01 X-18.34156 Y34.48364
G01 X-18.30908 Y34.46614
G01 X-18.13892 Y34.34161
G01 X-17.99729 Y34.18542
G01 X-17.98040 Y34.16216
G01 X-17.87563 Y33.97920
G01 X-17.80976 Y33.77890
G01 X-17.80377 Y33.75078
G01 X-17.78325 Y33.55538
G01 X-17.78325 Y33.52665
G01 X-17.80603 Y33.31702
G01 X-17.87563 Y33.10282
G01 X-17.98822 Y32.90780
G01 X-18.12876 Y32.75060
G01 X-18.15012 Y32.73137
G01 X-18.32114 Y32.60803
G01 X-18.51345 Y32.52160
G01 X-18.54078 Y32.51271
G01 X-18.73295 Y32.47186
G01 X-18.76155 Y32.46887
G01 X-18.97240 Y32.46960
G01 X-19.19269 Y32.51644
G01 X-19.39843 Y32.60803
G01 X-19.58065 Y32.74042
G01 X-19.73135 Y32.90780
G01 X-19.84395 Y33.10282
G01 X-19.91354 Y33.31702
G01 X-19.93633 Y33.52665
G01 X-19.93633 Y33.55538
G01 X-19.91580 Y33.75078
G01 X-19.90981 Y33.77890
G01 X-19.84395 Y33.97920
G01 X-19.73917 Y34.16216
G01 X-19.72228 Y34.18542
G01 X-19.58065 Y34.34161
G01 X-19.41050 Y34.46614
G01 X-19.37801 Y34.48362
G01 X-19.37801 Y36.40841
G01 X-19.41050 Y36.42588
G01 X-19.58065 Y36.55042
G01 X-19.72228 Y36.70660
G01 X-19.73917 Y36.72987
G01 X-19.84395 Y36.91282
G01 X-19.90981 Y37.11313
G01 X-19.91580 Y37.14125
G01 X-19.93709 Y37.35100
G01 X-19.91580 Y37.56078
G01 X-19.90981 Y37.58890
G01 X-19.84395 Y37.78920
G01 X-19.73917 Y37.97216
G01 X-19.72228 Y37.99542
G01 X-19.58065 Y38.15161
G01 X-19.41050 Y38.27614
G01 X-19.37801 Y38.29362
G01 X-19.37755 Y39.37325
G01 X-23.42202 Y39.37325
G01 X-23.42156 Y38.29362
G01 X-23.38908 Y38.27614
G01 X-23.21892 Y38.15161
G01 X-23.07729 Y37.99542
G01 X-23.06040 Y37.97216
G01 X-22.95563 Y37.78920
G01 X-22.88976 Y37.58890
G01 X-22.88377 Y37.56078
G01 X-22.86248 Y37.35100
G01 X-22.88377 Y37.14125
G01 X-22.88976 Y37.11313
G01 X-22.95563 Y36.91282
G01 X-23.06040 Y36.72987
G01 X-23.07729 Y36.70660
G01 X-23.21892 Y36.55042
G01 X-23.38908 Y36.42588
G01 X-23.42156 Y36.40841
G01 X-23.42156 Y34.48362
G01 X-23.38908 Y34.46614
G01 X-23.21892 Y34.34161
G01 X-23.07729 Y34.18542
G01 X-23.06040 Y34.16216
G01 X-22.95563 Y33.97920
G01 X-22.88976 Y33.77890
G01 X-22.88377 Y33.75078
G01 X-22.86325 Y33.55538
G01 X-22.86325 Y33.52665
G01 X-22.88603 Y33.31702
G01 X-22.95563 Y33.10282
G01 X-23.06822 Y32.90780
G01 X-23.20876 Y32.75060
G01 X-23.23012 Y32.73137
G01 X-23.40114 Y32.60803
G01 X-23.59345 Y32.52160
G01 X-23.62078 Y32.51271
G01 X-23.81295 Y32.47186
G01 X-23.84155 Y32.46887
G01 X-24.05240 Y32.46960
G01 X-24.27269 Y32.51644
G01 X-24.47843 Y32.60803
G01 X-24.66065 Y32.74042
G01 X-24.81135 Y32.90780
G01 X-24.92395 Y33.10282
G01 X-24.99354 Y33.31702
G01 X-25.01633 Y33.52665
G01 X-25.01633 Y33.55538
G01 X-24.99580 Y33.75078
G01 X-24.98981 Y33.77890
G01 X-24.92395 Y33.97920
G01 X-24.81917 Y34.16216
G01 X-24.80228 Y34.18542
G01 X-24.66065 Y34.34161
G01 X-24.49050 Y34.46614
G01 X-24.45799 Y34.48364
G01 X-24.45799 Y36.40838
G01 X-24.49050 Y36.42588
G01 X-24.66065 Y36.55042
G01 X-24.80228 Y36.70660
G01 X-24.81917 Y36.72987
G01 X-24.92395 Y36.91282
G01 X-24.98981 Y37.11313
G01 X-24.99580 Y37.14125
G01 X-25.01709 Y37.35100
G01 X-24.99580 Y37.56078
G01 X-24.98981 Y37.58890
G01 X-24.92395 Y37.78920
G01 X-24.81917 Y37.97216
G01 X-24.80228 Y37.99542
G01 X-24.66065 Y38.15161
G01 X-24.49050 Y38.27614
G01 X-24.45799 Y38.29364
G01 X-24.45755 Y39.37325
G01 X-28.50202 Y39.37325
G01 X-28.50159 Y38.29364
G01 X-28.46908 Y38.27614
G01 X-28.29892 Y38.15161
G01 X-28.15729 Y37.99542
G01 X-28.14040 Y37.97216
G01 X-28.03563 Y37.78920
G01 X-27.96976 Y37.58890
G01 X-27.96377 Y37.56078
G01 X-27.94248 Y37.35100
G01 X-27.96377 Y37.14125
G01 X-27.96976 Y37.11313
G01 X-28.03563 Y36.91282
G01 X-28.14040 Y36.72987
G01 X-28.15729 Y36.70660
G01 X-28.29892 Y36.55042
G01 X-28.46908 Y36.42588
G01 X-28.50159 Y36.40838
G01 X-28.50159 Y34.48364
G01 X-28.46908 Y34.46614
G01 X-28.29892 Y34.34161
G01 X-28.15729 Y34.18542
G01 X-28.14040 Y34.16216
G01 X-28.03563 Y33.97920
G01 X-27.96976 Y33.77890
G01 X-27.96377 Y33.75078
G01 X-27.94325 Y33.55538
G01 X-27.94325 Y33.52665
G01 X-27.96603 Y33.31702
G01 X-28.03563 Y33.10282
G01 X-28.14822 Y32.90780
G01 X-28.28876 Y32.75060
G01 X-28.31012 Y32.73137
G01 X-28.48114 Y32.60803
G01 X-28.67345 Y32.52160
G01 X-28.70078 Y32.51271
G01 X-28.89295 Y32.47186
G01 X-28.92155 Y32.46887
G01 X-29.13240 Y32.46960
G01 X-29.35269 Y32.51644
G01 X-29.55843 Y32.60803
G01 X-29.74065 Y32.74042
G01 X-29.89135 Y32.90780
G01 X-30.00395 Y33.10282
G01 X-30.07354 Y33.31702
G01 X-30.09633 Y33.52665
G01 X-30.09633 Y33.55538
G01 X-30.07580 Y33.75078
G01 X-30.06981 Y33.77890
G01 X-30.00395 Y33.97920
G01 X-29.89917 Y34.16216
G01 X-29.88228 Y34.18542
G01 X-29.74065 Y34.34161
G01 X-29.57050 Y34.46614
G01 X-29.53799 Y34.48364
G01 X-29.53799 Y36.40838
G01 X-29.57050 Y36.42588
G01 X-29.74065 Y36.55042
G01 X-29.88228 Y36.70660
G01 X-29.89917 Y36.72987
G01 X-30.00395 Y36.91282
G01 X-30.06981 Y37.11313
G01 X-30.07580 Y37.14125
G01 X-30.09709 Y37.35100
G01 X-30.07580 Y37.56078
G01 X-30.06981 Y37.58890
G01 X-30.00395 Y37.78920
G01 X-29.89917 Y37.97216
G01 X-29.88228 Y37.99542
G01 X-29.74065 Y38.15161
G01 X-29.57050 Y38.27614
G01 X-29.53799 Y38.29364
G01 X-29.53755 Y39.37325
G01 X-33.58202 Y39.37325
G01 X-33.58156 Y38.29362
G01 X-33.54908 Y38.27614
G01 X-33.37892 Y38.15161
G01 X-33.23729 Y37.99542
G01 X-33.22040 Y37.97216
G01 X-33.11563 Y37.78920
G01 X-33.04976 Y37.58890
G01 X-33.04377 Y37.56078
G01 X-33.02248 Y37.35100
G01 X-33.04377 Y37.14125
G01 X-33.04976 Y37.11313
G01 X-33.11563 Y36.91282
G01 X-33.22040 Y36.72987
G01 X-33.23729 Y36.70660
G01 X-33.37892 Y36.55042
G01 X-33.54908 Y36.42588
G01 X-33.58156 Y36.40841
G01 X-33.58156 Y34.48362
G01 X-33.54908 Y34.46614
G01 X-33.37892 Y34.34161
G01 X-33.23729 Y34.18542
G01 X-33.22040 Y34.16216
G01 X-33.11563 Y33.97920
G01 X-33.04976 Y33.77890
G01 X-33.04377 Y33.75078
G01 X-33.02325 Y33.55538
G01 X-33.02325 Y33.52665
G01 X-33.04603 Y33.31702
G01 X-33.11563 Y33.10282
G01 X-33.22822 Y32.90780
G01 X-33.36876 Y32.75060
G01 X-33.39012 Y32.73137
G01 X-33.56114 Y32.60803
G01 X-33.75345 Y32.52160
G01 X-33.78078 Y32.51271
G01 X-33.97295 Y32.47186
G01 X-34.00155 Y32.46887
G01 X-34.21240 Y32.46960
G01 X-34.43269 Y32.51644
G01 X-34.63843 Y32.60803
G01 X-34.82065 Y32.74042
G01 X-34.97135 Y32.90780
G01 X-35.08395 Y33.10282
G01 X-35.15354 Y33.31702
G01 X-35.17633 Y33.52665
G01 X-35.17633 Y33.55538
G01 X-35.15580 Y33.75078
G01 X-35.14981 Y33.77890
G01 X-35.08395 Y33.97920
G01 X-34.97917 Y34.16216
G01 X-34.96228 Y34.18542
G01 X-34.82065 Y34.34161
G01 X-34.65050 Y34.46614
G01 X-34.61801 Y34.48362
G01 X-34.61801 Y36.40841
G01 X-34.65050 Y36.42588
G01 X-34.82065 Y36.55042
G01 X-34.96228 Y36.70660
G01 X-34.97917 Y36.72987
G01 X-35.08395 Y36.91282
G01 X-35.14981 Y37.11313
G01 X-35.15580 Y37.14125
G01 X-35.17709 Y37.35100
G01 X-35.15580 Y37.56078
G01 X-35.14981 Y37.58890
G01 X-35.08395 Y37.78920
G01 X-34.97917 Y37.97216
G01 X-34.96228 Y37.99542
G01 X-34.82065 Y38.15161
G01 X-34.65050 Y38.27614
G01 X-34.61801 Y38.29362
G01 X-34.61755 Y39.37325
G01 X-38.66202 Y39.37325
G01 X-38.66156 Y38.29362
G01 X-38.62908 Y38.27614
G01 X-38.45892 Y38.15161
G01 X-38.31729 Y37.99542
G01 X-38.30040 Y37.97216
G01 X-38.19563 Y37.78920
G01 X-38.12976 Y37.58890
G01 X-38.12377 Y37.56078
G01 X-38.10248 Y37.35100
G01 X-38.12377 Y37.14125
G01 X-38.12976 Y37.11313
G01 X-38.19563 Y36.91282
G01 X-38.30040 Y36.72987
G01 X-38.31729 Y36.70660
G01 X-38.45892 Y36.55042
G01 X-38.62908 Y36.42588
G01 X-38.66156 Y36.40841
G01 X-38.66156 Y34.48362
G01 X-38.62908 Y34.46614
G01 X-38.45892 Y34.34161
G01 X-38.31729 Y34.18542
G01 X-38.30040 Y34.16216
G01 X-38.19563 Y33.97920
G01 X-38.12976 Y33.77890
G01 X-38.12377 Y33.75078
G01 X-38.10325 Y33.55538
G01 X-38.10325 Y33.52665
G01 X-38.12603 Y33.31702
G01 X-38.19563 Y33.10282
G01 X-38.30822 Y32.90780
G01 X-38.44876 Y32.75060
G01 X-38.47012 Y32.73137
G01 X-38.64114 Y32.60803
G01 X-38.83345 Y32.52160
G01 X-38.86078 Y32.51271
G01 X-39.05295 Y32.47186
G01 X-39.08155 Y32.46887
G01 X-39.29240 Y32.46960
G01 X-39.51269 Y32.51644
G01 X-39.71843 Y32.60803
G01 X-39.90065 Y32.74042
G01 X-40.05135 Y32.90780
G01 X-40.16395 Y33.10282
G01 X-40.23354 Y33.31702
G01 X-40.25633 Y33.52665
G01 X-40.25633 Y33.55538
G01 X-40.23580 Y33.75078
G01 X-40.22981 Y33.77890
G01 X-40.16395 Y33.97920
G01 X-40.05917 Y34.16216
G01 X-40.04228 Y34.18542
G01 X-39.90065 Y34.34161
G01 X-39.73050 Y34.46614
G01 X-39.69801 Y34.48362
G01 X-39.69801 Y36.40841
G01 X-39.73050 Y36.42588
G01 X-39.90065 Y36.55042
G01 X-40.04228 Y36.70660
G01 X-40.05917 Y36.72987
G01 X-40.16395 Y36.91282
G01 X-40.22981 Y37.11313
G01 X-40.23580 Y37.14125
G01 X-40.25709 Y37.35100
G01 X-40.23580 Y37.56078
G01 X-40.22981 Y37.58890
G01 X-40.16395 Y37.78920
G01 X-40.05917 Y37.97216
G01 X-40.04228 Y37.99542
G01 X-39.90065 Y38.15161
G01 X-39.73050 Y38.27614
G01 X-39.69801 Y38.29362
G01 X-39.69755 Y39.37325
G01 X-43.74202 Y39.37325
G01 X-43.74156 Y38.29362
G01 X-43.70908 Y38.27614
G01 X-43.53892 Y38.15161
G01 X-43.39729 Y37.99542
G01 X-43.38040 Y37.97216
G01 X-43.27563 Y37.78920
G01 X-43.20976 Y37.58890
G01 X-43.20377 Y37.56078
G01 X-43.18248 Y37.35100
G01 X-43.20377 Y37.14125
G01 X-43.20976 Y37.11313
G01 X-43.27563 Y36.91282
G01 X-43.38040 Y36.72987
G01 X-43.39729 Y36.70660
G01 X-43.53892 Y36.55042
G01 X-43.70908 Y36.42588
G01 X-43.74156 Y36.40841
G01 X-43.74156 Y34.48362
G01 X-43.70908 Y34.46614
G01 X-43.53892 Y34.34161
G01 X-43.39729 Y34.18542
G01 X-43.38040 Y34.16216
G01 X-43.27563 Y33.97920
G01 X-43.20976 Y33.77890
G01 X-43.20377 Y33.75078
G01 X-43.18325 Y33.55538
G01 X-43.18325 Y33.52665
G01 X-43.20603 Y33.31702
G01 X-43.27563 Y33.10282
G01 X-43.38822 Y32.90780
G01 X-43.52876 Y32.75060
G01 X-43.55012 Y32.73137
G01 X-43.72114 Y32.60803
G01 X-43.91345 Y32.52160
G01 X-43.94078 Y32.51271
G01 X-44.13295 Y32.47186
G01 X-44.16155 Y32.46887
G01 X-44.37240 Y32.46960
G01 X-44.59269 Y32.51644
G01 X-44.79843 Y32.60803
G01 X-44.98065 Y32.74042
G01 X-45.13135 Y32.90780
G01 X-45.24395 Y33.10282
G01 X-45.31354 Y33.31702
G01 X-45.33633 Y33.52665
G01 X-45.33633 Y33.55538
G01 X-45.31580 Y33.75078
G01 X-45.30981 Y33.77890
G01 X-45.24395 Y33.97920
G01 X-45.13917 Y34.16216
G01 X-45.12228 Y34.18542
G01 X-44.98065 Y34.34161
G01 X-44.81050 Y34.46614
G01 X-44.77801 Y34.48362
G01 X-44.77801 Y36.40841
G01 X-44.81050 Y36.42588
G01 X-44.98065 Y36.55042
G01 X-45.12228 Y36.70660
G01 X-45.13917 Y36.72987
G01 X-45.24395 Y36.91282
G01 X-45.30981 Y37.11313
G01 X-45.31580 Y37.14125
G01 X-45.33709 Y37.35100
G01 X-45.31580 Y37.56078
G01 X-45.30981 Y37.58890
G01 X-45.24395 Y37.78920
G01 X-45.13917 Y37.97216
G01 X-45.12228 Y37.99542
G01 X-44.98065 Y38.15161
G01 X-44.81050 Y38.27614
G01 X-44.77801 Y38.29362
G01 X-44.77755 Y39.37325
G01 X-48.82202 Y39.37325
G01 X-48.82156 Y38.29362
G01 X-48.78908 Y38.27614
G01 X-48.61892 Y38.15161
G01 X-48.47729 Y37.99542
G01 X-48.46040 Y37.97216
G01 X-48.35563 Y37.78920
G01 X-48.28976 Y37.58890
G01 X-48.28377 Y37.56078
G01 X-48.26248 Y37.35100
G01 X-48.28377 Y37.14125
G01 X-48.28976 Y37.11313
G01 X-48.35563 Y36.91282
G01 X-48.46040 Y36.72987
G01 X-48.47729 Y36.70660
G01 X-48.61892 Y36.55042
G01 X-48.78908 Y36.42588
G01 X-48.82156 Y36.40841
G01 X-48.82156 Y34.48362
G01 X-48.78908 Y34.46614
G01 X-48.61892 Y34.34161
G01 X-48.47729 Y34.18542
G01 X-48.46040 Y34.16216
G01 X-48.35563 Y33.97920
G01 X-48.28976 Y33.77890
G01 X-48.28377 Y33.75078
G01 X-48.26325 Y33.55538
G01 X-48.26325 Y33.52665
G01 X-48.28603 Y33.31702
G01 X-48.35563 Y33.10282
G01 X-48.46822 Y32.90780
G01 X-48.60876 Y32.75060
G01 X-48.63012 Y32.73137
G01 X-48.80114 Y32.60803
G01 X-48.99345 Y32.52160
G01 X-49.02078 Y32.51271
G01 X-49.21295 Y32.47186
G01 X-49.24155 Y32.46887
G01 X-49.45240 Y32.46960
G01 X-49.67269 Y32.51644
G01 X-49.87843 Y32.60803
G01 X-50.06065 Y32.74042
G01 X-50.21135 Y32.90780
G01 X-50.32395 Y33.10282
G01 X-50.39354 Y33.31702
G01 X-50.41633 Y33.52665
G01 X-50.41633 Y33.55538
G01 X-50.39580 Y33.75078
G01 X-50.38981 Y33.77890
G01 X-50.32395 Y33.97920
G01 X-50.21917 Y34.16216
G01 X-50.20228 Y34.18542
G01 X-50.06065 Y34.34161
G01 X-49.89050 Y34.46614
G01 X-49.85799 Y34.48364
G01 X-49.85799 Y36.40838
G01 X-49.89050 Y36.42588
G01 X-50.06065 Y36.55042
G01 X-50.20228 Y36.70660
G01 X-50.21917 Y36.72987
G01 X-50.32395 Y36.91282
G01 X-50.38981 Y37.11313
G01 X-50.39580 Y37.14125
G01 X-50.41709 Y37.35100
G01 X-50.39580 Y37.56078
G01 X-50.38981 Y37.58890
G01 X-50.32395 Y37.78920
G01 X-50.21917 Y37.97216
G01 X-50.20228 Y37.99542
G01 X-50.06065 Y38.15161
G01 X-49.89050 Y38.27614
G01 X-49.85799 Y38.29364
G01 X-49.85755 Y39.37325
G01 X-53.90202 Y39.37325
G01 X-53.90159 Y38.29364
G01 X-53.86908 Y38.27614
G01 X-53.69892 Y38.15161
G01 X-53.55729 Y37.99542
G01 X-53.54040 Y37.97216
G01 X-53.43563 Y37.78920
G01 X-53.36976 Y37.58890
G01 X-53.36377 Y37.56078
G01 X-53.34248 Y37.35100
G01 X-53.36377 Y37.14125
G01 X-53.36976 Y37.11313
G01 X-53.43563 Y36.91282
G01 X-53.54040 Y36.72987
G01 X-53.55729 Y36.70660
G01 X-53.69892 Y36.55042
G01 X-53.86908 Y36.42588
G01 X-53.90159 Y36.40838
G01 X-53.90159 Y34.48364
G01 X-53.86908 Y34.46614
G01 X-53.69892 Y34.34161
G01 X-53.55729 Y34.18542
G01 X-53.54040 Y34.16216
G01 X-53.43563 Y33.97920
G01 X-53.36976 Y33.77890
G01 X-53.36377 Y33.75078
G01 X-53.34325 Y33.55538
G01 X-53.34325 Y33.52665
G01 X-53.36603 Y33.31702
G01 X-53.43563 Y33.10282
G01 X-53.54822 Y32.90780
G01 X-53.68876 Y32.75060
G01 X-53.71012 Y32.73137
G01 X-53.88114 Y32.60803
G01 X-54.07345 Y32.52160
G01 X-54.10078 Y32.51271
G01 X-54.29295 Y32.47186
G01 X-54.32155 Y32.46887
G01 X-54.53240 Y32.46960
G01 X-54.75269 Y32.51644
G01 X-54.95843 Y32.60803
G01 X-55.14065 Y32.74042
G01 X-55.29135 Y32.90780
G01 X-55.40395 Y33.10282
G01 X-55.47354 Y33.31702
G01 X-55.49633 Y33.52665
G01 X-55.49633 Y33.55538
G01 X-55.47580 Y33.75078
G01 X-55.46981 Y33.77890
G01 X-55.40395 Y33.97920
G01 X-55.29917 Y34.16216
G01 X-55.28228 Y34.18542
G01 X-55.14065 Y34.34161
G01 X-54.97050 Y34.46614
G01 X-54.93799 Y34.48364
G01 X-54.93799 Y36.40838
G01 X-54.97050 Y36.42588
G01 X-55.14065 Y36.55042
G01 X-55.28228 Y36.70660
G01 X-55.29917 Y36.72987
G01 X-55.40395 Y36.91282
G01 X-55.46981 Y37.11313
G01 X-55.47580 Y37.14125
G01 X-55.49709 Y37.35100
G01 X-55.47580 Y37.56078
G01 X-55.46981 Y37.58890
G01 X-55.40395 Y37.78920
G01 X-55.29917 Y37.97216
G01 X-55.28228 Y37.99542
G01 X-55.14065 Y38.15161
G01 X-54.97050 Y38.27614
G01 X-54.93799 Y38.29364
G01 X-54.93755 Y39.37325
G01 X-58.98202 Y39.37325
G01 X-58.98156 Y38.29362
G01 X-58.94908 Y38.27614
G01 X-58.77892 Y38.15161
G01 X-58.63729 Y37.99542
G01 X-58.62040 Y37.97216
G01 X-58.51563 Y37.78920
G01 X-58.44976 Y37.58890
G01 X-58.44377 Y37.56078
G01 X-58.42248 Y37.35100
G01 X-58.44377 Y37.14125
G01 X-58.44976 Y37.11313
G01 X-58.51563 Y36.91282
G01 X-58.62040 Y36.72987
G01 X-58.63729 Y36.70660
G01 X-58.77892 Y36.55042
G01 X-58.94908 Y36.42588
G01 X-58.98156 Y36.40841
G01 X-58.98156 Y34.48362
G01 X-58.94908 Y34.46614
G01 X-58.77892 Y34.34161
G01 X-58.63729 Y34.18542
G01 X-58.62040 Y34.16216
G01 X-58.51563 Y33.97920
G01 X-58.44976 Y33.77890
G01 X-58.44377 Y33.75078
G01 X-58.42325 Y33.55538
G01 X-58.42325 Y33.52665
G01 X-58.44603 Y33.31702
G01 X-58.51563 Y33.10282
G01 X-58.62822 Y32.90780
G01 X-58.76876 Y32.75060
G01 X-58.79012 Y32.73137
G01 X-58.96114 Y32.60803
G01 X-59.15345 Y32.52160
G01 X-59.18078 Y32.51271
G01 X-59.37295 Y32.47186
G01 X-59.40155 Y32.46887
G01 X-59.61240 Y32.46960
G01 X-59.83269 Y32.51644
G01 X-60.03843 Y32.60803
G01 X-60.22065 Y32.74042
G01 X-60.37135 Y32.90780
G01 X-60.48395 Y33.10282
G01 X-60.55354 Y33.31702
G01 X-60.57633 Y33.52665
G01 X-60.57633 Y33.55538
G01 X-60.55580 Y33.75078
G01 X-60.54981 Y33.77890
G01 X-60.48395 Y33.97920
G01 X-60.37917 Y34.16216
G01 X-60.36228 Y34.18542
G01 X-60.22065 Y34.34161
G01 X-60.05050 Y34.46614
G01 X-60.01801 Y34.48362
G01 X-60.01801 Y36.40841
G01 X-60.05050 Y36.42588
G01 X-60.22065 Y36.55042
G01 X-60.36228 Y36.70660
G01 X-60.37917 Y36.72987
G01 X-60.48395 Y36.91282
G01 X-60.54981 Y37.11313
G01 X-60.55580 Y37.14125
G01 X-60.57709 Y37.35100
G01 X-60.55580 Y37.56078
G01 X-60.54981 Y37.58890
G01 X-60.48395 Y37.78920
G01 X-60.37917 Y37.97216
G01 X-60.36228 Y37.99542
G01 X-60.22065 Y38.15161
G01 X-60.05050 Y38.27614
G01 X-60.01801 Y38.29362
G01 X-60.01755 Y39.37325
G01 X-66.60202 Y39.37325
G01 X-66.60156 Y38.29362
G01 X-66.56908 Y38.27614
G01 X-66.39892 Y38.15161
G01 X-66.25729 Y37.99542
G01 X-66.24040 Y37.97216
G01 X-66.13563 Y37.78920
G01 X-66.06976 Y37.58890
G01 X-66.06377 Y37.56078
G01 X-66.04248 Y37.35100
G01 X-66.06377 Y37.14125
G01 X-66.06976 Y37.11313
G01 X-66.13563 Y36.91282
G01 X-66.24040 Y36.72987
G01 X-66.25729 Y36.70660
G01 X-66.39892 Y36.55042
G01 X-66.56908 Y36.42588
G01 X-66.60156 Y36.40841
G01 X-66.60156 Y34.48362
G01 X-66.56908 Y34.46614
G01 X-66.39892 Y34.34161
G01 X-66.25729 Y34.18542
G01 X-66.24040 Y34.16216
G01 X-66.13563 Y33.97920
G01 X-66.06976 Y33.77890
G01 X-66.06377 Y33.75078
G01 X-66.04325 Y33.55538
G01 X-66.04325 Y33.52665
G01 X-66.06603 Y33.31702
G01 X-66.13563 Y33.10282
G01 X-66.24822 Y32.90780
G01 X-66.38876 Y32.75060
G01 X-66.41012 Y32.73137
G01 X-66.58114 Y32.60803
G01 X-66.77345 Y32.52160
G01 X-66.80078 Y32.51271
G01 X-66.99295 Y32.47186
G01 X-67.02155 Y32.46887
G01 X-67.23240 Y32.46960
G01 X-67.45269 Y32.51644
G01 X-67.65843 Y32.60803
G01 X-67.84065 Y32.74042
G01 X-67.99135 Y32.90780
G01 X-68.10395 Y33.10282
G01 X-68.17354 Y33.31702
G01 X-68.19633 Y33.52665
G01 X-68.19633 Y33.55538
G01 X-68.17580 Y33.75078
G01 X-68.16981 Y33.77890
G01 X-68.10395 Y33.97920
G01 X-67.99917 Y34.16216
G01 X-67.98228 Y34.18542
G01 X-67.84065 Y34.34161
G01 X-67.67050 Y34.46614
G01 X-67.63801 Y34.48362
G01 X-67.63801 Y36.40841
G01 X-67.67050 Y36.42588
G01 X-67.84065 Y36.55042
G01 X-67.98228 Y36.70660
G01 X-67.99917 Y36.72987
G01 X-68.10395 Y36.91282
G01 X-68.16981 Y37.11313
G01 X-68.17580 Y37.14125
G01 X-68.19709 Y37.35100
G01 X-68.17580 Y37.56078
G01 X-68.16981 Y37.58890
G01 X-68.10395 Y37.78920
G01 X-67.99917 Y37.97216
G01 X-67.98228 Y37.99542
G01 X-67.84065 Y38.15161
G01 X-67.67050 Y38.27614
G01 X-67.63801 Y38.29362
G01 X-67.63755 Y39.37325
G01 X-71.68202 Y39.37325
G01 X-71.68159 Y38.29364
G01 X-71.64908 Y38.27614
G01 X-71.47892 Y38.15161
G01 X-71.33729 Y37.99542
G01 X-71.32040 Y37.97216
G01 X-71.21563 Y37.78920
G01 X-71.14976 Y37.58890
G01 X-71.14377 Y37.56078
G01 X-71.12248 Y37.35100
G01 X-71.14377 Y37.14125
G01 X-71.14976 Y37.11313
G01 X-71.21563 Y36.91282
G01 X-71.32040 Y36.72987
G01 X-71.33729 Y36.70660
G01 X-71.47892 Y36.55042
G01 X-71.64908 Y36.42588
G01 X-71.68159 Y36.40838
G01 X-71.68159 Y34.48364
G01 X-71.64908 Y34.46614
G01 X-71.47892 Y34.34161
G01 X-71.33729 Y34.18542
G01 X-71.32040 Y34.16216
G01 X-71.21563 Y33.97920
G01 X-71.14976 Y33.77890
G01 X-71.14377 Y33.75078
G01 X-71.12325 Y33.55538
G01 X-71.12325 Y33.52665
G01 X-71.14603 Y33.31702
G01 X-71.21563 Y33.10282
G01 X-71.32822 Y32.90780
G01 X-71.46876 Y32.75060
G01 X-71.49012 Y32.73137
G01 X-71.64908 Y32.61588
G01 X-71.67397 Y32.60150
G01 X-71.86688 Y32.51644
G01 X-72.08718 Y32.46960
G01 X-72.31240 Y32.46960
G01 X-72.53269 Y32.51644
G01 X-72.73843 Y32.60803
G01 X-72.92065 Y32.74042
G01 X-73.07135 Y32.90780
G01 X-73.18395 Y33.10282
G01 X-73.25354 Y33.31702
G01 X-73.27633 Y33.52665
G01 X-73.27633 Y33.55538
G01 X-73.25580 Y33.75078
G01 X-73.24981 Y33.77890
G01 X-73.18395 Y33.97920
G01 X-73.07917 Y34.16216
G01 X-73.06228 Y34.18542
G01 X-72.92065 Y34.34161
G01 X-72.75050 Y34.46614
G01 X-72.71801 Y34.48362
G01 X-72.71801 Y36.40841
G01 X-72.75050 Y36.42588
G01 X-72.92065 Y36.55042
G01 X-73.06228 Y36.70660
G01 X-73.07917 Y36.72987
G01 X-73.18395 Y36.91282
G01 X-73.24981 Y37.11313
G01 X-73.25580 Y37.14125
G01 X-73.27709 Y37.35100
G01 X-73.25580 Y37.56078
G01 X-73.24981 Y37.58890
G01 X-73.18395 Y37.78920
G01 X-73.07917 Y37.97216
G01 X-73.06228 Y37.99542
G01 X-72.92065 Y38.15161
G01 X-72.75050 Y38.27614
G01 X-72.71801 Y38.29362
G01 X-72.71755 Y39.37325
G01 X-76.76202 Y39.37325
G01 X-76.76156 Y38.29362
G01 X-76.72908 Y38.27614
G01 X-76.55892 Y38.15161
G01 X-76.41729 Y37.99542
G01 X-76.40040 Y37.97216
G01 X-76.29563 Y37.78920
G01 X-76.22976 Y37.58890
G01 X-76.22377 Y37.56078
G01 X-76.20248 Y37.35100
G01 X-76.22377 Y37.14125
G01 X-76.22976 Y37.11313
G01 X-76.29563 Y36.91282
G01 X-76.40040 Y36.72987
G01 X-76.41729 Y36.70660
G01 X-76.55892 Y36.55042
G01 X-76.72908 Y36.42588
G01 X-76.76156 Y36.40841
G01 X-76.76156 Y34.48362
G01 X-76.72908 Y34.46614
G01 X-76.55892 Y34.34161
G01 X-76.41729 Y34.18542
G01 X-76.40040 Y34.16216
G01 X-76.29563 Y33.97920
G01 X-76.22976 Y33.77890
G01 X-76.22377 Y33.75078
G01 X-76.20325 Y33.55538
G01 X-76.20325 Y33.52665
G01 X-76.22603 Y33.31702
G01 X-76.29563 Y33.10282
G01 X-76.40822 Y32.90780
G01 X-76.54876 Y32.75060
G01 X-76.57012 Y32.73137
G01 X-76.72908 Y32.61588
G01 X-76.75397 Y32.60150
G01 X-76.94688 Y32.51644
G01 X-77.16718 Y32.46960
G01 X-77.39240 Y32.46960
G01 X-77.61269 Y32.51644
G01 X-77.81843 Y32.60803
G01 X-78.00065 Y32.74042
G01 X-78.15135 Y32.90780
G01 X-78.26395 Y33.10282
G01 X-78.33354 Y33.31702
G01 X-78.35633 Y33.52665
G01 X-78.35633 Y33.55538
G01 X-78.33580 Y33.75078
G01 X-78.32981 Y33.77890
G01 X-78.26395 Y33.97920
G01 X-78.15917 Y34.16216
G01 X-78.14228 Y34.18542
G01 X-78.00065 Y34.34161
G01 X-77.83050 Y34.46614
G01 X-77.79801 Y34.48362
G01 X-77.79801 Y36.40841
G01 X-77.83050 Y36.42588
G01 X-78.00065 Y36.55042
G01 X-78.14228 Y36.70660
G01 X-78.15917 Y36.72987
G01 X-78.26395 Y36.91282
G01 X-78.32981 Y37.11313
G01 X-78.33580 Y37.14125
G01 X-78.35709 Y37.35100
G01 X-78.33580 Y37.56078
G01 X-78.32981 Y37.58890
G01 X-78.26395 Y37.78920
G01 X-78.15917 Y37.97216
G01 X-78.14228 Y37.99542
G01 X-78.00065 Y38.15161
G01 X-77.83050 Y38.27614
G01 X-77.79801 Y38.29362
G01 X-77.79755 Y39.37325
G01 X-81.84202 Y39.37325
G01 X-81.84159 Y38.29364
G01 X-81.80908 Y38.27614
G01 X-81.63892 Y38.15161
G01 X-81.49729 Y37.99542
G01 X-81.48040 Y37.97216
G01 X-81.37563 Y37.78920
G01 X-81.30976 Y37.58890
G01 X-81.30377 Y37.56078
G01 X-81.28248 Y37.35100
G01 X-81.30377 Y37.14125
G01 X-81.30976 Y37.11313
G01 X-81.37563 Y36.91282
G01 X-81.48040 Y36.72987
G01 X-81.49729 Y36.70660
G01 X-81.63892 Y36.55042
G01 X-81.80908 Y36.42588
G01 X-81.84159 Y36.40838
G01 X-81.84159 Y34.48364
G01 X-81.80908 Y34.46614
G01 X-81.63892 Y34.34161
G01 X-81.49729 Y34.18542
G01 X-81.48040 Y34.16216
G01 X-81.37563 Y33.97920
G01 X-81.30976 Y33.77890
G01 X-81.30377 Y33.75078
G01 X-81.28325 Y33.55538
G01 X-81.28325 Y33.52665
G01 X-81.30603 Y33.31702
G01 X-81.37563 Y33.10282
G01 X-81.48822 Y32.90780
G01 X-81.62876 Y32.75060
G01 X-81.65012 Y32.73137
G01 X-81.80908 Y32.61588
G01 X-81.83397 Y32.60150
G01 X-82.02688 Y32.51644
G01 X-82.24718 Y32.46960
G01 X-82.47240 Y32.46960
G01 X-82.69269 Y32.51644
G01 X-82.89843 Y32.60803
G01 X-83.08065 Y32.74042
G01 X-83.23135 Y32.90780
G01 X-83.34395 Y33.10282
G01 X-83.41354 Y33.31702
G01 X-83.43633 Y33.52665
G01 X-83.43633 Y33.55538
G01 X-83.41580 Y33.75078
G01 X-83.40981 Y33.77890
G01 X-83.34395 Y33.97920
G01 X-83.23917 Y34.16216
G01 X-83.22228 Y34.18542
G01 X-83.08065 Y34.34161
G01 X-82.91050 Y34.46614
G01 X-82.87801 Y34.48364
G01 X-82.87799 Y36.40838
G01 X-82.91050 Y36.42588
G01 X-83.08065 Y36.55042
G01 X-83.22228 Y36.70660
G01 X-83.23917 Y36.72987
G01 X-83.34395 Y36.91282
G01 X-83.40981 Y37.11313
G01 X-83.41580 Y37.14125
G01 X-83.43709 Y37.35100
G01 X-83.41580 Y37.56078
G01 X-83.40981 Y37.58890
G01 X-83.34395 Y37.78920
G01 X-83.23917 Y37.97216
G01 X-83.22228 Y37.99542
G01 X-83.08065 Y38.15161
G01 X-82.91050 Y38.27614
G01 X-82.87799 Y38.29364
G01 X-82.87755 Y39.37325
G01 X-86.92202 Y39.37325
G01 X-86.92156 Y38.29362
G01 X-86.88908 Y38.27614
G01 X-86.71892 Y38.15161
G01 X-86.57729 Y37.99542
G01 X-86.56040 Y37.97216
G01 X-86.45563 Y37.78920
G01 X-86.38976 Y37.58890
G01 X-86.38377 Y37.56078
G01 X-86.36248 Y37.35100
G01 X-86.38377 Y37.14125
G01 X-86.38976 Y37.11313
G01 X-86.45563 Y36.91282
G01 X-86.56040 Y36.72987
G01 X-86.57729 Y36.70660
G01 X-86.71892 Y36.55042
G01 X-86.88908 Y36.42588
G01 X-86.92156 Y36.40841
G01 X-86.92156 Y34.48362
G01 X-86.88908 Y34.46614
G01 X-86.71892 Y34.34161
G01 X-86.57729 Y34.18542
G01 X-86.56040 Y34.16216
G01 X-86.45563 Y33.97920
G01 X-86.38976 Y33.77890
G01 X-86.38377 Y33.75078
G01 X-86.36325 Y33.55538
G01 X-86.36325 Y33.52665
G01 X-86.38603 Y33.31702
G01 X-86.45563 Y33.10282
G01 X-86.56822 Y32.90780
G01 X-86.70876 Y32.75060
G01 X-86.73012 Y32.73137
G01 X-86.88908 Y32.61588
G01 X-86.91397 Y32.60150
G01 X-87.10688 Y32.51644
G01 X-87.32718 Y32.46960
G01 X-87.55240 Y32.46960
G01 X-87.77269 Y32.51644
G01 X-87.97843 Y32.60803
G01 X-88.16065 Y32.74042
G01 X-88.31135 Y32.90780
G01 X-88.42395 Y33.10282
G01 X-88.49354 Y33.31702
G01 X-88.51633 Y33.52665
G01 X-88.51633 Y33.55538
G01 X-88.49580 Y33.75078
G01 X-88.48981 Y33.77890
G01 X-88.42395 Y33.97920
G01 X-88.31917 Y34.16216
G01 X-88.30228 Y34.18542
G01 X-88.16065 Y34.34161
G01 X-87.99050 Y34.46614
G01 X-87.95801 Y34.48364
G01 X-87.95801 Y36.40841
G01 X-87.99050 Y36.42588
G01 X-88.16065 Y36.55042
G01 X-88.30228 Y36.70660
G01 X-88.31917 Y36.72987
G01 X-88.42395 Y36.91282
G01 X-88.48981 Y37.11313
G01 X-88.49580 Y37.14125
G01 X-88.51709 Y37.35100
G01 X-88.49580 Y37.56078
G01 X-88.48981 Y37.58890
G01 X-88.42395 Y37.78920
G01 X-88.31917 Y37.97216
G01 X-88.30228 Y37.99542
G01 X-88.16065 Y38.15161
G01 X-87.99050 Y38.27614
G01 X-87.95801 Y38.29362
G01 X-87.95755 Y39.37325
G01 X-92.00202 Y39.37325
G01 X-92.00156 Y38.29362
G01 X-91.96908 Y38.27614
G01 X-91.79892 Y38.15161
G01 X-91.65729 Y37.99542
G01 X-91.64040 Y37.97216
G01 X-91.53563 Y37.78920
G01 X-91.46976 Y37.58890
G01 X-91.46377 Y37.56078
G01 X-91.44248 Y37.35100
G01 X-91.46377 Y37.14125
G01 X-91.46976 Y37.11313
G01 X-91.53563 Y36.91282
G01 X-91.64040 Y36.72987
G01 X-91.65729 Y36.70660
G01 X-91.79892 Y36.55042
G01 X-91.96908 Y36.42588
G01 X-92.00156 Y36.40841
G01 X-92.00156 Y34.48362
G01 X-91.96908 Y34.46614
G01 X-91.79892 Y34.34161
G01 X-91.65729 Y34.18542
G01 X-91.64040 Y34.16216
G01 X-91.53563 Y33.97920
G01 X-91.46976 Y33.77890
G01 X-91.46377 Y33.75078
G01 X-91.44325 Y33.55538
G01 X-91.44325 Y33.52665
G01 X-91.46603 Y33.31702
G01 X-91.53563 Y33.10282
G01 X-91.64822 Y32.90780
G01 X-91.78876 Y32.75060
G01 X-91.81012 Y32.73137
G01 X-91.96908 Y32.61588
G01 X-91.99397 Y32.60150
G01 X-92.18688 Y32.51644
G01 X-92.40718 Y32.46960
G01 X-92.63240 Y32.46960
G01 X-92.85269 Y32.51644
G01 X-93.05843 Y32.60803
G01 X-93.24065 Y32.74042
G01 X-93.39135 Y32.90780
G01 X-93.50395 Y33.10282
G01 X-93.57354 Y33.31702
G01 X-93.59633 Y33.52665
G01 X-93.59633 Y33.55538
G01 X-93.57580 Y33.75078
G01 X-93.56981 Y33.77890
G01 X-93.50395 Y33.97920
G01 X-93.39917 Y34.16216
G01 X-93.38228 Y34.18542
G01 X-93.24065 Y34.34161
G01 X-93.07050 Y34.46614
G01 X-93.03801 Y34.48364
G01 X-93.03801 Y36.40841
G01 X-93.07050 Y36.42588
G01 X-93.24065 Y36.55042
G01 X-93.38228 Y36.70660
G01 X-93.39917 Y36.72987
G01 X-93.50395 Y36.91282
G01 X-93.56981 Y37.11313
G01 X-93.57580 Y37.14125
G01 X-93.59709 Y37.35100
G01 X-93.57580 Y37.56078
G01 X-93.56981 Y37.58890
G01 X-93.50395 Y37.78920
G01 X-93.39917 Y37.97216
G01 X-93.38228 Y37.99542
G01 X-93.24065 Y38.15161
G01 X-93.07050 Y38.27614
G01 X-93.03801 Y38.29362
G01 X-93.03755 Y39.37325
G01 X-97.08202 Y39.37325
G01 X-97.08159 Y38.29364
G01 X-97.04908 Y38.27614
G01 X-96.87892 Y38.15161
G01 X-96.73729 Y37.99542
G01 X-96.72040 Y37.97216
G01 X-96.61563 Y37.78920
G01 X-96.54976 Y37.58890
G01 X-96.54377 Y37.56078
G01 X-96.52248 Y37.35100
G01 X-96.54377 Y37.14125
G01 X-96.54976 Y37.11313
G01 X-96.61563 Y36.91282
G01 X-96.72040 Y36.72987
G01 X-96.73729 Y36.70660
G01 X-96.87892 Y36.55042
G01 X-97.04908 Y36.42588
G01 X-97.08159 Y36.40838
G01 X-97.08159 Y34.48364
G01 X-97.04908 Y34.46614
G01 X-96.87892 Y34.34161
G01 X-96.73729 Y34.18542
G01 X-96.72040 Y34.16216
G01 X-96.61563 Y33.97920
G01 X-96.54976 Y33.77890
G01 X-96.54377 Y33.75078
G01 X-96.52325 Y33.55538
G01 X-96.52325 Y33.52665
G01 X-96.54603 Y33.31702
G01 X-96.61047 Y33.11626
G01 X-96.62215 Y33.09002
G01 X-96.72040 Y32.91987
G01 X-96.73729 Y32.89660
G01 X-96.87892 Y32.74042
G01 X-97.06114 Y32.60803
G01 X-97.26688 Y32.51644
G01 X-97.47295 Y32.47186
G01 X-97.50155 Y32.46887
G01 X-97.71240 Y32.46960
G01 X-97.93269 Y32.51644
G01 X-98.13843 Y32.60803
G01 X-98.32065 Y32.74042
G01 X-98.47135 Y32.90780
G01 X-98.58395 Y33.10282
G01 X-98.65354 Y33.31702
G01 X-98.67633 Y33.52665
G01 X-98.67633 Y33.55538
G01 X-98.65580 Y33.75078
G01 X-98.64981 Y33.77890
G01 X-98.58395 Y33.97920
G01 X-98.47917 Y34.16216
G01 X-98.46228 Y34.18542
G01 X-98.32065 Y34.34161
G01 X-98.15050 Y34.46614
G01 X-98.11801 Y34.48362
G01 X-98.11801 Y36.40841
G01 X-98.15050 Y36.42588
G01 X-98.32065 Y36.55042
G01 X-98.46228 Y36.70660
G01 X-98.47917 Y36.72987
G01 X-98.58395 Y36.91282
G01 X-98.64981 Y37.11313
G01 X-98.65580 Y37.14125
G01 X-98.67709 Y37.35100
G01 X-98.65580 Y37.56078
G01 X-98.64981 Y37.58890
G01 X-98.58395 Y37.78920
G01 X-98.47917 Y37.97216
G01 X-98.46228 Y37.99542
G01 X-98.32065 Y38.15161
G01 X-98.15050 Y38.27614
G01 X-98.11801 Y38.29362
G01 X-98.11755 Y39.37325
G01 X-101.25407 Y39.37251
G01 X-102.16128 Y38.46532
G01 X-102.16156 Y38.29364
G01 X-102.12908 Y38.27614
G01 X-101.97012 Y38.16065
G01 X-101.94876 Y38.14142
G01 X-101.80822 Y37.98422
G01 X-101.69563 Y37.78920
G01 X-101.62603 Y37.57500
G01 X-101.60248 Y37.35100
G01 X-101.62377 Y37.14125
G01 X-101.62976 Y37.11313
G01 X-101.69563 Y36.91282
G01 X-101.80040 Y36.72987
G01 X-101.81729 Y36.70660
G01 X-101.95892 Y36.55042
G01 X-102.12908 Y36.42588
G01 X-102.16156 Y36.40841
G01 X-102.16156 Y34.48364
G01 X-102.12908 Y34.46614
G01 X-101.95892 Y34.34161
G01 X-101.81729 Y34.18542
G01 X-101.80040 Y34.16216
G01 X-101.69563 Y33.97920
G01 X-101.62976 Y33.77890
G01 X-101.62377 Y33.75078
G01 X-101.60248 Y33.54100
G01 X-101.62603 Y33.31702
G01 X-101.69047 Y33.11626
G01 X-101.70215 Y33.09002
G01 X-101.80822 Y32.90780
G01 X-101.95892 Y32.74042
G01 X-102.12908 Y32.61588
G01 X-102.15397 Y32.60150
G01 X-102.34688 Y32.51644
G01 X-102.56718 Y32.46960
G01 X-102.79240 Y32.46960
G01 X-103.01269 Y32.51644
G01 X-103.21843 Y32.60803
G01 X-103.40065 Y32.74042
G01 X-103.55135 Y32.90780
G01 X-103.66395 Y33.10282
G01 X-103.72981 Y33.30313
G01 X-103.73580 Y33.33125
G01 X-103.75633 Y33.52665
G01 X-103.75633 Y33.55538
G01 X-103.73354 Y33.76500
G01 X-103.66395 Y33.97920
G01 X-103.55135 Y34.17422
G01 X-103.41081 Y34.33142
G01 X-103.38945 Y34.35065
G01 X-103.23050 Y34.46614
G01 X-103.19801 Y34.48362
G01 X-103.19801 Y36.40841
G01 X-103.23050 Y36.42588
G01 X-103.40065 Y36.55042
G01 X-103.54228 Y36.70660
G01 X-103.55917 Y36.72987
G01 X-103.66395 Y36.91282
G01 X-103.72981 Y37.11313
G01 X-103.73580 Y37.14125
G01 X-103.75709 Y37.35100
G01 X-103.73580 Y37.56078
G01 X-103.72981 Y37.58890
G01 X-103.66395 Y37.78920
G01 X-103.55917 Y37.97216
G01 X-103.54228 Y37.99542
G01 X-103.40065 Y38.15161
G01 X-103.23050 Y38.27614
G01 X-103.19801 Y38.29362
G01 X-103.19829 Y38.68011
G01 X-103.19316 Y38.75049
G01 X-103.16918 Y38.85044
G01 X-103.13649 Y38.92491
G01 X-103.09258 Y38.99334
G01 X-103.04642 Y39.04673
G01 X-101.82547 Y40.26672
G01 X-101.74533 Y40.32907
G01 X-101.65455 Y40.37459
G01 X-101.55664 Y40.40154
G01 X-101.46885 Y40.40952
G01 X-9.96980 Y40.40952
G01 X-9.85555 Y40.39628
G01 X-9.75916 Y40.36428
G01 X-9.68171 Y40.32214
G01 X-9.60315 Y40.25765
G01 X-5.79315 Y36.44765
G01 X-5.73671 Y36.37991
G01 X-5.72170 Y36.35750
G01 X-5.67618 Y36.26672
G01 X-5.64923 Y36.16881
G01 X-5.64194 Y36.09449
G01 X-5.64156 Y34.48364
G01 X-5.60905 Y34.46614
G01 X-5.45010 Y34.35065
G01 X-5.42876 Y34.33142
G01 X-5.28817 Y34.17415
G01 X-5.22152 Y34.05919
G01 X-2.01808 Y34.05919
G01 X-1.95140 Y34.17415
G01 X-1.80065 Y34.34161
G01 X-1.61843 Y34.47399
G01 X-1.42613 Y34.56043
G01 X-1.39880 Y34.56932
G01 X-1.20662 Y34.61016
G01 X-1.17802 Y34.61316
G01 X-0.96718 Y34.61242
G01 X-0.76078 Y34.56932
G01 X-0.73345 Y34.56043
G01 X-0.54114 Y34.47399
G01 X-0.35892 Y34.34161
G01 X-0.20822 Y34.17422
G01 X-0.10215 Y33.99200
G01 X-0.09047 Y33.96576
G01 X-0.02603 Y33.76500
G01 X-0.00248 Y33.54100
G01 X-0.02847 Y33.31756
G01 X-0.09286 Y33.11705
G01 X-0.10431 Y33.09127
G01 X-0.21026 Y32.90925
G01 X-0.36060 Y32.74227
G01 X-0.54239 Y32.61022
G01 X-0.74764 Y32.51883
G01 X-0.95349 Y32.47430
G01 X-0.98155 Y32.47136
G01 X-1.19214 Y32.47209
G01 X-1.39827 Y32.51517
G01 X-1.42511 Y32.52388
G01 X-1.61719 Y32.61022
G01 X-1.78798 Y32.73338
G01 X-1.80896 Y32.75228
G01 X-1.94937 Y32.90933
G01 X-2.01663 Y33.02535
G01 X-5.22295 Y33.02535
G01 X-5.29021 Y32.90933
G01 X-5.44057 Y32.74227
G01 X-5.62239 Y32.61022
G01 X-5.82764 Y32.51883
G01 X-6.04741 Y32.47209
G01 X-6.27214 Y32.47209
G01 X-6.49191 Y32.51883
G01 X-6.69719 Y32.61022
G01 X-6.87898 Y32.74227
G01 X-7.02043 Y32.89828
G01 X-7.03701 Y32.92111
G01 X-7.14166 Y33.10384
G01 X-7.20745 Y33.30389
G01 X-7.21332 Y33.33150
G01 X-7.23458 Y33.54100
G01 X-7.21332 Y33.75052
G01 X-7.20745 Y33.77813
G01 X-7.14166 Y33.97818
G01 X-7.03701 Y34.16091
G01 X-7.02043 Y34.18375
G01 X-6.87898 Y34.33975
G01 X-6.70905 Y34.46411
G01 X-6.67550 Y34.48202
G01 X-6.67557 Y35.86736
G01 X-10.18344 Y39.37520
G01 X-13.26451 Y39.37576
G01 X-13.26408 Y38.29202
G01 X-13.23052 Y38.27411
G01 X-13.06060 Y38.14975
G01 X-12.91915 Y37.99375
G01 X-12.90256 Y37.97091
G01 X-12.79791 Y37.78818
G01 X-12.73213 Y37.58813
G01 X-12.72626 Y37.56052
G01 X-12.70500 Y37.35100
G01 X-12.72626 Y37.14150
G01 X-12.73213 Y37.11389
G01 X-12.79791 Y36.91384
G01 X-12.90256 Y36.73111
G01 X-12.91915 Y36.70828
G01 X-13.06060 Y36.55227
G01 X-13.23052 Y36.42791
G01 X-13.26408 Y36.41001
G01 X-13.26408 Y34.48202
G01 X-13.23052 Y34.46411
G01 X-13.06060 Y34.33975
G01 X-12.91915 Y34.18375
G01 X-12.90256 Y34.16091
G01 X-12.79791 Y33.97818
G01 X-12.73213 Y33.77813
G01 X-12.72626 Y33.75052
G01 X-12.70574 Y33.55512
G01 X-12.70574 Y33.52690
G01 X-12.72847 Y33.31756
G01 X-12.79791 Y33.10384
G01 X-12.91026 Y32.90925
G01 X-13.05062 Y32.75228
G01 X-13.07160 Y32.73338
G01 X-13.23052 Y32.61791
G01 X-13.25499 Y32.60379
G01 X-13.44764 Y32.51883
G01 X-13.66743 Y32.47209
G01 X-13.89214 Y32.47209
G01 X-14.11193 Y32.51883
G01 X-14.31719 Y32.61022
G01 X-14.49898 Y32.74227
G01 X-14.64932 Y32.90925
G01 X-14.76166 Y33.10384
G01 X-14.83111 Y33.31756
G01 X-14.85384 Y33.52690
G01 X-14.85384 Y33.55512
G01 X-14.83332 Y33.75052
G01 X-14.82745 Y33.77813
G01 X-14.76166 Y33.97818
G01 X-14.65701 Y34.16091
G01 X-14.64043 Y34.18375
G01 X-14.49898 Y34.33975
G01 X-14.32905 Y34.46411
G01 X-14.29550 Y34.48199
G01 X-14.29550 Y36.41003
G01 X-14.32905 Y36.42791
G01 X-14.49898 Y36.55227
G01 X-14.64043 Y36.70828
G01 X-14.65701 Y36.73111
G01 X-14.76166 Y36.91384
G01 X-14.82745 Y37.11389
G01 X-14.83332 Y37.14150
G01 X-14.85458 Y37.35100
G01 X-14.83332 Y37.56052
G01 X-14.82745 Y37.58813
G01 X-14.76166 Y37.78818
G01 X-14.65701 Y37.97091
G01 X-14.64043 Y37.99375
G01 X-14.49898 Y38.14975
G01 X-14.32905 Y38.27411
G01 X-14.29550 Y38.29199
G01 X-14.29506 Y39.37574
G01 X-18.34451 Y39.37574
G01 X-18.34405 Y38.29199
G01 X-18.31052 Y38.27411
G01 X-18.14060 Y38.14975
G01 X-17.99915 Y37.99375
G01 X-17.98256 Y37.97091
G01 X-17.87791 Y37.78818
G01 X-17.81213 Y37.58813
G01 X-17.80626 Y37.56052
G01 X-17.78500 Y37.35100
G01 X-17.80626 Y37.14150
G01 X-17.81213 Y37.11389
G01 X-17.87791 Y36.91384
G01 X-17.98256 Y36.73111
G01 X-17.99915 Y36.70828
G01 X-18.14060 Y36.55227
G01 X-18.31052 Y36.42791
G01 X-18.34405 Y36.41003
G01 X-18.34405 Y34.48199
G01 X-18.31052 Y34.46411
G01 X-18.14060 Y34.33975
G01 X-17.99915 Y34.18375
G01 X-17.98256 Y34.16091
G01 X-17.87791 Y33.97818
G01 X-17.81213 Y33.77813
G01 X-17.80626 Y33.75052
G01 X-17.78574 Y33.55512
G01 X-17.78574 Y33.52690
G01 X-17.80847 Y33.31756
G01 X-17.87791 Y33.10384
G01 X-17.99026 Y32.90925
G01 X-18.13062 Y32.75228
G01 X-18.15160 Y32.73338
G01 X-18.31052 Y32.61791
G01 X-18.33499 Y32.60379
G01 X-18.52764 Y32.51883
G01 X-18.74743 Y32.47209
G01 X-18.97214 Y32.47209
G01 X-19.19193 Y32.51883
G01 X-19.39719 Y32.61022
G01 X-19.57898 Y32.74227
G01 X-19.72932 Y32.90925
G01 X-19.84166 Y33.10384
G01 X-19.91111 Y33.31756
G01 X-19.93384 Y33.52690
G01 X-19.93384 Y33.55512
G01 X-19.91332 Y33.75052
G01 X-19.90745 Y33.77813
G01 X-19.84166 Y33.97818
G01 X-19.73701 Y34.16091
G01 X-19.72043 Y34.18375
G01 X-19.57898 Y34.33975
G01 X-19.40905 Y34.46411
G01 X-19.37550 Y34.48199
G01 X-19.37550 Y36.41003
G01 X-19.40905 Y36.42791
G01 X-19.57898 Y36.55227
G01 X-19.72043 Y36.70828
G01 X-19.73701 Y36.73111
G01 X-19.84166 Y36.91384
G01 X-19.90745 Y37.11389
G01 X-19.91332 Y37.14150
G01 X-19.93458 Y37.35100
G01 X-19.91332 Y37.56052
G01 X-19.90745 Y37.58813
G01 X-19.84166 Y37.78818
G01 X-19.73701 Y37.97091
G01 X-19.72043 Y37.99375
G01 X-19.57898 Y38.14975
G01 X-19.40905 Y38.27411
G01 X-19.37550 Y38.29199
G01 X-19.37506 Y39.37574
G01 X-23.42451 Y39.37574
G01 X-23.42408 Y38.29199
G01 X-23.39052 Y38.27411
G01 X-23.22060 Y38.14975
G01 X-23.07915 Y37.99375
G01 X-23.06256 Y37.97091
G01 X-22.95791 Y37.78818
G01 X-22.89213 Y37.58813
G01 X-22.88626 Y37.56052
G01 X-22.86500 Y37.35100
G01 X-22.88626 Y37.14150
G01 X-22.89213 Y37.11389
G01 X-22.95791 Y36.91384
G01 X-23.06256 Y36.73111
G01 X-23.07915 Y36.70828
G01 X-23.22060 Y36.55227
G01 X-23.39052 Y36.42791
G01 X-23.42408 Y36.41003
G01 X-23.42408 Y34.48199
G01 X-23.39052 Y34.46411
G01 X-23.22060 Y34.33975
G01 X-23.07915 Y34.18375
G01 X-23.06256 Y34.16091
G01 X-22.95791 Y33.97818
G01 X-22.89213 Y33.77813
G01 X-22.88626 Y33.75052
G01 X-22.86574 Y33.55512
G01 X-22.86574 Y33.52690
G01 X-22.88847 Y33.31756
G01 X-22.95791 Y33.10384
G01 X-23.07026 Y32.90925
G01 X-23.21062 Y32.75228
G01 X-23.23160 Y32.73338
G01 X-23.39052 Y32.61791
G01 X-23.41499 Y32.60379
G01 X-23.60764 Y32.51883
G01 X-23.82743 Y32.47209
G01 X-24.05214 Y32.47209
G01 X-24.27193 Y32.51883
G01 X-24.47719 Y32.61022
G01 X-24.65898 Y32.74227
G01 X-24.80932 Y32.90925
G01 X-24.92166 Y33.10384
G01 X-24.99111 Y33.31756
G01 X-25.01384 Y33.52690
G01 X-25.01384 Y33.55512
G01 X-24.99332 Y33.75052
G01 X-24.98745 Y33.77813
G01 X-24.92166 Y33.97818
G01 X-24.81701 Y34.16091
G01 X-24.80043 Y34.18375
G01 X-24.65898 Y34.33975
G01 X-24.48905 Y34.46411
G01 X-24.45550 Y34.48199
G01 X-24.45550 Y36.41003
G01 X-24.48905 Y36.42791
G01 X-24.65898 Y36.55227
G01 X-24.80043 Y36.70828
G01 X-24.81701 Y36.73111
G01 X-24.92166 Y36.91384
G01 X-24.98745 Y37.11389
G01 X-24.99332 Y37.14150
G01 X-25.01458 Y37.35100
G01 X-24.99332 Y37.56052
G01 X-24.98745 Y37.58813
G01 X-24.92166 Y37.78818
G01 X-24.81701 Y37.97091
G01 X-24.80043 Y37.99375
G01 X-24.65898 Y38.14975
G01 X-24.48905 Y38.27411
G01 X-24.45550 Y38.29199
G01 X-24.45506 Y39.37576
G01 X-28.50451 Y39.37576
G01 X-28.50408 Y38.29202
G01 X-28.47052 Y38.27411
G01 X-28.30060 Y38.14975
G01 X-28.15915 Y37.99375
G01 X-28.14256 Y37.97091
G01 X-28.03791 Y37.78818
G01 X-27.97213 Y37.58813
G01 X-27.96626 Y37.56052
G01 X-27.94500 Y37.35100
G01 X-27.96626 Y37.14150
G01 X-27.97213 Y37.11389
G01 X-28.03791 Y36.91384
G01 X-28.14256 Y36.73111
G01 X-28.15915 Y36.70828
G01 X-28.30060 Y36.55227
G01 X-28.47052 Y36.42791
G01 X-28.50408 Y36.41001
G01 X-28.50408 Y34.48202
G01 X-28.47052 Y34.46411
G01 X-28.30060 Y34.33975
G01 X-28.15915 Y34.18375
G01 X-28.14256 Y34.16091
G01 X-28.03791 Y33.97818
G01 X-27.97213 Y33.77813
G01 X-27.96626 Y33.75052
G01 X-27.94574 Y33.55512
G01 X-27.94574 Y33.52690
G01 X-27.96847 Y33.31756
G01 X-28.03791 Y33.10384
G01 X-28.15026 Y32.90925
G01 X-28.29062 Y32.75228
G01 X-28.31160 Y32.73338
G01 X-28.47052 Y32.61791
G01 X-28.49499 Y32.60379
G01 X-28.68764 Y32.51883
G01 X-28.90743 Y32.47209
G01 X-29.13214 Y32.47209
G01 X-29.35193 Y32.51883
G01 X-29.55719 Y32.61022
G01 X-29.73898 Y32.74227
G01 X-29.88932 Y32.90925
G01 X-30.00166 Y33.10384
G01 X-30.07111 Y33.31756
G01 X-30.09384 Y33.52690
G01 X-30.09384 Y33.55512
G01 X-30.07332 Y33.75052
G01 X-30.06745 Y33.77813
G01 X-30.00166 Y33.97818
G01 X-29.89701 Y34.16091
G01 X-29.88043 Y34.18375
G01 X-29.73898 Y34.33975
G01 X-29.56905 Y34.46411
G01 X-29.53550 Y34.48199
G01 X-29.53550 Y36.41003
G01 X-29.56905 Y36.42791
G01 X-29.73898 Y36.55227
G01 X-29.88043 Y36.70828
G01 X-29.89701 Y36.73111
G01 X-30.00166 Y36.91384
G01 X-30.06745 Y37.11389
G01 X-30.07332 Y37.14150
G01 X-30.09458 Y37.35100
G01 X-30.07332 Y37.56052
G01 X-30.06745 Y37.58813
G01 X-30.00166 Y37.78818
G01 X-29.89701 Y37.97091
G01 X-29.88043 Y37.99375
G01 X-29.73898 Y38.14975
G01 X-29.56905 Y38.27411
G01 X-29.53550 Y38.29199
G01 X-29.53506 Y39.37574
G01 X-33.58451 Y39.37574
G01 X-33.58408 Y38.29199
G01 X-33.55052 Y38.27411
G01 X-33.38060 Y38.14975
G01 X-33.23915 Y37.99375
G01 X-33.22256 Y37.97091
G01 X-33.11791 Y37.78818
G01 X-33.05213 Y37.58813
G01 X-33.04626 Y37.56052
G01 X-33.02500 Y37.35100
G01 X-33.04626 Y37.14150
G01 X-33.05213 Y37.11389
G01 X-33.11791 Y36.91384
G01 X-33.22256 Y36.73111
G01 X-33.23915 Y36.70828
G01 X-33.38060 Y36.55227
G01 X-33.55052 Y36.42791
G01 X-33.58408 Y36.41003
G01 X-33.58408 Y34.48199
G01 X-33.55052 Y34.46411
G01 X-33.38060 Y34.33975
G01 X-33.23915 Y34.18375
G01 X-33.22256 Y34.16091
G01 X-33.11791 Y33.97818
G01 X-33.05213 Y33.77813
G01 X-33.04626 Y33.75052
G01 X-33.02574 Y33.55512
G01 X-33.02574 Y33.52690
G01 X-33.04847 Y33.31756
G01 X-33.11791 Y33.10384
G01 X-33.23026 Y32.90925
G01 X-33.37062 Y32.75228
G01 X-33.39160 Y32.73338
G01 X-33.55052 Y32.61791
G01 X-33.57499 Y32.60379
G01 X-33.76764 Y32.51883
G01 X-33.98743 Y32.47209
G01 X-34.21214 Y32.47209
G01 X-34.43193 Y32.51883
G01 X-34.63719 Y32.61022
G01 X-34.81898 Y32.74227
G01 X-34.96932 Y32.90925
G01 X-35.08166 Y33.10384
G01 X-35.15111 Y33.31756
G01 X-35.17384 Y33.52690
G01 X-35.17384 Y33.55512
G01 X-35.15332 Y33.75052
G01 X-35.14745 Y33.77813
G01 X-35.08166 Y33.97818
G01 X-34.97701 Y34.16091
G01 X-34.96043 Y34.18375
G01 X-34.81898 Y34.33975
G01 X-34.64905 Y34.46411
G01 X-34.61552 Y34.48199
G01 X-34.61552 Y36.41003
G01 X-34.64905 Y36.42791
G01 X-34.81898 Y36.55227
G01 X-34.96043 Y36.70828
G01 X-34.97701 Y36.73111
G01 X-35.08166 Y36.91384
G01 X-35.14745 Y37.11389
G01 X-35.15332 Y37.14150
G01 X-35.17458 Y37.35100
G01 X-35.15332 Y37.56052
G01 X-35.14745 Y37.58813
G01 X-35.08166 Y37.78818
G01 X-34.97701 Y37.97091
G01 X-34.96043 Y37.99375
G01 X-34.81898 Y38.14975
G01 X-34.64905 Y38.27411
G01 X-34.61552 Y38.29199
G01 X-34.61506 Y39.37574
G01 X-38.66451 Y39.37576
G01 X-38.66408 Y38.29202
G01 X-38.63052 Y38.27411
G01 X-38.46060 Y38.14975
G01 X-38.31915 Y37.99375
G01 X-38.30256 Y37.97091
G01 X-38.19791 Y37.78818
G01 X-38.13213 Y37.58813
G01 X-38.12626 Y37.56052
G01 X-38.10500 Y37.35100
G01 X-38.12626 Y37.14150
G01 X-38.13213 Y37.11389
G01 X-38.19791 Y36.91384
G01 X-38.30256 Y36.73111
G01 X-38.31915 Y36.70828
G01 X-38.46060 Y36.55227
G01 X-38.63052 Y36.42791
G01 X-38.66408 Y36.41001
G01 X-38.66408 Y34.48202
G01 X-38.63052 Y34.46411
G01 X-38.46060 Y34.33975
G01 X-38.31915 Y34.18375
G01 X-38.30256 Y34.16091
G01 X-38.19791 Y33.97818
G01 X-38.13213 Y33.77813
G01 X-38.12626 Y33.75052
G01 X-38.10574 Y33.55512
G01 X-38.10574 Y33.52690
G01 X-38.12847 Y33.31756
G01 X-38.19791 Y33.10384
G01 X-38.31026 Y32.90925
G01 X-38.45062 Y32.75228
G01 X-38.47160 Y32.73338
G01 X-38.63052 Y32.61791
G01 X-38.65499 Y32.60379
G01 X-38.84764 Y32.51883
G01 X-39.06743 Y32.47209
G01 X-39.29214 Y32.47209
G01 X-39.51193 Y32.51883
G01 X-39.71719 Y32.61022
G01 X-39.89898 Y32.74227
G01 X-40.04932 Y32.90925
G01 X-40.16166 Y33.10384
G01 X-40.23111 Y33.31756
G01 X-40.25384 Y33.52690
G01 X-40.25384 Y33.55512
G01 X-40.23332 Y33.75052
G01 X-40.22745 Y33.77813
G01 X-40.16166 Y33.97818
G01 X-40.05701 Y34.16091
G01 X-40.04043 Y34.18375
G01 X-39.89898 Y34.33975
G01 X-39.72905 Y34.46411
G01 X-39.69550 Y34.48199
G01 X-39.69550 Y36.41003
G01 X-39.72905 Y36.42791
G01 X-39.89898 Y36.55227
G01 X-40.04043 Y36.70828
G01 X-40.05701 Y36.73111
G01 X-40.16166 Y36.91384
G01 X-40.22745 Y37.11389
G01 X-40.23332 Y37.14150
G01 X-40.25458 Y37.35100
G01 X-40.23332 Y37.56052
G01 X-40.22745 Y37.58813
G01 X-40.16166 Y37.78818
G01 X-40.05701 Y37.97091
G01 X-40.04043 Y37.99375
G01 X-39.89898 Y38.14975
G01 X-39.72905 Y38.27411
G01 X-39.69550 Y38.29199
G01 X-39.69506 Y39.37574
G01 X-43.74451 Y39.37574
G01 X-43.74405 Y38.29199
G01 X-43.71052 Y38.27411
G01 X-43.54060 Y38.14975
G01 X-43.39915 Y37.99375
G01 X-43.38256 Y37.97091
G01 X-43.27791 Y37.78818
G01 X-43.21213 Y37.58813
G01 X-43.20626 Y37.56052
G01 X-43.18500 Y37.35100
G01 X-43.20626 Y37.14150
G01 X-43.21213 Y37.11389
G01 X-43.27791 Y36.91384
G01 X-43.38256 Y36.73111
G01 X-43.39915 Y36.70828
G01 X-43.54060 Y36.55227
G01 X-43.71052 Y36.42791
G01 X-43.74405 Y36.41003
G01 X-43.74405 Y34.48199
G01 X-43.71052 Y34.46411
G01 X-43.54060 Y34.33975
G01 X-43.39915 Y34.18375
G01 X-43.38256 Y34.16091
G01 X-43.27791 Y33.97818
G01 X-43.21213 Y33.77813
G01 X-43.20626 Y33.75052
G01 X-43.18574 Y33.55512
G01 X-43.18574 Y33.52690
G01 X-43.20847 Y33.31756
G01 X-43.27791 Y33.10384
G01 X-43.39026 Y32.90925
G01 X-43.53062 Y32.75228
G01 X-43.55160 Y32.73338
G01 X-43.71052 Y32.61791
G01 X-43.73499 Y32.60379
G01 X-43.92764 Y32.51883
G01 X-44.14743 Y32.47209
G01 X-44.37214 Y32.47209
G01 X-44.59193 Y32.51883
G01 X-44.79719 Y32.61022
G01 X-44.97898 Y32.74227
G01 X-45.12932 Y32.90925
G01 X-45.24166 Y33.10384
G01 X-45.31111 Y33.31756
G01 X-45.33384 Y33.52690
G01 X-45.33384 Y33.55512
G01 X-45.31332 Y33.75052
G01 X-45.30745 Y33.77813
G01 X-45.24166 Y33.97818
G01 X-45.13701 Y34.16091
G01 X-45.12043 Y34.18375
G01 X-44.97898 Y34.33975
G01 X-44.80905 Y34.46411
G01 X-44.77550 Y34.48199
G01 X-44.77550 Y36.41003
G01 X-44.80905 Y36.42791
G01 X-44.97898 Y36.55227
G01 X-45.12043 Y36.70828
G01 X-45.13701 Y36.73111
G01 X-45.24166 Y36.91384
G01 X-45.30745 Y37.11389
G01 X-45.31332 Y37.14150
G01 X-45.33458 Y37.35100
G01 X-45.31332 Y37.56052
G01 X-45.30745 Y37.58813
G01 X-45.24166 Y37.78818
G01 X-45.13701 Y37.97091
G01 X-45.12043 Y37.99375
G01 X-44.97898 Y38.14975
G01 X-44.80905 Y38.27411
G01 X-44.77550 Y38.29199
G01 X-44.77506 Y39.37574
G01 X-48.82451 Y39.37574
G01 X-48.82408 Y38.29199
G01 X-48.79052 Y38.27411
G01 X-48.62060 Y38.14975
G01 X-48.47915 Y37.99375
G01 X-48.46256 Y37.97091
G01 X-48.35791 Y37.78818
G01 X-48.29213 Y37.58813
G01 X-48.28626 Y37.56052
G01 X-48.26500 Y37.35100
G01 X-48.28626 Y37.14150
G01 X-48.29213 Y37.11389
G01 X-48.35791 Y36.91384
G01 X-48.46256 Y36.73111
G01 X-48.47915 Y36.70828
G01 X-48.62060 Y36.55227
G01 X-48.79052 Y36.42791
G01 X-48.82408 Y36.41003
G01 X-48.82408 Y34.48199
G01 X-48.79052 Y34.46411
G01 X-48.62060 Y34.33975
G01 X-48.47915 Y34.18375
G01 X-48.46256 Y34.16091
G01 X-48.35791 Y33.97818
G01 X-48.29213 Y33.77813
G01 X-48.28626 Y33.75052
G01 X-48.26574 Y33.55512
G01 X-48.26574 Y33.52690
G01 X-48.28847 Y33.31756
G01 X-48.35791 Y33.10384
G01 X-48.47026 Y32.90925
G01 X-48.61062 Y32.75228
G01 X-48.63160 Y32.73338
G01 X-48.79052 Y32.61791
G01 X-48.81499 Y32.60379
G01 X-49.00764 Y32.51883
G01 X-49.22743 Y32.47209
G01 X-49.45214 Y32.47209
G01 X-49.67193 Y32.51883
G01 X-49.87719 Y32.61022
G01 X-50.05898 Y32.74227
G01 X-50.20932 Y32.90925
G01 X-50.32166 Y33.10384
G01 X-50.39111 Y33.31756
G01 X-50.41384 Y33.52690
G01 X-50.41384 Y33.55512
G01 X-50.39332 Y33.75052
G01 X-50.38745 Y33.77813
G01 X-50.32166 Y33.97818
G01 X-50.21701 Y34.16091
G01 X-50.20043 Y34.18375
G01 X-50.05898 Y34.33975
G01 X-49.88905 Y34.46411
G01 X-49.85550 Y34.48199
G01 X-49.85550 Y36.41003
G01 X-49.88905 Y36.42791
G01 X-50.05898 Y36.55227
G01 X-50.20043 Y36.70828
G01 X-50.21701 Y36.73111
G01 X-50.32166 Y36.91384
G01 X-50.38745 Y37.11389
G01 X-50.39332 Y37.14150
G01 X-50.41458 Y37.35100
G01 X-50.39332 Y37.56052
G01 X-50.38745 Y37.58813
G01 X-50.32166 Y37.78818
G01 X-50.21701 Y37.97091
G01 X-50.20043 Y37.99375
G01 X-50.05898 Y38.14975
G01 X-49.88905 Y38.27411
G01 X-49.85550 Y38.29199
G01 X-49.85506 Y39.37576
G01 X-53.90451 Y39.37576
G01 X-53.90408 Y38.29202
G01 X-53.87052 Y38.27411
G01 X-53.70060 Y38.14975
G01 X-53.55915 Y37.99375
G01 X-53.54256 Y37.97091
G01 X-53.43791 Y37.78818
G01 X-53.37213 Y37.58813
G01 X-53.36626 Y37.56052
G01 X-53.34500 Y37.35100
G01 X-53.36626 Y37.14150
G01 X-53.37213 Y37.11389
G01 X-53.43791 Y36.91384
G01 X-53.54256 Y36.73111
G01 X-53.55915 Y36.70828
G01 X-53.70060 Y36.55227
G01 X-53.87052 Y36.42791
G01 X-53.90408 Y36.41001
G01 X-53.90408 Y34.48202
G01 X-53.87052 Y34.46411
G01 X-53.70060 Y34.33975
G01 X-53.55915 Y34.18375
G01 X-53.54256 Y34.16091
G01 X-53.43791 Y33.97818
G01 X-53.37213 Y33.77813
G01 X-53.36626 Y33.75052
G01 X-53.34574 Y33.55512
G01 X-53.34574 Y33.52690
G01 X-53.36847 Y33.31756
G01 X-53.43791 Y33.10384
G01 X-53.55026 Y32.90925
G01 X-53.69062 Y32.75228
G01 X-53.71160 Y32.73338
G01 X-53.87052 Y32.61791
G01 X-53.89499 Y32.60379
G01 X-54.08764 Y32.51883
G01 X-54.30743 Y32.47209
G01 X-54.53214 Y32.47209
G01 X-54.75193 Y32.51883
G01 X-54.95719 Y32.61022
G01 X-55.13898 Y32.74227
G01 X-55.28932 Y32.90925
G01 X-55.40166 Y33.10384
G01 X-55.47111 Y33.31756
G01 X-55.49384 Y33.52690
G01 X-55.49384 Y33.55512
G01 X-55.47332 Y33.75052
G01 X-55.46745 Y33.77813
G01 X-55.40166 Y33.97818
G01 X-55.29701 Y34.16091
G01 X-55.28043 Y34.18375
G01 X-55.13898 Y34.33975
G01 X-54.96905 Y34.46411
G01 X-54.93550 Y34.48199
G01 X-54.93550 Y36.41003
G01 X-54.96905 Y36.42791
G01 X-55.13898 Y36.55227
G01 X-55.28043 Y36.70828
G01 X-55.29701 Y36.73111
G01 X-55.40166 Y36.91384
G01 X-55.46745 Y37.11389
G01 X-55.47332 Y37.14150
G01 X-55.49458 Y37.35100
G01 X-55.47332 Y37.56052
G01 X-55.46745 Y37.58813
G01 X-55.40166 Y37.78818
G01 X-55.29701 Y37.97091
G01 X-55.28043 Y37.99375
G01 X-55.13898 Y38.14975
G01 X-54.96905 Y38.27411
G01 X-54.93550 Y38.29199
G01 X-54.93506 Y39.37574
G01 X-58.98451 Y39.37574
G01 X-58.98408 Y38.29199
G01 X-58.95052 Y38.27411
G01 X-58.78060 Y38.14975
G01 X-58.63915 Y37.99375
G01 X-58.62256 Y37.97091
G01 X-58.51791 Y37.78818
G01 X-58.45213 Y37.58813
G01 X-58.44626 Y37.56052
G01 X-58.42500 Y37.35100
G01 X-58.44626 Y37.14150
G01 X-58.45213 Y37.11389
G01 X-58.51791 Y36.91384
G01 X-58.62256 Y36.73111
G01 X-58.63915 Y36.70828
G01 X-58.78060 Y36.55227
G01 X-58.95052 Y36.42791
G01 X-58.98408 Y36.41003
G01 X-58.98408 Y34.48199
G01 X-58.95052 Y34.46411
G01 X-58.78060 Y34.33975
G01 X-58.63915 Y34.18375
G01 X-58.62256 Y34.16091
G01 X-58.51791 Y33.97818
G01 X-58.45213 Y33.77813
G01 X-58.44626 Y33.75052
G01 X-58.42574 Y33.55512
G01 X-58.42574 Y33.52690
G01 X-58.44847 Y33.31756
G01 X-58.51791 Y33.10384
G01 X-58.63026 Y32.90925
G01 X-58.77062 Y32.75228
G01 X-58.79160 Y32.73338
G01 X-58.95052 Y32.61791
G01 X-58.97499 Y32.60379
G01 X-59.16764 Y32.51883
G01 X-59.38743 Y32.47209
G01 X-59.61214 Y32.47209
G01 X-59.83193 Y32.51883
G01 X-60.03719 Y32.61022
G01 X-60.21898 Y32.74227
G01 X-60.36932 Y32.90925
G01 X-60.48166 Y33.10384
G01 X-60.55111 Y33.31756
G01 X-60.57384 Y33.52690
G01 X-60.57384 Y33.55512
G01 X-60.55332 Y33.75052
G01 X-60.54745 Y33.77813
G01 X-60.48166 Y33.97818
G01 X-60.37701 Y34.16091
G01 X-60.36043 Y34.18375
G01 X-60.21898 Y34.33975
G01 X-60.04905 Y34.46411
G01 X-60.01552 Y34.48199
G01 X-60.01552 Y36.41003
G01 X-60.04905 Y36.42791
G01 X-60.21898 Y36.55227
G01 X-60.36043 Y36.70828
G01 X-60.37701 Y36.73111
G01 X-60.48166 Y36.91384
G01 X-60.54745 Y37.11389
G01 X-60.55332 Y37.14150
G01 X-60.57458 Y37.35100
G01 X-60.55332 Y37.56052
G01 X-60.54745 Y37.58813
G01 X-60.48166 Y37.78818
G01 X-60.37701 Y37.97091
G01 X-60.36043 Y37.99375
G01 X-60.21898 Y38.14975
G01 X-60.04905 Y38.27411
G01 X-60.01552 Y38.29199
G01 X-60.01506 Y39.37574
G01 X-66.60451 Y39.37574
G01 X-66.60408 Y38.29202
G01 X-66.57052 Y38.27411
G01 X-66.40060 Y38.14975
G01 X-66.25915 Y37.99375
G01 X-66.24256 Y37.97091
G01 X-66.13791 Y37.78818
G01 X-66.07213 Y37.58813
G01 X-66.06626 Y37.56052
G01 X-66.04500 Y37.35100
G01 X-66.06626 Y37.14150
G01 X-66.07213 Y37.11389
G01 X-66.13791 Y36.91384
G01 X-66.24256 Y36.73111
G01 X-66.25915 Y36.70828
G01 X-66.40060 Y36.55227
G01 X-66.57052 Y36.42791
G01 X-66.60408 Y36.41001
G01 X-66.60408 Y34.48202
G01 X-66.57052 Y34.46411
G01 X-66.40060 Y34.33975
G01 X-66.25915 Y34.18375
G01 X-66.24256 Y34.16091
G01 X-66.13791 Y33.97818
G01 X-66.07213 Y33.77813
G01 X-66.06626 Y33.75052
G01 X-66.04574 Y33.55512
G01 X-66.04574 Y33.52690
G01 X-66.06847 Y33.31756
G01 X-66.13791 Y33.10384
G01 X-66.25026 Y32.90925
G01 X-66.39062 Y32.75228
G01 X-66.41160 Y32.73338
G01 X-66.57052 Y32.61791
G01 X-66.59499 Y32.60379
G01 X-66.78764 Y32.51883
G01 X-67.00743 Y32.47209
G01 X-67.23214 Y32.47209
G01 X-67.45193 Y32.51883
G01 X-67.65719 Y32.61022
G01 X-67.83898 Y32.74227
G01 X-67.98932 Y32.90925
G01 X-68.10166 Y33.10384
G01 X-68.17111 Y33.31756
G01 X-68.19384 Y33.52690
G01 X-68.19384 Y33.55512
G01 X-68.17332 Y33.75052
G01 X-68.16745 Y33.77813
G01 X-68.10166 Y33.97818
G01 X-67.99701 Y34.16091
G01 X-67.98043 Y34.18375
G01 X-67.83898 Y34.33975
G01 X-67.66905 Y34.46411
G01 X-67.63550 Y34.48199
G01 X-67.63550 Y36.41003
G01 X-67.66905 Y36.42791
G01 X-67.83898 Y36.55227
G01 X-67.98043 Y36.70828
G01 X-67.99701 Y36.73111
G01 X-68.10166 Y36.91384
G01 X-68.16745 Y37.11389
G01 X-68.17332 Y37.14150
G01 X-68.19458 Y37.35100
G01 X-68.17332 Y37.56052
G01 X-68.16745 Y37.58813
G01 X-68.10166 Y37.78818
G01 X-67.99701 Y37.97091
G01 X-67.98043 Y37.99375
G01 X-67.83898 Y38.14975
G01 X-67.66905 Y38.27411
G01 X-67.63550 Y38.29199
G01 X-67.63506 Y39.37574
G01 X-71.68451 Y39.37576
G01 X-71.68408 Y38.29202
G01 X-71.65052 Y38.27411
G01 X-71.48060 Y38.14975
G01 X-71.33915 Y37.99375
G01 X-71.32256 Y37.97091
G01 X-71.21791 Y37.78818
G01 X-71.15213 Y37.58813
G01 X-71.14626 Y37.56052
G01 X-71.12500 Y37.35100
G01 X-71.14626 Y37.14150
G01 X-71.15213 Y37.11389
G01 X-71.21791 Y36.91384
G01 X-71.32256 Y36.73111
G01 X-71.33915 Y36.70828
G01 X-71.48060 Y36.55227
G01 X-71.65052 Y36.42791
G01 X-71.68408 Y36.41001
G01 X-71.68408 Y34.48202
G01 X-71.65052 Y34.46411
G01 X-71.48060 Y34.33975
G01 X-71.33915 Y34.18375
G01 X-71.32256 Y34.16091
G01 X-71.21791 Y33.97818
G01 X-71.15213 Y33.77813
G01 X-71.14626 Y33.75052
G01 X-71.12574 Y33.55512
G01 X-71.12574 Y33.52690
G01 X-71.14847 Y33.31756
G01 X-71.21286 Y33.11705
G01 X-71.22431 Y33.09127
G01 X-71.32256 Y32.92111
G01 X-71.33915 Y32.89828
G01 X-71.48060 Y32.74227
G01 X-71.66239 Y32.61022
G01 X-71.86764 Y32.51883
G01 X-72.07349 Y32.47430
G01 X-72.10155 Y32.47136
G01 X-72.31214 Y32.47209
G01 X-72.53193 Y32.51883
G01 X-72.73719 Y32.61022
G01 X-72.91898 Y32.74227
G01 X-73.06932 Y32.90925
G01 X-73.18166 Y33.10384
G01 X-73.25111 Y33.31756
G01 X-73.27384 Y33.52690
G01 X-73.27384 Y33.55512
G01 X-73.25332 Y33.75052
G01 X-73.24745 Y33.77813
G01 X-73.18166 Y33.97818
G01 X-73.07701 Y34.16091
G01 X-73.06043 Y34.18375
G01 X-72.91898 Y34.33975
G01 X-72.74905 Y34.46411
G01 X-72.71550 Y34.48199
G01 X-72.71550 Y36.41003
G01 X-72.74905 Y36.42791
G01 X-72.91898 Y36.55227
G01 X-73.06043 Y36.70828
G01 X-73.07701 Y36.73111
G01 X-73.18166 Y36.91384
G01 X-73.24745 Y37.11389
G01 X-73.25332 Y37.14150
G01 X-73.27458 Y37.35100
G01 X-73.25332 Y37.56052
G01 X-73.24745 Y37.58813
G01 X-73.18166 Y37.78818
G01 X-73.07701 Y37.97091
G01 X-73.06043 Y37.99375
G01 X-72.91898 Y38.14975
G01 X-72.74905 Y38.27411
G01 X-72.71550 Y38.29199
G01 X-72.71506 Y39.37574
G01 X-76.76451 Y39.37574
G01 X-76.76408 Y38.29199
G01 X-76.73053 Y38.27411
G01 X-76.56060 Y38.14975
G01 X-76.41915 Y37.99375
G01 X-76.40256 Y37.97091
G01 X-76.29791 Y37.78818
G01 X-76.23213 Y37.58813
G01 X-76.22626 Y37.56052
G01 X-76.20500 Y37.35100
G01 X-76.22626 Y37.14150
G01 X-76.23213 Y37.11389
G01 X-76.29791 Y36.91384
G01 X-76.40256 Y36.73111
G01 X-76.41915 Y36.70828
G01 X-76.56060 Y36.55227
G01 X-76.73053 Y36.42791
G01 X-76.76408 Y36.41003
G01 X-76.76408 Y34.48199
G01 X-76.73053 Y34.46411
G01 X-76.56060 Y34.33975
G01 X-76.41915 Y34.18375
G01 X-76.40256 Y34.16091
G01 X-76.29791 Y33.97818
G01 X-76.23213 Y33.77813
G01 X-76.22626 Y33.75052
G01 X-76.20574 Y33.55512
G01 X-76.20574 Y33.52690
G01 X-76.22847 Y33.31756
G01 X-76.29286 Y33.11705
G01 X-76.30431 Y33.09127
G01 X-76.40256 Y32.92111
G01 X-76.41915 Y32.89828
G01 X-76.56060 Y32.74227
G01 X-76.74239 Y32.61022
G01 X-76.94764 Y32.51883
G01 X-77.15349 Y32.47430
G01 X-77.18155 Y32.47136
G01 X-77.39214 Y32.47209
G01 X-77.61193 Y32.51883
G01 X-77.81719 Y32.61022
G01 X-77.99898 Y32.74227
G01 X-78.14932 Y32.90925
G01 X-78.26166 Y33.10384
G01 X-78.33111 Y33.31756
G01 X-78.35384 Y33.52690
G01 X-78.35384 Y33.55512
G01 X-78.33332 Y33.75052
G01 X-78.32745 Y33.77813
G01 X-78.26166 Y33.97818
G01 X-78.15701 Y34.16091
G01 X-78.14043 Y34.18375
G01 X-77.99898 Y34.33975
G01 X-77.82905 Y34.46411
G01 X-77.79550 Y34.48199
G01 X-77.79550 Y36.41003
G01 X-77.82905 Y36.42791
G01 X-77.99898 Y36.55227
G01 X-78.14043 Y36.70828
G01 X-78.15701 Y36.73111
G01 X-78.26166 Y36.91384
G01 X-78.32745 Y37.11389
G01 X-78.33332 Y37.14150
G01 X-78.35458 Y37.35100
G01 X-78.33332 Y37.56052
G01 X-78.32745 Y37.58813
G01 X-78.26166 Y37.78818
G01 X-78.15701 Y37.97091
G01 X-78.14043 Y37.99375
G01 X-77.99898 Y38.14975
G01 X-77.82905 Y38.27411
G01 X-77.79550 Y38.29199
G01 X-77.79506 Y39.37574
G01 X-81.84451 Y39.37574
G01 X-81.84408 Y38.29199
G01 X-81.81052 Y38.27411
G01 X-81.64060 Y38.14975
G01 X-81.49915 Y37.99375
G01 X-81.48256 Y37.97091
G01 X-81.37791 Y37.78818
G01 X-81.31213 Y37.58813
G01 X-81.30626 Y37.56052
G01 X-81.28500 Y37.35100
G01 X-81.30626 Y37.14150
G01 X-81.31213 Y37.11389
G01 X-81.37791 Y36.91384
G01 X-81.48256 Y36.73111
G01 X-81.49915 Y36.70828
G01 X-81.64060 Y36.55227
G01 X-81.81052 Y36.42791
G01 X-81.84408 Y36.41003
G01 X-81.84408 Y34.48199
G01 X-81.81052 Y34.46411
G01 X-81.64060 Y34.33975
G01 X-81.49915 Y34.18375
G01 X-81.48256 Y34.16091
G01 X-81.37791 Y33.97818
G01 X-81.31213 Y33.77813
G01 X-81.30626 Y33.75052
G01 X-81.28500 Y33.54100
G01 X-81.30626 Y33.33150
G01 X-81.31213 Y33.30389
G01 X-81.37791 Y33.10384
G01 X-81.49026 Y32.90925
G01 X-81.64060 Y32.74227
G01 X-81.81052 Y32.61791
G01 X-81.83499 Y32.60379
G01 X-82.01446 Y32.52388
G01 X-82.04131 Y32.51517
G01 X-82.24743 Y32.47209
G01 X-82.47214 Y32.47209
G01 X-82.69193 Y32.51883
G01 X-82.89719 Y32.61022
G01 X-83.07898 Y32.74227
G01 X-83.22932 Y32.90925
G01 X-83.34166 Y33.10384
G01 X-83.40745 Y33.30389
G01 X-83.41332 Y33.33150
G01 X-83.43458 Y33.54100
G01 X-83.41332 Y33.75052
G01 X-83.40745 Y33.77813
G01 X-83.34166 Y33.97818
G01 X-83.22932 Y34.17277
G01 X-83.08896 Y34.32975
G01 X-83.06798 Y34.34864
G01 X-82.90905 Y34.46411
G01 X-82.87550 Y34.48202
G01 X-82.87550 Y36.41001
G01 X-82.90905 Y36.42791
G01 X-83.07898 Y36.55227
G01 X-83.22043 Y36.70828
G01 X-83.23701 Y36.73111
G01 X-83.34166 Y36.91384
G01 X-83.40745 Y37.11389
G01 X-83.41332 Y37.14150
G01 X-83.43458 Y37.35100
G01 X-83.41332 Y37.56052
G01 X-83.40745 Y37.58813
G01 X-83.34166 Y37.78818
G01 X-83.23701 Y37.97091
G01 X-83.22043 Y37.99375
G01 X-83.07898 Y38.14975
G01 X-82.90905 Y38.27411
G01 X-82.87550 Y38.29202
G01 X-82.87506 Y39.37576
G01 X-86.92451 Y39.37574
G01 X-86.92408 Y38.29199
G01 X-86.89052 Y38.27411
G01 X-86.72060 Y38.14975
G01 X-86.57915 Y37.99375
G01 X-86.56256 Y37.97091
G01 X-86.45791 Y37.78818
G01 X-86.39213 Y37.58813
G01 X-86.38626 Y37.56052
G01 X-86.36500 Y37.35100
G01 X-86.38626 Y37.14150
G01 X-86.39213 Y37.11389
G01 X-86.45791 Y36.91384
G01 X-86.56256 Y36.73111
G01 X-86.57915 Y36.70828
G01 X-86.72060 Y36.55227
G01 X-86.89052 Y36.42791
G01 X-86.92408 Y36.41003
G01 X-86.92408 Y34.48199
G01 X-86.89052 Y34.46411
G01 X-86.72060 Y34.33975
G01 X-86.57915 Y34.18375
G01 X-86.56256 Y34.16091
G01 X-86.45791 Y33.97818
G01 X-86.39213 Y33.77813
G01 X-86.38626 Y33.75052
G01 X-86.36500 Y33.54100
G01 X-86.38626 Y33.33150
G01 X-86.39213 Y33.30389
G01 X-86.45791 Y33.10384
G01 X-86.57026 Y32.90925
G01 X-86.72060 Y32.74227
G01 X-86.89052 Y32.61791
G01 X-86.91499 Y32.60379
G01 X-87.10764 Y32.51883
G01 X-87.32743 Y32.47209
G01 X-87.55214 Y32.47209
G01 X-87.77193 Y32.51883
G01 X-87.97719 Y32.61022
G01 X-88.15898 Y32.74227
G01 X-88.30932 Y32.90925
G01 X-88.42166 Y33.10384
G01 X-88.48745 Y33.30389
G01 X-88.49332 Y33.33150
G01 X-88.51458 Y33.54100
G01 X-88.49332 Y33.75052
G01 X-88.48745 Y33.77813
G01 X-88.42166 Y33.97818
G01 X-88.30932 Y34.17277
G01 X-88.16896 Y34.32975
G01 X-88.14798 Y34.34864
G01 X-87.98905 Y34.46411
G01 X-87.95552 Y34.48202
G01 X-87.95550 Y36.41003
G01 X-87.98905 Y36.42791
G01 X-88.15898 Y36.55227
G01 X-88.30043 Y36.70828
G01 X-88.31701 Y36.73111
G01 X-88.42166 Y36.91384
G01 X-88.48745 Y37.11389
G01 X-88.49332 Y37.14150
G01 X-88.51458 Y37.35100
G01 X-88.49332 Y37.56052
G01 X-88.48745 Y37.58813
G01 X-88.42166 Y37.78818
G01 X-88.31701 Y37.97091
G01 X-88.30043 Y37.99375
G01 X-88.15898 Y38.14975
G01 X-87.98905 Y38.27411
G01 X-87.95550 Y38.29199
G01 X-87.95506 Y39.37574
G01 X-92.00451 Y39.37574
G01 X-92.00408 Y38.29202
G01 X-91.97052 Y38.27411
G01 X-91.80060 Y38.14975
G01 X-91.65915 Y37.99375
G01 X-91.64256 Y37.97091
G01 X-91.53791 Y37.78818
G01 X-91.47213 Y37.58813
G01 X-91.46626 Y37.56052
G01 X-91.44500 Y37.35100
G01 X-91.46626 Y37.14150
G01 X-91.47213 Y37.11389
G01 X-91.53791 Y36.91384
G01 X-91.64256 Y36.73111
G01 X-91.65915 Y36.70828
G01 X-91.80060 Y36.55227
G01 X-91.97052 Y36.42791
G01 X-92.00408 Y36.41001
G01 X-92.00408 Y34.48202
G01 X-91.97052 Y34.46411
G01 X-91.80060 Y34.33975
G01 X-91.65915 Y34.18375
G01 X-91.64256 Y34.16091
G01 X-91.53791 Y33.97818
G01 X-91.47213 Y33.77813
G01 X-91.46626 Y33.75052
G01 X-91.44500 Y33.54100
G01 X-91.46626 Y33.33150
G01 X-91.47213 Y33.30389
G01 X-91.53791 Y33.10384
G01 X-91.65026 Y32.90925
G01 X-91.80060 Y32.74227
G01 X-91.97052 Y32.61791
G01 X-91.99499 Y32.60379
G01 X-92.18764 Y32.51883
G01 X-92.40743 Y32.47209
G01 X-92.63214 Y32.47209
G01 X-92.85193 Y32.51883
G01 X-93.05719 Y32.61022
G01 X-93.23898 Y32.74227
G01 X-93.38932 Y32.90925
G01 X-93.50166 Y33.10384
G01 X-93.56745 Y33.30389
G01 X-93.57332 Y33.33150
G01 X-93.59458 Y33.54100
G01 X-93.57332 Y33.75052
G01 X-93.56745 Y33.77813
G01 X-93.50166 Y33.97818
G01 X-93.38932 Y34.17277
G01 X-93.24896 Y34.32975
G01 X-93.22798 Y34.34864
G01 X-93.06905 Y34.46411
G01 X-93.03552 Y34.48202
G01 X-93.03550 Y36.41003
G01 X-93.06905 Y36.42791
G01 X-93.23898 Y36.55227
G01 X-93.38043 Y36.70828
G01 X-93.39701 Y36.73111
G01 X-93.50166 Y36.91384
G01 X-93.56745 Y37.11389
G01 X-93.57332 Y37.14150
G01 X-93.59458 Y37.35100
G01 X-93.57332 Y37.56052
G01 X-93.56745 Y37.58813
G01 X-93.50166 Y37.78818
G01 X-93.39701 Y37.97091
G01 X-93.38043 Y37.99375
G01 X-93.23898 Y38.14975
G01 X-93.06905 Y38.27411
G01 X-93.03550 Y38.29199
G01 X-93.03506 Y39.37574
G01 X-97.08451 Y39.37574
G01 X-97.08408 Y38.29202
G01 X-97.05052 Y38.27411
G01 X-96.88060 Y38.14975
G01 X-96.73915 Y37.99375
G01 X-96.72256 Y37.97091
G01 X-96.61791 Y37.78818
G01 X-96.55213 Y37.58813
G01 X-96.54626 Y37.56052
G01 X-96.52500 Y37.35100
G01 X-96.54626 Y37.14150
G01 X-96.55213 Y37.11389
G01 X-96.61791 Y36.91384
G01 X-96.72256 Y36.73111
G01 X-96.73915 Y36.70828
G01 X-96.88060 Y36.55227
G01 X-97.05052 Y36.42791
G01 X-97.08408 Y36.41001
G01 X-97.08408 Y34.48202
G01 X-97.05052 Y34.46411
G01 X-96.88060 Y34.33975
G01 X-96.73915 Y34.18375
G01 X-96.72256 Y34.16091
G01 X-96.61791 Y33.97818
G01 X-96.55213 Y33.77813
G01 X-96.54626 Y33.75052
G01 X-96.52500 Y33.54100
G01 X-96.54847 Y33.31756
G01 X-96.61286 Y33.11705
G01 X-96.62431 Y33.09127
G01 X-96.73026 Y32.90925
G01 X-96.87062 Y32.75228
G01 X-96.89160 Y32.73338
G01 X-97.06239 Y32.61022
G01 X-97.26764 Y32.51883
G01 X-97.47349 Y32.47430
G01 X-97.50155 Y32.47136
G01 X-97.69802 Y32.47136
G01 X-97.72609 Y32.47430
G01 X-97.93193 Y32.51883
G01 X-98.12459 Y32.60379
G01 X-98.14905 Y32.61791
G01 X-98.31898 Y32.74227
G01 X-98.46932 Y32.90925
G01 X-98.58166 Y33.10384
G01 X-98.64745 Y33.30389
G01 X-98.65332 Y33.33150
G01 X-98.67458 Y33.54100
G01 X-98.65332 Y33.75052
G01 X-98.64745 Y33.77813
G01 X-98.58166 Y33.97818
G01 X-98.46932 Y34.17277
G01 X-98.32896 Y34.32975
G01 X-98.30798 Y34.34864
G01 X-98.14905 Y34.46411
G01 X-98.11550 Y34.48199
G01 X-98.11550 Y36.41003
G01 X-98.14905 Y36.42791
G01 X-98.31898 Y36.55227
G01 X-98.46043 Y36.70828
G01 X-98.47701 Y36.73111
G01 X-98.58166 Y36.91384
G01 X-98.64745 Y37.11389
G01 X-98.65332 Y37.14150
G01 X-98.67458 Y37.35100
G01 X-98.65332 Y37.56052
G01 X-98.64745 Y37.58813
G01 X-98.58166 Y37.78818
G01 X-98.47701 Y37.97091
G01 X-98.46043 Y37.99375
G01 X-98.31898 Y38.14975
G01 X-98.14905 Y38.27411
G01 X-98.11550 Y38.29199
G01 X-98.11506 Y39.37574
G01 X-101.25511 Y39.37502
G01 X-102.16380 Y38.46636
G01 X-102.16405 Y38.29202
G01 X-102.13053 Y38.27411
G01 X-101.97160 Y38.15864
G01 X-101.95062 Y38.13975
G01 X-101.81026 Y37.98277
G01 X-101.69791 Y37.78818
G01 X-101.62847 Y37.57447
G01 X-101.60574 Y37.36512
G01 X-101.60574 Y37.33690
G01 X-101.62626 Y37.14150
G01 X-101.63213 Y37.11389
G01 X-101.69791 Y36.91384
G01 X-101.80256 Y36.73111
G01 X-101.81915 Y36.70828
G01 X-101.96060 Y36.55227
G01 X-102.13053 Y36.42791
G01 X-102.16408 Y36.41003
G01 X-102.16405 Y34.48202
G01 X-102.13053 Y34.46411
G01 X-101.97160 Y34.34864
G01 X-101.95062 Y34.32975
G01 X-101.81026 Y34.17277
G01 X-101.69791 Y33.97818
G01 X-101.62847 Y33.76447
G01 X-101.60574 Y33.55512
G01 X-101.60574 Y33.52690
G01 X-101.62626 Y33.33150
G01 X-101.63213 Y33.30389
G01 X-101.69791 Y33.10384
G01 X-101.81026 Y32.90925
G01 X-101.96060 Y32.74227
G01 X-102.13053 Y32.61791
G01 X-102.15499 Y32.60379
G01 X-102.33446 Y32.52388
G01 X-102.36131 Y32.51517
G01 X-102.56743 Y32.47209
G01 X-102.79214 Y32.47209
G01 X-103.01193 Y32.51883
G01 X-103.20459 Y32.60379
G01 X-103.22905 Y32.61791
G01 X-103.38798 Y32.73338
G01 X-103.40896 Y32.75228
G01 X-103.54932 Y32.90925
G01 X-103.66166 Y33.10384
G01 X-103.73111 Y33.31756
G01 X-103.75384 Y33.52690
G01 X-103.75384 Y33.55512
G01 X-103.73332 Y33.75052
G01 X-103.72745 Y33.77813
G01 X-103.66166 Y33.97818
G01 X-103.55701 Y34.16091
G01 X-103.54043 Y34.18375
G01 X-103.39898 Y34.33975
G01 X-103.22905 Y34.46411
G01 X-103.19552 Y34.48202
G01 X-103.19552 Y36.41001
G01 X-103.22905 Y36.42791
G01 X-103.38798 Y36.54338
G01 X-103.40896 Y36.56228
G01 X-103.54932 Y36.71925
G01 X-103.65526 Y36.90127
G01 X-103.66672 Y36.92705
G01 X-103.73111 Y37.12756
G01 X-103.75458 Y37.35100
G01 X-103.73111 Y37.57447
G01 X-103.66672 Y37.77498
G01 X-103.65526 Y37.80076
G01 X-103.54932 Y37.98277
G01 X-103.40896 Y38.13975
G01 X-103.38798 Y38.15864
G01 X-103.22905 Y38.27411
G01 X-103.19552 Y38.29202
G01 X-103.19578 Y38.68011
G01 X-103.19067 Y38.75029
G01 X-103.16687 Y38.84950
G01 X-103.13436 Y38.92362
G01 X-103.09067 Y38.99171
G01 X-103.04465 Y39.04495
G01 X-101.82390 Y40.26479
G01 X-101.74414 Y40.32686
G01 X-101.65382 Y40.37220
G01 X-101.55641 Y40.39905
G01 X-101.46885 Y40.40700
G01 X-9.95657 Y40.40637
G01 X-9.85626 Y40.39387
G01 X-9.76035 Y40.36207
G01 X-9.68311 Y40.32006
G01 X-9.60493 Y40.25587
G01 X-5.79493 Y36.44587
G01 X-5.73864 Y36.37833
G01 X-5.72394 Y36.35631
G01 X-5.67860 Y36.26601
G01 X-5.65175 Y36.16858
G01 X-5.64441 Y36.09423
G01 X-5.64405 Y34.48202
G01 X-5.61050 Y34.46411
G01 X-5.45160 Y34.34864
G01 X-5.43062 Y34.32975
G01 X-5.29021 Y34.17270
G01 X-5.22295 Y34.05670
G01 X-2.01663 Y34.05667
G01 X-1.94937 Y34.17270
G01 X-1.80896 Y34.32975
G01 X-1.78798 Y34.34864
G01 X-1.61719 Y34.47181
G01 X-1.41193 Y34.56320
G01 X-1.20609 Y34.60772
G01 X-1.17802 Y34.61067
G01 X-0.96743 Y34.60993
G01 X-0.74764 Y34.56320
G01 X-0.54239 Y34.47181
G01 X-0.36060 Y34.33975
G01 X-0.21915 Y34.18375
G01 X-0.20256 Y34.16091
G01 X-0.10431 Y33.99076
G01 X-0.09286 Y33.96498
G01 X-0.02847 Y33.76447
G01 X-0.00500 Y33.54100
G01 X-0.03093 Y33.31806
G01 X-0.10020 Y33.10488
G01 X-0.21229 Y32.91072
G01 X-0.35247 Y32.75396
G01 X-0.37304 Y32.73541
G01 X-0.53200 Y32.61992
G01 X-0.55600 Y32.60608
G01 X-0.74843 Y32.52119
G01 X-0.96771 Y32.47458
G01 X-1.19186 Y32.47458
G01 X-1.39776 Y32.51761
G01 X-1.42410 Y32.52617
G01 X-1.61594 Y32.61238
G01 X-1.78653 Y32.73541
G01 X-1.80710 Y32.75396
G01 X-1.94734 Y32.91080
G01 X-2.01518 Y33.02784
G01 X-5.22439 Y33.02784
G01 X-5.29224 Y32.91080
G01 X-5.44228 Y32.74415
G01 X-5.62363 Y32.61238
G01 X-5.81548 Y32.52617
G01 X-5.84179 Y32.51761
G01 X-6.06155 Y32.47387
G01 X-6.27186 Y32.47458
G01 X-6.47776 Y32.51761
G01 X-6.50410 Y32.52617
G01 X-6.69592 Y32.61238
G01 X-6.86650 Y32.73541
G01 X-6.88710 Y32.75396
G01 X-7.02726 Y32.91072
G01 X-7.13308 Y33.09251
G01 X-7.14435 Y33.11781
G01 X-7.20864 Y33.31806
G01 X-7.23206 Y33.54100
G01 X-7.21083 Y33.75027
G01 X-7.20506 Y33.77735
G01 X-7.13938 Y33.97714
G01 X-7.03483 Y34.15967
G01 X-7.01855 Y34.18207
G01 X-6.87730 Y34.33787
G01 X-6.70758 Y34.46211
G01 X-6.67298 Y34.48039
G01 X-6.67311 Y35.86840
G01 X-10.18240 Y39.37769
G01 X-13.26702 Y39.37825
G01 X-13.26657 Y38.29039
G01 X-13.23200 Y38.27211
G01 X-13.06228 Y38.14787
G01 X-12.92100 Y37.99207
G01 X-12.90472 Y37.96967
G01 X-12.80020 Y37.78714
G01 X-12.73451 Y37.58735
G01 X-12.72875 Y37.56027
G01 X-12.70749 Y37.35100
G01 X-12.72875 Y37.14175
G01 X-12.73451 Y37.11468
G01 X-12.80020 Y36.91488
G01 X-12.90472 Y36.73236
G01 X-12.92100 Y36.70995
G01 X-13.06228 Y36.55415
G01 X-13.23200 Y36.42992
G01 X-13.26657 Y36.41163
G01 X-13.26657 Y34.48039
G01 X-13.23200 Y34.46211
G01 X-13.07304 Y34.34661
G01 X-13.05247 Y34.32807
G01 X-12.91229 Y34.17130
G01 X-12.80020 Y33.97714
G01 X-12.73451 Y33.77735
G01 X-12.72875 Y33.75027
G01 X-12.70749 Y33.54100
G01 X-12.72875 Y33.33175
G01 X-12.73451 Y33.30468
G01 X-12.80020 Y33.10488
G01 X-12.91229 Y32.91072
G01 X-13.06228 Y32.74415
G01 X-13.24363 Y32.61238
G01 X-13.44843 Y32.52119
G01 X-13.66771 Y32.47458
G01 X-13.89186 Y32.47458
G01 X-14.11114 Y32.52119
G01 X-14.30357 Y32.60608
G01 X-14.32758 Y32.61992
G01 X-14.49730 Y32.74415
G01 X-14.64729 Y32.91072
G01 X-14.75308 Y33.09251
G01 X-14.76435 Y33.11781
G01 X-14.82864 Y33.31806
G01 X-14.85209 Y33.54100
G01 X-14.83083 Y33.75027
G01 X-14.82506 Y33.77735
G01 X-14.75938 Y33.97714
G01 X-14.65486 Y34.15967
G01 X-14.63857 Y34.18207
G01 X-14.49730 Y34.33787
G01 X-14.32758 Y34.46211
G01 X-14.29301 Y34.48039
G01 X-14.29301 Y36.41163
G01 X-14.32758 Y36.42992
G01 X-14.49730 Y36.55415
G01 X-14.63857 Y36.70995
G01 X-14.65486 Y36.73236
G01 X-14.75938 Y36.91488
G01 X-14.82506 Y37.11468
G01 X-14.83083 Y37.14175
G01 X-14.85209 Y37.35100
G01 X-14.83083 Y37.56027
G01 X-14.82506 Y37.58735
G01 X-14.75938 Y37.78714
G01 X-14.65486 Y37.96967
G01 X-14.63857 Y37.99207
G01 X-14.49730 Y38.14787
G01 X-14.32758 Y38.27211
G01 X-14.29301 Y38.29039
G01 X-14.29255 Y39.37825
G01 X-18.34702 Y39.37825
G01 X-18.34657 Y38.29039
G01 X-18.31200 Y38.27211
G01 X-18.14228 Y38.14787
G01 X-18.00100 Y37.99207
G01 X-17.98472 Y37.96967
G01 X-17.88020 Y37.78714
G01 X-17.81451 Y37.58735
G01 X-17.80875 Y37.56027
G01 X-17.78749 Y37.35100
G01 X-17.80875 Y37.14175
G01 X-17.81451 Y37.11468
G01 X-17.88020 Y36.91488
G01 X-17.98472 Y36.73236
G01 X-18.00100 Y36.70995
G01 X-18.14228 Y36.55415
G01 X-18.31200 Y36.42992
G01 X-18.34657 Y36.41163
G01 X-18.34657 Y34.48039
G01 X-18.31200 Y34.46211
G01 X-18.15304 Y34.34661
G01 X-18.13247 Y34.32807
G01 X-17.99229 Y34.17130
G01 X-17.88020 Y33.97714
G01 X-17.81451 Y33.77735
G01 X-17.80875 Y33.75027
G01 X-17.78749 Y33.54100
G01 X-17.80875 Y33.33175
G01 X-17.81451 Y33.30468
G01 X-17.88020 Y33.10488
G01 X-17.99229 Y32.91072
G01 X-18.14228 Y32.74415
G01 X-18.32363 Y32.61238
G01 X-18.52843 Y32.52119
G01 X-18.74771 Y32.47458
G01 X-18.97186 Y32.47458
G01 X-19.17776 Y32.51761
G01 X-19.20410 Y32.52617
G01 X-19.40758 Y32.61992
G01 X-19.57730 Y32.74415
G01 X-19.72729 Y32.91072
G01 X-19.83308 Y33.09251
G01 X-19.84435 Y33.11781
G01 X-19.90864 Y33.31806
G01 X-19.93209 Y33.54100
G01 X-19.91083 Y33.75027
G01 X-19.90506 Y33.77735
G01 X-19.83938 Y33.97714
G01 X-19.73486 Y34.15967
G01 X-19.71857 Y34.18207
G01 X-19.57730 Y34.33787
G01 X-19.40758 Y34.46211
G01 X-19.37301 Y34.48039
G01 X-19.37301 Y36.41163
G01 X-19.40758 Y36.42992
G01 X-19.57730 Y36.55415
G01 X-19.71857 Y36.70995
G01 X-19.73486 Y36.73236
G01 X-19.83938 Y36.91488
G01 X-19.90506 Y37.11468
G01 X-19.91083 Y37.14175
G01 X-19.93209 Y37.35100
G01 X-19.91083 Y37.56027
G01 X-19.90506 Y37.58735
G01 X-19.83938 Y37.78714
G01 X-19.73486 Y37.96967
G01 X-19.71857 Y37.99207
G01 X-19.57730 Y38.14787
G01 X-19.40758 Y38.27211
G01 X-19.37301 Y38.29039
G01 X-19.37255 Y39.37825
G01 X-23.42702 Y39.37825
G01 X-23.42657 Y38.29039
G01 X-23.39200 Y38.27211
G01 X-23.22228 Y38.14787
G01 X-23.08100 Y37.99207
G01 X-23.06472 Y37.96967
G01 X-22.96020 Y37.78714
G01 X-22.89451 Y37.58735
G01 X-22.88875 Y37.56027
G01 X-22.86749 Y37.35100
G01 X-22.88875 Y37.14175
G01 X-22.89451 Y37.11468
G01 X-22.96020 Y36.91488
G01 X-23.06472 Y36.73236
G01 X-23.08100 Y36.70995
G01 X-23.22228 Y36.55415
G01 X-23.39200 Y36.42992
G01 X-23.42657 Y36.41163
G01 X-23.42657 Y34.48039
G01 X-23.39200 Y34.46211
G01 X-23.22228 Y34.33787
G01 X-23.08100 Y34.18207
G01 X-23.06472 Y34.15967
G01 X-22.96020 Y33.97714
G01 X-22.89451 Y33.77735
G01 X-22.88875 Y33.75027
G01 X-22.86822 Y33.52716
G01 X-22.89093 Y33.31806
G01 X-22.96020 Y33.10488
G01 X-23.07229 Y32.91072
G01 X-23.22228 Y32.74415
G01 X-23.40363 Y32.61238
G01 X-23.60843 Y32.52119
G01 X-23.82771 Y32.47458
G01 X-24.03802 Y32.47387
G01 X-24.06558 Y32.47677
G01 X-24.27114 Y32.52119
G01 X-24.47594 Y32.61238
G01 X-24.65730 Y32.74415
G01 X-24.79857 Y32.89995
G01 X-24.81486 Y32.92236
G01 X-24.92435 Y33.11781
G01 X-24.98864 Y33.31806
G01 X-25.01135 Y33.52716
G01 X-24.99083 Y33.75027
G01 X-24.98506 Y33.77735
G01 X-24.91938 Y33.97714
G01 X-24.81486 Y34.15967
G01 X-24.79857 Y34.18207
G01 X-24.65730 Y34.33787
G01 X-24.48758 Y34.46211
G01 X-24.45301 Y34.48039
G01 X-24.45301 Y36.41163
G01 X-24.48758 Y36.42992
G01 X-24.65730 Y36.55415
G01 X-24.79857 Y36.70995
G01 X-24.81486 Y36.73236
G01 X-24.91938 Y36.91488
G01 X-24.98506 Y37.11468
G01 X-24.99083 Y37.14175
G01 X-25.01209 Y37.35100
G01 X-24.99083 Y37.56027
G01 X-24.98506 Y37.58735
G01 X-24.91938 Y37.78714
G01 X-24.81486 Y37.96967
G01 X-24.79857 Y37.99207
G01 X-24.65730 Y38.14787
G01 X-24.48758 Y38.27211
G01 X-24.45301 Y38.29039
G01 X-24.45255 Y39.37825
G01 X-28.50702 Y39.37825
G01 X-28.50657 Y38.29039
G01 X-28.47200 Y38.27211
G01 X-28.30228 Y38.14787
G01 X-28.16100 Y37.99207
G01 X-28.14472 Y37.96967
G01 X-28.04020 Y37.78714
G01 X-27.97451 Y37.58735
G01 X-27.96875 Y37.56027
G01 X-27.94749 Y37.35100
G01 X-27.96875 Y37.14175
G01 X-27.97451 Y37.11468
G01 X-28.04020 Y36.91488
G01 X-28.14472 Y36.73236
G01 X-28.16100 Y36.70995
G01 X-28.30228 Y36.55415
G01 X-28.47200 Y36.42992
G01 X-28.50657 Y36.41163
G01 X-28.50657 Y34.48039
G01 X-28.47200 Y34.46211
G01 X-28.30228 Y34.33787
G01 X-28.16100 Y34.18207
G01 X-28.14472 Y34.15967
G01 X-28.04020 Y33.97714
G01 X-27.97451 Y33.77735
G01 X-27.96875 Y33.75027
G01 X-27.94822 Y33.52716
G01 X-27.97093 Y33.31806
G01 X-28.04020 Y33.10488
G01 X-28.15229 Y32.91072
G01 X-28.30228 Y32.74415
G01 X-28.48363 Y32.61238
G01 X-28.68843 Y32.52119
G01 X-28.90771 Y32.47458
G01 X-29.11802 Y32.47387
G01 X-29.14558 Y32.47677
G01 X-29.35114 Y32.52119
G01 X-29.55594 Y32.61238
G01 X-29.73730 Y32.74415
G01 X-29.87857 Y32.89995
G01 X-29.89486 Y32.92236
G01 X-30.00435 Y33.11781
G01 X-30.06864 Y33.31806
G01 X-30.09135 Y33.52716
G01 X-30.07083 Y33.75027
G01 X-30.06506 Y33.77735
G01 X-29.99938 Y33.97714
G01 X-29.89486 Y34.15967
G01 X-29.87857 Y34.18207
G01 X-29.73730 Y34.33787
G01 X-29.56758 Y34.46211
G01 X-29.53301 Y34.48039
G01 X-29.53301 Y36.41163
G01 X-29.56758 Y36.42992
G01 X-29.73730 Y36.55415
G01 X-29.87857 Y36.70995
G01 X-29.89486 Y36.73236
G01 X-29.99938 Y36.91488
G01 X-30.06506 Y37.11468
G01 X-30.07083 Y37.14175
G01 X-30.09209 Y37.35100
G01 X-30.07083 Y37.56027
G01 X-30.06506 Y37.58735
G01 X-29.99938 Y37.78714
G01 X-29.89486 Y37.96967
G01 X-29.87857 Y37.99207
G01 X-29.73730 Y38.14787
G01 X-29.56758 Y38.27211
G01 X-29.53301 Y38.29039
G01 X-29.53255 Y39.37825
G01 X-33.58702 Y39.37825
G01 X-33.58657 Y38.29039
G01 X-33.55200 Y38.27211
G01 X-33.38228 Y38.14787
G01 X-33.24100 Y37.99207
G01 X-33.22472 Y37.96967
G01 X-33.12020 Y37.78714
G01 X-33.05451 Y37.58735
G01 X-33.04875 Y37.56027
G01 X-33.02749 Y37.35100
G01 X-33.04875 Y37.14175
G01 X-33.05451 Y37.11468
G01 X-33.12020 Y36.91488
G01 X-33.22472 Y36.73236
G01 X-33.24100 Y36.70995
G01 X-33.38228 Y36.55415
G01 X-33.55200 Y36.42992
G01 X-33.58657 Y36.41163
G01 X-33.58657 Y34.48039
G01 X-33.55200 Y34.46211
G01 X-33.38228 Y34.33787
G01 X-33.24100 Y34.18207
G01 X-33.22472 Y34.15967
G01 X-33.12020 Y33.97714
G01 X-33.05451 Y33.77735
G01 X-33.04875 Y33.75027
G01 X-33.02822 Y33.52716
G01 X-33.05093 Y33.31806
G01 X-33.12020 Y33.10488
G01 X-33.23229 Y32.91072
G01 X-33.38228 Y32.74415
G01 X-33.56363 Y32.61238
G01 X-33.76843 Y32.52119
G01 X-33.98771 Y32.47458
G01 X-34.21186 Y32.47458
G01 X-34.43114 Y32.52119
G01 X-34.62357 Y32.60608
G01 X-34.64758 Y32.61992
G01 X-34.80653 Y32.73541
G01 X-34.82710 Y32.75396
G01 X-34.96729 Y32.91072
G01 X-35.07938 Y33.10488
G01 X-35.14864 Y33.31806
G01 X-35.17135 Y33.52716
G01 X-35.15083 Y33.75027
G01 X-35.14506 Y33.77735
G01 X-35.07938 Y33.97714
G01 X-34.97486 Y34.15967
G01 X-34.95857 Y34.18207
G01 X-34.81730 Y34.33787
G01 X-34.64758 Y34.46211
G01 X-34.61301 Y34.48039
G01 X-34.61301 Y36.41163
G01 X-34.64758 Y36.42992
G01 X-34.81730 Y36.55415
G01 X-34.95857 Y36.70995
G01 X-34.97486 Y36.73236
G01 X-35.07938 Y36.91488
G01 X-35.14506 Y37.11468
G01 X-35.15083 Y37.14175
G01 X-35.17209 Y37.35100
G01 X-35.15083 Y37.56027
G01 X-35.14506 Y37.58735
G01 X-35.07938 Y37.78714
G01 X-34.97486 Y37.96967
G01 X-34.95857 Y37.99207
G01 X-34.81730 Y38.14787
G01 X-34.64758 Y38.27211
G01 X-34.61301 Y38.29039
G01 X-34.61255 Y39.37825
G01 X-38.66702 Y39.37825
G01 X-38.66657 Y38.29039
G01 X-38.63200 Y38.27211
G01 X-38.46228 Y38.14787
G01 X-38.32100 Y37.99207
G01 X-38.30472 Y37.96967
G01 X-38.20020 Y37.78714
G01 X-38.13451 Y37.58735
G01 X-38.12875 Y37.56027
G01 X-38.10749 Y37.35100
G01 X-38.12875 Y37.14175
G01 X-38.13451 Y37.11468
G01 X-38.20020 Y36.91488
G01 X-38.30472 Y36.73236
G01 X-38.32100 Y36.70995
G01 X-38.46228 Y36.55415
G01 X-38.63200 Y36.42992
G01 X-38.66657 Y36.41163
G01 X-38.66657 Y34.48039
G01 X-38.63200 Y34.46211
G01 X-38.46228 Y34.33787
G01 X-38.32100 Y34.18207
G01 X-38.30472 Y34.15967
G01 X-38.20020 Y33.97714
G01 X-38.13451 Y33.77735
G01 X-38.12875 Y33.75027
G01 X-38.10822 Y33.52716
G01 X-38.13093 Y33.31806
G01 X-38.20020 Y33.10488
G01 X-38.31229 Y32.91072
G01 X-38.46228 Y32.74415
G01 X-38.64363 Y32.61238
G01 X-38.84843 Y32.52119
G01 X-39.06771 Y32.47458
G01 X-39.29186 Y32.47458
G01 X-39.51114 Y32.52119
G01 X-39.70357 Y32.60608
G01 X-39.72758 Y32.61992
G01 X-39.88653 Y32.73541
G01 X-39.90710 Y32.75396
G01 X-40.04729 Y32.91072
G01 X-40.15938 Y33.10488
G01 X-40.22864 Y33.31806
G01 X-40.25135 Y33.52716
G01 X-40.23083 Y33.75027
G01 X-40.22506 Y33.77735
G01 X-40.15938 Y33.97714
G01 X-40.05486 Y34.15967
G01 X-40.03857 Y34.18207
G01 X-39.89730 Y34.33787
G01 X-39.72758 Y34.46211
G01 X-39.69301 Y34.48039
G01 X-39.69301 Y36.41163
G01 X-39.72758 Y36.42992
G01 X-39.89730 Y36.55415
G01 X-40.03857 Y36.70995
G01 X-40.05486 Y36.73236
G01 X-40.15938 Y36.91488
G01 X-40.22506 Y37.11468
G01 X-40.23083 Y37.14175
G01 X-40.25209 Y37.35100
G01 X-40.23083 Y37.56027
G01 X-40.22506 Y37.58735
G01 X-40.15938 Y37.78714
G01 X-40.05486 Y37.96967
G01 X-40.03857 Y37.99207
G01 X-39.89730 Y38.14787
G01 X-39.72758 Y38.27211
G01 X-39.69301 Y38.29039
G01 X-39.69255 Y39.37825
G01 X-43.74702 Y39.37825
G01 X-43.74657 Y38.29039
G01 X-43.71200 Y38.27211
G01 X-43.54228 Y38.14787
G01 X-43.40100 Y37.99207
G01 X-43.38472 Y37.96967
G01 X-43.28020 Y37.78714
G01 X-43.21451 Y37.58735
G01 X-43.20875 Y37.56027
G01 X-43.18749 Y37.35100
G01 X-43.20875 Y37.14175
G01 X-43.21451 Y37.11468
G01 X-43.28020 Y36.91488
G01 X-43.38472 Y36.73236
G01 X-43.40100 Y36.70995
G01 X-43.54228 Y36.55415
G01 X-43.71200 Y36.42992
G01 X-43.74657 Y36.41163
G01 X-43.74657 Y34.48039
G01 X-43.71200 Y34.46211
G01 X-43.54228 Y34.33787
G01 X-43.40100 Y34.18207
G01 X-43.38472 Y34.15967
G01 X-43.28020 Y33.97714
G01 X-43.21451 Y33.77735
G01 X-43.20875 Y33.75027
G01 X-43.18822 Y33.52716
G01 X-43.21093 Y33.31806
G01 X-43.28020 Y33.10488
G01 X-43.39229 Y32.91072
G01 X-43.54228 Y32.74415
G01 X-43.72363 Y32.61238
G01 X-43.92843 Y32.52119
G01 X-44.14771 Y32.47458
G01 X-44.37186 Y32.47458
G01 X-44.59114 Y32.52119
G01 X-44.78357 Y32.60608
G01 X-44.80758 Y32.61992
G01 X-44.96653 Y32.73541
G01 X-44.98710 Y32.75396
G01 X-45.12729 Y32.91072
G01 X-45.23938 Y33.10488
G01 X-45.30864 Y33.31806
G01 X-45.33135 Y33.52716
G01 X-45.31083 Y33.75027
G01 X-45.30506 Y33.77735
G01 X-45.23938 Y33.97714
G01 X-45.13486 Y34.15967
G01 X-45.11857 Y34.18207
G01 X-44.97730 Y34.33787
G01 X-44.80758 Y34.46211
G01 X-44.77301 Y34.48039
G01 X-44.77301 Y36.41163
G01 X-44.80758 Y36.42992
G01 X-44.97730 Y36.55415
G01 X-45.11857 Y36.70995
G01 X-45.13486 Y36.73236
G01 X-45.23938 Y36.91488
G01 X-45.30506 Y37.11468
G01 X-45.31083 Y37.14175
G01 X-45.33209 Y37.35100
G01 X-45.31083 Y37.56027
G01 X-45.30506 Y37.58735
G01 X-45.23938 Y37.78714
G01 X-45.13486 Y37.96967
G01 X-45.11857 Y37.99207
G01 X-44.97730 Y38.14787
G01 X-44.80758 Y38.27211
G01 X-44.77301 Y38.29039
G01 X-44.77255 Y39.37825
G01 X-48.82702 Y39.37825
G01 X-48.82657 Y38.29039
G01 X-48.79200 Y38.27211
G01 X-48.62228 Y38.14787
G01 X-48.48100 Y37.99207
G01 X-48.46472 Y37.96967
G01 X-48.36020 Y37.78714
G01 X-48.29451 Y37.58735
G01 X-48.28875 Y37.56027
G01 X-48.26749 Y37.35100
G01 X-48.28875 Y37.14175
G01 X-48.29451 Y37.11468
G01 X-48.36020 Y36.91488
G01 X-48.46472 Y36.73236
G01 X-48.48100 Y36.70995
G01 X-48.62228 Y36.55415
G01 X-48.79200 Y36.42992
G01 X-48.82657 Y36.41163
G01 X-48.82657 Y34.48039
G01 X-48.79200 Y34.46211
G01 X-48.62228 Y34.33787
G01 X-48.48100 Y34.18207
G01 X-48.46472 Y34.15967
G01 X-48.36020 Y33.97714
G01 X-48.29451 Y33.77735
G01 X-48.28875 Y33.75027
G01 X-48.26822 Y33.52716
G01 X-48.29093 Y33.31806
G01 X-48.36020 Y33.10488
G01 X-48.47229 Y32.91072
G01 X-48.62228 Y32.74415
G01 X-48.80363 Y32.61238
G01 X-49.00843 Y32.52119
G01 X-49.22771 Y32.47458
G01 X-49.45186 Y32.47458
G01 X-49.67114 Y32.52119
G01 X-49.86357 Y32.60608
G01 X-49.88758 Y32.61992
G01 X-50.04653 Y32.73541
G01 X-50.06710 Y32.75396
G01 X-50.20729 Y32.91072
G01 X-50.31938 Y33.10488
G01 X-50.38864 Y33.31806
G01 X-50.41135 Y33.52716
G01 X-50.39083 Y33.75027
G01 X-50.38506 Y33.77735
G01 X-50.31938 Y33.97714
G01 X-50.21486 Y34.15967
G01 X-50.19857 Y34.18207
G01 X-50.05730 Y34.33787
G01 X-49.88758 Y34.46211
G01 X-49.85301 Y34.48039
G01 X-49.85301 Y36.41163
G01 X-49.88758 Y36.42992
G01 X-50.05730 Y36.55415
G01 X-50.19857 Y36.70995
G01 X-50.21486 Y36.73236
G01 X-50.31938 Y36.91488
G01 X-50.38506 Y37.11468
G01 X-50.39083 Y37.14175
G01 X-50.41209 Y37.35100
G01 X-50.39083 Y37.56027
G01 X-50.38506 Y37.58735
G01 X-50.31938 Y37.78714
G01 X-50.21486 Y37.96967
G01 X-50.19857 Y37.99207
G01 X-50.05730 Y38.14787
G01 X-49.88758 Y38.27211
G01 X-49.85301 Y38.29039
G01 X-49.85255 Y39.37825
G01 X-53.90702 Y39.37825
G01 X-53.90657 Y38.29039
G01 X-53.87200 Y38.27211
G01 X-53.70228 Y38.14787
G01 X-53.56100 Y37.99207
G01 X-53.54472 Y37.96967
G01 X-53.44020 Y37.78714
G01 X-53.37451 Y37.58735
G01 X-53.36875 Y37.56027
G01 X-53.34749 Y37.35100
G01 X-53.36875 Y37.14175
G01 X-53.37451 Y37.11468
G01 X-53.44020 Y36.91488
G01 X-53.54472 Y36.73236
G01 X-53.56100 Y36.70995
G01 X-53.70228 Y36.55415
G01 X-53.87200 Y36.42992
G01 X-53.90657 Y36.41163
G01 X-53.90657 Y34.48039
G01 X-53.87200 Y34.46211
G01 X-53.70228 Y34.33787
G01 X-53.56100 Y34.18207
G01 X-53.54472 Y34.15967
G01 X-53.44020 Y33.97714
G01 X-53.37451 Y33.77735
G01 X-53.36875 Y33.75027
G01 X-53.34822 Y33.52716
G01 X-53.37093 Y33.31806
G01 X-53.44020 Y33.10488
G01 X-53.55229 Y32.91072
G01 X-53.70228 Y32.74415
G01 X-53.88363 Y32.61238
G01 X-54.08843 Y32.52119
G01 X-54.30771 Y32.47458
G01 X-54.53186 Y32.47458
G01 X-54.75114 Y32.52119
G01 X-54.94357 Y32.60608
G01 X-54.96758 Y32.61992
G01 X-55.12653 Y32.73541
G01 X-55.14710 Y32.75396
G01 X-55.28729 Y32.91072
G01 X-55.39938 Y33.10488
G01 X-55.46864 Y33.31806
G01 X-55.49135 Y33.52716
G01 X-55.47083 Y33.75027
G01 X-55.46506 Y33.77735
G01 X-55.39938 Y33.97714
G01 X-55.29486 Y34.15967
G01 X-55.27857 Y34.18207
G01 X-55.13730 Y34.33787
G01 X-54.96758 Y34.46211
G01 X-54.93301 Y34.48039
G01 X-54.93301 Y36.41163
G01 X-54.96758 Y36.42992
G01 X-55.13730 Y36.55415
G01 X-55.27857 Y36.70995
G01 X-55.29486 Y36.73236
G01 X-55.39938 Y36.91488
G01 X-55.46506 Y37.11468
G01 X-55.47083 Y37.14175
G01 X-55.49209 Y37.35100
G01 X-55.47083 Y37.56027
G01 X-55.46506 Y37.58735
G01 X-55.39938 Y37.78714
G01 X-55.29486 Y37.96967
G01 X-55.27857 Y37.99207
G01 X-55.13730 Y38.14787
G01 X-54.96758 Y38.27211
G01 X-54.93301 Y38.29039
G01 X-54.93255 Y39.37825
G01 X-58.98702 Y39.37825
G01 X-58.98657 Y38.29039
G01 X-58.95200 Y38.27211
G01 X-58.78228 Y38.14787
G01 X-58.64100 Y37.99207
G01 X-58.62472 Y37.96967
G01 X-58.52020 Y37.78714
G01 X-58.45451 Y37.58735
G01 X-58.44875 Y37.56027
G01 X-58.42749 Y37.35100
G01 X-58.44875 Y37.14175
G01 X-58.45451 Y37.11468
G01 X-58.52020 Y36.91488
G01 X-58.62472 Y36.73236
G01 X-58.64100 Y36.70995
G01 X-58.78228 Y36.55415
G01 X-58.95200 Y36.42992
G01 X-58.98657 Y36.41163
G01 X-58.98657 Y34.48039
G01 X-58.95200 Y34.46211
G01 X-58.78228 Y34.33787
G01 X-58.64100 Y34.18207
G01 X-58.62472 Y34.15967
G01 X-58.52020 Y33.97714
G01 X-58.45451 Y33.77735
G01 X-58.44875 Y33.75027
G01 X-58.42822 Y33.52716
G01 X-58.45093 Y33.31806
G01 X-58.52020 Y33.10488
G01 X-58.63229 Y32.91072
G01 X-58.78228 Y32.74415
G01 X-58.96363 Y32.61238
G01 X-59.16843 Y32.52119
G01 X-59.38771 Y32.47458
G01 X-59.61186 Y32.47458
G01 X-59.83114 Y32.52119
G01 X-60.02357 Y32.60608
G01 X-60.04758 Y32.61992
G01 X-60.20653 Y32.73541
G01 X-60.22710 Y32.75396
G01 X-60.36729 Y32.91072
G01 X-60.47938 Y33.10488
G01 X-60.54864 Y33.31806
G01 X-60.57135 Y33.52716
G01 X-60.55083 Y33.75027
G01 X-60.54506 Y33.77735
G01 X-60.47938 Y33.97714
G01 X-60.37486 Y34.15967
G01 X-60.35857 Y34.18207
G01 X-60.21730 Y34.33787
G01 X-60.04758 Y34.46211
G01 X-60.01301 Y34.48039
G01 X-60.01301 Y36.41163
G01 X-60.04758 Y36.42992
G01 X-60.21730 Y36.55415
G01 X-60.35857 Y36.70995
G01 X-60.37486 Y36.73236
G01 X-60.47938 Y36.91488
G01 X-60.54506 Y37.11468
G01 X-60.55083 Y37.14175
G01 X-60.57209 Y37.35100
G01 X-60.55083 Y37.56027
G01 X-60.54506 Y37.58735
G01 X-60.47938 Y37.78714
G01 X-60.37486 Y37.96967
G01 X-60.35857 Y37.99207
G01 X-60.21730 Y38.14787
G01 X-60.04758 Y38.27211
G01 X-60.01301 Y38.29039
G01 X-60.01255 Y39.37825
G01 X-66.60702 Y39.37825
G01 X-66.60657 Y38.29039
G01 X-66.57200 Y38.27211
G01 X-66.40228 Y38.14787
G01 X-66.26100 Y37.99207
G01 X-66.24472 Y37.96967
G01 X-66.14020 Y37.78714
G01 X-66.07451 Y37.58735
G01 X-66.06875 Y37.56027
G01 X-66.04749 Y37.35100
G01 X-66.06875 Y37.14175
G01 X-66.07451 Y37.11468
G01 X-66.14020 Y36.91488
G01 X-66.24472 Y36.73236
G01 X-66.26100 Y36.70995
G01 X-66.40228 Y36.55415
G01 X-66.57200 Y36.42992
G01 X-66.60657 Y36.41163
G01 X-66.60657 Y34.48039
G01 X-66.57200 Y34.46211
G01 X-66.40228 Y34.33787
G01 X-66.26100 Y34.18207
G01 X-66.24472 Y34.15967
G01 X-66.14020 Y33.97714
G01 X-66.07451 Y33.77735
G01 X-66.06875 Y33.75027
G01 X-66.04822 Y33.52716
G01 X-66.07093 Y33.31806
G01 X-66.14020 Y33.10488
G01 X-66.25229 Y32.91072
G01 X-66.40228 Y32.74415
G01 X-66.58363 Y32.61238
G01 X-66.78843 Y32.52119
G01 X-67.00771 Y32.47458
G01 X-67.23186 Y32.47458
G01 X-67.45114 Y32.52119
G01 X-67.64357 Y32.60608
G01 X-67.66758 Y32.61992
G01 X-67.82653 Y32.73541
G01 X-67.84710 Y32.75396
G01 X-67.98729 Y32.91072
G01 X-68.09938 Y33.10488
G01 X-68.16864 Y33.31806
G01 X-68.19135 Y33.52716
G01 X-68.17083 Y33.75027
G01 X-68.16506 Y33.77735
G01 X-68.09938 Y33.97714
G01 X-67.99486 Y34.15967
G01 X-67.97857 Y34.18207
G01 X-67.83730 Y34.33787
G01 X-67.66758 Y34.46211
G01 X-67.63301 Y34.48039
G01 X-67.63301 Y36.41163
G01 X-67.66758 Y36.42992
G01 X-67.83730 Y36.55415
G01 X-67.97857 Y36.70995
G01 X-67.99486 Y36.73236
G01 X-68.09938 Y36.91488
G01 X-68.16506 Y37.11468
G01 X-68.17083 Y37.14175
G01 X-68.19209 Y37.35100
G01 X-68.17083 Y37.56027
G01 X-68.16506 Y37.58735
G01 X-68.09938 Y37.78714
G01 X-67.99486 Y37.96967
G01 X-67.97857 Y37.99207
G01 X-67.83730 Y38.14787
G01 X-67.66758 Y38.27211
G01 X-67.63301 Y38.29039
G01 X-67.63255 Y39.37825
G01 X-71.68702 Y39.37825
G01 X-71.68657 Y38.29039
G01 X-71.65200 Y38.27211
G01 X-71.48228 Y38.14787
G01 X-71.34100 Y37.99207
G01 X-71.32472 Y37.96967
G01 X-71.22020 Y37.78714
G01 X-71.15451 Y37.58735
G01 X-71.14875 Y37.56027
G01 X-71.12749 Y37.35100
G01 X-71.14875 Y37.14175
G01 X-71.15451 Y37.11468
G01 X-71.22020 Y36.91488
G01 X-71.32472 Y36.73236
G01 X-71.34100 Y36.70995
G01 X-71.48228 Y36.55415
G01 X-71.65200 Y36.42992
G01 X-71.68657 Y36.41163
G01 X-71.68657 Y34.48039
G01 X-71.65200 Y34.46211
G01 X-71.48228 Y34.33787
G01 X-71.34100 Y34.18207
G01 X-71.32472 Y34.15967
G01 X-71.22020 Y33.97714
G01 X-71.15451 Y33.77735
G01 X-71.14875 Y33.75027
G01 X-71.12822 Y33.52716
G01 X-71.15093 Y33.31806
G01 X-71.22020 Y33.10488
G01 X-71.33229 Y32.91072
G01 X-71.48228 Y32.74415
G01 X-71.66363 Y32.61238
G01 X-71.86843 Y32.52119
G01 X-72.08771 Y32.47458
G01 X-72.31186 Y32.47458
G01 X-72.53114 Y32.52119
G01 X-72.72357 Y32.60608
G01 X-72.74758 Y32.61992
G01 X-72.90653 Y32.73541
G01 X-72.92710 Y32.75396
G01 X-73.06729 Y32.91072
G01 X-73.17938 Y33.10488
G01 X-73.24864 Y33.31806
G01 X-73.27135 Y33.52716
G01 X-73.25083 Y33.75027
G01 X-73.24506 Y33.77735
G01 X-73.17938 Y33.97714
G01 X-73.07486 Y34.15967
G01 X-73.05857 Y34.18207
G01 X-72.91730 Y34.33787
G01 X-72.74758 Y34.46211
G01 X-72.71301 Y34.48039
G01 X-72.71301 Y36.41163
G01 X-72.74758 Y36.42992
G01 X-72.91730 Y36.55415
G01 X-73.05857 Y36.70995
G01 X-73.07486 Y36.73236
G01 X-73.17938 Y36.91488
G01 X-73.24506 Y37.11468
G01 X-73.25083 Y37.14175
G01 X-73.27209 Y37.35100
G01 X-73.25083 Y37.56027
G01 X-73.24506 Y37.58735
G01 X-73.17938 Y37.78714
G01 X-73.07486 Y37.96967
G01 X-73.05857 Y37.99207
G01 X-72.91730 Y38.14787
G01 X-72.74758 Y38.27211
G01 X-72.71301 Y38.29039
G01 X-72.71255 Y39.37825
G01 X-76.76702 Y39.37825
G01 X-76.76657 Y38.29039
G01 X-76.73200 Y38.27211
G01 X-76.56228 Y38.14787
G01 X-76.42100 Y37.99207
G01 X-76.40472 Y37.96967
G01 X-76.30020 Y37.78714
G01 X-76.23451 Y37.58735
G01 X-76.22875 Y37.56027
G01 X-76.20749 Y37.35100
G01 X-76.22875 Y37.14175
G01 X-76.23451 Y37.11468
G01 X-76.30020 Y36.91488
G01 X-76.40472 Y36.73236
G01 X-76.42100 Y36.70995
G01 X-76.56228 Y36.55415
G01 X-76.73200 Y36.42992
G01 X-76.76657 Y36.41163
G01 X-76.76657 Y34.48039
G01 X-76.73200 Y34.46211
G01 X-76.56228 Y34.33787
G01 X-76.42100 Y34.18207
G01 X-76.40472 Y34.15967
G01 X-76.30020 Y33.97714
G01 X-76.23451 Y33.77735
G01 X-76.22875 Y33.75027
G01 X-76.20822 Y33.52716
G01 X-76.23093 Y33.31806
G01 X-76.30020 Y33.10488
G01 X-76.41229 Y32.91072
G01 X-76.56228 Y32.74415
G01 X-76.74363 Y32.61238
G01 X-76.94843 Y32.52119
G01 X-77.16771 Y32.47458
G01 X-77.39186 Y32.47458
G01 X-77.61114 Y32.52119
G01 X-77.80357 Y32.60608
G01 X-77.82758 Y32.61992
G01 X-77.98653 Y32.73541
G01 X-78.00710 Y32.75396
G01 X-78.14729 Y32.91072
G01 X-78.25938 Y33.10488
G01 X-78.32864 Y33.31806
G01 X-78.35135 Y33.52716
G01 X-78.33083 Y33.75027
G01 X-78.32506 Y33.77735
G01 X-78.25938 Y33.97714
G01 X-78.15486 Y34.15967
G01 X-78.13857 Y34.18207
G01 X-77.99730 Y34.33787
G01 X-77.82758 Y34.46211
G01 X-77.79301 Y34.48039
G01 X-77.79301 Y36.41163
G01 X-77.82758 Y36.42992
G01 X-77.99730 Y36.55415
G01 X-78.13857 Y36.70995
G01 X-78.15486 Y36.73236
G01 X-78.25938 Y36.91488
G01 X-78.32506 Y37.11468
G01 X-78.33083 Y37.14175
G01 X-78.35209 Y37.35100
G01 X-78.33083 Y37.56027
G01 X-78.32506 Y37.58735
G01 X-78.25938 Y37.78714
G01 X-78.15486 Y37.96967
G01 X-78.13857 Y37.99207
G01 X-77.99730 Y38.14787
G01 X-77.82758 Y38.27211
G01 X-77.79301 Y38.29039
G01 X-77.79255 Y39.37825
G01 X-81.84702 Y39.37825
G01 X-81.84657 Y38.29039
G01 X-81.81200 Y38.27211
G01 X-81.64228 Y38.14787
G01 X-81.50100 Y37.99207
G01 X-81.48472 Y37.96967
G01 X-81.38020 Y37.78714
G01 X-81.31451 Y37.58735
G01 X-81.30875 Y37.56027
G01 X-81.28749 Y37.35100
G01 X-81.30875 Y37.14175
G01 X-81.31451 Y37.11468
G01 X-81.38020 Y36.91488
G01 X-81.48472 Y36.73236
G01 X-81.50100 Y36.70995
G01 X-81.64228 Y36.55415
G01 X-81.81200 Y36.42992
G01 X-81.84657 Y36.41163
G01 X-81.84657 Y34.48039
G01 X-81.81200 Y34.46211
G01 X-81.64228 Y34.33787
G01 X-81.50100 Y34.18207
G01 X-81.48472 Y34.15967
G01 X-81.38020 Y33.97714
G01 X-81.31451 Y33.77735
G01 X-81.30875 Y33.75027
G01 X-81.28822 Y33.52716
G01 X-81.31093 Y33.31806
G01 X-81.38020 Y33.10488
G01 X-81.49229 Y32.91072
G01 X-81.64228 Y32.74415
G01 X-81.82363 Y32.61238
G01 X-82.02843 Y32.52119
G01 X-82.24771 Y32.47458
G01 X-82.47186 Y32.47458
G01 X-82.69114 Y32.52119
G01 X-82.88357 Y32.60608
G01 X-82.90758 Y32.61992
G01 X-83.06653 Y32.73541
G01 X-83.08710 Y32.75396
G01 X-83.22729 Y32.91072
G01 X-83.33938 Y33.10488
G01 X-83.40864 Y33.31806
G01 X-83.43135 Y33.52716
G01 X-83.41083 Y33.75027
G01 X-83.40506 Y33.77735
G01 X-83.33938 Y33.97714
G01 X-83.23486 Y34.15967
G01 X-83.21857 Y34.18207
G01 X-83.07730 Y34.33787
G01 X-82.90758 Y34.46211
G01 X-82.87301 Y34.48039
G01 X-82.87301 Y36.41163
G01 X-82.90758 Y36.42992
G01 X-83.07730 Y36.55415
G01 X-83.21857 Y36.70995
G01 X-83.23486 Y36.73236
G01 X-83.33938 Y36.91488
G01 X-83.40506 Y37.11468
G01 X-83.41083 Y37.14175
G01 X-83.43209 Y37.35100
G01 X-83.41083 Y37.56027
G01 X-83.40506 Y37.58735
G01 X-83.33938 Y37.78714
G01 X-83.23486 Y37.96967
G01 X-83.21857 Y37.99207
G01 X-83.07730 Y38.14787
G01 X-82.90758 Y38.27211
G01 X-82.87301 Y38.29039
G01 X-82.87255 Y39.37825
G01 X-86.92702 Y39.37825
G01 X-86.92657 Y38.29039
G01 X-86.89200 Y38.27211
G01 X-86.72228 Y38.14787
G01 X-86.58100 Y37.99207
G01 X-86.56472 Y37.96967
G01 X-86.46020 Y37.78714
G01 X-86.39451 Y37.58735
G01 X-86.38875 Y37.56027
G01 X-86.36749 Y37.35100
G01 X-86.38875 Y37.14175
G01 X-86.39451 Y37.11468
G01 X-86.46020 Y36.91488
G01 X-86.56472 Y36.73236
G01 X-86.58100 Y36.70995
G01 X-86.72228 Y36.55415
G01 X-86.89200 Y36.42992
G01 X-86.92657 Y36.41163
G01 X-86.92657 Y34.48039
G01 X-86.89200 Y34.46211
G01 X-86.72228 Y34.33787
G01 X-86.58100 Y34.18207
G01 X-86.56472 Y34.15967
G01 X-86.46020 Y33.97714
G01 X-86.39451 Y33.77735
G01 X-86.38875 Y33.75027
G01 X-86.36822 Y33.52716
G01 X-86.39093 Y33.31806
G01 X-86.46020 Y33.10488
G01 X-86.57229 Y32.91072
G01 X-86.72228 Y32.74415
G01 X-86.90363 Y32.61238
G01 X-87.10843 Y32.52119
G01 X-87.32771 Y32.47458
G01 X-87.55186 Y32.47458
G01 X-87.77114 Y32.52119
G01 X-87.96357 Y32.60608
G01 X-87.98758 Y32.61992
G01 X-88.14653 Y32.73541
G01 X-88.16710 Y32.75396
G01 X-88.30729 Y32.91072
G01 X-88.41938 Y33.10488
G01 X-88.48864 Y33.31806
G01 X-88.51135 Y33.52716
G01 X-88.49083 Y33.75027
G01 X-88.48506 Y33.77735
G01 X-88.41938 Y33.97714
G01 X-88.31486 Y34.15967
G01 X-88.29857 Y34.18207
G01 X-88.15730 Y34.33787
G01 X-87.98758 Y34.46211
G01 X-87.95301 Y34.48039
G01 X-87.95301 Y36.41163
G01 X-87.98758 Y36.42992
G01 X-88.15730 Y36.55415
G01 X-88.29857 Y36.70995
G01 X-88.31486 Y36.73236
G01 X-88.41938 Y36.91488
G01 X-88.48506 Y37.11468
G01 X-88.49083 Y37.14175
G01 X-88.51209 Y37.35100
G01 X-88.49083 Y37.56027
G01 X-88.48506 Y37.58735
G01 X-88.41938 Y37.78714
G01 X-88.31486 Y37.96967
G01 X-88.29857 Y37.99207
G01 X-88.15730 Y38.14787
G01 X-87.98758 Y38.27211
G01 X-87.95301 Y38.29039
G01 X-87.95255 Y39.37825
G01 X-92.00702 Y39.37825
G01 X-92.00657 Y38.29039
G01 X-91.97200 Y38.27211
G01 X-91.80228 Y38.14787
G01 X-91.66100 Y37.99207
G01 X-91.64472 Y37.96967
G01 X-91.54020 Y37.78714
G01 X-91.47451 Y37.58735
G01 X-91.46875 Y37.56027
G01 X-91.44749 Y37.35100
G01 X-91.46875 Y37.14175
G01 X-91.47451 Y37.11468
G01 X-91.54020 Y36.91488
G01 X-91.64472 Y36.73236
G01 X-91.66100 Y36.70995
G01 X-91.80228 Y36.55415
G01 X-91.97200 Y36.42992
G01 X-92.00657 Y36.41163
G01 X-92.00657 Y34.48039
G01 X-91.97200 Y34.46211
G01 X-91.80228 Y34.33787
G01 X-91.66100 Y34.18207
G01 X-91.64472 Y34.15967
G01 X-91.54020 Y33.97714
G01 X-91.47451 Y33.77735
G01 X-91.46875 Y33.75027
G01 X-91.44822 Y33.52716
G01 X-91.47093 Y33.31806
G01 X-91.54020 Y33.10488
G01 X-91.65229 Y32.91072
G01 X-91.80228 Y32.74415
G01 X-91.98363 Y32.61238
G01 X-92.18843 Y32.52119
G01 X-92.40771 Y32.47458
G01 X-92.63186 Y32.47458
G01 X-92.85114 Y32.52119
G01 X-93.04357 Y32.60608
G01 X-93.06758 Y32.61992
G01 X-93.22653 Y32.73541
G01 X-93.24710 Y32.75396
G01 X-93.38729 Y32.91072
G01 X-93.49938 Y33.10488
G01 X-93.56864 Y33.31806
G01 X-93.59135 Y33.52716
G01 X-93.57083 Y33.75027
G01 X-93.56506 Y33.77735
G01 X-93.49938 Y33.97714
G01 X-93.39486 Y34.15967
G01 X-93.37857 Y34.18207
G01 X-93.23730 Y34.33787
G01 X-93.06758 Y34.46211
G01 X-93.03301 Y34.48039
G01 X-93.03301 Y36.41163
G01 X-93.06758 Y36.42992
G01 X-93.23730 Y36.55415
G01 X-93.37857 Y36.70995
G01 X-93.39486 Y36.73236
G01 X-93.49938 Y36.91488
G01 X-93.56506 Y37.11468
G01 X-93.57083 Y37.14175
G01 X-93.59209 Y37.35100
G01 X-93.57083 Y37.56027
G01 X-93.56506 Y37.58735
G01 X-93.49938 Y37.78714
G01 X-93.39486 Y37.96967
G01 X-93.37857 Y37.99207
G01 X-93.23730 Y38.14787
G01 X-93.06758 Y38.27211
G01 X-93.03301 Y38.29039
G01 X-93.03255 Y39.37825
G01 X-97.08702 Y39.37825
G01 X-97.08657 Y38.29039
G01 X-97.05200 Y38.27211
G01 X-96.88228 Y38.14787
G01 X-96.74100 Y37.99207
G01 X-96.72472 Y37.96967
G01 X-96.62020 Y37.78714
G01 X-96.55451 Y37.58735
G01 X-96.54875 Y37.56027
G01 X-96.52749 Y37.35100
G01 X-96.54875 Y37.14175
G01 X-96.55451 Y37.11468
G01 X-96.62020 Y36.91488
G01 X-96.72472 Y36.73236
