( pcb2gcode 2.1.0 )
( Software-independent Gcode )

G94 ( Inches per minute feed rate. )
G20 ( Units == INCHES. )

G90 ( Absolute coordinates. )
G00 S30000 ( RPM spindle speed. )
G01 F20.00000 ( Feedrate. )


G00 Z0.05000 (Retract to tool change height)
G04 P0.00000 (Wait for spindle to stop)
(MSG, Change tool bit to mill diameter 0.01300in)
G04 P0.00000 (Wait for spindle to get up to speed)
G04 P0 ( dwell for no time -- G64 should not smooth over this point )
G00 Z0.05000 ( retract )

G00 X-0.90728 Y1.83801 ( rapid move to begin. )
G01 F1.00000
( Mill infeed pass 1/1 )
G01 Z-0.00600
G04 P0 ( dwell for no time -- G64 should not smooth over this point )
G01 F20.00000
G01 X-0.90728 Y1.83801
G01 X-0.91070 Y1.83479
G01 X-0.91381 Y1.83153
G01 X-0.91386 Y1.83148
G01 X-0.91508 Y1.82381
G01 X-0.91551 Y1.81970
G01 X-0.91592 Y1.81196
G01 X-0.91592 Y1.80798
G01 X-0.91551 Y1.80024
G01 X-0.91508 Y1.79613
G01 X-0.91385 Y1.78840
G01 X-0.91289 Y1.78388
G01 X-0.91183 Y1.77991
G01 X-0.90951 Y1.77690
G01 X-0.90645 Y1.77331
G01 X-0.90113 Y1.76770
G01 X-0.89777 Y1.76452
G01 X-0.89187 Y1.75948
G01 X-0.88800 Y1.75651
G01 X-0.88152 Y1.75206
G01 X-0.87684 Y1.74919
G01 X-0.86975 Y1.74534
G01 X-0.86584 Y1.74348
G01 X-0.86559 Y1.74336
G01 X-0.86383 Y1.74253
G01 X-0.85610 Y1.73932
G01 X-0.84832 Y1.73658
G01 X-0.84288 Y1.73497
G01 X-0.84007 Y1.73497
G01 X-0.83660 Y1.73497
G01 X-0.83081 Y1.73497
G01 X-0.82234 Y1.73497
G01 X-0.81026 Y1.73497
G01 X-0.80991 Y1.73497
G01 X-0.80070 Y1.73497
G01 X-0.79092 Y1.73497
G01 X-0.78246 Y1.73497
G01 X-0.77477 Y1.73497
G01 X-0.77304 Y1.73690
G01 X-0.76918 Y1.74166
G01 X-0.76934 Y1.74186
G01 X-0.76918 Y1.74166
G01 X-0.76167 Y1.74542
G01 X-0.74997 Y1.76434
G01 X-0.73827 Y1.78327
G01 X-0.72906 Y1.79816
G01 X-0.72674 Y1.80212
G01 X-0.72673 Y1.80212
G01 X-0.72674 Y1.80212
G01 X-0.72657 Y1.80244
G01 X-0.72683 Y1.80227
G01 X-0.73018 Y1.80040
G01 X-0.79314 Y1.76892
G01 X-0.79338 Y1.76920
G01 X-0.79314 Y1.76892
G01 X-0.79401 Y1.76742
G01 X-0.79638 Y1.76377
G01 X-0.79912 Y1.76039
G01 X-0.80430 Y1.75464
G01 X-0.80737 Y1.75156
G01 X-0.81076 Y1.74882
G01 X-0.81702 Y1.74427
G01 X-0.82067 Y1.74190
G01 X-0.82455 Y1.73992
G01 X-0.83161 Y1.73678
G01 X-0.83568 Y1.73522
G01 X-0.83660 Y1.73497
G01 X-0.83568 Y1.73472
G01 X-0.83161 Y1.73316
G01 X-0.82455 Y1.73002
G01 X-0.82067 Y1.72804
G01 X-0.81702 Y1.72567
G01 X-0.81076 Y1.72112
G01 X-0.80737 Y1.71838
G01 X-0.80430 Y1.71530
G01 X-0.79912 Y1.70955
G01 X-0.79638 Y1.70617
G01 X-0.79401 Y1.70252
G01 X-0.79014 Y1.69582
G01 X-0.78816 Y1.69194
G01 X-0.78660 Y1.68787
G01 X-0.78421 Y1.68052
G01 X-0.78309 Y1.67631
G01 X-0.78240 Y1.67201
G01 X-0.78160 Y1.66432
G01 X-0.78137 Y1.65997
G01 X-0.78160 Y1.65562
G01 X-0.78240 Y1.64793
G01 X-0.78309 Y1.64363
G01 X-0.78421 Y1.63942
G01 X-0.78660 Y1.63206
G01 X-0.78680 Y1.63156
G01 X-0.78684 Y1.63153
G01 X-0.79441 Y1.62658
G01 X-0.80215 Y1.62212
G01 X-0.80641 Y1.61995
G01 X-0.80215 Y1.62212
G01 X-0.79441 Y1.62658
G01 X-0.78683 Y1.63153
G01 X-0.78621 Y1.63194
G01 X-0.77847 Y1.63755
G01 X-0.77150 Y1.64323
G01 X-0.75997 Y1.64323
G01 X-0.75542 Y1.64304
G01 X-0.75288 Y1.64282
G01 X-0.74827 Y1.64202
G01 X-0.74827 Y1.64202
G01 X-0.74846 Y1.64221
G01 X-0.75260 Y1.64627
G01 X-0.75267 Y1.64634
G01 X-0.75497 Y1.64859
G01 X-0.75997 Y1.65328
G01 X-0.76764 Y1.64638
G01 X-0.77150 Y1.64323
G01 X-0.77847 Y1.63755
G01 X-0.78620 Y1.63193
G01 X-0.78681 Y1.63153
G01 X-0.79441 Y1.62658
G01 X-0.78684 Y1.63153
G01 X-0.78683 Y1.63153
G01 X-0.78681 Y1.63153
G01 X-0.75997 Y1.63153
G01 X-0.75642 Y1.63138
G01 X-0.75387 Y1.63116
G01 X-0.74689 Y1.62996
G01 X-0.74441 Y1.62931
G01 X-0.73773 Y1.62693
G01 X-0.73540 Y1.62588
G01 X-0.72922 Y1.62240
G01 X-0.72853 Y1.62193
G01 X-0.72853 Y1.62194
G01 X-0.72979 Y1.62412
G01 X-0.73177 Y1.62800
G01 X-0.73333 Y1.63206
G01 X-0.73572 Y1.63942
G01 X-0.73685 Y1.64363
G01 X-0.73753 Y1.64793
G01 X-0.73834 Y1.65562
G01 X-0.73857 Y1.65997
G01 X-0.73834 Y1.66432
G01 X-0.73753 Y1.67201
G01 X-0.73685 Y1.67631
G01 X-0.73572 Y1.68052
G01 X-0.73333 Y1.68787
G01 X-0.73177 Y1.69194
G01 X-0.72979 Y1.69582
G01 X-0.72657 Y1.70141
G01 X-0.72620 Y1.70132
G01 X-0.72657 Y1.70141
G01 X-0.72657 Y1.80244
G01 X-0.72674 Y1.80212
G01 X-0.72906 Y1.79816
G01 X-0.73827 Y1.78327
G01 X-0.74997 Y1.76434
G01 X-0.76167 Y1.74542
G01 X-0.76167 Y1.71670
G01 X-0.76064 Y1.71286
G01 X-0.75997 Y1.71027
G01 X-0.75997 Y1.69652
G01 X-0.75997 Y1.68839
G01 X-0.75997 Y1.67973
G01 X-0.75997 Y1.67436
G01 X-0.75997 Y1.66659
G01 X-0.76967 Y1.65997
G01 X-0.78137 Y1.65997
G01 X-0.79307 Y1.65997
G01 X-0.80477 Y1.65997
G01 X-0.81647 Y1.65997
G01 X-0.81650 Y1.65929
G01 X-0.81731 Y1.65160
G01 X-0.81742 Y1.65092
G01 X-0.81759 Y1.65027
G01 X-0.81998 Y1.64291
G01 X-0.82023 Y1.64228
G01 X-0.82054 Y1.64167
G01 X-0.82441 Y1.63497
G01 X-0.82478 Y1.63440
G01 X-0.82520 Y1.63387
G01 X-0.83038 Y1.62812
G01 X-0.83086 Y1.62764
G01 X-0.83139 Y1.62721
G01 X-0.83765 Y1.62267
G01 X-0.83822 Y1.62230
G01 X-0.83882 Y1.62199
G01 X-0.84589 Y1.61884
G01 X-0.84653 Y1.61860
G01 X-0.84718 Y1.61842
G01 X-0.85475 Y1.61681
G01 X-0.85542 Y1.61671
G01 X-0.85610 Y1.61667
G01 X-0.86384 Y1.61667
G01 X-0.86451 Y1.61671
G01 X-0.86519 Y1.61681
G01 X-0.87275 Y1.61842
G01 X-0.87341 Y1.61860
G01 X-0.87405 Y1.61884
G01 X-0.88111 Y1.62199
G01 X-0.88172 Y1.62230
G01 X-0.88229 Y1.62267
G01 X-0.88855 Y1.62721
G01 X-0.88908 Y1.62764
G01 X-0.88956 Y1.62812
G01 X-0.89473 Y1.63387
G01 X-0.89516 Y1.63440
G01 X-0.89553 Y1.63497
G01 X-0.89940 Y1.64167
G01 X-0.89971 Y1.64228
G01 X-0.89995 Y1.64291
G01 X-0.90234 Y1.65027
G01 X-0.90252 Y1.65092
G01 X-0.90262 Y1.65160
G01 X-0.90338 Y1.65884
G01 X-0.98224 Y1.73770
G01 X-0.98267 Y1.73817
G01 X-0.98578 Y1.74196
G01 X-0.98616 Y1.74247
G01 X-0.98649 Y1.74302
G01 X-0.98880 Y1.74734
G01 X-0.98907 Y1.74791
G01 X-0.98929 Y1.74852
G01 X-0.99071 Y1.75320
G01 X-0.99096 Y1.75445
G01 X-0.99144 Y1.75933
G01 X-0.99147 Y1.75997
G01 X-0.99147 Y1.85997
G01 X-0.99144 Y1.86057
G01 X-0.99102 Y1.86515
G01 X-0.99080 Y1.86633
G01 X-0.98954 Y1.87076
G01 X-0.98911 Y1.87188
G01 X-0.98705 Y1.87601
G01 X-0.98643 Y1.87702
G01 X-0.98365 Y1.88070
G01 X-0.98285 Y1.88159
G01 X-0.97945 Y1.88470
G01 X-0.97849 Y1.88542
G01 X-0.97458 Y1.88785
G01 X-0.97406 Y1.88814
G01 X-0.90066 Y1.92484
G01 X-0.89995 Y1.92703
G01 X-0.89971 Y1.92766
G01 X-0.89940 Y1.92827
G01 X-0.89553 Y1.93497
G01 X-0.89516 Y1.93554
G01 X-0.89473 Y1.93607
G01 X-0.88956 Y1.94181
G01 X-0.88908 Y1.94230
G01 X-0.88855 Y1.94272
G01 X-0.88229 Y1.94727
G01 X-0.88172 Y1.94764
G01 X-0.88111 Y1.94795
G01 X-0.87405 Y1.95110
G01 X-0.87341 Y1.95134
G01 X-0.87275 Y1.95152
G01 X-0.86519 Y1.95312
G01 X-0.86451 Y1.95323
G01 X-0.86384 Y1.95327
G01 X-0.85610 Y1.95327
G01 X-0.85542 Y1.95323
G01 X-0.85475 Y1.95312
G01 X-0.84718 Y1.95152
G01 X-0.84653 Y1.95134
G01 X-0.84589 Y1.95110
G01 X-0.83882 Y1.94795
G01 X-0.83822 Y1.94764
G01 X-0.83765 Y1.94727
G01 X-0.83139 Y1.94272
G01 X-0.83086 Y1.94230
G01 X-0.83038 Y1.94181
G01 X-0.82520 Y1.93607
G01 X-0.82478 Y1.93554
G01 X-0.82441 Y1.93497
G01 X-0.82054 Y1.92827
G01 X-0.82023 Y1.92766
G01 X-0.81998 Y1.92703
G01 X-0.81759 Y1.91967
G01 X-0.81742 Y1.91901
G01 X-0.81731 Y1.91834
G01 X-0.81650 Y1.91065
G01 X-0.81647 Y1.90997
G01 X-0.81650 Y1.90929
G01 X-0.81731 Y1.90160
G01 X-0.81742 Y1.90092
G01 X-0.81759 Y1.90027
G01 X-0.81998 Y1.89291
G01 X-0.82023 Y1.89228
G01 X-0.82054 Y1.89167
G01 X-0.82441 Y1.88497
G01 X-0.82478 Y1.88440
G01 X-0.82520 Y1.88387
G01 X-0.83038 Y1.87812
G01 X-0.83086 Y1.87764
G01 X-0.83139 Y1.87721
G01 X-0.83765 Y1.87267
G01 X-0.83822 Y1.87230
G01 X-0.83882 Y1.87199
G01 X-0.84589 Y1.86884
G01 X-0.84653 Y1.86860
G01 X-0.84718 Y1.86842
G01 X-0.85475 Y1.86681
G01 X-0.85542 Y1.86671
G01 X-0.85610 Y1.86667
G01 X-0.86384 Y1.86667
G01 X-0.86451 Y1.86671
G01 X-0.86519 Y1.86681
G01 X-0.87266 Y1.86840
G01 X-0.92847 Y1.84050
G01 X-0.92847 Y1.77302
G01 X-0.85872 Y1.70327
G01 X-0.85610 Y1.70327
G01 X-0.85542 Y1.70323
G01 X-0.85475 Y1.70312
G01 X-0.84718 Y1.70152
G01 X-0.84653 Y1.70134
G01 X-0.84589 Y1.70110
G01 X-0.83882 Y1.69795
G01 X-0.83822 Y1.69764
G01 X-0.83765 Y1.69727
G01 X-0.83139 Y1.69272
G01 X-0.83086 Y1.69230
G01 X-0.83038 Y1.69181
G01 X-0.82520 Y1.68607
G01 X-0.82478 Y1.68554
G01 X-0.82441 Y1.68497
G01 X-0.82054 Y1.67827
G01 X-0.82023 Y1.67766
G01 X-0.81998 Y1.67703
G01 X-0.81759 Y1.66967
G01 X-0.81742 Y1.66901
G01 X-0.81731 Y1.66834
G01 X-0.81650 Y1.66065
G01 X-0.81647 Y1.65997
G04 P0 ( dwell for no time -- G64 should not smooth over this point )
G00 Z0.05000 ( retract )

G00 X-0.80641 Y1.61995 ( rapid move to begin. )
G01 F1.00000
( Mill infeed pass 1/1 )
G01 Z-0.00600
G04 P0 ( dwell for no time -- G64 should not smooth over this point )
G01 F20.00000
G01 X-0.80641 Y1.61995
G01 X-0.80641 Y1.61995
G01 X-0.80215 Y1.62212
G01 X-0.80215 Y1.62211
G01 X-0.80215 Y1.62212
G01 X-0.79441 Y1.62658
G01 X-0.78683 Y1.63153
G01 X-0.78621 Y1.63194
G01 X-0.78620 Y1.63193
G01 X-0.78621 Y1.63194
G01 X-0.77847 Y1.63755
G01 X-0.77150 Y1.64323
G01 X-0.76764 Y1.64638
G01 X-0.75997 Y1.65328
G01 X-0.75997 Y1.65335
G01 X-0.75997 Y1.66659
G01 X-0.75997 Y1.67436
G01 X-0.75997 Y1.67973
G01 X-0.75974 Y1.68118
G01 X-0.75798 Y1.68775
G01 X-0.75559 Y1.69510
G01 X-0.75315 Y1.70146
G01 X-0.75006 Y1.70752
G01 X-0.74997 Y1.70768
G01 X-0.74971 Y1.70763
G01 X-0.74997 Y1.70768
G01 X-0.74997 Y1.76434
G01 X-0.74997 Y1.76435
G01 X-0.73827 Y1.78327
G01 X-0.74997 Y1.76435
G01 X-0.77688 Y1.75089
G01 X-0.77706 Y1.75111
G01 X-0.77688 Y1.75089
G01 X-0.77745 Y1.75001
G01 X-0.78173 Y1.74473
G01 X-0.78691 Y1.73898
G01 X-0.79092 Y1.73497
G01 X-0.78691 Y1.73096
G01 X-0.78173 Y1.72521
G01 X-0.77745 Y1.71992
G01 X-0.77374 Y1.71422
G01 X-0.76988 Y1.70752
G01 X-0.76679 Y1.70146
G01 X-0.76435 Y1.69510
G01 X-0.76196 Y1.68775
G01 X-0.76020 Y1.68118
G01 X-0.75997 Y1.67973
G01 X-0.75997 Y1.68839
G01 X-0.75997 Y1.69652
G01 X-0.75997 Y1.71027
G01 X-0.75987 Y1.71029
G01 X-0.75997 Y1.71027
G01 X-0.76064 Y1.71286
G01 X-0.76167 Y1.71670
G01 X-0.76361 Y1.72007
G01 X-0.76798 Y1.72680
G01 X-0.77304 Y1.73304
G01 X-0.77477 Y1.73497
G01 X-0.78246 Y1.73497
G01 X-0.79092 Y1.73497
G01 X-0.80070 Y1.73497
G01 X-0.80991 Y1.73497
G01 X-0.81026 Y1.73497
G01 X-0.82234 Y1.73497
G01 X-0.83081 Y1.73497
G01 X-0.83660 Y1.73497
G01 X-0.84007 Y1.73497
G01 X-0.84288 Y1.73497
G01 X-0.84290 Y1.73482
G01 X-0.84288 Y1.73497
G01 X-0.84291 Y1.73479
G01 X-0.84288 Y1.73497
G01 X-0.84832 Y1.73658
G01 X-0.85610 Y1.73932
G01 X-0.86383 Y1.74253
G01 X-0.86384 Y1.74251
G01 X-0.86383 Y1.74253
G01 X-0.86559 Y1.74336
G01 X-0.86584 Y1.74348
G01 X-0.86975 Y1.74534
G01 X-0.87684 Y1.74919
G01 X-0.87685 Y1.74917
G01 X-0.87684 Y1.74919
G01 X-0.88152 Y1.75206
G01 X-0.88153 Y1.75204
G01 X-0.88152 Y1.75206
G01 X-0.88800 Y1.75651
G01 X-0.88801 Y1.75650
G01 X-0.88800 Y1.75651
G01 X-0.89187 Y1.75948
G01 X-0.89189 Y1.75946
G01 X-0.89187 Y1.75948
G01 X-0.89777 Y1.76452
G01 X-0.89778 Y1.76450
G01 X-0.89777 Y1.76452
G01 X-0.90113 Y1.76770
G01 X-0.90114 Y1.76769
G01 X-0.90113 Y1.76770
G01 X-0.90645 Y1.77331
G01 X-0.90646 Y1.77331
G01 X-0.90645 Y1.77331
G01 X-0.90951 Y1.77690
G01 X-0.90952 Y1.77689
G01 X-0.90951 Y1.77690
G01 X-0.91183 Y1.77991
G01 X-0.91210 Y1.77978
G01 X-0.91183 Y1.77991
G01 X-0.91211 Y1.77978
G01 X-0.91183 Y1.77991
G01 X-0.91214 Y1.77975
G01 X-0.91183 Y1.77991
G01 X-0.91289 Y1.78388
G01 X-0.91385 Y1.78840
G01 X-0.91386 Y1.78839
G01 X-0.91385 Y1.78840
G01 X-0.91508 Y1.79613
G01 X-0.91509 Y1.79613
G01 X-0.91508 Y1.79613
G01 X-0.91511 Y1.79613
G01 X-0.91508 Y1.79613
G01 X-0.91551 Y1.80024
G01 X-0.91553 Y1.80024
G01 X-0.91551 Y1.80024
G01 X-0.91592 Y1.80798
G01 X-0.91593 Y1.80798
G01 X-0.91592 Y1.80798
G01 X-0.91592 Y1.81196
G01 X-0.91593 Y1.81196
G01 X-0.91592 Y1.81196
G01 X-0.91551 Y1.81970
G01 X-0.91552 Y1.81970
G01 X-0.91551 Y1.81970
G01 X-0.91508 Y1.82381
G01 X-0.91386 Y1.83148
G01 X-0.91445 Y1.83177
G01 X-0.91386 Y1.83148
G01 X-0.91448 Y1.83179
G01 X-0.91386 Y1.83148
G01 X-0.91381 Y1.83153
G01 X-0.91070 Y1.83479
G01 X-0.90728 Y1.83801
G01 X-0.90728 Y1.83801
G01 X-0.90482 Y1.84033
G01 X-0.90483 Y1.84034
G01 X-0.90482 Y1.84033
G01 X-0.90206 Y1.84267
G01 X-0.90208 Y1.84268
G01 X-0.90206 Y1.84267
G01 X-0.89580 Y1.84744
G01 X-0.89581 Y1.84745
G01 X-0.89580 Y1.84744
G01 X-0.89324 Y1.84919
G01 X-0.89325 Y1.84920
G01 X-0.89324 Y1.84919
G01 X-0.88661 Y1.85322
G01 X-0.88662 Y1.85324
G01 X-0.88661 Y1.85322
G01 X-0.88407 Y1.85458
G01 X-0.88407 Y1.85460
G01 X-0.88407 Y1.85458
G01 X-0.87707 Y1.85789
G01 X-0.87434 Y1.85900
G01 X-0.87435 Y1.85902
G01 X-0.87434 Y1.85900
G01 X-0.87159 Y1.85997
G01 X-0.87161 Y1.86013
G01 X-0.87159 Y1.85997
G01 X-0.87164 Y1.86023
G01 X-0.87159 Y1.85997
G01 X-0.86664 Y1.85997
G01 X-0.86383 Y1.85997
G01 X-0.85610 Y1.85997
G01 X-0.85329 Y1.85997
G01 X-0.84835 Y1.85997
G01 X-0.84830 Y1.85973
G01 X-0.84835 Y1.85997
G01 X-0.84832 Y1.85980
G01 X-0.84835 Y1.85997
G01 X-0.84831 Y1.85978
G01 X-0.84835 Y1.85997
G01 X-0.84559 Y1.86093
G01 X-0.84559 Y1.86092
G01 X-0.84559 Y1.86093
G01 X-0.84287 Y1.86205
G01 X-0.84286 Y1.86204
G01 X-0.84287 Y1.86205
G01 X-0.83587 Y1.86536
G01 X-0.83586 Y1.86534
G01 X-0.83587 Y1.86536
G01 X-0.83333 Y1.86672
G01 X-0.83332 Y1.86670
G01 X-0.83333 Y1.86672
G01 X-0.82669 Y1.87075
G01 X-0.82669 Y1.87074
G01 X-0.82669 Y1.87075
G01 X-0.82413 Y1.87250
G01 X-0.82412 Y1.87248
G01 X-0.82413 Y1.87250
G01 X-0.81787 Y1.87727
G01 X-0.81786 Y1.87725
G01 X-0.81787 Y1.87727
G01 X-0.81512 Y1.87961
G01 X-0.81510 Y1.87959
G01 X-0.81512 Y1.87961
G01 X-0.81265 Y1.88193
G01 X-0.81265 Y1.88193
G01 X-0.80924 Y1.88514
G01 X-0.80612 Y1.88841
G01 X-0.80607 Y1.88846
G01 X-0.80545 Y1.88815
G01 X-0.80607 Y1.88846
G01 X-0.80548 Y1.88817
G01 X-0.80607 Y1.88846
G01 X-0.80486 Y1.89613
G01 X-0.80442 Y1.90024
G01 X-0.80441 Y1.90024
G01 X-0.80442 Y1.90024
G01 X-0.80402 Y1.90798
G01 X-0.80400 Y1.90798
G01 X-0.80402 Y1.90798
G01 X-0.80402 Y1.91196
G01 X-0.80442 Y1.91969
G01 X-0.80486 Y1.92381
G01 X-0.80484 Y1.92381
G01 X-0.80486 Y1.92381
G01 X-0.80608 Y1.93154
G01 X-0.80705 Y1.93606
G01 X-0.80704 Y1.93606
G01 X-0.80705 Y1.93606
G01 X-0.80912 Y1.94379
G01 X-0.80911 Y1.94380
G01 X-0.80912 Y1.94379
G01 X-0.81082 Y1.94902
G01 X-0.81379 Y1.95675
G01 X-0.81487 Y1.95934
G01 X-0.81487 Y1.95935
G01 X-0.81513 Y1.95997
G01 X-0.81487 Y1.96058
G01 X-0.81487 Y1.96058
G01 X-0.81487 Y1.96060
G01 X-0.81379 Y1.96319
G01 X-0.81082 Y1.97092
G01 X-0.80912 Y1.97614
G01 X-0.80705 Y1.98388
G01 X-0.80608 Y1.98840
G01 X-0.80486 Y1.99613
G01 X-0.80442 Y2.00025
G01 X-0.80402 Y2.00798
G01 X-0.80402 Y2.01196
G01 X-0.80442 Y2.01969
G01 X-0.80486 Y2.02381
G01 X-0.80608 Y2.03154
G01 X-0.80705 Y2.03606
G01 X-0.80912 Y2.04379
G01 X-0.80997 Y2.04663
G01 X-0.80997 Y2.22331
G01 X-0.80997 Y2.22663
G01 X-0.80997 Y2.23557
G01 X-0.80997 Y2.23668
G01 X-0.81041 Y2.23582
G01 X-0.81427 Y2.22912
G01 X-0.81531 Y2.22752
G01 X-0.81651 Y2.22604
G01 X-0.81677 Y2.22575
G01 X-0.81677 Y2.04418
G01 X-0.81651 Y2.04390
G01 X-0.81531 Y2.04241
G01 X-0.81427 Y2.04082
G01 X-0.81041 Y2.03412
G01 X-0.80954 Y2.03242
G01 X-0.80886 Y2.03064
G01 X-0.80647 Y2.02329
G01 X-0.80597 Y2.02145
G01 X-0.80568 Y2.01956
G01 X-0.80487 Y2.01187
G01 X-0.80477 Y2.00997
G01 X-0.80487 Y2.00807
G01 X-0.80568 Y2.00037
G01 X-0.80597 Y1.99849
G01 X-0.80647 Y1.99665
G01 X-0.80886 Y1.98930
G01 X-0.80954 Y1.98752
G01 X-0.81041 Y1.98582
G01 X-0.81427 Y1.97912
G01 X-0.81531 Y1.97752
G01 X-0.81651 Y1.97604
G01 X-0.82168 Y1.97029
G01 X-0.82303 Y1.96895
G01 X-0.82451 Y1.96775
G01 X-0.83077 Y1.96320
G01 X-0.83237 Y1.96216
G01 X-0.83407 Y1.96130
G01 X-0.83705 Y1.95997
G01 X-0.83705 Y1.95997
G01 X-0.84194 Y1.95997
G01 X-0.84539 Y1.95997
G01 X-0.85329 Y1.95997
G01 X-0.85610 Y1.95997
G01 X-0.86383 Y1.95997
G01 X-0.86664 Y1.95997
G01 X-0.87455 Y1.95997
G01 X-0.87800 Y1.95997
G01 X-0.88288 Y1.95997
G01 X-0.88646 Y1.95997
G01 X-0.89151 Y1.95997
G01 X-0.90107 Y1.95997
G01 X-0.90438 Y1.95997
G01 X-0.90473 Y1.96025
G01 X-0.90695 Y1.96247
G01 X-0.91212 Y1.96821
G01 X-0.91409 Y1.97065
G01 X-0.91580 Y1.97327
G01 X-0.91966 Y1.97997
G01 X-0.92108 Y1.98276
G01 X-0.92221 Y1.98568
G01 X-0.92460 Y1.99304
G01 X-0.92541 Y1.99606
G01 X-0.92590 Y1.99915
G01 X-0.92670 Y2.00684
G01 X-0.92687 Y2.00997
G01 X-0.92670 Y2.01309
G01 X-0.92590 Y2.02079
G01 X-0.92541 Y2.02388
G01 X-0.92460 Y2.02690
G01 X-0.92221 Y2.03426
G01 X-0.92108 Y2.03718
G01 X-0.91966 Y2.03997
G01 X-0.91580 Y2.04667
G01 X-0.91487 Y2.04810
G01 X-0.91448 Y2.04799
G01 X-0.91487 Y2.04810
G01 X-0.91487 Y2.22184
G01 X-0.91448 Y2.22195
G01 X-0.91487 Y2.22184
G01 X-0.91580 Y2.22327
G01 X-0.91966 Y2.22997
G01 X-0.92108 Y2.23276
G01 X-0.92221 Y2.23568
G01 X-0.92460 Y2.24304
G01 X-0.92541 Y2.24606
G01 X-0.92590 Y2.24915
G01 X-0.92670 Y2.25684
G01 X-0.92687 Y2.25997
G01 X-0.92670 Y2.26309
G01 X-0.92590 Y2.27079
G01 X-0.92541 Y2.27388
G01 X-0.92460 Y2.27690
G01 X-0.92221 Y2.28426
G01 X-0.92108 Y2.28718
G01 X-0.91966 Y2.28997
G01 X-0.91580 Y2.29667
G01 X-0.91487 Y2.29810
G01 X-0.91448 Y2.29799
G01 X-0.91487 Y2.29810
G01 X-0.91487 Y2.30507
G01 X-0.91144 Y2.30850
G01 X-0.91487 Y2.30507
G01 X-1.01079 Y2.30507
G01 X-1.01081 Y2.30507
G01 X-1.01083 Y2.30507
G01 X-1.01406 Y2.30652
G01 X-1.01081 Y2.30507
G01 X-1.00633 Y2.30307
G01 X-1.00632 Y2.30308
G01 X-1.00633 Y2.30307
G01 X-0.99929 Y2.29947
G01 X-1.00633 Y2.30307
G01 X-1.01081 Y2.30507
G01 X-1.01406 Y2.30652
G01 X-1.01083 Y2.30507
G01 X-1.00781 Y2.30172
G01 X-1.00584 Y2.29929
G01 X-1.00414 Y2.29667
G01 X-1.00027 Y2.28997
G01 X-0.99885 Y2.28718
G01 X-0.99773 Y2.28426
G01 X-0.99534 Y2.27690
G01 X-0.99453 Y2.27388
G01 X-0.99404 Y2.27079
G01 X-0.99323 Y2.26309
G01 X-0.99307 Y2.25997
G01 X-0.99323 Y2.25684
G01 X-0.99404 Y2.24915
G01 X-0.99453 Y2.24606
G01 X-0.99534 Y2.24304
G01 X-0.99773 Y2.23568
G01 X-0.99885 Y2.23276
G01 X-1.00027 Y2.22997
G01 X-1.00414 Y2.22327
G01 X-1.00507 Y2.22184
G01 X-1.00546 Y2.22195
G01 X-1.00507 Y2.22184
G01 X-1.00507 Y1.89117
G01 X-1.00509 Y1.89110
G01 X-1.00510 Y1.89110
G01 X-1.00509 Y1.89110
G01 X-1.00507 Y1.89117
G01 X-1.00234 Y1.89479
G01 X-0.99863 Y1.89886
G01 X-0.99523 Y1.90197
G01 X-0.99084 Y1.90530
G01 X-0.98693 Y1.90773
G01 X-0.98452 Y1.90907
G01 X-0.91842 Y1.94212
G01 X-0.91809 Y1.94177
G01 X-0.91842 Y1.94212
G01 X-0.91580 Y1.94667
G01 X-0.91409 Y1.94929
G01 X-0.91212 Y1.95172
G01 X-0.90695 Y1.95747
G01 X-0.90473 Y1.95969
G01 X-0.90438 Y1.95997
G01 X-0.90972 Y1.95997
G01 X-0.92044 Y1.95997
G01 X-0.90972 Y1.95997
G01 X-0.92044 Y1.95997
G01 X-0.92082 Y1.96039
G01 X-0.92356 Y1.96377
G01 X-0.92593 Y1.96742
G01 X-0.92980 Y1.97412
G01 X-0.93177 Y1.97800
G01 X-0.93333 Y1.98206
G01 X-0.93572 Y1.98942
G01 X-0.93685 Y1.99363
G01 X-0.93753 Y1.99793
G01 X-0.93834 Y2.00562
G01 X-0.93857 Y2.00997
G01 X-0.93834 Y2.01432
G01 X-0.93753 Y2.02201
G01 X-0.93685 Y2.02631
G01 X-0.93572 Y2.03052
G01 X-0.93333 Y2.03787
G01 X-0.93177 Y2.04194
G01 X-0.92980 Y2.04582
G01 X-0.92657 Y2.05141
G01 X-0.92620 Y2.05132
G01 X-0.92657 Y2.05141
G01 X-0.92657 Y2.21853
G01 X-0.92620 Y2.21862
G01 X-0.92657 Y2.21853
G01 X-0.92980 Y2.22412
G01 X-0.93177 Y2.22800
G01 X-0.93333 Y2.23206
G01 X-0.93572 Y2.23942
G01 X-0.93685 Y2.24363
G01 X-0.93753 Y2.24793
G01 X-0.93834 Y2.25562
G01 X-0.93857 Y2.25997
G01 X-0.93834 Y2.26432
G01 X-0.93753 Y2.27201
G01 X-0.93685 Y2.27631
G01 X-0.93572 Y2.28052
G01 X-0.93333 Y2.28787
G01 X-0.93177 Y2.29194
G01 X-0.93104 Y2.29337
G01 X-0.98905 Y2.29337
G01 X-0.98881 Y2.29322
G01 X-0.98881 Y2.29322
G01 X-0.98261 Y2.28917
G01 X-0.97487 Y2.28355
G01 X-0.97486 Y2.28356
G01 X-0.97487 Y2.28355
G01 X-0.97256 Y2.28167
G01 X-0.97487 Y2.28355
G01 X-0.98261 Y2.28917
G01 X-0.98881 Y2.29322
G01 X-0.98881 Y2.29322
G01 X-0.98905 Y2.29337
G01 X-0.98881 Y2.29322
G01 X-0.98881 Y2.29322
G01 X-0.98816 Y2.29194
G01 X-0.98660 Y2.28787
G01 X-0.98421 Y2.28052
G01 X-0.98309 Y2.27631
G01 X-0.98240 Y2.27201
G01 X-0.98160 Y2.26432
G01 X-0.98137 Y2.25997
G01 X-0.98160 Y2.25562
G01 X-0.98240 Y2.24793
G01 X-0.98309 Y2.24363
G01 X-0.98421 Y2.23942
G01 X-0.98660 Y2.23206
G01 X-0.98816 Y2.22800
G01 X-0.99014 Y2.22412
G01 X-0.99337 Y2.21853
G01 X-0.99374 Y2.21862
G01 X-0.99337 Y2.21853
G01 X-0.99337 Y1.91750
G01 X-0.99310 Y1.91767
G01 X-0.98975 Y1.91954
G01 X-0.92679 Y1.95102
G01 X-0.92656 Y1.95075
G01 X-0.92679 Y1.95102
G01 X-0.92593 Y1.95252
G01 X-0.92356 Y1.95617
G01 X-0.92082 Y1.95955
G01 X-0.92044 Y1.95997
G01 X-0.90972 Y1.95997
G01 X-0.92044 Y1.95997
G01 X-0.92044 Y1.95997
G01 X-0.90972 Y1.95997
G01 X-0.92044 Y1.95997
G01 X-0.92127 Y1.95997
G01 X-0.93502 Y1.95997
G01 X-0.93505 Y1.95997
G01 X-0.93515 Y1.95997
G01 X-0.93516 Y1.95992
G01 X-0.93515 Y1.95997
G01 X-0.93760 Y1.96068
G01 X-0.94777 Y1.96374
G01 X-0.95127 Y1.96494
G01 X-0.95136 Y1.96498
G01 X-0.95315 Y1.96848
G01 X-0.95559 Y1.97483
G01 X-0.95798 Y1.98219
G01 X-0.95974 Y1.98876
G01 X-0.96080 Y1.99548
G01 X-0.96161 Y2.00318
G01 X-0.96197 Y2.00997
G01 X-0.96161 Y2.01676
G01 X-0.96080 Y2.02446
G01 X-0.95974 Y2.03118
G01 X-0.95798 Y2.03775
G01 X-0.95559 Y2.04510
G01 X-0.95315 Y2.05146
G01 X-0.95006 Y2.05752
G01 X-0.94997 Y2.05768
G01 X-0.94971 Y2.05762
G01 X-0.94997 Y2.05768
G01 X-0.94997 Y2.21226
G01 X-0.94971 Y2.21231
G01 X-0.94997 Y2.21226
G01 X-0.95006 Y2.21242
G01 X-0.95315 Y2.21848
G01 X-0.95559 Y2.22483
G01 X-0.95798 Y2.23219
G01 X-0.95974 Y2.23876
G01 X-0.95997 Y2.24021
G01 X-0.96020 Y2.23876
G01 X-0.96196 Y2.23219
G01 X-0.96435 Y2.22483
G01 X-0.96679 Y2.21848
G01 X-0.96988 Y2.21242
G01 X-0.96997 Y2.21226
G01 X-0.97023 Y2.21231
G01 X-0.96997 Y2.21226
G01 X-0.96997 Y1.95559
G01 X-0.98167 Y1.93666
G01 X-0.96997 Y1.95559
G01 X-0.96997 Y1.95559
G01 X-0.95127 Y1.96494
G01 X-0.95136 Y1.96498
G01 X-0.96192 Y1.96862
G01 X-0.96260 Y1.97256
G01 X-0.96382 Y1.98030
G01 X-0.96537 Y1.99500
G01 X-0.96539 Y1.99500
G01 X-0.96537 Y1.99500
G01 X-0.96578 Y2.00273
G01 X-0.96578 Y2.01721
G01 X-0.96579 Y2.01721
G01 X-0.96578 Y2.01721
G01 X-0.96537 Y2.02494
G01 X-0.96382 Y2.03964
G01 X-0.96384 Y2.03965
G01 X-0.96382 Y2.03964
G01 X-0.96260 Y2.04738
G01 X-0.95997 Y2.06027
G01 X-0.95992 Y2.06027
G01 X-0.95997 Y2.06027
G01 X-0.95997 Y2.20967
G01 X-0.95997 Y2.22341
G01 X-0.95997 Y2.23155
G01 X-0.95997 Y2.24021
G01 X-0.95997 Y2.24557
G01 X-0.95997 Y2.25334
G01 X-0.95997 Y2.26659
G01 X-0.95997 Y2.27115
G01 X-0.95886 Y2.27167
G01 X-0.95997 Y2.27115
G01 X-0.95888 Y2.27166
G01 X-0.95997 Y2.27115
G01 X-0.96317 Y2.27403
G01 X-0.97239 Y2.28153
G01 X-0.97256 Y2.28167
G01 X-0.97239 Y2.28153
G01 X-0.96317 Y2.27403
G01 X-0.95997 Y2.27115
G01 X-0.95997 Y2.26659
G01 X-0.95997 Y2.25334
G01 X-0.95997 Y2.24557
G01 X-0.95997 Y2.24021
G01 X-0.95997 Y2.23155
G01 X-0.95997 Y2.22341
G01 X-0.95997 Y2.20967
G01 X-0.95997 Y2.06027
G01 X-0.96260 Y2.04738
G01 X-0.96382 Y2.03964
G01 X-0.96537 Y2.02494
G01 X-0.96578 Y2.01721
G01 X-0.96578 Y2.00273
G01 X-0.96537 Y1.99500
G01 X-0.96382 Y1.98030
G01 X-0.96260 Y1.97256
G01 X-0.96192 Y1.96862
G01 X-0.96997 Y1.95559
G01 X-0.98167 Y1.93666
G01 X-0.93516 Y1.95992
G01 X-0.93516 Y1.95992
G01 X-0.93505 Y1.95997
G01 X-0.93502 Y1.95997
G01 X-0.92127 Y1.95997
G01 X-0.92044 Y1.95997
G01 X-0.90972 Y1.95997
G01 X-0.90438 Y1.95997
G01 X-0.90107 Y1.95997
G01 X-0.89151 Y1.95997
G01 X-0.88646 Y1.95997
G01 X-0.88288 Y1.95997
G01 X-0.87800 Y1.95997
G01 X-0.87455 Y1.95997
G01 X-0.86664 Y1.95997
G01 X-0.86383 Y1.95997
G01 X-0.85610 Y1.95997
G01 X-0.85329 Y1.95997
G01 X-0.84539 Y1.95997
G01 X-0.84194 Y1.95997
G01 X-0.83705 Y1.95997
G01 X-0.83347 Y1.95997
G01 X-0.82842 Y1.95997
G01 X-0.81886 Y1.95997
G01 X-0.81555 Y1.95997
G01 X-0.81513 Y1.95997
G01 X-0.81487 Y1.96058
G01 X-0.81520 Y1.96025
G01 X-0.81555 Y1.95997
G01 X-0.81886 Y1.95997
G01 X-0.82842 Y1.95997
G01 X-0.83347 Y1.95997
G01 X-0.83705 Y1.95997
G01 X-0.84194 Y1.95997
G01 X-0.84539 Y1.95997
G01 X-0.85329 Y1.95997
G01 X-0.85610 Y1.95997
G01 X-0.86383 Y1.95997
G01 X-0.86664 Y1.95997
G01 X-0.87455 Y1.95997
G01 X-0.87800 Y1.95997
G01 X-0.88288 Y1.95997
G01 X-0.88646 Y1.95997
G01 X-0.89151 Y1.95997
G01 X-0.90107 Y1.95997
G01 X-0.90438 Y1.95997
G01 X-0.90972 Y1.95997
G01 X-0.92044 Y1.95997
G01 X-0.92082 Y1.96039
G01 X-0.92356 Y1.96377
G01 X-0.92593 Y1.96742
G01 X-0.92980 Y1.97412
G01 X-0.93177 Y1.97800
G01 X-0.93333 Y1.98206
G01 X-0.93572 Y1.98942
G01 X-0.93685 Y1.99363
G01 X-0.93753 Y1.99793
G01 X-0.93834 Y2.00562
G01 X-0.93857 Y2.00997
G01 X-0.93834 Y2.01432
G01 X-0.93753 Y2.02201
G01 X-0.93685 Y2.02631
G01 X-0.93572 Y2.03052
G01 X-0.93333 Y2.03787
G01 X-0.93177 Y2.04194
G01 X-0.92980 Y2.04582
G01 X-0.92657 Y2.05141
G01 X-0.92657 Y2.21853
G01 X-0.92980 Y2.22412
G01 X-0.93177 Y2.22800
G01 X-0.93333 Y2.23206
G01 X-0.93572 Y2.23942
G01 X-0.93685 Y2.24363
G01 X-0.93753 Y2.24793
G01 X-0.93834 Y2.25562
G01 X-0.93857 Y2.25997
G01 X-0.93834 Y2.26432
G01 X-0.93753 Y2.27201
G01 X-0.93685 Y2.27631
G01 X-0.93572 Y2.28052
G01 X-0.93333 Y2.28787
G01 X-0.93177 Y2.29194
G01 X-0.93104 Y2.29337
G01 X-0.92422 Y2.29826
G01 X-0.93104 Y2.29337
G01 X-0.98905 Y2.29337
G01 X-0.98905 Y2.29337
G01 X-0.98905 Y2.29337
G01 X-0.99155 Y2.29500
G01 X-0.99154 Y2.29502
G01 X-0.99155 Y2.29500
G01 X-0.99929 Y2.29947
G01 X-1.00632 Y2.30308
G01 X-1.01079 Y2.30507
G01 X-1.01406 Y2.30652
G01 X-1.01978 Y2.30871
G01 X-1.01977 Y2.30873
G01 X-1.01978 Y2.30871
G01 X-1.02751 Y2.31122
G01 X-1.02751 Y2.31125
G01 X-1.02751 Y2.31122
G01 X-1.03233 Y2.31252
G01 X-1.03233 Y2.31254
G01 X-1.03233 Y2.31252
G01 X-1.04007 Y2.31416
G01 X-1.04007 Y2.31418
G01 X-1.04007 Y2.31416
G01 X-1.04435 Y2.31484
G01 X-1.04435 Y2.31487
G01 X-1.04435 Y2.31484
G01 X-1.05209 Y2.31566
G01 X-1.05208 Y2.31568
G01 X-1.05209 Y2.31566
G01 X-1.05610 Y2.31587
G01 X-1.05610 Y2.31588
G01 X-1.05610 Y2.31587
G01 X-1.06384 Y2.31587
G01 X-1.06384 Y2.31588
G01 X-1.06384 Y2.31587
G01 X-1.06785 Y2.31566
G01 X-1.06785 Y2.31567
G01 X-1.06785 Y2.31566
G01 X-1.07558 Y2.31484
G01 X-1.07559 Y2.31487
G01 X-1.07558 Y2.31484
G01 X-1.07986 Y2.31416
G01 X-1.07987 Y2.31418
G01 X-1.07986 Y2.31416
G01 X-1.08760 Y2.31252
G01 X-1.09243 Y2.31122
G01 X-1.09243 Y2.31124
G01 X-1.09243 Y2.31122
G01 X-1.10016 Y2.30871
G01 X-1.10587 Y2.30651
G01 X-1.10631 Y2.30632
G01 X-1.10715 Y2.30717
G01 X-1.10631 Y2.30632
G01 X-1.10911 Y2.29902
G01 X-1.10997 Y2.29663
G01 X-1.11016 Y2.29666
G01 X-1.10997 Y2.29663
G01 X-1.10997 Y2.29330
G01 X-1.10997 Y2.28437
G01 X-1.10997 Y2.28326
G01 X-1.10997 Y2.28028
G01 X-1.10997 Y2.27215
G01 X-1.10997 Y2.26911
G01 X-1.10997 Y2.26134
G01 X-1.10997 Y2.25860
G01 X-1.10997 Y2.25082
G01 X-1.10997 Y2.24779
G01 X-1.10997 Y2.23966
G01 X-1.10997 Y2.23668
G01 X-1.11041 Y2.23582
G01 X-1.11427 Y2.22912
G01 X-1.11531 Y2.22752
G01 X-1.11651 Y2.22604
G01 X-1.11677 Y2.22576
G01 X-1.11722 Y2.22588
G01 X-1.11677 Y2.22576
G01 X-1.11677 Y2.04418
G01 X-1.11721 Y2.04406
G01 X-1.11677 Y2.04418
G01 X-1.11651 Y2.04390
G01 X-1.11531 Y2.04241
G01 X-1.11427 Y2.04082
G01 X-1.11041 Y2.03412
G01 X-1.10954 Y2.03242
G01 X-1.10886 Y2.03064
G01 X-1.10647 Y2.02329
G01 X-1.10597 Y2.02145
G01 X-1.10568 Y2.01956
G01 X-1.10487 Y2.01187
G01 X-1.10477 Y2.00997
G01 X-1.10487 Y2.00807
G01 X-1.10568 Y2.00037
G01 X-1.10597 Y1.99849
G01 X-1.10647 Y1.99665
G01 X-1.10886 Y1.98930
G01 X-1.10954 Y1.98752
G01 X-1.11041 Y1.98582
G01 X-1.11427 Y1.97912
G01 X-1.11531 Y1.97752
G01 X-1.11651 Y1.97604
G01 X-1.12168 Y1.97029
G01 X-1.12303 Y1.96895
G01 X-1.12451 Y1.96775
G01 X-1.13077 Y1.96320
G01 X-1.13237 Y1.96216
G01 X-1.13407 Y1.96130
G01 X-1.13705 Y1.95997
G01 X-1.13705 Y1.95997
G01 X-1.14194 Y1.95997
G01 X-1.13705 Y1.95997
G01 X-1.13407 Y1.95864
G01 X-1.13237 Y1.95777
G01 X-1.13077 Y1.95674
G01 X-1.12451 Y1.95219
G01 X-1.12303 Y1.95099
G01 X-1.12168 Y1.94964
G01 X-1.11651 Y1.94390
G01 X-1.11531 Y1.94241
G01 X-1.11427 Y1.94082
G01 X-1.11041 Y1.93412
G01 X-1.10954 Y1.93242
G01 X-1.10886 Y1.93064
G01 X-1.10647 Y1.92329
G01 X-1.10597 Y1.92145
G01 X-1.10568 Y1.91956
G01 X-1.10487 Y1.91187
G01 X-1.10477 Y1.90997
G01 X-1.10487 Y1.90807
G01 X-1.10568 Y1.90037
G01 X-1.10597 Y1.89849
G01 X-1.10647 Y1.89665
G01 X-1.10886 Y1.88930
G01 X-1.10954 Y1.88752
G01 X-1.11041 Y1.88582
G01 X-1.11265 Y1.88193
G01 X-1.11265 Y1.88193
G01 X-1.10317 Y1.88667
G01 X-1.10142 Y1.88559
G01 X-1.10317 Y1.88667
G01 X-1.10317 Y2.22576
G01 X-1.10272 Y2.22588
G01 X-1.10317 Y2.22576
G01 X-1.10343 Y2.22604
G01 X-1.10463 Y2.22752
G01 X-1.10566 Y2.22912
G01 X-1.10953 Y2.23582
G01 X-1.10997 Y2.23668
G01 X-1.10997 Y2.23557
G01 X-1.10997 Y2.22663
G01 X-1.10997 Y2.22331
G01 X-1.10997 Y2.04663
G01 X-1.11007 Y2.04661
G01 X-1.10997 Y2.04663
G01 X-1.10912 Y2.04379
G01 X-1.10705 Y2.03606
G01 X-1.10703 Y2.03606
G01 X-1.10705 Y2.03606
G01 X-1.10608 Y2.03154
G01 X-1.10486 Y2.02381
G01 X-1.10484 Y2.02381
G01 X-1.10486 Y2.02381
G01 X-1.10442 Y2.01969
G01 X-1.10402 Y2.01196
G01 X-1.10402 Y2.00798
G01 X-1.10400 Y2.00798
G01 X-1.10402 Y2.00798
G01 X-1.10442 Y2.00025
G01 X-1.10486 Y1.99613
G01 X-1.10484 Y1.99613
G01 X-1.10486 Y1.99613
G01 X-1.10608 Y1.98840
G01 X-1.10705 Y1.98388
G01 X-1.10702 Y1.98387
G01 X-1.10705 Y1.98388
G01 X-1.10912 Y1.97614
G01 X-1.11082 Y1.97092
G01 X-1.11081 Y1.97092
G01 X-1.11082 Y1.97092
G01 X-1.11379 Y1.96319
G01 X-1.11487 Y1.96060
G01 X-1.11487 Y1.96058
G01 X-1.11520 Y1.96025
G01 X-1.11555 Y1.95997
G01 X-1.11520 Y1.95969
G01 X-1.11487 Y1.95935
G01 X-1.11487 Y1.95934
G01 X-1.11487 Y1.96060
G01 X-1.11513 Y1.95997
G01 X-1.11487 Y1.95935
G01 X-1.11487 Y1.95934
G01 X-1.11379 Y1.95675
G01 X-1.11082 Y1.94902
G01 X-1.10912 Y1.94379
G01 X-1.10911 Y1.94380
G01 X-1.10912 Y1.94379
G01 X-1.10705 Y1.93606
G01 X-1.10704 Y1.93606
G01 X-1.10705 Y1.93606
G01 X-1.10608 Y1.93154
G01 X-1.10486 Y1.92381
G01 X-1.10484 Y1.92381
G01 X-1.10486 Y1.92381
G01 X-1.10442 Y1.91969
G01 X-1.10402 Y1.91196
G01 X-1.10402 Y1.90798
G01 X-1.10400 Y1.90798
G01 X-1.10402 Y1.90798
G01 X-1.10442 Y1.90024
G01 X-1.10441 Y1.90024
G01 X-1.10442 Y1.90024
G01 X-1.10486 Y1.89613
G01 X-1.10607 Y1.88846
G01 X-1.10545 Y1.88815
G01 X-1.10607 Y1.88846
G01 X-1.10548 Y1.88817
G01 X-1.10607 Y1.88846
G01 X-1.10612 Y1.88841
G01 X-1.10924 Y1.88514
G01 X-1.11265 Y1.88193
G01 X-1.11265 Y1.88193
G01 X-1.11512 Y1.87961
G01 X-1.11510 Y1.87959
G01 X-1.11512 Y1.87961
G01 X-1.11787 Y1.87727
G01 X-1.11786 Y1.87725
G01 X-1.11787 Y1.87727
G01 X-1.12413 Y1.87250
G01 X-1.12412 Y1.87248
G01 X-1.12413 Y1.87250
G01 X-1.12669 Y1.87075
G01 X-1.12669 Y1.87074
G01 X-1.12669 Y1.87075
G01 X-1.13333 Y1.86672
G01 X-1.13332 Y1.86670
G01 X-1.13333 Y1.86672
G01 X-1.13587 Y1.86536
G01 X-1.13586 Y1.86534
G01 X-1.13587 Y1.86536
G01 X-1.14287 Y1.86205
G01 X-1.14286 Y1.86204
G01 X-1.14287 Y1.86205
G01 X-1.14559 Y1.86093
G01 X-1.14559 Y1.86092
G01 X-1.14559 Y1.86093
G01 X-1.14835 Y1.85997
G01 X-1.14830 Y1.85973
G01 X-1.14835 Y1.85997
G01 X-1.14832 Y1.85980
G01 X-1.14835 Y1.85997
G01 X-1.14831 Y1.85978
G01 X-1.14835 Y1.85997
G01 X-1.15329 Y1.85997
G01 X-1.15610 Y1.85997
G01 X-1.16384 Y1.85997
G01 X-1.16664 Y1.85997
G01 X-1.17159 Y1.85997
G01 X-1.17161 Y1.86013
G01 X-1.17159 Y1.85997
G01 X-1.17164 Y1.86023
G01 X-1.17159 Y1.85997
G01 X-1.17162 Y1.86016
G01 X-1.17159 Y1.85997
G01 X-1.17434 Y1.85900
G01 X-1.17435 Y1.85902
G01 X-1.17434 Y1.85900
G01 X-1.17707 Y1.85789
G01 X-1.17707 Y1.85790
G01 X-1.17707 Y1.85789
G01 X-1.18407 Y1.85458
G01 X-1.18661 Y1.85322
G01 X-1.18662 Y1.85323
G01 X-1.18662 Y1.85324
G01 X-1.18662 Y1.85323
G01 X-1.18661 Y1.85322
G01 X-1.19324 Y1.84919
G01 X-1.19580 Y1.84744
G01 X-1.19581 Y1.84745
G01 X-1.19581 Y1.84746
G01 X-1.19581 Y1.84745
G01 X-1.19580 Y1.84744
G01 X-1.20206 Y1.84267
G01 X-1.20207 Y1.84268
G01 X-1.20206 Y1.84267
G01 X-1.20482 Y1.84033
G01 X-1.20483 Y1.84034
G01 X-1.20482 Y1.84033
G01 X-1.20728 Y1.83801
G01 X-1.20482 Y1.84033
G01 X-1.20206 Y1.84267
G01 X-1.19580 Y1.84744
G01 X-1.19324 Y1.84919
G01 X-1.18661 Y1.85322
G01 X-1.18407 Y1.85458
G01 X-1.17707 Y1.85789
G01 X-1.17434 Y1.85900
G01 X-1.17159 Y1.85997
G01 X-1.16664 Y1.85997
G01 X-1.16384 Y1.85997
G01 X-1.15610 Y1.85997
G01 X-1.15329 Y1.85997
G01 X-1.14835 Y1.85997
G01 X-1.14559 Y1.86093
G01 X-1.14287 Y1.86205
G01 X-1.13587 Y1.86536
G01 X-1.13333 Y1.86672
G01 X-1.12669 Y1.87075
G01 X-1.12413 Y1.87250
G01 X-1.11787 Y1.87727
G01 X-1.11512 Y1.87961
G01 X-1.11265 Y1.88193
G01 X-1.11265 Y1.88193
G01 X-1.10924 Y1.88514
G01 X-1.10612 Y1.88841
G01 X-1.10607 Y1.88846
G01 X-1.10486 Y1.89613
G01 X-1.10442 Y1.90024
G01 X-1.10402 Y1.90798
G01 X-1.10402 Y1.91196
G01 X-1.10442 Y1.91969
G01 X-1.10486 Y1.92381
G01 X-1.10608 Y1.93154
G01 X-1.10705 Y1.93606
G01 X-1.10912 Y1.94379
G01 X-1.11082 Y1.94902
G01 X-1.11379 Y1.95675
G01 X-1.11487 Y1.95934
G01 X-1.11487 Y1.95935
G01 X-1.11513 Y1.95997
G01 X-1.11487 Y1.96060
G01 X-1.11379 Y1.96319
G01 X-1.11082 Y1.97092
G01 X-1.10912 Y1.97614
G01 X-1.10705 Y1.98388
G01 X-1.10608 Y1.98840
G01 X-1.10486 Y1.99613
G01 X-1.10442 Y2.00025
G01 X-1.10402 Y2.00798
G01 X-1.10402 Y2.01196
G01 X-1.10442 Y2.01969
G01 X-1.10486 Y2.02381
G01 X-1.10608 Y2.03154
G01 X-1.10705 Y2.03606
G01 X-1.10912 Y2.04379
G01 X-1.10997 Y2.04663
G01 X-1.10997 Y2.22331
G01 X-1.10997 Y2.22663
G01 X-1.10997 Y2.23557
G01 X-1.10997 Y2.23668
G01 X-1.10997 Y2.23966
G01 X-1.10997 Y2.24779
G01 X-1.10997 Y2.25082
G01 X-1.10997 Y2.25860
G01 X-1.10997 Y2.26134
G01 X-1.10997 Y2.26911
G01 X-1.10997 Y2.27215
G01 X-1.10997 Y2.28028
G01 X-1.10997 Y2.28326
G01 X-1.10997 Y2.28437
G01 X-1.10997 Y2.29330
G01 X-1.10997 Y2.29663
G01 X-1.10911 Y2.29902
G01 X-1.10631 Y2.30632
G01 X-1.10587 Y2.30651
G01 X-1.10016 Y2.30871
G01 X-1.09243 Y2.31122
G01 X-1.08760 Y2.31252
G01 X-1.07986 Y2.31416
G01 X-1.07558 Y2.31484
G01 X-1.06785 Y2.31566
G01 X-1.06384 Y2.31587
G01 X-1.05610 Y2.31587
G01 X-1.05209 Y2.31566
G01 X-1.04435 Y2.31484
G01 X-1.04007 Y2.31416
G01 X-1.03233 Y2.31252
G01 X-1.02751 Y2.31122
G01 X-1.01978 Y2.30871
G01 X-1.01406 Y2.30652
G01 X-1.01081 Y2.30507
G01 X-1.00633 Y2.30307
G01 X-0.99929 Y2.29947
G01 X-0.99155 Y2.29500
G01 X-0.98905 Y2.29337
G01 X-0.98905 Y2.29337
G01 X-0.98905 Y2.29337
G01 X-0.98881 Y2.29322
G01 X-0.98881 Y2.29322
G01 X-0.98261 Y2.28917
G01 X-0.97487 Y2.28355
G01 X-0.97256 Y2.28167
G01 X-0.97239 Y2.28153
G01 X-0.96317 Y2.27403
G01 X-0.95997 Y2.27115
G01 X-0.95997 Y2.26659
G01 X-0.95997 Y2.25334
G01 X-0.96967 Y2.25997
G01 X-0.98137 Y2.25997
G01 X-0.99307 Y2.25997
G01 X-1.00477 Y2.25997
G01 X-1.01647 Y2.25997
G01 X-1.01650 Y2.25929
G01 X-1.01731 Y2.25160
G01 X-1.01742 Y2.25092
G01 X-1.01759 Y2.25027
G01 X-1.01998 Y2.24291
G01 X-1.02023 Y2.24228
G01 X-1.02054 Y2.24167
G01 X-1.02441 Y2.23497
G01 X-1.02478 Y2.23440
G01 X-1.02520 Y2.23387
G01 X-1.02847 Y2.23025
G01 X-1.02847 Y1.85997
G01 X-1.02850 Y1.85937
G01 X-1.02892 Y1.85478
G01 X-1.02914 Y1.85361
G01 X-1.03040 Y1.84917
G01 X-1.03083 Y1.84806
G01 X-1.03288 Y1.84393
G01 X-1.03351 Y1.84291
G01 X-1.03628 Y1.83923
G01 X-1.03709 Y1.83835
G01 X-1.04049 Y1.83524
G01 X-1.04144 Y1.83452
G01 X-1.04536 Y1.83209
G01 X-1.04588 Y1.83179
G01 X-1.11927 Y1.79510
G01 X-1.11998 Y1.79291
G01 X-1.12023 Y1.79228
G01 X-1.12054 Y1.79167
G01 X-1.12441 Y1.78497
G01 X-1.12478 Y1.78440
G01 X-1.12520 Y1.78387
G01 X-1.13038 Y1.77812
G01 X-1.13086 Y1.77764
G01 X-1.13139 Y1.77721
G01 X-1.13765 Y1.77267
G01 X-1.13822 Y1.77230
G01 X-1.13882 Y1.77199
G01 X-1.14589 Y1.76884
G01 X-1.14653 Y1.76860
G01 X-1.14718 Y1.76842
G01 X-1.15475 Y1.76681
G01 X-1.15542 Y1.76671
G01 X-1.15610 Y1.76667
G01 X-1.16384 Y1.76667
G01 X-1.16451 Y1.76671
G01 X-1.16519 Y1.76681
G01 X-1.17275 Y1.76842
G01 X-1.17341 Y1.76860
G01 X-1.17405 Y1.76884
G01 X-1.18111 Y1.77199
G01 X-1.18172 Y1.77230
G01 X-1.18229 Y1.77267
G01 X-1.18855 Y1.77721
G01 X-1.18908 Y1.77764
G01 X-1.18956 Y1.77812
G01 X-1.19473 Y1.78387
G01 X-1.19516 Y1.78440
G01 X-1.19553 Y1.78497
G01 X-1.19940 Y1.79167
G01 X-1.19971 Y1.79228
G01 X-1.19995 Y1.79291
G01 X-1.20234 Y1.80027
G01 X-1.20252 Y1.80092
G01 X-1.20262 Y1.80160
G01 X-1.20343 Y1.80929
G01 X-1.20347 Y1.80997
G01 X-1.20343 Y1.81065
G01 X-1.20262 Y1.81834
G01 X-1.20252 Y1.81901
G01 X-1.20234 Y1.81967
G01 X-1.19995 Y1.82703
G01 X-1.19971 Y1.82766
G01 X-1.19940 Y1.82827
G01 X-1.19553 Y1.83497
G01 X-1.19516 Y1.83554
G01 X-1.19473 Y1.83607
G01 X-1.18956 Y1.84181
G01 X-1.18908 Y1.84230
G01 X-1.18855 Y1.84272
G01 X-1.18229 Y1.84727
G01 X-1.18172 Y1.84764
G01 X-1.18111 Y1.84795
G01 X-1.17405 Y1.85110
G01 X-1.17341 Y1.85134
G01 X-1.17275 Y1.85152
G01 X-1.16519 Y1.85312
G01 X-1.16451 Y1.85323
G01 X-1.16384 Y1.85327
G01 X-1.15610 Y1.85327
G01 X-1.15542 Y1.85323
G01 X-1.15475 Y1.85312
G01 X-1.14727 Y1.85153
G01 X-1.09147 Y1.87944
G01 X-1.09147 Y2.23025
G01 X-1.09473 Y2.23387
G01 X-1.09516 Y2.23440
G01 X-1.09553 Y2.23497
G01 X-1.09940 Y2.24167
G01 X-1.09971 Y2.24228
G01 X-1.09995 Y2.24291
G01 X-1.10234 Y2.25027
G01 X-1.10252 Y2.25092
G01 X-1.10262 Y2.25160
G01 X-1.10343 Y2.25929
G01 X-1.10347 Y2.25997
G01 X-1.10343 Y2.26065
G01 X-1.10262 Y2.26834
G01 X-1.10252 Y2.26901
G01 X-1.10234 Y2.26967
G01 X-1.09995 Y2.27703
G01 X-1.09971 Y2.27766
G01 X-1.09940 Y2.27827
G01 X-1.09553 Y2.28497
G01 X-1.09516 Y2.28554
G01 X-1.09473 Y2.28607
G01 X-1.08956 Y2.29181
G01 X-1.08908 Y2.29230
G01 X-1.08855 Y2.29272
G01 X-1.08229 Y2.29727
G01 X-1.08172 Y2.29764
G01 X-1.08111 Y2.29795
G01 X-1.07405 Y2.30110
G01 X-1.07341 Y2.30134
G01 X-1.07275 Y2.30152
G01 X-1.06519 Y2.30312
G01 X-1.06451 Y2.30323
G01 X-1.06384 Y2.30327
G01 X-1.05610 Y2.30327
G01 X-1.05542 Y2.30323
G01 X-1.05475 Y2.30312
G01 X-1.04718 Y2.30152
G01 X-1.04653 Y2.30134
G01 X-1.04589 Y2.30110
G01 X-1.03882 Y2.29795
G01 X-1.03822 Y2.29764
G01 X-1.03765 Y2.29727
G01 X-1.03139 Y2.29272
G01 X-1.03086 Y2.29230
G01 X-1.03038 Y2.29181
G01 X-1.02520 Y2.28607
G01 X-1.02478 Y2.28554
G01 X-1.02441 Y2.28497
G01 X-1.02054 Y2.27827
G01 X-1.02023 Y2.27766
G01 X-1.01998 Y2.27703
G01 X-1.01759 Y2.26967
G01 X-1.01742 Y2.26901
G01 X-1.01731 Y2.26834
G01 X-1.01650 Y2.26065
G01 X-1.01647 Y2.25997
G04 P0 ( dwell for no time -- G64 should not smooth over this point )
G00 Z0.05000 ( retract )

G00 X-0.72657 Y1.80244 ( rapid move to begin. )
G01 F1.00000
( Mill infeed pass 1/1 )
G01 Z-0.00600
G04 P0 ( dwell for no time -- G64 should not smooth over this point )
G01 F20.00000
G01 X-0.72657 Y1.80244
G01 X-0.72657 Y1.80244
G01 X-0.72418 Y1.80673
G01 X-0.72074 Y1.81363
G01 X-0.71871 Y1.81824
G01 X-0.71869 Y1.81823
G01 X-0.71871 Y1.81824
G01 X-0.71638 Y1.82424
G01 X-0.71637 Y1.82423
G01 X-0.71636 Y1.82423
G01 X-0.71637 Y1.82423
G01 X-0.71638 Y1.82424
G01 X-0.71487 Y1.82877
G01 X-0.71638 Y1.82424
G01 X-0.71871 Y1.81824
G01 X-0.72074 Y1.81363
G01 X-0.72073 Y1.81362
G01 X-0.72074 Y1.81363
G01 X-0.72418 Y1.80673
G01 X-0.72416 Y1.80672
G01 X-0.72418 Y1.80673
G01 X-0.72657 Y1.80244
G01 X-0.72418 Y1.80673
G01 X-0.72074 Y1.81363
G01 X-0.71871 Y1.81824
G01 X-0.71638 Y1.82424
G01 X-0.71487 Y1.82877
G01 X-0.71487 Y1.82877
G01 X-0.71484 Y1.82884
G01 X-0.71482 Y1.82884
G01 X-0.71484 Y1.82884
G01 X-0.71331 Y1.83421
G01 X-0.71330 Y1.83421
G01 X-0.71331 Y1.83421
G01 X-0.71223 Y1.83882
G01 X-0.71221 Y1.83881
G01 X-0.71223 Y1.83882
G01 X-0.71131 Y1.84375
G01 X-0.71129 Y1.84375
G01 X-0.71128 Y1.84375
G01 X-0.71129 Y1.84375
G01 X-0.71131 Y1.84375
G01 X-0.71067 Y1.84836
G01 X-0.71065 Y1.84836
G01 X-0.71067 Y1.84836
G01 X-0.71023 Y1.85306
G01 X-0.71020 Y1.85305
G01 X-0.71023 Y1.85306
G01 X-0.71001 Y1.85766
G01 X-0.71002 Y1.85766
G01 X-0.70997 Y1.85997
G01 X-0.71002 Y1.85766
G01 X-0.71001 Y1.85766
G01 X-0.70999 Y1.85887
G01 X-0.70997 Y1.85997
G01 X-0.70997 Y2.22331
G01 X-0.71006 Y2.22332
G01 X-0.71007 Y2.22332
G01 X-0.71006 Y2.22332
G01 X-0.70997 Y2.22331
G01 X-0.70912 Y2.22614
G01 X-0.70705 Y2.23388
G01 X-0.70703 Y2.23388
G01 X-0.70705 Y2.23388
G01 X-0.70608 Y2.23840
G01 X-0.70607 Y2.23839
G01 X-0.70608 Y2.23840
G01 X-0.70486 Y2.24613
G01 X-0.70485 Y2.24613
G01 X-0.70483 Y2.24613
G01 X-0.70485 Y2.24613
G01 X-0.70486 Y2.24613
G01 X-0.70442 Y2.25024
G01 X-0.70402 Y2.25798
G01 X-0.70400 Y2.25798
G01 X-0.70402 Y2.25798
G01 X-0.70402 Y2.26196
G01 X-0.70400 Y2.26196
G01 X-0.70402 Y2.26196
G01 X-0.70442 Y2.26969
G01 X-0.70486 Y2.27381
G01 X-0.70483 Y2.27381
G01 X-0.70486 Y2.27381
G01 X-0.70608 Y2.28154
G01 X-0.70705 Y2.28606
G01 X-0.70811 Y2.29003
G01 X-0.70774 Y2.29021
G01 X-0.70811 Y2.29003
G01 X-0.71042 Y2.29304
G01 X-0.71348 Y2.29662
G01 X-0.71881 Y2.30224
G01 X-0.71879 Y2.30226
G01 X-0.71881 Y2.30224
G01 X-0.72217 Y2.30542
G01 X-0.72807 Y2.31046
G01 X-0.72987 Y2.31192
G01 X-0.72969 Y2.31229
G01 X-0.72987 Y2.31192
G01 X-0.73233 Y2.31252
G01 X-0.74007 Y2.31416
G01 X-0.74435 Y2.31484
G01 X-0.74435 Y2.31486
G01 X-0.74435 Y2.31484
G01 X-0.75208 Y2.31566
G01 X-0.75610 Y2.31587
G01 X-0.75610 Y2.31588
G01 X-0.75610 Y2.31587
G01 X-0.76384 Y2.31587
G01 X-0.76785 Y2.31566
G01 X-0.76785 Y2.31567
G01 X-0.76785 Y2.31566
G01 X-0.77558 Y2.31484
G01 X-0.77986 Y2.31416
G01 X-0.77987 Y2.31418
G01 X-0.77986 Y2.31416
G01 X-0.78760 Y2.31252
G01 X-0.79243 Y2.31122
G01 X-0.79243 Y2.31124
G01 X-0.79243 Y2.31122
G01 X-0.80016 Y2.30871
G01 X-0.80587 Y2.30651
G01 X-0.80631 Y2.30631
G01 X-0.80715 Y2.30717
G01 X-0.80631 Y2.30631
G01 X-0.80911 Y2.29902
G01 X-0.80997 Y2.29663
G01 X-0.81016 Y2.29666
G01 X-0.80997 Y2.29663
G01 X-0.80997 Y2.29330
G01 X-0.80997 Y2.28437
G01 X-0.80997 Y2.28326
G01 X-0.80997 Y2.28028
G01 X-0.80997 Y2.27215
G01 X-0.80997 Y2.26911
G01 X-0.80997 Y2.26134
G01 X-0.80997 Y2.25860
G01 X-0.80997 Y2.25082
G01 X-0.80997 Y2.24779
G01 X-0.80997 Y2.23966
G01 X-0.80997 Y2.23668
G01 X-0.81041 Y2.23582
G01 X-0.81427 Y2.22912
G01 X-0.81531 Y2.22752
G01 X-0.81651 Y2.22604
G01 X-0.81677 Y2.22575
G01 X-0.81722 Y2.22588
G01 X-0.81677 Y2.22575
G01 X-0.81677 Y2.04418
G01 X-0.81721 Y2.04406
G01 X-0.81677 Y2.04418
G01 X-0.81651 Y2.04390
G01 X-0.81531 Y2.04241
G01 X-0.81427 Y2.04082
G01 X-0.81041 Y2.03412
G01 X-0.80954 Y2.03242
G01 X-0.80886 Y2.03064
G01 X-0.80647 Y2.02329
G01 X-0.80597 Y2.02145
G01 X-0.80568 Y2.01956
G01 X-0.80487 Y2.01187
G01 X-0.80477 Y2.00997
G01 X-0.80487 Y2.00807
G01 X-0.80568 Y2.00037
G01 X-0.80597 Y1.99849
G01 X-0.80647 Y1.99665
G01 X-0.80886 Y1.98930
G01 X-0.80954 Y1.98752
G01 X-0.81041 Y1.98582
G01 X-0.81427 Y1.97912
G01 X-0.81531 Y1.97752
G01 X-0.81651 Y1.97604
G01 X-0.82168 Y1.97029
G01 X-0.82303 Y1.96895
G01 X-0.82451 Y1.96775
G01 X-0.83077 Y1.96320
G01 X-0.83237 Y1.96216
G01 X-0.83407 Y1.96130
G01 X-0.83705 Y1.95997
G01 X-0.84194 Y1.95997
G01 X-0.83705 Y1.95997
G01 X-0.83407 Y1.95864
G01 X-0.83237 Y1.95777
G01 X-0.83077 Y1.95674
G01 X-0.82451 Y1.95219
G01 X-0.82303 Y1.95099
G01 X-0.82168 Y1.94964
G01 X-0.81651 Y1.94390
G01 X-0.81531 Y1.94241
G01 X-0.81427 Y1.94082
G01 X-0.81041 Y1.93412
G01 X-0.80954 Y1.93242
G01 X-0.80886 Y1.93064
G01 X-0.80647 Y1.92329
G01 X-0.80597 Y1.92145
G01 X-0.80568 Y1.91956
G01 X-0.80487 Y1.91187
G01 X-0.80477 Y1.90997
G01 X-0.80487 Y1.90807
G01 X-0.80568 Y1.90037
G01 X-0.80597 Y1.89849
G01 X-0.80647 Y1.89665
G01 X-0.80886 Y1.88930
G01 X-0.80954 Y1.88752
G01 X-0.81041 Y1.88582
G01 X-0.81265 Y1.88193
G01 X-0.81265 Y1.88193
G01 X-0.80317 Y1.88667
G01 X-0.80142 Y1.88559
G01 X-0.80317 Y1.88667
G01 X-0.80317 Y2.22576
G01 X-0.80272 Y2.22588
G01 X-0.80317 Y2.22576
G01 X-0.80343 Y2.22604
G01 X-0.80463 Y2.22752
G01 X-0.80566 Y2.22912
G01 X-0.80953 Y2.23582
G01 X-0.80997 Y2.23668
G01 X-0.80997 Y2.23557
G01 X-0.80997 Y2.22663
G01 X-0.80997 Y2.22331
G01 X-0.80997 Y2.04663
G01 X-0.81007 Y2.04662
G01 X-0.80997 Y2.04663
G01 X-0.80912 Y2.04379
G01 X-0.80705 Y2.03606
G01 X-0.80703 Y2.03606
G01 X-0.80705 Y2.03606
G01 X-0.80608 Y2.03154
G01 X-0.80486 Y2.02381
G01 X-0.80484 Y2.02381
G01 X-0.80486 Y2.02381
G01 X-0.80442 Y2.01969
G01 X-0.80402 Y2.01196
G01 X-0.80402 Y2.00798
G01 X-0.80400 Y2.00798
G01 X-0.80402 Y2.00798
G01 X-0.80442 Y2.00025
G01 X-0.80486 Y1.99613
G01 X-0.80484 Y1.99613
G01 X-0.80486 Y1.99613
G01 X-0.80608 Y1.98840
G01 X-0.80705 Y1.98388
G01 X-0.80703 Y1.98388
G01 X-0.80705 Y1.98388
G01 X-0.80912 Y1.97614
G01 X-0.81082 Y1.97092
G01 X-0.81081 Y1.97092
G01 X-0.81082 Y1.97092
G01 X-0.81379 Y1.96319
G01 X-0.81487 Y1.96060
G01 X-0.81487 Y1.96058
G01 X-0.81487 Y1.96060
G01 X-0.81379 Y1.96319
G01 X-0.81082 Y1.97092
G01 X-0.80912 Y1.97614
G01 X-0.80705 Y1.98388
G01 X-0.80608 Y1.98840
G01 X-0.80486 Y1.99613
G01 X-0.80442 Y2.00025
G01 X-0.80402 Y2.00798
G01 X-0.80402 Y2.01196
G01 X-0.80442 Y2.01969
G01 X-0.80486 Y2.02381
G01 X-0.80608 Y2.03154
G01 X-0.80705 Y2.03606
G01 X-0.80912 Y2.04379
G01 X-0.80997 Y2.04663
G01 X-0.80997 Y2.22331
G01 X-0.80997 Y2.22663
G01 X-0.80997 Y2.23557
G01 X-0.80997 Y2.23668
G01 X-0.80997 Y2.23966
G01 X-0.80997 Y2.24779
G01 X-0.80997 Y2.25082
G01 X-0.80997 Y2.25860
G01 X-0.80997 Y2.26134
G01 X-0.80997 Y2.26911
G01 X-0.80997 Y2.27215
G01 X-0.80997 Y2.28028
G01 X-0.80997 Y2.28326
G01 X-0.80997 Y2.28437
G01 X-0.80997 Y2.29330
G01 X-0.80997 Y2.29663
G01 X-0.80911 Y2.29902
G01 X-0.80631 Y2.30631
G01 X-0.80587 Y2.30651
G01 X-0.80016 Y2.30871
G01 X-0.79243 Y2.31122
G01 X-0.78760 Y2.31252
G01 X-0.77986 Y2.31416
G01 X-0.77558 Y2.31484
G01 X-0.76785 Y2.31566
G01 X-0.76384 Y2.31587
G01 X-0.75610 Y2.31587
G01 X-0.75208 Y2.31566
G01 X-0.74435 Y2.31484
G01 X-0.74007 Y2.31416
G01 X-0.73233 Y2.31252
G01 X-0.72987 Y2.31192
G01 X-0.72807 Y2.31046
G01 X-0.72217 Y2.30542
G01 X-0.71881 Y2.30224
G01 X-0.71348 Y2.29662
G01 X-0.71042 Y2.29304
G01 X-0.70811 Y2.29003
G01 X-0.70705 Y2.28606
G01 X-0.70608 Y2.28154
G01 X-0.70486 Y2.27381
G01 X-0.70442 Y2.26969
G01 X-0.70402 Y2.26196
G01 X-0.70402 Y2.25798
G01 X-0.70442 Y2.25024
G01 X-0.70486 Y2.24613
G01 X-0.70608 Y2.23840
G01 X-0.70705 Y2.23388
G01 X-0.70912 Y2.22614
G01 X-0.70997 Y2.22331
G01 X-0.70997 Y1.85997
G01 X-0.71002 Y1.85766
G01 X-0.71023 Y1.85306
G01 X-0.71067 Y1.84836
G01 X-0.71131 Y1.84375
G01 X-0.71223 Y1.83882
G01 X-0.71331 Y1.83421
G01 X-0.71484 Y1.82884
G01 X-0.71487 Y1.82877
G01 X-0.71484 Y1.82884
G01 X-0.71331 Y1.83421
G01 X-0.71223 Y1.83882
G01 X-0.71131 Y1.84375
G01 X-0.71067 Y1.84836
G01 X-0.71023 Y1.85306
G01 X-0.71002 Y1.85766
G01 X-0.70999 Y1.85887
G01 X-0.70996 Y1.85997
G01 X-0.70997 Y2.22331
G01 X-0.70912 Y2.22614
G01 X-0.70705 Y2.23388
G01 X-0.70608 Y2.23840
G01 X-0.70486 Y2.24613
G01 X-0.70442 Y2.25024
G01 X-0.70402 Y2.25798
G01 X-0.70477 Y2.25997
G01 X-0.71647 Y2.25997
G01 X-0.71650 Y2.25929
G01 X-0.71731 Y2.25160
G01 X-0.71742 Y2.25092
G01 X-0.71759 Y2.25027
G01 X-0.71998 Y2.24291
G01 X-0.72023 Y2.24228
G01 X-0.72054 Y2.24167
G01 X-0.72441 Y2.23497
G01 X-0.72477 Y2.23440
G01 X-0.72520 Y2.23387
G01 X-0.72847 Y2.23025
G01 X-0.72847 Y1.85997
G01 X-0.72850 Y1.85937
G01 X-0.72892 Y1.85478
G01 X-0.72914 Y1.85361
G01 X-0.73040 Y1.84917
G01 X-0.73083 Y1.84806
G01 X-0.73288 Y1.84393
G01 X-0.73351 Y1.84291
G01 X-0.73628 Y1.83923
G01 X-0.73709 Y1.83835
G01 X-0.74049 Y1.83524
G01 X-0.74144 Y1.83452
G01 X-0.74536 Y1.83209
G01 X-0.74588 Y1.83179
G01 X-0.81927 Y1.79510
G01 X-0.81998 Y1.79291
G01 X-0.82023 Y1.79228
G01 X-0.82054 Y1.79167
G01 X-0.82441 Y1.78497
G01 X-0.82478 Y1.78440
G01 X-0.82520 Y1.78387
G01 X-0.83038 Y1.77812
G01 X-0.83086 Y1.77764
G01 X-0.83139 Y1.77721
G01 X-0.83765 Y1.77267
G01 X-0.83822 Y1.77230
G01 X-0.83882 Y1.77199
G01 X-0.84589 Y1.76884
G01 X-0.84653 Y1.76860
G01 X-0.84718 Y1.76842
G01 X-0.85475 Y1.76681
G01 X-0.85542 Y1.76671
G01 X-0.85610 Y1.76667
G01 X-0.86384 Y1.76667
G01 X-0.86451 Y1.76671
G01 X-0.86519 Y1.76681
G01 X-0.87275 Y1.76842
G01 X-0.87341 Y1.76860
G01 X-0.87405 Y1.76884
G01 X-0.88111 Y1.77199
G01 X-0.88172 Y1.77230
G01 X-0.88229 Y1.77267
G01 X-0.88855 Y1.77721
G01 X-0.88908 Y1.77764
G01 X-0.88956 Y1.77812
G01 X-0.89473 Y1.78387
G01 X-0.89516 Y1.78440
G01 X-0.89553 Y1.78497
G01 X-0.89940 Y1.79167
G01 X-0.89971 Y1.79228
G01 X-0.89995 Y1.79291
G01 X-0.90234 Y1.80027
G01 X-0.90252 Y1.80092
G01 X-0.90262 Y1.80160
G01 X-0.90343 Y1.80929
G01 X-0.90347 Y1.80997
G01 X-0.90343 Y1.81065
G01 X-0.90262 Y1.81834
G01 X-0.90252 Y1.81901
G01 X-0.90234 Y1.81967
G01 X-0.89995 Y1.82703
G01 X-0.89971 Y1.82766
G01 X-0.89940 Y1.82827
G01 X-0.89553 Y1.83497
G01 X-0.89516 Y1.83554
G01 X-0.89473 Y1.83607
G01 X-0.88956 Y1.84181
G01 X-0.88908 Y1.84230
G01 X-0.88855 Y1.84272
G01 X-0.88229 Y1.84727
G01 X-0.88172 Y1.84764
G01 X-0.88111 Y1.84795
G01 X-0.87405 Y1.85110
G01 X-0.87341 Y1.85134
G01 X-0.87275 Y1.85152
G01 X-0.86519 Y1.85312
G01 X-0.86451 Y1.85323
G01 X-0.86384 Y1.85327
G01 X-0.85610 Y1.85327
G01 X-0.85542 Y1.85323
G01 X-0.85475 Y1.85312
G01 X-0.84727 Y1.85154
G01 X-0.79147 Y1.87944
G01 X-0.79147 Y2.23025
G01 X-0.79473 Y2.23387
G01 X-0.79516 Y2.23440
G01 X-0.79553 Y2.23497
G01 X-0.79940 Y2.24167
G01 X-0.79971 Y2.24228
G01 X-0.79995 Y2.24291
G01 X-0.80234 Y2.25027
G01 X-0.80252 Y2.25092
G01 X-0.80262 Y2.25160
G01 X-0.80343 Y2.25929
G01 X-0.80347 Y2.25997
G01 X-0.80343 Y2.26065
G01 X-0.80262 Y2.26834
G01 X-0.80252 Y2.26901
G01 X-0.80234 Y2.26967
G01 X-0.79995 Y2.27703
G01 X-0.79971 Y2.27766
G01 X-0.79940 Y2.27827
G01 X-0.79553 Y2.28497
G01 X-0.79516 Y2.28554
G01 X-0.79473 Y2.28607
G01 X-0.78956 Y2.29181
G01 X-0.78908 Y2.29230
G01 X-0.78855 Y2.29272
G01 X-0.78229 Y2.29727
G01 X-0.78172 Y2.29764
G01 X-0.78111 Y2.29795
G01 X-0.77405 Y2.30110
G01 X-0.77341 Y2.30134
G01 X-0.77275 Y2.30152
G01 X-0.76519 Y2.30312
G01 X-0.76451 Y2.30323
G01 X-0.76384 Y2.30327
G01 X-0.75610 Y2.30327
G01 X-0.75542 Y2.30323
G01 X-0.75475 Y2.30312
G01 X-0.74718 Y2.30152
G01 X-0.74652 Y2.30134
G01 X-0.74589 Y2.30110
G01 X-0.73882 Y2.29795
G01 X-0.73822 Y2.29764
G01 X-0.73765 Y2.29727
G01 X-0.73139 Y2.29272
G01 X-0.73086 Y2.29230
G01 X-0.73038 Y2.29181
G01 X-0.72520 Y2.28607
G01 X-0.72477 Y2.28554
G01 X-0.72441 Y2.28497
G01 X-0.72054 Y2.27827
G01 X-0.72023 Y2.27766
G01 X-0.71998 Y2.27703
G01 X-0.71759 Y2.26967
G01 X-0.71742 Y2.26901
G01 X-0.71731 Y2.26834
G01 X-0.71650 Y2.26065
G01 X-0.71647 Y2.25997
G04 P0 ( dwell for no time -- G64 should not smooth over this point )
G00 Z0.05000 ( retract )

G00 X-0.75997 Y1.66659 ( rapid move to begin. )
G01 F1.00000
( Mill infeed pass 1/1 )
G01 Z-0.00600
G04 P0 ( dwell for no time -- G64 should not smooth over this point )
G01 F20.00000
G01 X-0.75997 Y1.66659
G01 X-0.75997 Y1.65335
G01 X-0.75997 Y1.65328
G01 X-0.75497 Y1.64859
G01 X-0.75267 Y1.64634
G01 X-0.75260 Y1.64627
G01 X-0.74846 Y1.64221
G01 X-0.74827 Y1.64202
G01 X-0.74465 Y1.63848
G01 X-0.74313 Y1.63702
G01 X-0.74253 Y1.63646
G01 X-0.73702 Y1.63087
G01 X-0.73631 Y1.63008
G01 X-0.73441 Y1.62806
G01 X-0.73031 Y1.62382
G01 X-0.72910 Y1.62255
G01 X-0.72853 Y1.62194
G01 X-0.72853 Y1.62193
G01 X-0.72732 Y1.62063
G01 X-0.72496 Y1.61798
G01 X-0.71917 Y1.61186
G01 X-0.71918 Y1.61185
G01 X-0.71917 Y1.61186
G01 X-0.71355 Y1.60652
G01 X-0.71356 Y1.60650
G01 X-0.71355 Y1.60652
G01 X-0.70741 Y1.60126
G01 X-0.70741 Y1.60124
G01 X-0.70741 Y1.60126
G01 X-0.70127 Y1.59654
G01 X-0.70128 Y1.59653
G01 X-0.70127 Y1.59654
G01 X-0.69452 Y1.59189
G01 X-0.69452 Y1.59188
G01 X-0.69452 Y1.59189
G01 X-0.68787 Y1.58780
G01 X-0.68250 Y1.58488
G01 X-0.68199 Y1.58461
G01 X-0.68015 Y1.58361
G01 X-0.67297 Y1.58018
G01 X-0.66384 Y1.57639
G01 X-0.65610 Y1.57364
G01 X-0.64671 Y1.57086
G01 X-0.64670 Y1.57086
G01 X-0.51688 Y1.46529
G01 X-0.51334 Y1.46214
G01 X-0.51143 Y1.46029
G01 X-0.50527 Y1.45312
G01 X-0.50372 Y1.45096
G01 X-0.49892 Y1.44281
G01 X-0.49777 Y1.44041
G01 X-0.49448 Y1.43154
G01 X-0.49378 Y1.42898
G01 X-0.49211 Y1.41967
G01 X-0.49201 Y1.41854
G01 X-0.49229 Y1.41842
G01 X-0.49201 Y1.41854
G01 X-0.49097 Y1.41738
G01 X-0.48746 Y1.41305
G01 X-0.48442 Y1.40837
G01 X-0.48055 Y1.40167
G01 X-0.47802 Y1.39670
G01 X-0.47602 Y1.39149
G01 X-0.47363 Y1.38413
G01 X-0.47218 Y1.37874
G01 X-0.47131 Y1.37323
G01 X-0.47050 Y1.36554
G01 X-0.47021 Y1.35997
G01 X-0.47050 Y1.35440
G01 X-0.47131 Y1.34670
G01 X-0.47218 Y1.34119
G01 X-0.47363 Y1.33581
G01 X-0.47602 Y1.32845
G01 X-0.47802 Y1.32324
G01 X-0.48055 Y1.31827
G01 X-0.48167 Y1.31634
G01 X-0.48195 Y1.31640
G01 X-0.48167 Y1.31634
G01 X-0.48167 Y1.00997
G01 X-0.48192 Y1.00474
G01 X-0.48241 Y0.99987
G01 X-0.48317 Y0.99469
G01 X-0.48444 Y0.98962
G01 X-0.48587 Y0.98493
G01 X-0.48986 Y0.97528
G01 X-0.49217 Y0.97095
G01 X-0.49486 Y0.96647
G01 X-0.49798 Y0.96227
G01 X-0.50109 Y0.95848
G01 X-0.50460 Y0.95460
G01 X-1.05460 Y0.40460
G01 X-1.05848 Y0.40109
G01 X-1.06227 Y0.39798
G01 X-1.06647 Y0.39486
G01 X-1.07095 Y0.39218
G01 X-1.07528 Y0.38987
G01 X-1.08000 Y0.38763
G01 X-1.08493 Y0.38587
G01 X-1.08962 Y0.38444
G01 X-1.09987 Y0.38241
G01 X-1.10474 Y0.38193
G01 X-1.10997 Y0.38167
G01 X-1.41501 Y0.38167
G01 X-1.41506 Y0.38192
G01 X-1.41501 Y0.38167
G01 X-1.41979 Y0.37923
G01 X-1.42686 Y0.37609
G01 X-1.43206 Y0.37409
G01 X-1.43745 Y0.37264
G01 X-1.44502 Y0.37104
G01 X-1.45053 Y0.37016
G01 X-1.45610 Y0.36987
G01 X-1.46384 Y0.36987
G01 X-1.46941 Y0.37016
G01 X-1.47492 Y0.37104
G01 X-1.48248 Y0.37264
G01 X-1.48787 Y0.37409
G01 X-1.49308 Y0.37609
G01 X-1.50015 Y0.37923
G01 X-1.50512 Y0.38177
G01 X-1.50980 Y0.38481
G01 X-1.50997 Y0.38493
G01 X-1.50997 Y0.39773
G01 X-1.50997 Y0.39946
G01 X-1.50997 Y0.40974
G01 X-1.50997 Y0.41582
G01 X-1.50997 Y0.42015
G01 X-1.50997 Y0.42663
G01 X-1.50997 Y0.43557
G01 X-1.50997 Y0.43668
G01 X-1.50997 Y0.43966
G01 X-1.50997 Y0.44779
G01 X-1.50997 Y0.45082
G01 X-1.50997 Y0.45860
G01 X-1.50997 Y0.46134
G01 X-1.50997 Y0.46911
G01 X-1.50997 Y0.47215
G01 X-1.50997 Y0.48028
G01 X-1.50997 Y0.48326
G01 X-1.50997 Y0.48437
G01 X-1.50997 Y0.49330
G01 X-1.50997 Y0.49979
G01 X-1.50997 Y0.50412
G01 X-1.50911 Y0.50507
G01 X-1.50911 Y0.50507
G01 X-1.50587 Y0.50651
G01 X-1.50911 Y0.50507
G01 X-1.50997 Y0.50469
G01 X-1.50997 Y0.50412
G01 X-1.50997 Y0.50469
G01 X-1.51082 Y0.50507
G01 X-1.51083 Y0.50507
G01 X-1.51406 Y0.50651
G01 X-1.51978 Y0.50871
G01 X-1.52751 Y0.51122
G01 X-1.52751 Y0.51124
G01 X-1.52751 Y0.51122
G01 X-1.53233 Y0.51252
G01 X-1.54007 Y0.51416
G01 X-1.54007 Y0.51418
G01 X-1.54007 Y0.51416
G01 X-1.54435 Y0.51484
G01 X-1.55209 Y0.51566
G01 X-1.55208 Y0.51568
G01 X-1.55209 Y0.51566
G01 X-1.55610 Y0.51587
G01 X-1.56384 Y0.51587
G01 X-1.56384 Y0.51588
G01 X-1.56384 Y0.51587
G01 X-1.56785 Y0.51566
G01 X-1.56785 Y0.51568
G01 X-1.56785 Y0.51566
G01 X-1.57558 Y0.51484
G01 X-1.57559 Y0.51486
G01 X-1.57558 Y0.51484
G01 X-1.57986 Y0.51416
G01 X-1.57987 Y0.51418
G01 X-1.57986 Y0.51416
G01 X-1.58760 Y0.51252
G01 X-1.58760 Y0.51253
G01 X-1.58760 Y0.51252
G01 X-1.59243 Y0.51122
G01 X-1.60016 Y0.50871
G01 X-1.60016 Y0.50872
G01 X-1.60016 Y0.50871
G01 X-1.60587 Y0.50651
G01 X-1.60911 Y0.50507
G01 X-1.60997 Y0.50469
G01 X-1.60997 Y0.50412
G01 X-1.60911 Y0.50507
G01 X-1.60911 Y0.50507
G01 X-1.60587 Y0.50651
G01 X-1.60911 Y0.50507
G01 X-1.61083 Y0.50507
G01 X-1.61406 Y0.50651
G01 X-1.61978 Y0.50871
G01 X-1.62751 Y0.51122
G01 X-1.62750 Y0.51124
G01 X-1.62751 Y0.51122
G01 X-1.63233 Y0.51252
G01 X-1.64007 Y0.51416
G01 X-1.64007 Y0.51418
G01 X-1.64007 Y0.51416
G01 X-1.64435 Y0.51484
G01 X-1.65209 Y0.51566
G01 X-1.65208 Y0.51567
G01 X-1.65209 Y0.51566
G01 X-1.65610 Y0.51587
G01 X-1.66384 Y0.51587
G01 X-1.66384 Y0.51588
G01 X-1.66384 Y0.51587
G01 X-1.66785 Y0.51566
G01 X-1.67558 Y0.51484
G01 X-1.67559 Y0.51486
G01 X-1.67558 Y0.51484
G01 X-1.67986 Y0.51416
G01 X-1.68760 Y0.51252
G01 X-1.68760 Y0.51253
G01 X-1.68760 Y0.51252
G01 X-1.69243 Y0.51122
G01 X-1.70016 Y0.50871
G01 X-1.70016 Y0.50872
G01 X-1.70016 Y0.50871
G01 X-1.70587 Y0.50651
G01 X-1.70911 Y0.50507
G01 X-1.70997 Y0.50469
G01 X-1.70997 Y0.50412
G01 X-1.70911 Y0.50507
G01 X-1.70911 Y0.50507
G01 X-1.70587 Y0.50651
G01 X-1.70911 Y0.50507
G01 X-1.71083 Y0.50507
G01 X-1.71406 Y0.50651
G01 X-1.71978 Y0.50871
G01 X-1.72751 Y0.51122
G01 X-1.72751 Y0.51124
G01 X-1.72751 Y0.51122
G01 X-1.73233 Y0.51252
G01 X-1.74007 Y0.51416
G01 X-1.74007 Y0.51418
G01 X-1.74007 Y0.51416
G01 X-1.74435 Y0.51484
G01 X-1.75209 Y0.51566
G01 X-1.75208 Y0.51567
G01 X-1.75209 Y0.51566
G01 X-1.75610 Y0.51587
G01 X-1.76384 Y0.51587
G01 X-1.76384 Y0.51588
G01 X-1.76384 Y0.51587
G01 X-1.76785 Y0.51566
G01 X-1.77558 Y0.51484
G01 X-1.77559 Y0.51486
G01 X-1.77558 Y0.51484
G01 X-1.77986 Y0.51416
G01 X-1.78760 Y0.51252
G01 X-1.78760 Y0.51253
G01 X-1.78760 Y0.51252
G01 X-1.79243 Y0.51122
G01 X-1.80016 Y0.50871
G01 X-1.80016 Y0.50872
G01 X-1.80016 Y0.50871
G01 X-1.80587 Y0.50651
G01 X-1.80911 Y0.50507
G01 X-1.80911 Y0.50507
G01 X-1.80997 Y0.50469
G01 X-1.80997 Y0.50412
G01 X-1.80911 Y0.50507
G01 X-1.80911 Y0.50507
G01 X-1.80997 Y0.50507
G01 X-1.81086 Y0.50511
G01 X-1.81086 Y0.50511
G01 X-1.81282 Y0.50604
G01 X-1.81395 Y0.50661
G01 X-1.81753 Y0.50827
G01 X-1.81949 Y0.50911
G01 X-1.82243 Y0.51046
G01 X-1.82657 Y0.51252
G01 X-1.82688 Y0.51267
G01 X-1.83130 Y0.51483
G01 X-1.83572 Y0.51699
G01 X-1.83823 Y0.51831
G01 X-1.84012 Y0.51937
G01 X-1.84306 Y0.52090
G01 X-1.84460 Y0.52164
G01 X-1.84705 Y0.52289
G01 X-1.85018 Y0.52460
G01 X-1.85411 Y0.52647
G01 X-1.85610 Y0.52742
G01 X-1.86383 Y0.53063
G01 X-1.86383 Y0.53061
G01 X-1.86383 Y0.53063
G01 X-1.87161 Y0.53336
G01 X-1.88005 Y0.53586
G01 X-1.88005 Y0.53586
G01 X-1.89065 Y0.53839
G01 X-1.89988 Y0.54009
G01 X-1.90099 Y0.54025
G01 X-1.90102 Y0.54026
G01 X-1.90997 Y0.54157
G01 X-1.91705 Y0.54683
G01 X-1.92064 Y0.54930
G01 X-1.92352 Y0.55133
G01 X-1.92423 Y0.55186
G01 X-1.92408 Y0.55227
G01 X-1.92423 Y0.55186
G01 X-1.93622 Y0.55311
G01 X-1.93635 Y0.55312
G01 X-1.94395 Y0.55392
G01 X-1.95610 Y0.55456
G01 X-1.95610 Y0.55458
G01 X-1.95610 Y0.55456
G01 X-1.96384 Y0.55456
G01 X-1.97598 Y0.55392
G01 X-1.98359 Y0.55312
G01 X-1.98372 Y0.55311
G01 X-1.99661 Y0.55176
G01 X-2.00200 Y0.55131
G01 X-2.00201 Y0.55134
G01 X-2.00200 Y0.55131
G01 X-2.00463 Y0.55076
G01 X-2.00745 Y0.55009
G01 X-2.00745 Y0.55009
G01 X-2.00759 Y0.55006
G01 X-2.00745 Y0.55009
G01 X-2.00745 Y0.55009
G01 X-2.00745 Y0.55010
G01 X-2.00463 Y0.55076
G01 X-2.00200 Y0.55131
G01 X-1.99661 Y0.55176
G01 X-1.98372 Y0.55311
G01 X-1.98359 Y0.55312
G01 X-1.97598 Y0.55392
G01 X-1.96384 Y0.55456
G01 X-1.95610 Y0.55456
G01 X-1.94395 Y0.55392
G01 X-1.93635 Y0.55312
G01 X-1.93622 Y0.55311
G01 X-1.92423 Y0.55186
G01 X-1.92352 Y0.55133
G01 X-1.92064 Y0.54930
G01 X-1.91705 Y0.54683
G01 X-1.90997 Y0.54157
G01 X-1.90102 Y0.54026
G01 X-1.90099 Y0.54025
G01 X-1.89988 Y0.54009
G01 X-1.89065 Y0.53839
G01 X-1.88005 Y0.53586
G01 X-1.88005 Y0.53586
G01 X-1.87161 Y0.53336
G01 X-1.86383 Y0.53061
G01 X-1.85610 Y0.52742
G01 X-1.85411 Y0.52647
G01 X-1.85018 Y0.52460
G01 X-1.84705 Y0.52289
G01 X-1.84460 Y0.52164
G01 X-1.84306 Y0.52090
G01 X-1.84012 Y0.51937
G01 X-1.83823 Y0.51831
G01 X-1.83572 Y0.51699
G01 X-1.83130 Y0.51483
G01 X-1.82688 Y0.51267
G01 X-1.82657 Y0.51252
G01 X-1.82243 Y0.51046
G01 X-1.81949 Y0.50911
G01 X-1.81753 Y0.50827
G01 X-1.81395 Y0.50661
G01 X-1.81282 Y0.50604
G01 X-1.81086 Y0.50511
G01 X-1.81086 Y0.50511
G01 X-1.80997 Y0.50412
G01 X-1.80997 Y0.49979
G01 X-1.80997 Y0.49330
G01 X-1.80997 Y0.48437
G01 X-1.80997 Y0.48326
G01 X-1.80997 Y0.48028
G01 X-1.80997 Y0.47215
G01 X-1.80997 Y0.46911
G01 X-1.80997 Y0.46134
G01 X-1.80997 Y0.45860
G01 X-1.80997 Y0.45082
G01 X-1.80997 Y0.44779
G01 X-1.80997 Y0.43966
G01 X-1.80997 Y0.43668
G01 X-1.80997 Y0.43557
G01 X-1.80997 Y0.42663
G01 X-1.80997 Y0.42015
G01 X-1.80997 Y0.41582
G01 X-1.80997 Y0.40974
G01 X-1.80997 Y0.39946
G01 X-1.80997 Y0.39773
G01 X-1.80997 Y0.38493
G01 X-1.80997 Y0.38457
G01 X-1.80997 Y0.37112
G01 X-1.80997 Y0.35801
G01 X-1.80966 Y0.35786
G01 X-1.80260 Y0.35471
G01 X-1.79510 Y0.35183
G01 X-1.78735 Y0.34976
G01 X-1.77978 Y0.34815
G01 X-1.77185 Y0.34689
G01 X-1.76384 Y0.34647
G01 X-1.75610 Y0.34647
G01 X-1.74808 Y0.34689
G01 X-1.74015 Y0.34815
G01 X-1.73259 Y0.34976
G01 X-1.72483 Y0.35183
G01 X-1.71734 Y0.35471
G01 X-1.71027 Y0.35786
G01 X-1.70997 Y0.35801
G01 X-1.70966 Y0.35786
G01 X-1.70260 Y0.35471
G01 X-1.69510 Y0.35183
G01 X-1.68735 Y0.34976
G01 X-1.67978 Y0.34815
G01 X-1.67185 Y0.34689
G01 X-1.66384 Y0.34647
G01 X-1.65610 Y0.34647
G01 X-1.64808 Y0.34689
G01 X-1.64015 Y0.34815
G01 X-1.63259 Y0.34976
G01 X-1.62483 Y0.35183
G01 X-1.61734 Y0.35471
G01 X-1.61027 Y0.35786
G01 X-1.60997 Y0.35801
G01 X-1.60966 Y0.35786
G01 X-1.60260 Y0.35471
G01 X-1.59510 Y0.35183
G01 X-1.58735 Y0.34976
G01 X-1.57978 Y0.34815
G01 X-1.57185 Y0.34689
G01 X-1.56384 Y0.34647
G01 X-1.55610 Y0.34647
G01 X-1.54808 Y0.34689
G01 X-1.54015 Y0.34815
G01 X-1.53259 Y0.34976
G01 X-1.52483 Y0.35183
G01 X-1.51734 Y0.35471
G01 X-1.51027 Y0.35786
G01 X-1.50997 Y0.35801
G01 X-1.50966 Y0.35786
G01 X-1.50260 Y0.35471
G01 X-1.49510 Y0.35183
G01 X-1.48735 Y0.34976
G01 X-1.47978 Y0.34815
G01 X-1.47185 Y0.34689
G01 X-1.46384 Y0.34647
G01 X-1.45610 Y0.34647
G01 X-1.44808 Y0.34689
G01 X-1.44015 Y0.34815
G01 X-1.43259 Y0.34976
G01 X-1.42483 Y0.35183
G01 X-1.41734 Y0.35471
G01 X-1.41027 Y0.35786
G01 X-1.40946 Y0.35827
G01 X-1.40951 Y0.35850
G01 X-1.40946 Y0.35827
G01 X-1.10997 Y0.35827
G01 X-1.10245 Y0.35864
G01 X-1.09757 Y0.35912
G01 X-1.08283 Y0.36205
G01 X-1.07814 Y0.36347
G01 X-1.07105 Y0.36601
G01 X-1.06424 Y0.36923
G01 X-1.05992 Y0.37154
G01 X-1.05347 Y0.37541
G01 X-1.04742 Y0.37989
G01 X-1.04363 Y0.38300
G01 X-1.03806 Y0.38806
G01 X-0.48806 Y0.93806
G01 X-0.48300 Y0.94363
G01 X-0.47989 Y0.94742
G01 X-0.47541 Y0.95347
G01 X-0.47154 Y0.95992
G01 X-0.46923 Y0.96425
G01 X-0.46347 Y0.97814
G01 X-0.46205 Y0.98283
G01 X-0.46022 Y0.99013
G01 X-0.45912 Y0.99757
G01 X-0.45864 Y1.00245
G01 X-0.45827 Y1.00997
G01 X-0.45827 Y1.31053
G01 X-0.45850 Y1.31058
G01 X-0.45827 Y1.31053
G01 X-0.45664 Y1.31372
G01 X-0.45376 Y1.32122
G01 X-0.45137 Y1.32857
G01 X-0.44930 Y1.33633
G01 X-0.44804 Y1.34426
G01 X-0.44723 Y1.35195
G01 X-0.44681 Y1.35997
G01 X-0.45851 Y1.35997
G01 X-0.47021 Y1.35997
G01 X-0.48191 Y1.35997
G01 X-0.49361 Y1.35997
G01 X-0.50531 Y1.35997
G01 X-0.51701 Y1.35997
G01 X-0.51705 Y1.35929
G01 X-0.51786 Y1.35160
G01 X-0.51796 Y1.35092
G01 X-0.51814 Y1.35027
G01 X-0.52053 Y1.34291
G01 X-0.52077 Y1.34228
G01 X-0.52108 Y1.34167
G01 X-0.52495 Y1.33497
G01 X-0.52532 Y1.33440
G01 X-0.52575 Y1.33387
G01 X-0.52847 Y1.33085
G01 X-0.52847 Y1.00997
G01 X-0.52850 Y1.00933
G01 X-0.52898 Y1.00445
G01 X-0.52907 Y1.00382
G01 X-0.52923 Y1.00320
G01 X-0.53065 Y0.99852
G01 X-0.53087 Y0.99791
G01 X-0.53114 Y0.99734
G01 X-0.53345 Y0.99302
G01 X-0.53416 Y0.99196
G01 X-0.53727 Y0.98817
G01 X-0.53769 Y0.98770
G01 X-1.08769 Y0.43770
G01 X-1.08817 Y0.43727
G01 X-1.09196 Y0.43416
G01 X-1.09247 Y0.43378
G01 X-1.09301 Y0.43345
G01 X-1.09734 Y0.43114
G01 X-1.09791 Y0.43087
G01 X-1.09851 Y0.43065
G01 X-1.10320 Y0.42923
G01 X-1.10445 Y0.42898
G01 X-1.10933 Y0.42850
G01 X-1.10997 Y0.42847
G01 X-1.43007 Y0.42847
G01 X-1.43038 Y0.42812
G01 X-1.43086 Y0.42764
G01 X-1.43139 Y0.42721
G01 X-1.43765 Y0.42267
G01 X-1.43822 Y0.42230
G01 X-1.43882 Y0.42199
G01 X-1.44589 Y0.41884
G01 X-1.44653 Y0.41860
G01 X-1.44718 Y0.41842
G01 X-1.45475 Y0.41681
G01 X-1.45542 Y0.41671
G01 X-1.45610 Y0.41667
G01 X-1.46384 Y0.41667
G01 X-1.46451 Y0.41671
G01 X-1.46519 Y0.41681
G01 X-1.47275 Y0.41842
G01 X-1.47341 Y0.41860
G01 X-1.47405 Y0.41884
G01 X-1.48111 Y0.42199
G01 X-1.48172 Y0.42230
G01 X-1.48229 Y0.42267
G01 X-1.48855 Y0.42721
G01 X-1.48908 Y0.42764
G01 X-1.48956 Y0.42812
G01 X-1.49473 Y0.43387
G01 X-1.49516 Y0.43440
G01 X-1.49553 Y0.43497
G01 X-1.49940 Y0.44167
G01 X-1.49971 Y0.44228
G01 X-1.49995 Y0.44291
G01 X-1.50234 Y0.45027
G01 X-1.50252 Y0.45092
G01 X-1.50262 Y0.45160
G01 X-1.50343 Y0.45929
G01 X-1.50347 Y0.45997
G01 X-1.50343 Y0.46065
G01 X-1.50262 Y0.46834
G01 X-1.50252 Y0.46901
G01 X-1.50234 Y0.46967
G01 X-1.49995 Y0.47703
G01 X-1.49971 Y0.47766
G01 X-1.49940 Y0.47827
G01 X-1.49553 Y0.48497
G01 X-1.49516 Y0.48554
G01 X-1.49473 Y0.48607
G01 X-1.48956 Y0.49181
G01 X-1.48908 Y0.49230
G01 X-1.48855 Y0.49272
G01 X-1.48229 Y0.49727
G01 X-1.48172 Y0.49764
G01 X-1.48111 Y0.49795
G01 X-1.47405 Y0.50110
G01 X-1.47341 Y0.50134
G01 X-1.47275 Y0.50152
G01 X-1.46519 Y0.50312
G01 X-1.46451 Y0.50323
G01 X-1.46384 Y0.50327
G01 X-1.45610 Y0.50327
G01 X-1.45542 Y0.50323
G01 X-1.45475 Y0.50312
G01 X-1.44718 Y0.50152
G01 X-1.44653 Y0.50134
G01 X-1.44589 Y0.50110
G01 X-1.43882 Y0.49795
G01 X-1.43822 Y0.49764
G01 X-1.43765 Y0.49727
G01 X-1.43139 Y0.49272
G01 X-1.43086 Y0.49230
G01 X-1.43038 Y0.49181
G01 X-1.43007 Y0.49147
G01 X-1.12302 Y0.49147
G01 X-0.59147 Y1.02302
G01 X-0.59147 Y1.32964
G01 X-0.59528 Y1.33387
G01 X-0.59570 Y1.33440
G01 X-0.59607 Y1.33497
G01 X-0.59994 Y1.34167
G01 X-0.60025 Y1.34228
G01 X-0.60049 Y1.34291
G01 X-0.60288 Y1.35027
G01 X-0.60306 Y1.35092
G01 X-0.60317 Y1.35160
G01 X-0.60397 Y1.35929
G01 X-0.60401 Y1.35997
G01 X-0.60397 Y1.36065
G01 X-0.60317 Y1.36834
G01 X-0.60306 Y1.36901
G01 X-0.60288 Y1.36967
G01 X-0.60049 Y1.37703
G01 X-0.60025 Y1.37766
G01 X-0.59994 Y1.37827
G01 X-0.59607 Y1.38497
G01 X-0.59570 Y1.38554
G01 X-0.59528 Y1.38607
G01 X-0.59010 Y1.39181
G01 X-0.58962 Y1.39230
G01 X-0.58909 Y1.39272
G01 X-0.58283 Y1.39727
G01 X-0.58226 Y1.39764
G01 X-0.58166 Y1.39795
G01 X-0.58147 Y1.39803
G01 X-0.58147 Y1.40207
G01 X-0.76761 Y1.55343
G01 X-0.83108 Y1.55343
G01 X-0.83175 Y1.55262
G01 X-0.83273 Y1.55181
G01 X-0.83386 Y1.55121
G01 X-0.83508 Y1.55084
G01 X-0.83635 Y1.55071
G01 X-0.88359 Y1.55071
G01 X-0.88486 Y1.55084
G01 X-0.88608 Y1.55121
G01 X-0.88720 Y1.55181
G01 X-0.88819 Y1.55262
G01 X-0.88885 Y1.55343
G01 X-1.13108 Y1.55343
G01 X-1.13175 Y1.55262
G01 X-1.13273 Y1.55181
G01 X-1.13386 Y1.55121
G01 X-1.13508 Y1.55084
G01 X-1.13635 Y1.55071
G01 X-1.18359 Y1.55071
G01 X-1.18486 Y1.55084
G01 X-1.18608 Y1.55121
G01 X-1.18720 Y1.55181
G01 X-1.18819 Y1.55262
G01 X-1.18885 Y1.55343
G01 X-1.33108 Y1.55343
G01 X-1.33175 Y1.55262
G01 X-1.33273 Y1.55181
G01 X-1.33386 Y1.55121
G01 X-1.33508 Y1.55084
G01 X-1.33635 Y1.55071
G01 X-1.38359 Y1.55071
G01 X-1.38486 Y1.55084
G01 X-1.38608 Y1.55121
G01 X-1.38720 Y1.55181
G01 X-1.38819 Y1.55262
G01 X-1.38885 Y1.55343
G01 X-1.53108 Y1.55343
G01 X-1.53175 Y1.55262
G01 X-1.53273 Y1.55181
G01 X-1.53386 Y1.55121
G01 X-1.53508 Y1.55084
G01 X-1.53635 Y1.55071
G01 X-1.58359 Y1.55071
G01 X-1.58486 Y1.55084
G01 X-1.58608 Y1.55121
G01 X-1.58720 Y1.55181
G01 X-1.58819 Y1.55262
G01 X-1.58885 Y1.55343
G01 X-1.73108 Y1.55343
G01 X-1.73175 Y1.55262
G01 X-1.73273 Y1.55181
G01 X-1.73386 Y1.55121
G01 X-1.73508 Y1.55084
G01 X-1.73635 Y1.55071
G01 X-1.78359 Y1.55071
G01 X-1.78486 Y1.55084
G01 X-1.78608 Y1.55121
G01 X-1.78720 Y1.55181
G01 X-1.78819 Y1.55262
G01 X-1.78885 Y1.55343
G01 X-1.93108 Y1.55343
G01 X-1.93175 Y1.55262
G01 X-1.93273 Y1.55181
G01 X-1.93386 Y1.55121
G01 X-1.93508 Y1.55084
G01 X-1.93635 Y1.55071
G01 X-1.98359 Y1.55071
G01 X-1.98486 Y1.55084
G01 X-1.98608 Y1.55121
G01 X-1.98720 Y1.55181
G01 X-1.98819 Y1.55262
G01 X-1.98885 Y1.55343
G01 X-2.23108 Y1.55343
G01 X-2.23175 Y1.55262
G01 X-2.23273 Y1.55181
G01 X-2.23386 Y1.55121
G01 X-2.23508 Y1.55084
G01 X-2.23635 Y1.55071
G01 X-2.28359 Y1.55071
G01 X-2.28486 Y1.55084
G01 X-2.28608 Y1.55121
G01 X-2.28720 Y1.55181
G01 X-2.28819 Y1.55262
G01 X-2.28885 Y1.55343
G01 X-2.43108 Y1.55343
G01 X-2.43175 Y1.55262
G01 X-2.43273 Y1.55181
G01 X-2.43386 Y1.55121
G01 X-2.43508 Y1.55084
G01 X-2.43635 Y1.55071
G01 X-2.48359 Y1.55071
G01 X-2.48486 Y1.55084
G01 X-2.48608 Y1.55121
G01 X-2.48720 Y1.55181
G01 X-2.48819 Y1.55262
G01 X-2.48885 Y1.55343
G01 X-2.63108 Y1.55343
G01 X-2.63175 Y1.55262
G01 X-2.63273 Y1.55181
G01 X-2.63386 Y1.55121
G01 X-2.63508 Y1.55084
G01 X-2.63635 Y1.55071
G01 X-2.68359 Y1.55071
G01 X-2.68486 Y1.55084
G01 X-2.68608 Y1.55121
G01 X-2.68720 Y1.55181
G01 X-2.68819 Y1.55262
G01 X-2.68885 Y1.55343
G01 X-2.83108 Y1.55343
G01 X-2.83175 Y1.55262
G01 X-2.83273 Y1.55181
G01 X-2.83386 Y1.55121
G01 X-2.83508 Y1.55084
G01 X-2.83635 Y1.55071
G01 X-2.88359 Y1.55071
G01 X-2.88486 Y1.55084
G01 X-2.88608 Y1.55121
G01 X-2.88720 Y1.55181
G01 X-2.88819 Y1.55262
G01 X-2.88885 Y1.55343
G01 X-3.13108 Y1.55343
G01 X-3.13175 Y1.55262
G01 X-3.13273 Y1.55181
G01 X-3.13386 Y1.55121
G01 X-3.13508 Y1.55084
G01 X-3.13635 Y1.55071
G01 X-3.18359 Y1.55071
G01 X-3.18486 Y1.55084
G01 X-3.18608 Y1.55121
G01 X-3.18720 Y1.55181
G01 X-3.18819 Y1.55262
G01 X-3.18885 Y1.55343
G01 X-3.33108 Y1.55343
G01 X-3.33175 Y1.55262
G01 X-3.33273 Y1.55181
G01 X-3.33386 Y1.55121
G01 X-3.33508 Y1.55084
G01 X-3.33635 Y1.55071
G01 X-3.38359 Y1.55071
G01 X-3.38486 Y1.55084
G01 X-3.38608 Y1.55121
G01 X-3.38720 Y1.55181
G01 X-3.38819 Y1.55262
G01 X-3.38885 Y1.55343
G01 X-3.53108 Y1.55343
G01 X-3.53175 Y1.55262
G01 X-3.53273 Y1.55181
G01 X-3.53386 Y1.55121
G01 X-3.53508 Y1.55084
G01 X-3.53635 Y1.55071
G01 X-3.58359 Y1.55071
G01 X-3.58486 Y1.55084
G01 X-3.58608 Y1.55121
G01 X-3.58720 Y1.55181
G01 X-3.58819 Y1.55262
G01 X-3.58885 Y1.55343
G01 X-3.73108 Y1.55343
G01 X-3.73175 Y1.55262
G01 X-3.73273 Y1.55181
G01 X-3.73386 Y1.55121
G01 X-3.73508 Y1.55084
G01 X-3.73635 Y1.55071
G01 X-3.78359 Y1.55071
G01 X-3.78486 Y1.55084
G01 X-3.78608 Y1.55121
G01 X-3.78720 Y1.55181
G01 X-3.78819 Y1.55262
G01 X-3.78885 Y1.55343
G01 X-4.03108 Y1.55343
G01 X-4.03175 Y1.55262
G01 X-4.03273 Y1.55181
G01 X-4.03386 Y1.55121
G01 X-4.03508 Y1.55084
G01 X-4.03635 Y1.55071
G01 X-4.08359 Y1.55071
G01 X-4.08486 Y1.55084
G01 X-4.08608 Y1.55121
G01 X-4.08720 Y1.55181
G01 X-4.08819 Y1.55262
G01 X-4.08885 Y1.55343
G01 X-4.23108 Y1.55343
G01 X-4.23175 Y1.55262
G01 X-4.23273 Y1.55181
G01 X-4.23386 Y1.55121
G01 X-4.23508 Y1.55084
G01 X-4.23635 Y1.55071
G01 X-4.28359 Y1.55071
G01 X-4.28486 Y1.55084
G01 X-4.28608 Y1.55121
G01 X-4.28720 Y1.55181
G01 X-4.28819 Y1.55262
G01 X-4.28885 Y1.55343
G01 X-4.43108 Y1.55343
G01 X-4.43175 Y1.55262
G01 X-4.43273 Y1.55181
G01 X-4.43386 Y1.55121
G01 X-4.43508 Y1.55084
G01 X-4.43635 Y1.55071
G01 X-4.48359 Y1.55071
G01 X-4.48486 Y1.55084
G01 X-4.48608 Y1.55121
G01 X-4.48720 Y1.55181
G01 X-4.48819 Y1.55262
G01 X-4.48885 Y1.55343
G01 X-4.63108 Y1.55343
G01 X-4.63175 Y1.55262
G01 X-4.63273 Y1.55181
G01 X-4.63386 Y1.55121
G01 X-4.63508 Y1.55084
G01 X-4.63635 Y1.55071
G01 X-4.68359 Y1.55071
G01 X-4.68486 Y1.55084
G01 X-4.68608 Y1.55121
G01 X-4.68720 Y1.55181
G01 X-4.68819 Y1.55262
G01 X-4.68899 Y1.55360
G01 X-4.68959 Y1.55473
G01 X-4.68996 Y1.55595
G01 X-4.69009 Y1.55721
G01 X-4.69009 Y1.59265
G01 X-4.68996 Y1.59391
G01 X-4.68959 Y1.59513
G01 X-4.68899 Y1.59626
G01 X-4.68819 Y1.59724
G01 X-4.68720 Y1.59805
G01 X-4.68608 Y1.59865
G01 X-4.68486 Y1.59902
G01 X-4.68359 Y1.59915
G01 X-4.63635 Y1.59915
G01 X-4.63508 Y1.59902
G01 X-4.63386 Y1.59865
G01 X-4.63273 Y1.59805
G01 X-4.63175 Y1.59724
G01 X-4.63108 Y1.59643
G01 X-4.48885 Y1.59643
G01 X-4.48819 Y1.59724
G01 X-4.48720 Y1.59805
G01 X-4.48608 Y1.59865
G01 X-4.48486 Y1.59902
G01 X-4.48359 Y1.59915
G01 X-4.43635 Y1.59915
G01 X-4.43508 Y1.59902
G01 X-4.43386 Y1.59865
G01 X-4.43273 Y1.59805
G01 X-4.43175 Y1.59724
G01 X-4.43108 Y1.59643
G01 X-4.28885 Y1.59643
G01 X-4.28819 Y1.59724
G01 X-4.28720 Y1.59805
G01 X-4.28608 Y1.59865
G01 X-4.28486 Y1.59902
G01 X-4.28359 Y1.59915
G01 X-4.23635 Y1.59915
G01 X-4.23508 Y1.59902
G01 X-4.23386 Y1.59865
G01 X-4.23273 Y1.59805
G01 X-4.23175 Y1.59724
G01 X-4.23108 Y1.59643
G01 X-4.08885 Y1.59643
G01 X-4.08819 Y1.59724
G01 X-4.08720 Y1.59805
G01 X-4.08608 Y1.59865
G01 X-4.08486 Y1.59902
G01 X-4.08359 Y1.59915
G01 X-4.03635 Y1.59915
G01 X-4.03508 Y1.59902
G01 X-4.03386 Y1.59865
G01 X-4.03273 Y1.59805
G01 X-4.03175 Y1.59724
G01 X-4.03108 Y1.59643
G01 X-3.78885 Y1.59643
G01 X-3.78819 Y1.59724
G01 X-3.78720 Y1.59805
G01 X-3.78608 Y1.59865
G01 X-3.78486 Y1.59902
G01 X-3.78359 Y1.59915
G01 X-3.73635 Y1.59915
G01 X-3.73508 Y1.59902
G01 X-3.73386 Y1.59865
G01 X-3.73273 Y1.59805
G01 X-3.73175 Y1.59724
G01 X-3.73108 Y1.59643
G01 X-3.58885 Y1.59643
G01 X-3.58819 Y1.59724
G01 X-3.58720 Y1.59805
G01 X-3.58608 Y1.59865
G01 X-3.58486 Y1.59902
G01 X-3.58359 Y1.59915
G01 X-3.53635 Y1.59915
G01 X-3.53508 Y1.59902
G01 X-3.53386 Y1.59865
G01 X-3.53273 Y1.59805
G01 X-3.53175 Y1.59724
G01 X-3.53108 Y1.59643
G01 X-3.38885 Y1.59643
G01 X-3.38819 Y1.59724
G01 X-3.38720 Y1.59805
G01 X-3.38608 Y1.59865
G01 X-3.38486 Y1.59902
G01 X-3.38359 Y1.59915
G01 X-3.33635 Y1.59915
G01 X-3.33508 Y1.59902
G01 X-3.33386 Y1.59865
G01 X-3.33273 Y1.59805
G01 X-3.33175 Y1.59724
G01 X-3.33108 Y1.59643
G01 X-3.18885 Y1.59643
G01 X-3.18819 Y1.59724
G01 X-3.18720 Y1.59805
G01 X-3.18608 Y1.59865
G01 X-3.18486 Y1.59902
G01 X-3.18359 Y1.59915
G01 X-3.13635 Y1.59915
G01 X-3.13508 Y1.59902
G01 X-3.13386 Y1.59865
G01 X-3.13273 Y1.59805
G01 X-3.13175 Y1.59724
G01 X-3.13108 Y1.59643
G01 X-2.88885 Y1.59643
G01 X-2.88819 Y1.59724
G01 X-2.88720 Y1.59805
G01 X-2.88608 Y1.59865
G01 X-2.88486 Y1.59902
G01 X-2.88359 Y1.59915
G01 X-2.83635 Y1.59915
G01 X-2.83508 Y1.59902
G01 X-2.83386 Y1.59865
G01 X-2.83273 Y1.59805
G01 X-2.83175 Y1.59724
G01 X-2.83108 Y1.59643
G01 X-2.68885 Y1.59643
G01 X-2.68819 Y1.59724
G01 X-2.68720 Y1.59805
G01 X-2.68608 Y1.59865
G01 X-2.68486 Y1.59902
G01 X-2.68359 Y1.59915
G01 X-2.63635 Y1.59915
G01 X-2.63508 Y1.59902
G01 X-2.63386 Y1.59865
G01 X-2.63273 Y1.59805
G01 X-2.63175 Y1.59724
G01 X-2.63108 Y1.59643
G01 X-2.48885 Y1.59643
G01 X-2.48819 Y1.59724
G01 X-2.48720 Y1.59805
G01 X-2.48608 Y1.59865
G01 X-2.48486 Y1.59902
G01 X-2.48359 Y1.59915
G01 X-2.43635 Y1.59915
G01 X-2.43508 Y1.59902
G01 X-2.43386 Y1.59865
G01 X-2.43273 Y1.59805
G01 X-2.43175 Y1.59724
G01 X-2.43108 Y1.59643
G01 X-2.28885 Y1.59643
G01 X-2.28819 Y1.59724
G01 X-2.28720 Y1.59805
G01 X-2.28608 Y1.59865
G01 X-2.28486 Y1.59902
G01 X-2.28359 Y1.59915
G01 X-2.23635 Y1.59915
G01 X-2.23508 Y1.59902
G01 X-2.23386 Y1.59865
G01 X-2.23273 Y1.59805
G01 X-2.23175 Y1.59724
G01 X-2.23108 Y1.59643
G01 X-1.98885 Y1.59643
G01 X-1.98819 Y1.59724
G01 X-1.98720 Y1.59805
G01 X-1.98608 Y1.59865
G01 X-1.98486 Y1.59902
G01 X-1.98359 Y1.59915
G01 X-1.93635 Y1.59915
G01 X-1.93508 Y1.59902
G01 X-1.93386 Y1.59865
G01 X-1.93273 Y1.59805
G01 X-1.93175 Y1.59724
G01 X-1.93108 Y1.59643
G01 X-1.78885 Y1.59643
G01 X-1.78819 Y1.59724
G01 X-1.78720 Y1.59805
G01 X-1.78608 Y1.59865
G01 X-1.78486 Y1.59902
G01 X-1.78359 Y1.59915
G01 X-1.73635 Y1.59915
G01 X-1.73508 Y1.59902
G01 X-1.73386 Y1.59865
G01 X-1.73273 Y1.59805
G01 X-1.73175 Y1.59724
G01 X-1.73108 Y1.59643
G01 X-1.58885 Y1.59643
G01 X-1.58819 Y1.59724
G01 X-1.58720 Y1.59805
G01 X-1.58608 Y1.59865
G01 X-1.58486 Y1.59902
G01 X-1.58359 Y1.59915
G01 X-1.53635 Y1.59915
G01 X-1.53508 Y1.59902
G01 X-1.53386 Y1.59865
G01 X-1.53273 Y1.59805
G01 X-1.53175 Y1.59724
G01 X-1.53108 Y1.59643
G01 X-1.38885 Y1.59643
G01 X-1.38819 Y1.59724
G01 X-1.38720 Y1.59805
G01 X-1.38608 Y1.59865
G01 X-1.38486 Y1.59902
G01 X-1.38359 Y1.59915
G01 X-1.33635 Y1.59915
G01 X-1.33508 Y1.59902
G01 X-1.33386 Y1.59865
G01 X-1.33273 Y1.59805
G01 X-1.33175 Y1.59724
G01 X-1.33108 Y1.59643
G01 X-1.18885 Y1.59643
G01 X-1.18819 Y1.59724
G01 X-1.18720 Y1.59805
G01 X-1.18608 Y1.59865
G01 X-1.18486 Y1.59902
G01 X-1.18359 Y1.59915
G01 X-1.13635 Y1.59915
G01 X-1.13508 Y1.59902
G01 X-1.13386 Y1.59865
G01 X-1.13273 Y1.59805
G01 X-1.13175 Y1.59724
G01 X-1.13108 Y1.59643
G01 X-0.88885 Y1.59643
G01 X-0.88819 Y1.59724
G01 X-0.88720 Y1.59805
G01 X-0.88608 Y1.59865
G01 X-0.88486 Y1.59902
G01 X-0.88359 Y1.59915
G01 X-0.83635 Y1.59915
G01 X-0.83508 Y1.59902
G01 X-0.83386 Y1.59865
G01 X-0.83273 Y1.59805
G01 X-0.83175 Y1.59724
G01 X-0.83108 Y1.59643
G01 X-0.75997 Y1.59643
G01 X-0.75941 Y1.59641
G01 X-0.75687 Y1.59619
G01 X-0.75577 Y1.59600
G01 X-0.75330 Y1.59535
G01 X-0.75226 Y1.59498
G01 X-0.74993 Y1.59392
G01 X-0.74896 Y1.59338
G01 X-0.74685 Y1.59194
G01 X-0.74640 Y1.59161
G01 X-0.54640 Y1.42898
G01 X-0.54597 Y1.42859
G01 X-0.54407 Y1.42674
G01 X-0.54331 Y1.42586
G01 X-0.54176 Y1.42370
G01 X-0.54118 Y1.42271
G01 X-0.54003 Y1.42030
G01 X-0.53963 Y1.41922
G01 X-0.53893 Y1.41666
G01 X-0.53873 Y1.41552
G01 X-0.53849 Y1.41287
G01 X-0.53847 Y1.41230
G01 X-0.53847 Y1.39745
G01 X-0.53819 Y1.39727
G01 X-0.53193 Y1.39272
G01 X-0.53140 Y1.39230
G01 X-0.53092 Y1.39181
G01 X-0.52575 Y1.38607
G01 X-0.52532 Y1.38554
G01 X-0.52495 Y1.38497
G01 X-0.52108 Y1.37827
G01 X-0.52077 Y1.37766
G01 X-0.52053 Y1.37703
G01 X-0.51814 Y1.36967
G01 X-0.51796 Y1.36901
G01 X-0.51786 Y1.36834
G01 X-0.51705 Y1.36065
G01 X-0.51701 Y1.35997
G04 P0 ( dwell for no time -- G64 should not smooth over this point )
G00 Z0.05000 ( retract )

G00 X-0.44681 Y1.35997 ( rapid move to begin. )
G01 F1.00000
( Mill infeed pass 1/1 )
G01 Z-0.00600
G04 P0 ( dwell for no time -- G64 should not smooth over this point )
G01 F20.00000
G01 X-0.44681 Y1.35997
G01 X-0.44723 Y1.36799
G01 X-0.44804 Y1.37568
G01 X-0.44930 Y1.38361
G01 X-0.45137 Y1.39136
G01 X-0.45376 Y1.39872
G01 X-0.45664 Y1.40621
G01 X-0.46029 Y1.41337
G01 X-0.46415 Y1.42007
G01 X-0.46853 Y1.42680
G01 X-0.47005 Y1.42868
G01 X-0.47027 Y1.42859
G01 X-0.47005 Y1.42868
G01 X-0.47121 Y1.43514
G01 X-0.47191 Y1.43771
G01 X-0.47664 Y1.45046
G01 X-0.47779 Y1.45286
G01 X-0.48470 Y1.46458
G01 X-0.48625 Y1.46675
G01 X-0.49512 Y1.47706
G01 X-0.49703 Y1.47891
G01 X-0.50211 Y1.48344
G01 X-0.58217 Y1.54854
G01 X-0.58759 Y1.55113
G01 X-0.60140 Y1.55864
G01 X-0.60805 Y1.56272
G01 X-0.60987 Y1.56386
G01 X-0.60979 Y1.56407
G01 X-0.60987 Y1.56386
G01 X-0.61068 Y1.56415
G01 X-0.61321 Y1.56446
G01 X-0.62167 Y1.56559
G01 X-0.62220 Y1.56566
G01 X-0.63653 Y1.56830
G01 X-0.63653 Y1.56829
G01 X-0.63653 Y1.56830
G01 X-0.64487 Y1.57031
G01 X-0.64487 Y1.57030
G01 X-0.64487 Y1.57031
G01 X-0.64651 Y1.57080
G01 X-0.64487 Y1.57031
G01 X-0.63653 Y1.56830
G01 X-0.62220 Y1.56566
G01 X-0.62167 Y1.56559
G01 X-0.61321 Y1.56446
G01 X-0.61068 Y1.56415
G01 X-0.60987 Y1.56386
G01 X-0.60805 Y1.56272
G01 X-0.60140 Y1.55864
G01 X-0.58759 Y1.55113
G01 X-0.58217 Y1.54854
G01 X-0.58032 Y1.54815
G01 X-0.57240 Y1.54689
G01 X-0.56438 Y1.54647
G01 X-0.55664 Y1.54647
G01 X-0.54863 Y1.54689
G01 X-0.54070 Y1.54815
G01 X-0.53313 Y1.54976
G01 X-0.52538 Y1.55183
G01 X-0.51788 Y1.55471
G01 X-0.51081 Y1.55786
G01 X-0.50366 Y1.56150
G01 X-0.49693 Y1.56587
G01 X-0.49067 Y1.57042
G01 X-0.48443 Y1.57547
G01 X-0.47875 Y1.58115
G01 X-0.47358 Y1.58690
G01 X-0.46853 Y1.59314
G01 X-0.46415 Y1.59987
G01 X-0.46029 Y1.60657
G01 X-0.45664 Y1.61372
G01 X-0.45376 Y1.62122
G01 X-0.45137 Y1.62857
G01 X-0.44930 Y1.63633
G01 X-0.44804 Y1.64426
G01 X-0.44723 Y1.65195
G01 X-0.44681 Y1.65997
G01 X-0.44723 Y1.66799
G01 X-0.44804 Y1.67568
G01 X-0.44930 Y1.68361
G01 X-0.45137 Y1.69136
G01 X-0.45376 Y1.69872
G01 X-0.45664 Y1.70621
G01 X-0.46029 Y1.71337
G01 X-0.46415 Y1.72007
G01 X-0.46853 Y1.72680
G01 X-0.47358 Y1.73304
G01 X-0.47875 Y1.73879
G01 X-0.48443 Y1.74446
G01 X-0.49067 Y1.74952
G01 X-0.49693 Y1.75406
G01 X-0.50366 Y1.75844
G01 X-0.51081 Y1.76208
G01 X-0.51788 Y1.76523
G01 X-0.52538 Y1.76810
G01 X-0.53313 Y1.77018
G01 X-0.54070 Y1.77179
G01 X-0.54863 Y1.77305
G01 X-0.55664 Y1.77347
G01 X-0.55827 Y1.77347
G01 X-0.56152 Y1.77036
G01 X-0.55827 Y1.77347
G01 X-0.55827 Y2.30997
G01 X-0.55850 Y2.31599
G01 X-0.55881 Y2.31990
G01 X-0.56069 Y2.33179
G01 X-0.56161 Y2.33560
G01 X-0.56533 Y2.34705
G01 X-0.56683 Y2.35067
G01 X-0.57229 Y2.36139
G01 X-0.57434 Y2.36474
G01 X-0.58142 Y2.37448
G01 X-0.58397 Y2.37746
G01 X-0.58805 Y2.38188
G01 X-0.63806 Y2.43188
G01 X-0.64363 Y2.43694
G01 X-0.64742 Y2.44005
G01 X-0.65992 Y2.44840
G01 X-0.66424 Y2.45071
G01 X-0.67814 Y2.45646
G01 X-0.68283 Y2.45789
G01 X-0.69757 Y2.46082
G01 X-0.70245 Y2.46130
G01 X-0.70997 Y2.46167
G01 X-4.60997 Y2.46167
G01 X-4.61703 Y2.46134
G01 X-4.62162 Y2.46092
G01 X-4.63551 Y2.45833
G01 X-4.63994 Y2.45707
G01 X-4.65313 Y2.45197
G01 X-4.65725 Y2.44992
G01 X-4.66927 Y2.44249
G01 X-4.67295 Y2.43972
G01 X-4.68341 Y2.43021
G01 X-4.68652 Y2.42680
G01 X-4.69505 Y2.41554
G01 X-4.69748 Y2.41163
G01 X-4.70093 Y2.40545
G01 X-4.72052 Y2.36626
G01 X-4.71874 Y2.36205
G01 X-4.71496 Y2.35151
G01 X-4.71491 Y2.35133
G01 X-4.71005 Y2.33527
G01 X-4.70998 Y2.33502
G01 X-4.70997 Y2.33495
G01 X-4.70984 Y2.33497
G01 X-4.70997 Y2.33495
G01 X-4.70998 Y2.33502
G01 X-4.70997 Y2.33495
G01 X-4.70997 Y2.32221
G01 X-4.70997 Y2.32048
G01 X-4.70997 Y2.31020
G01 X-4.70997 Y2.30412
G01 X-4.70997 Y2.29979
G01 X-4.70997 Y2.29330
G01 X-4.70997 Y2.28437
G01 X-4.70997 Y2.28326
G01 X-4.70997 Y2.28028
G01 X-4.70997 Y2.27215
G01 X-4.70997 Y2.26911
G01 X-4.70997 Y2.26134
G01 X-4.70997 Y2.25860
G01 X-4.70997 Y2.25082
G01 X-4.70997 Y2.24779
G01 X-4.70997 Y2.23966
G01 X-4.70997 Y2.23668
G01 X-4.71041 Y2.23582
G01 X-4.71427 Y2.22912
G01 X-4.71531 Y2.22752
G01 X-4.71651 Y2.22604
G01 X-4.71677 Y2.22576
G01 X-4.71722 Y2.22589
G01 X-4.71677 Y2.22576
G01 X-4.71677 Y1.88667
G01 X-4.71851 Y1.88559
G01 X-4.71677 Y1.88667
G01 X-4.70728 Y1.88192
G01 X-4.71070 Y1.88514
G01 X-4.71381 Y1.88841
G01 X-4.71386 Y1.88846
G01 X-4.71445 Y1.88817
G01 X-4.71386 Y1.88846
G01 X-4.71507 Y1.89613
G01 X-4.71551 Y1.90024
G01 X-4.71553 Y1.90024
G01 X-4.71551 Y1.90024
G01 X-4.71591 Y1.90798
G01 X-4.71591 Y1.91196
G01 X-4.71593 Y1.91196
G01 X-4.71591 Y1.91196
G01 X-4.71551 Y1.91970
G01 X-4.71507 Y1.92381
G01 X-4.71509 Y1.92381
G01 X-4.71507 Y1.92381
G01 X-4.71385 Y1.93154
G01 X-4.71386 Y1.93155
G01 X-4.71385 Y1.93154
G01 X-4.71289 Y1.93606
G01 X-4.71082 Y1.94379
G01 X-4.70997 Y1.94663
G01 X-4.70986 Y1.94661
G01 X-4.70997 Y1.94663
G01 X-4.70997 Y1.97331
G01 X-4.70987 Y1.97332
G01 X-4.70986 Y1.97333
G01 X-4.70987 Y1.97332
G01 X-4.70997 Y1.97331
G01 X-4.71082 Y1.97614
G01 X-4.71289 Y1.98388
G01 X-4.71290 Y1.98388
G01 X-4.71289 Y1.98388
G01 X-4.71385 Y1.98840
G01 X-4.71508 Y1.99613
G01 X-4.71510 Y1.99613
G01 X-4.71508 Y1.99613
G01 X-4.71551 Y2.00024
G01 X-4.71591 Y2.00798
G01 X-4.71591 Y2.01196
G01 X-4.71594 Y2.01196
G01 X-4.71591 Y2.01196
G01 X-4.71551 Y2.01970
G01 X-4.71508 Y2.02381
G01 X-4.71509 Y2.02381
G01 X-4.71508 Y2.02381
G01 X-4.71385 Y2.03154
G01 X-4.71386 Y2.03155
G01 X-4.71385 Y2.03154
G01 X-4.71289 Y2.03606
G01 X-4.71082 Y2.04379
G01 X-4.70997 Y2.04663
G01 X-4.70986 Y2.04661
G01 X-4.70997 Y2.04663
G01 X-4.70987 Y2.04662
G01 X-4.70997 Y2.04663
G01 X-4.70997 Y2.22331
G01 X-4.70997 Y2.22663
G01 X-4.70997 Y2.23557
G01 X-4.70997 Y2.23668
G01 X-4.70997 Y2.23557
G01 X-4.70997 Y2.22663
G01 X-4.70997 Y2.22331
G01 X-4.70997 Y2.04663
G01 X-4.71082 Y2.04379
G01 X-4.71289 Y2.03606
G01 X-4.71385 Y2.03154
G01 X-4.71508 Y2.02381
G01 X-4.71551 Y2.01970
G01 X-4.71591 Y2.01196
G01 X-4.71591 Y2.00798
G01 X-4.71551 Y2.00024
G01 X-4.71508 Y1.99613
G01 X-4.71385 Y1.98840
G01 X-4.71289 Y1.98388
G01 X-4.71082 Y1.97614
G01 X-4.70997 Y1.97331
G01 X-4.70997 Y1.94663
G01 X-4.71082 Y1.94379
G01 X-4.71289 Y1.93606
G01 X-4.71385 Y1.93154
G01 X-4.71507 Y1.92381
G01 X-4.71551 Y1.91970
G01 X-4.71591 Y1.91196
G01 X-4.71591 Y1.90798
G01 X-4.71551 Y1.90024
G01 X-4.71507 Y1.89613
G01 X-4.71386 Y1.88846
G01 X-4.71381 Y1.88841
G01 X-4.71070 Y1.88514
G01 X-4.70728 Y1.88192
G01 X-4.70728 Y1.88192
G01 X-4.70482 Y1.87961
G01 X-4.70483 Y1.87959
G01 X-4.70482 Y1.87961
G01 X-4.70206 Y1.87727
G01 X-4.69580 Y1.87250
G01 X-4.69581 Y1.87248
G01 X-4.69580 Y1.87250
G01 X-4.69324 Y1.87075
G01 X-4.69325 Y1.87073
G01 X-4.69324 Y1.87075
G01 X-4.68661 Y1.86672
G01 X-4.68662 Y1.86670
G01 X-4.68661 Y1.86672
G01 X-4.68407 Y1.86536
G01 X-4.68408 Y1.86534
G01 X-4.68407 Y1.86536
G01 X-4.67707 Y1.86205
G01 X-4.67434 Y1.86093
G01 X-4.67159 Y1.85997
G01 X-4.67164 Y1.85973
G01 X-4.67164 Y1.85971
G01 X-4.67164 Y1.85973
G01 X-4.67159 Y1.85997
G01 X-4.66664 Y1.85997
G01 X-4.66383 Y1.85997
G01 X-4.65610 Y1.85997
G01 X-4.65329 Y1.85997
G01 X-4.64539 Y1.85997
G01 X-4.64194 Y1.85997
G01 X-4.63705 Y1.85997
G01 X-4.63347 Y1.85997
G01 X-4.62842 Y1.85997
G01 X-4.61886 Y1.85997
G01 X-4.61555 Y1.85997
G01 X-4.61886 Y1.85997
G01 X-4.61555 Y1.85997
G01 X-4.61555 Y1.85997
G01 X-4.61520 Y1.85969
G01 X-4.61484 Y1.85932
G01 X-4.61484 Y1.85932
G01 X-4.61393 Y1.85729
G01 X-4.61372 Y1.85682
G01 X-4.61198 Y1.85284
G01 X-4.61035 Y1.84944
G01 X-4.60972 Y1.84823
G01 X-4.60795 Y1.84447
G01 X-4.60775 Y1.84400
G01 X-4.60574 Y1.83979
G01 X-4.60452 Y1.83752
G01 X-4.60360 Y1.83571
G01 X-4.60219 Y1.83281
G01 X-4.60154 Y1.83152
G01 X-4.59938 Y1.82738
G01 X-4.59856 Y1.82585
G01 X-4.59692 Y1.82294
G01 X-4.59568 Y1.82062
G01 X-4.59466 Y1.81859
G01 X-4.59361 Y1.81674
G01 X-4.59361 Y1.81674
G01 X-4.59323 Y1.81309
G01 X-4.59307 Y1.80997
G01 X-4.59323 Y1.80684
G01 X-4.59404 Y1.79915
G01 X-4.59453 Y1.79606
G01 X-4.59534 Y1.79304
G01 X-4.59773 Y1.78568
G01 X-4.59885 Y1.78276
G01 X-4.60027 Y1.77997
G01 X-4.60414 Y1.77327
G01 X-4.60507 Y1.77184
G01 X-4.60546 Y1.77195
G01 X-4.60507 Y1.77184
G01 X-4.60507 Y1.69810
G01 X-4.60546 Y1.69799
G01 X-4.60507 Y1.69810
G01 X-4.60414 Y1.69667
G01 X-4.60027 Y1.68997
G01 X-4.59885 Y1.68718
G01 X-4.59773 Y1.68426
G01 X-4.59534 Y1.67690
G01 X-4.59453 Y1.67388
G01 X-4.59404 Y1.67079
G01 X-4.59323 Y1.66309
G01 X-4.59307 Y1.65997
G01 X-4.59323 Y1.65684
G01 X-4.59404 Y1.64915
G01 X-4.59453 Y1.64606
G01 X-4.59534 Y1.64304
G01 X-4.59773 Y1.63568
G01 X-4.59885 Y1.63276
G01 X-4.60027 Y1.62997
G01 X-4.60414 Y1.62327
G01 X-4.60584 Y1.62065
G01 X-4.60641 Y1.61995
G01 X-4.60664 Y1.61983
G01 X-4.60853 Y1.61886
G01 X-4.60664 Y1.61983
G01 X-4.60664 Y1.61983
G01 X-4.60853 Y1.61886
G01 X-4.60853 Y1.61884
G01 X-4.60853 Y1.61886
G01 X-4.60664 Y1.61983
G01 X-4.60664 Y1.61983
G01 X-4.60664 Y1.61983
G01 X-4.51330 Y1.61983
G01 X-4.51353 Y1.61995
G01 X-4.51409 Y1.62065
G01 X-4.51580 Y1.62327
G01 X-4.51966 Y1.62997
G01 X-4.52108 Y1.63276
G01 X-4.52221 Y1.63568
G01 X-4.52460 Y1.64304
G01 X-4.52541 Y1.64606
G01 X-4.52590 Y1.64915
G01 X-4.52670 Y1.65684
G01 X-4.52687 Y1.65997
G01 X-4.52670 Y1.66309
G01 X-4.52590 Y1.67079
G01 X-4.52541 Y1.67388
G01 X-4.52460 Y1.67690
G01 X-4.52221 Y1.68426
G01 X-4.52108 Y1.68718
G01 X-4.51966 Y1.68997
G01 X-4.51580 Y1.69667
G01 X-4.51487 Y1.69810
G01 X-4.51448 Y1.69799
G01 X-4.51487 Y1.69810
G01 X-4.51487 Y1.77184
G01 X-4.51445 Y1.77196
G01 X-4.51487 Y1.77184
G01 X-4.51580 Y1.77327
G01 X-4.51842 Y1.77781
G01 X-4.51808 Y1.77818
G01 X-4.51842 Y1.77781
G01 X-4.58452 Y1.81086
G01 X-4.58693 Y1.81221
G01 X-4.59084 Y1.81464
G01 X-4.59361 Y1.81674
G01 X-4.59167 Y1.81331
G01 X-4.59164 Y1.81326
G01 X-4.58905 Y1.80879
G01 X-4.58771 Y1.80626
G01 X-4.58725 Y1.80541
G01 X-4.58319 Y1.79801
G01 X-4.58262 Y1.79683
G01 X-4.57813 Y1.78745
G01 X-4.57499 Y1.77994
G01 X-4.57547 Y1.77845
G01 X-4.57747 Y1.77324
G01 X-4.58001 Y1.76827
G01 X-4.58167 Y1.76539
G01 X-4.58202 Y1.76548
G01 X-4.58167 Y1.76539
G01 X-4.58167 Y1.70454
G01 X-4.58202 Y1.70446
G01 X-4.58167 Y1.70454
G01 X-4.58001 Y1.70167
G01 X-4.57747 Y1.69670
G01 X-4.57547 Y1.69149
G01 X-4.57308 Y1.68413
G01 X-4.57164 Y1.67874
G01 X-4.57077 Y1.67323
G01 X-4.56996 Y1.66554
G01 X-4.56967 Y1.65997
G01 X-4.56996 Y1.65440
G01 X-4.57077 Y1.64670
G01 X-4.57129 Y1.64340
G01 X-4.56764 Y1.64637
G01 X-4.55997 Y1.65328
G01 X-4.56764 Y1.64637
G01 X-4.57129 Y1.64340
G01 X-4.56764 Y1.64637
G01 X-4.55997 Y1.65328
G01 X-4.55229 Y1.64637
G01 X-4.54864 Y1.64341
G01 X-4.54843 Y1.64323
G01 X-4.54146 Y1.63756
G01 X-4.54864 Y1.64341
G01 X-4.54917 Y1.64670
G01 X-4.54998 Y1.65440
G01 X-4.55027 Y1.65997
G01 X-4.54998 Y1.66554
G01 X-4.54917 Y1.67323
G01 X-4.54829 Y1.67874
G01 X-4.54685 Y1.68413
G01 X-4.54446 Y1.69149
G01 X-4.54246 Y1.69670
G01 X-4.53993 Y1.70167
G01 X-4.53827 Y1.70454
G01 X-4.53792 Y1.70446
G01 X-4.53827 Y1.70454
G01 X-4.53827 Y1.76158
G01 X-4.53652 Y1.76266
G01 X-4.53827 Y1.76158
G01 X-4.57499 Y1.77994
G01 X-4.57499 Y1.77994
G01 X-4.57813 Y1.78745
G01 X-4.57499 Y1.77994
G01 X-4.57419 Y1.77804
G01 X-4.56917 Y1.76395
G01 X-4.56917 Y1.76395
G01 X-4.56914 Y1.76386
G01 X-4.56988 Y1.76242
G01 X-4.56997 Y1.76226
G01 X-4.57030 Y1.76234
G01 X-4.56997 Y1.76226
G01 X-4.56997 Y1.70768
G01 X-4.57022 Y1.70762
G01 X-4.56997 Y1.70768
G01 X-4.56988 Y1.70752
G01 X-4.56679 Y1.70146
G01 X-4.56435 Y1.69510
G01 X-4.56196 Y1.68775
G01 X-4.56020 Y1.68118
G01 X-4.55997 Y1.67973
G01 X-4.55974 Y1.68118
G01 X-4.55798 Y1.68775
G01 X-4.55559 Y1.69510
G01 X-4.55315 Y1.70146
G01 X-4.55006 Y1.70752
G01 X-4.54997 Y1.70768
G01 X-4.54971 Y1.70762
G01 X-4.54997 Y1.70768
G01 X-4.54997 Y1.75435
G01 X-4.54822 Y1.75543
G01 X-4.54997 Y1.75435
G01 X-4.56917 Y1.76395
G01 X-4.56917 Y1.76395
G01 X-4.57419 Y1.77804
G01 X-4.56917 Y1.76395
G01 X-4.56914 Y1.76386
G01 X-4.56842 Y1.76185
G01 X-4.56847 Y1.76182
G01 X-4.56842 Y1.76185
G01 X-4.55997 Y1.74817
G01 X-4.55952 Y1.74829
G01 X-4.55997 Y1.74817
G01 X-4.55997 Y1.71027
G01 X-4.55997 Y1.69652
G01 X-4.55997 Y1.68839
G01 X-4.55997 Y1.67973
G01 X-4.55997 Y1.67437
G01 X-4.55997 Y1.66659
G01 X-4.55997 Y1.65334
G01 X-4.55997 Y1.65328
G01 X-4.55229 Y1.64637
G01 X-4.54864 Y1.64341
G01 X-4.54843 Y1.64323
G01 X-4.54146 Y1.63756
G01 X-4.53372 Y1.63194
G01 X-4.53314 Y1.63156
G01 X-4.53309 Y1.63153
G01 X-4.52552 Y1.62659
G01 X-4.51778 Y1.62212
G01 X-4.51330 Y1.61983
G01 X-4.51140 Y1.61886
G01 X-4.51141 Y1.61884
G01 X-4.51140 Y1.61886
G01 X-4.50367 Y1.61542
G01 X-4.50367 Y1.61541
G01 X-4.50367 Y1.61542
G01 X-4.49855 Y1.61345
G01 X-4.49421 Y1.61204
G01 X-4.49422 Y1.61199
G01 X-4.49423 Y1.61197
G01 X-4.49422 Y1.61199
G01 X-4.49423 Y1.61196
G01 X-4.49422 Y1.61199
G01 X-4.49421 Y1.61204
G01 X-4.49031 Y1.61163
G01 X-4.48600 Y1.61101
G01 X-4.48456 Y1.61075
G01 X-4.48359 Y1.61058
G01 X-4.47823 Y1.60944
G01 X-4.47478 Y1.60889
G01 X-4.47478 Y1.60888
G01 X-4.47478 Y1.60889
G01 X-4.46704 Y1.60808
G01 X-4.46704 Y1.60805
G01 X-4.46704 Y1.60808
G01 X-4.46384 Y1.60791
G01 X-4.46384 Y1.60789
G01 X-4.46384 Y1.60791
G01 X-4.45610 Y1.60791
G01 X-4.45610 Y1.60789
G01 X-4.45610 Y1.60791
G01 X-4.45289 Y1.60808
G01 X-4.45289 Y1.60805
G01 X-4.45289 Y1.60808
G01 X-4.44516 Y1.60888
G01 X-4.44170 Y1.60944
G01 X-4.43635 Y1.61058
G01 X-4.43538 Y1.61075
G01 X-4.43524 Y1.61078
G01 X-4.43524 Y1.61078
G01 X-4.43393 Y1.61101
G01 X-4.42963 Y1.61163
G01 X-4.42573 Y1.61204
G01 X-4.42571 Y1.61199
G01 X-4.42573 Y1.61204
G01 X-4.42572 Y1.61200
G01 X-4.42573 Y1.61204
G01 X-4.42139 Y1.61345
G01 X-4.42138 Y1.61343
G01 X-4.42139 Y1.61345
G01 X-4.41627 Y1.61542
G01 X-4.41626 Y1.61540
G01 X-4.41627 Y1.61542
G01 X-4.40853 Y1.61886
G01 X-4.40664 Y1.61983
G01 X-4.40664 Y1.61983
G01 X-4.31330 Y1.61983
G01 X-4.31353 Y1.61995
G01 X-4.31409 Y1.62065
G01 X-4.31580 Y1.62327
G01 X-4.31966 Y1.62997
G01 X-4.32108 Y1.63276
G01 X-4.32221 Y1.63568
G01 X-4.32460 Y1.64304
G01 X-4.32541 Y1.64606
G01 X-4.32590 Y1.64915
G01 X-4.32670 Y1.65684
G01 X-4.32687 Y1.65997
G01 X-4.32670 Y1.66309
G01 X-4.32590 Y1.67079
G01 X-4.32541 Y1.67388
G01 X-4.32460 Y1.67690
G01 X-4.32221 Y1.68426
G01 X-4.32108 Y1.68718
G01 X-4.31966 Y1.68997
G01 X-4.31580 Y1.69667
G01 X-4.31487 Y1.69810
G01 X-4.31448 Y1.69799
G01 X-4.31487 Y1.69810
G01 X-4.31487 Y1.77184
G01 X-4.31445 Y1.77196
G01 X-4.31487 Y1.77184
G01 X-4.31580 Y1.77327
G01 X-4.31842 Y1.77781
G01 X-4.31808 Y1.77818
G01 X-4.31842 Y1.77781
G01 X-4.38452 Y1.81086
G01 X-4.38693 Y1.81221
G01 X-4.39084 Y1.81464
G01 X-4.39361 Y1.81674
G01 X-4.39323 Y1.81309
G01 X-4.39307 Y1.80997
G01 X-4.39323 Y1.80684
G01 X-4.39404 Y1.79915
G01 X-4.39453 Y1.79606
G01 X-4.39534 Y1.79304
G01 X-4.39773 Y1.78568
G01 X-4.39885 Y1.78276
G01 X-4.40027 Y1.77997
G01 X-4.40414 Y1.77327
G01 X-4.40507 Y1.77184
G01 X-4.40546 Y1.77195
G01 X-4.40507 Y1.77184
G01 X-4.40507 Y1.69810
G01 X-4.40546 Y1.69799
G01 X-4.40507 Y1.69810
G01 X-4.40414 Y1.69667
G01 X-4.40027 Y1.68997
G01 X-4.39885 Y1.68718
G01 X-4.39773 Y1.68426
G01 X-4.39534 Y1.67690
G01 X-4.39453 Y1.67388
G01 X-4.39404 Y1.67079
G01 X-4.39323 Y1.66309
G01 X-4.39307 Y1.65997
G01 X-4.39323 Y1.65684
G01 X-4.39404 Y1.64915
G01 X-4.39453 Y1.64606
G01 X-4.39534 Y1.64304
G01 X-4.39773 Y1.63568
G01 X-4.39885 Y1.63276
G01 X-4.40027 Y1.62997
G01 X-4.40414 Y1.62327
G01 X-4.40584 Y1.62065
G01 X-4.40641 Y1.61995
G01 X-4.40664 Y1.61983
G01 X-4.40853 Y1.61886
G01 X-4.40853 Y1.61885
G01 X-4.40853 Y1.61886
G01 X-4.40664 Y1.61983
G01 X-4.40215 Y1.62212
G01 X-4.40214 Y1.62210
G01 X-4.40215 Y1.62212
G01 X-4.39441 Y1.62658
G01 X-4.38684 Y1.63153
G01 X-4.38683 Y1.63153
G01 X-4.33309 Y1.63153
G01 X-4.33314 Y1.63156
G01 X-4.33333 Y1.63206
G01 X-4.33572 Y1.63942
G01 X-4.33685 Y1.64363
G01 X-4.33753 Y1.64793
G01 X-4.33834 Y1.65562
G01 X-4.33857 Y1.65997
G01 X-4.33834 Y1.66432
G01 X-4.33753 Y1.67201
G01 X-4.33685 Y1.67631
G01 X-4.33572 Y1.68052
G01 X-4.33333 Y1.68787
G01 X-4.33177 Y1.69194
G01 X-4.32980 Y1.69582
G01 X-4.32657 Y1.70141
G01 X-4.32620 Y1.70131
G01 X-4.32657 Y1.70141
G01 X-4.32657 Y1.76853
G01 X-4.32483 Y1.76960
G01 X-4.32657 Y1.76853
G01 X-4.32679 Y1.76892
G01 X-4.38262 Y1.79684
G01 X-4.38263 Y1.79684
G01 X-4.38263 Y1.79684
G01 X-4.38319 Y1.79802
G01 X-4.38263 Y1.79684
G01 X-4.38259 Y1.79675
G01 X-4.38309 Y1.79363
G01 X-4.38421 Y1.78942
G01 X-4.38660 Y1.78206
G01 X-4.38816 Y1.77800
G01 X-4.39014 Y1.77412
G01 X-4.39337 Y1.76853
G01 X-4.39374 Y1.76862
G01 X-4.39337 Y1.76853
G01 X-4.39337 Y1.70141
G01 X-4.39374 Y1.70131
G01 X-4.39337 Y1.70141
G01 X-4.39014 Y1.69582
G01 X-4.38816 Y1.69194
G01 X-4.38660 Y1.68787
G01 X-4.38421 Y1.68052
G01 X-4.38309 Y1.67631
G01 X-4.38240 Y1.67201
G01 X-4.38160 Y1.66432
G01 X-4.38137 Y1.65997
G01 X-4.38160 Y1.65562
G01 X-4.38240 Y1.64793
G01 X-4.38309 Y1.64363
G01 X-4.38421 Y1.63942
G01 X-4.38660 Y1.63206
G01 X-4.38680 Y1.63156
G01 X-4.38684 Y1.63153
G01 X-4.39441 Y1.62658
G01 X-4.38683 Y1.63153
G01 X-4.38621 Y1.63193
G01 X-4.37847 Y1.63755
G01 X-4.37151 Y1.64323
G01 X-4.37151 Y1.64323
G01 X-4.37150 Y1.64323
G01 X-4.34843 Y1.64323
G01 X-4.34146 Y1.63756
G01 X-4.34864 Y1.64341
G01 X-4.34917 Y1.64670
G01 X-4.34998 Y1.65440
G01 X-4.35027 Y1.65997
G01 X-4.34998 Y1.66554
G01 X-4.34917 Y1.67323
G01 X-4.34829 Y1.67874
G01 X-4.34685 Y1.68413
G01 X-4.34446 Y1.69149
G01 X-4.34246 Y1.69670
G01 X-4.33993 Y1.70167
G01 X-4.33827 Y1.70454
G01 X-4.33792 Y1.70446
G01 X-4.33827 Y1.70454
G01 X-4.33827 Y1.76158
G01 X-4.33652 Y1.76266
G01 X-4.33827 Y1.76158
G01 X-4.37499 Y1.77994
G01 X-4.37499 Y1.77994
G01 X-4.37813 Y1.78745
G01 X-4.37499 Y1.77994
G01 X-4.37548 Y1.77845
G01 X-4.37747 Y1.77324
G01 X-4.38001 Y1.76827
G01 X-4.38167 Y1.76539
G01 X-4.38202 Y1.76548
G01 X-4.38167 Y1.76539
G01 X-4.38167 Y1.70454
G01 X-4.38202 Y1.70446
G01 X-4.38167 Y1.70454
G01 X-4.38001 Y1.70167
G01 X-4.37747 Y1.69670
G01 X-4.37548 Y1.69149
G01 X-4.37309 Y1.68413
G01 X-4.37164 Y1.67874
G01 X-4.37077 Y1.67323
G01 X-4.36996 Y1.66554
G01 X-4.36967 Y1.65997
G01 X-4.36996 Y1.65440
G01 X-4.37077 Y1.64670
G01 X-4.37129 Y1.64341
G01 X-4.37151 Y1.64323
G01 X-4.37847 Y1.63755
G01 X-4.37150 Y1.64323
G01 X-4.36764 Y1.64638
G01 X-4.35997 Y1.65328
G01 X-4.35997 Y1.65334
G01 X-4.35997 Y1.66659
G01 X-4.35997 Y1.67437
G01 X-4.35997 Y1.67973
G01 X-4.35974 Y1.68118
G01 X-4.35798 Y1.68775
G01 X-4.35559 Y1.69510
G01 X-4.35315 Y1.70146
G01 X-4.35006 Y1.70752
G01 X-4.34997 Y1.70768
G01 X-4.34971 Y1.70762
G01 X-4.34997 Y1.70768
G01 X-4.34997 Y1.75435
G01 X-4.34822 Y1.75543
G01 X-4.34997 Y1.75435
G01 X-4.36917 Y1.76395
G01 X-4.36917 Y1.76395
G01 X-4.37419 Y1.77804
G01 X-4.36917 Y1.76395
G01 X-4.36917 Y1.76395
G01 X-4.36914 Y1.76386
G01 X-4.36988 Y1.76242
G01 X-4.36997 Y1.76226
G01 X-4.37030 Y1.76234
G01 X-4.36997 Y1.76226
G01 X-4.36997 Y1.70768
G01 X-4.37023 Y1.70762
G01 X-4.36997 Y1.70768
G01 X-4.36988 Y1.70752
G01 X-4.36679 Y1.70146
G01 X-4.36435 Y1.69510
G01 X-4.36196 Y1.68775
G01 X-4.36020 Y1.68118
G01 X-4.35997 Y1.67973
G01 X-4.35997 Y1.68839
G01 X-4.35997 Y1.69652
G01 X-4.35997 Y1.71027
G01 X-4.35997 Y1.74817
G01 X-4.35952 Y1.74829
G01 X-4.35997 Y1.74817
G01 X-4.36842 Y1.76185
G01 X-4.36847 Y1.76182
G01 X-4.36842 Y1.76185
G01 X-4.36914 Y1.76386
G01 X-4.36917 Y1.76395
G01 X-4.37419 Y1.77804
G01 X-4.37499 Y1.77994
G01 X-4.37813 Y1.78745
G01 X-4.38262 Y1.79684
G01 X-4.38319 Y1.79802
G01 X-4.38725 Y1.80541
G01 X-4.38771 Y1.80627
G01 X-4.38906 Y1.80879
G01 X-4.39164 Y1.81326
G01 X-4.39167 Y1.81330
G01 X-4.39361 Y1.81674
G01 X-4.39361 Y1.81674
G01 X-4.39466 Y1.81859
G01 X-4.39568 Y1.82061
G01 X-4.39692 Y1.82294
G01 X-4.39856 Y1.82585
G01 X-4.39938 Y1.82738
G01 X-4.40154 Y1.83152
G01 X-4.40219 Y1.83281
G01 X-4.40360 Y1.83571
G01 X-4.40452 Y1.83752
G01 X-4.40574 Y1.83979
G01 X-4.40775 Y1.84400
G01 X-4.40795 Y1.84447
G01 X-4.40972 Y1.84823
G01 X-4.41035 Y1.84944
G01 X-4.41198 Y1.85284
G01 X-4.41372 Y1.85682
G01 X-4.41393 Y1.85729
G01 X-4.41484 Y1.85932
G01 X-4.41513 Y1.85997
G01 X-4.41487 Y1.86059
G01 X-4.41379 Y1.86319
G01 X-4.41082 Y1.87092
G01 X-4.41081 Y1.87092
G01 X-4.41082 Y1.87092
G01 X-4.40912 Y1.87614
G01 X-4.40705 Y1.88388
G01 X-4.40703 Y1.88388
G01 X-4.40705 Y1.88388
G01 X-4.40608 Y1.88840
G01 X-4.40486 Y1.89613
G01 X-4.40484 Y1.89613
G01 X-4.40486 Y1.89613
G01 X-4.40443 Y1.90024
G01 X-4.40402 Y1.90798
G01 X-4.40400 Y1.90798
G01 X-4.40402 Y1.90798
G01 X-4.40402 Y1.91196
G01 X-4.40443 Y1.91969
G01 X-4.40486 Y1.92381
G01 X-4.40484 Y1.92381
G01 X-4.40486 Y1.92381
G01 X-4.40608 Y1.93154
G01 X-4.40705 Y1.93606
G01 X-4.40703 Y1.93606
G01 X-4.40705 Y1.93606
G01 X-4.40912 Y1.94379
G01 X-4.40997 Y1.94663
G01 X-4.41006 Y1.94662
G01 X-4.40997 Y1.94663
G01 X-4.40997 Y1.97331
G01 X-4.41007 Y1.97333
G01 X-4.40997 Y1.97331
G01 X-4.40912 Y1.97614
G01 X-4.40705 Y1.98388
G01 X-4.40703 Y1.98388
G01 X-4.40705 Y1.98388
G01 X-4.40608 Y1.98840
G01 X-4.40486 Y1.99613
G01 X-4.40484 Y1.99613
G01 X-4.40486 Y1.99613
G01 X-4.40443 Y2.00025
G01 X-4.40402 Y2.00798
G01 X-4.40402 Y2.01196
G01 X-4.40400 Y2.01196
G01 X-4.40402 Y2.01196
G01 X-4.40443 Y2.01969
G01 X-4.40486 Y2.02381
G01 X-4.40485 Y2.02381
G01 X-4.40486 Y2.02381
G01 X-4.40608 Y2.03154
G01 X-4.40607 Y2.03155
G01 X-4.40608 Y2.03154
G01 X-4.40705 Y2.03606
G01 X-4.40912 Y2.04379
G01 X-4.40997 Y2.04663
G01 X-4.41006 Y2.04662
G01 X-4.40997 Y2.04663
G01 X-4.40997 Y2.22331
G01 X-4.40997 Y2.22663
G01 X-4.40997 Y2.23557
G01 X-4.40997 Y2.23668
G01 X-4.40997 Y2.23966
G01 X-4.40997 Y2.24779
G01 X-4.40997 Y2.25082
G01 X-4.40997 Y2.25860
G01 X-4.40997 Y2.26134
G01 X-4.40997 Y2.26911
G01 X-4.40997 Y2.27215
G01 X-4.40997 Y2.28028
G01 X-4.40997 Y2.28326
G01 X-4.40953 Y2.28412
G01 X-4.40566 Y2.29082
G01 X-4.40463 Y2.29241
G01 X-4.40343 Y2.29390
G01 X-4.39825 Y2.29964
G01 X-4.39690 Y2.30099
G01 X-4.39542 Y2.30219
G01 X-4.38917 Y2.30674
G01 X-4.38757 Y2.30777
G01 X-4.38587 Y2.30864
G01 X-4.37880 Y2.31178
G01 X-4.37703 Y2.31247
G01 X-4.37519 Y2.31296
G01 X-4.36762 Y2.31457
G01 X-4.36574 Y2.31487
G01 X-4.36384 Y2.31497
G01 X-4.35610 Y2.31497
G01 X-4.35420 Y2.31487
G01 X-4.35232 Y2.31457
G01 X-4.34475 Y2.31296
G01 X-4.34291 Y2.31247
G01 X-4.34113 Y2.31178
G01 X-4.33407 Y2.30864
G01 X-4.33237 Y2.30777
G01 X-4.33077 Y2.30674
G01 X-4.32451 Y2.30219
G01 X-4.32303 Y2.30099
G01 X-4.32168 Y2.29964
G01 X-4.31651 Y2.29390
G01 X-4.31531 Y2.29241
G01 X-4.31427 Y2.29082
G01 X-4.31041 Y2.28412
G01 X-4.30997 Y2.28326
G01 X-4.30953 Y2.28412
G01 X-4.30566 Y2.29082
G01 X-4.30463 Y2.29241
G01 X-4.30343 Y2.29390
G01 X-4.30317 Y2.29418
G01 X-4.30272 Y2.29405
G01 X-4.30317 Y2.29418
G01 X-4.30317 Y2.31677
G01 X-4.29974 Y2.32020
G01 X-4.30317 Y2.31677
G01 X-4.41677 Y2.31677
G01 X-4.42019 Y2.32020
G01 X-4.41677 Y2.31677
G01 X-4.41677 Y2.29418
G01 X-4.41722 Y2.29405
G01 X-4.41677 Y2.29418
G01 X-4.41651 Y2.29390
G01 X-4.41531 Y2.29241
G01 X-4.41427 Y2.29082
G01 X-4.41041 Y2.28412
G01 X-4.40997 Y2.28326
G01 X-4.40997 Y2.28437
G01 X-4.40997 Y2.29330
G01 X-4.40997 Y2.29663
G01 X-4.41019 Y2.29667
G01 X-4.40997 Y2.29663
G01 X-4.40911 Y2.29902
G01 X-4.40631 Y2.30632
G01 X-4.40587 Y2.30651
G01 X-4.40667 Y2.30737
G01 X-4.40587 Y2.30651
G01 X-4.40016 Y2.30871
G01 X-4.39243 Y2.31122
G01 X-4.38760 Y2.31252
G01 X-4.38761 Y2.31254
G01 X-4.38760 Y2.31252
G01 X-4.37986 Y2.31416
G01 X-4.37558 Y2.31484
G01 X-4.37559 Y2.31486
G01 X-4.37558 Y2.31484
G01 X-4.36785 Y2.31566
G01 X-4.36383 Y2.31587
G01 X-4.36384 Y2.31588
G01 X-4.36383 Y2.31587
G01 X-4.35610 Y2.31587
G01 X-4.35209 Y2.31566
G01 X-4.35208 Y2.31567
G01 X-4.35209 Y2.31566
G01 X-4.34435 Y2.31484
G01 X-4.34007 Y2.31416
G01 X-4.34007 Y2.31418
G01 X-4.34007 Y2.31416
G01 X-4.33233 Y2.31252
G01 X-4.33233 Y2.31253
G01 X-4.33233 Y2.31252
G01 X-4.32751 Y2.31122
G01 X-4.31977 Y2.30872
G01 X-4.31406 Y2.30651
G01 X-4.31362 Y2.30631
G01 X-4.31283 Y2.30710
G01 X-4.31362 Y2.30631
G01 X-4.31082 Y2.29902
G01 X-4.30997 Y2.29663
G01 X-4.30978 Y2.29666
G01 X-4.30997 Y2.29663
G01 X-4.30997 Y2.29330
G01 X-4.30997 Y2.28437
G01 X-4.30997 Y2.28326
G01 X-4.30997 Y2.28028
G01 X-4.30997 Y2.27215
G01 X-4.30997 Y2.26911
G01 X-4.30997 Y2.26134
G01 X-4.30997 Y2.25860
G01 X-4.30997 Y2.25082
G01 X-4.30997 Y2.24779
G01 X-4.30997 Y2.23966
G01 X-4.30997 Y2.23668
G01 X-4.31041 Y2.23582
G01 X-4.31427 Y2.22912
G01 X-4.31531 Y2.22752
G01 X-4.31651 Y2.22604
G01 X-4.31677 Y2.22576
G01 X-4.31722 Y2.22588
G01 X-4.31677 Y2.22576
G01 X-4.31677 Y1.88667
G01 X-4.31852 Y1.88559
G01 X-4.31677 Y1.88667
G01 X-4.30728 Y1.88192
G01 X-4.30953 Y1.88582
G01 X-4.31040 Y1.88752
G01 X-4.31108 Y1.88930
G01 X-4.31347 Y1.89665
G01 X-4.31396 Y1.89849
G01 X-4.31426 Y1.90037
G01 X-4.31507 Y1.90807
G01 X-4.31517 Y1.90997
G01 X-4.31507 Y1.91187
G01 X-4.31426 Y1.91956
G01 X-4.31396 Y1.92145
G01 X-4.31347 Y1.92329
G01 X-4.31108 Y1.93064
G01 X-4.31040 Y1.93242
G01 X-4.30953 Y1.93412
G01 X-4.30566 Y1.94082
G01 X-4.30463 Y1.94241
G01 X-4.30343 Y1.94390
G01 X-4.30317 Y1.94418
G01 X-4.30258 Y1.94399
G01 X-4.30317 Y1.94418
G01 X-4.30317 Y1.97576
G01 X-4.30258 Y1.97595
G01 X-4.30317 Y1.97576
G01 X-4.30343 Y1.97604
G01 X-4.30463 Y1.97752
G01 X-4.30566 Y1.97912
G01 X-4.30953 Y1.98582
G01 X-4.31040 Y1.98752
G01 X-4.31108 Y1.98930
G01 X-4.31347 Y1.99665
G01 X-4.31396 Y1.99849
G01 X-4.31426 Y2.00037
G01 X-4.31507 Y2.00807
G01 X-4.31517 Y2.00997
G01 X-4.31507 Y2.01187
G01 X-4.31426 Y2.01956
G01 X-4.31396 Y2.02145
G01 X-4.31347 Y2.02329
G01 X-4.31108 Y2.03064
G01 X-4.31040 Y2.03242
G01 X-4.30953 Y2.03412
G01 X-4.30566 Y2.04082
G01 X-4.30463 Y2.04241
G01 X-4.30343 Y2.04390
G01 X-4.30317 Y2.04418
G01 X-4.30258 Y2.04399
G01 X-4.30317 Y2.04418
G01 X-4.30317 Y2.22575
G01 X-4.30272 Y2.22588
G01 X-4.30317 Y2.22575
