( pcb2gcode 2.1.0 )
( Software-independent Gcode )

G94 ( Inches per minute feed rate. )
G20 ( Units == INCHES. )

G90 ( Absolute coordinates. )
G00 S30000 ( RPM spindle speed. )
G01 F100.00000 ( Feedrate. )


G00 Z0.05000 (Retract to tool change height)
G04 P0.00000 (Wait for spindle to stop)
(MSG, Change tool bit to mill diameter 0.02600in)
G04 P0.00000 (Wait for spindle to get up to speed)
G04 P0 ( dwell for no time -- G64 should not smooth over this point )
G00 Z0.05000 ( retract )

G00 X-0.98597 Y1.02079 ( rapid move to begin. )
G01 F100.00000
( Mill infeed pass 1/1 )
G01 Z-0.00500
G04 P0 ( dwell for no time -- G64 should not smooth over this point )
G01 F100.00000
G01 X-0.98597 Y1.02079
G01 X-0.96997 Y1.03679
G01 X-0.96898 Y1.03638
G01 X-0.96997 Y1.03679
G01 X-0.96997 Y1.26876
G01 X-0.96978 Y1.26879
G01 X-0.96997 Y1.26876
G01 X-0.97304 Y1.27676
G01 X-0.97543 Y1.28412
G01 X-0.97797 Y1.29358
G01 X-0.97797 Y1.30831
G01 X-0.97797 Y1.30832
G01 X-0.97797 Y1.31608
G01 X-0.97797 Y1.31610
G01 X-0.97797 Y1.33984
G01 X-0.98697 Y1.32797
G01 X-0.98754 Y1.31710
G01 X-0.98835 Y1.30941
G01 X-0.99005 Y1.29865
G01 X-0.99287 Y1.28814
G01 X-0.99526 Y1.28078
G01 X-0.99897 Y1.27111
G01 X-0.99916 Y1.27115
G01 X-0.99897 Y1.27111
G01 X-0.99897 Y0.98940
G01 X-1.01196 Y0.95802
G01 X-1.02496 Y0.92664
G01 X-0.93097 Y1.02063
G01 X-0.92998 Y1.02022
G01 X-0.93097 Y1.02063
G01 X-0.93097 Y1.27716
G01 X-0.93070 Y1.27721
G01 X-0.93097 Y1.27716
G01 X-0.93303 Y1.28119
G01 X-0.93595 Y1.28882
G01 X-0.93834 Y1.29617
G01 X-0.94045 Y1.30406
G01 X-0.94173 Y1.31212
G01 X-0.94254 Y1.31982
G01 X-0.94297 Y1.32797
G01 X-0.94254 Y1.33612
G01 X-0.94173 Y1.34381
G01 X-0.94045 Y1.35188
G01 X-0.93834 Y1.35977
G01 X-0.93595 Y1.36712
G01 X-0.93303 Y1.37474
G01 X-0.92932 Y1.38202
G01 X-0.92843 Y1.38355
G01 X-0.92788 Y1.38344
G01 X-0.92843 Y1.38355
G01 X-0.92959 Y1.39529
G01 X-0.92959 Y1.43072
G01 X-0.92809 Y1.44594
G01 X-0.92682 Y1.45014
G01 X-0.92682 Y1.45014
G01 X-0.91844 Y1.45634
G01 X-0.92682 Y1.45014
G01 X-0.92711 Y1.44993
G01 X-0.92856 Y1.44886
G01 X-0.92856 Y1.44887
G01 X-0.92856 Y1.44886
G01 X-0.94187 Y1.43693
G01 X-0.94199 Y1.43682
G01 X-0.94259 Y1.43072
G01 X-0.94259 Y1.39529
G01 X-0.94170 Y1.38631
G01 X-0.94117 Y1.38620
G01 X-0.94170 Y1.38631
G01 X-0.94490 Y1.38003
G01 X-0.94832 Y1.37114
G01 X-0.95071 Y1.36378
G01 X-0.95317 Y1.35458
G01 X-0.95466 Y1.34517
G01 X-0.95547 Y1.33748
G01 X-0.95597 Y1.32797
G01 X-0.95547 Y1.31846
G01 X-0.95466 Y1.31076
G01 X-0.95317 Y1.30136
G01 X-0.95071 Y1.29216
G01 X-0.94832 Y1.28480
G01 X-0.94490 Y1.27591
G01 X-0.94397 Y1.27407
G01 X-0.94373 Y1.27412
G01 X-0.94397 Y1.27407
G01 X-0.94397 Y1.02602
G01 X-0.94298 Y1.02561
G01 X-0.94397 Y1.02602
G01 X-1.01196 Y0.95802
G01 X-1.01196 Y0.95802
G01 X-1.01197 Y0.95802
G01 X-1.01196 Y0.95802
G01 X-0.99897 Y0.98940
G01 X-0.99897 Y0.98940
G01 X-0.95697 Y1.03140
G01 X-0.95598 Y1.03099
G01 X-0.95697 Y1.03140
G01 X-0.95697 Y1.27111
G01 X-0.95678 Y1.27115
G01 X-0.95697 Y1.27111
G01 X-0.96068 Y1.28078
G01 X-0.96307 Y1.28814
G01 X-0.96589 Y1.29865
G01 X-0.96759 Y1.30941
G01 X-0.96840 Y1.31710
G01 X-0.96897 Y1.32797
G01 X-0.96840 Y1.33884
G01 X-0.96759 Y1.34653
G01 X-0.96589 Y1.35728
G01 X-0.96307 Y1.36780
G01 X-0.96068 Y1.37516
G01 X-0.95678 Y1.38532
G01 X-0.95496 Y1.38889
G01 X-0.95456 Y1.38883
G01 X-0.95496 Y1.38889
G01 X-0.95559 Y1.39529
G01 X-0.95559 Y1.42393
G01 X-1.00034 Y1.42393
G01 X-1.00034 Y1.42393
G01 X-1.00714 Y1.43073
G01 X-1.01406 Y1.43693
G01 X-1.02738 Y1.44886
G01 X-1.02737 Y1.44887
G01 X-1.02738 Y1.44886
G01 X-1.02883 Y1.44993
G01 X-1.02883 Y1.44993
G01 X-1.02912 Y1.45014
G01 X-1.02883 Y1.44993
G01 X-1.02883 Y1.44993
G01 X-0.92711 Y1.44993
G01 X-0.92856 Y1.44886
G01 X-0.94187 Y1.43693
G01 X-1.01406 Y1.43693
G01 X-1.01407 Y1.43693
G01 X-1.01406 Y1.43693
G01 X-1.00714 Y1.43073
G01 X-1.00034 Y1.42393
G01 X-0.98735 Y1.41093
G01 X-0.96859 Y1.41093
G01 X-0.98735 Y1.41093
G01 X-1.00034 Y1.42393
G01 X-1.00034 Y1.42393
G01 X-1.00035 Y1.39529
G01 X-1.00098 Y1.38889
G01 X-1.00138 Y1.38883
G01 X-1.00098 Y1.38889
G01 X-0.99916 Y1.38532
G01 X-0.99526 Y1.37516
G01 X-0.99287 Y1.36780
G01 X-0.99005 Y1.35728
G01 X-0.98835 Y1.34653
G01 X-0.98754 Y1.33884
G01 X-0.98697 Y1.32797
G01 X-0.99997 Y1.32797
G01 X-1.01297 Y1.32797
G01 X-1.02597 Y1.32797
G01 X-1.02632 Y1.32117
G01 X-1.02713 Y1.31348
G01 X-1.02820 Y1.30676
G01 X-1.02996 Y1.30019
G01 X-1.03235 Y1.29283
G01 X-1.03479 Y1.28648
G01 X-1.03788 Y1.28042
G01 X-1.03797 Y1.28026
G01 X-1.03825 Y1.28032
G01 X-1.03797 Y1.28026
G01 X-1.03797 Y0.89525
G01 X-1.03796 Y0.89525
G01 X-1.03796 Y0.89525
G01 X-1.05096 Y0.86387
G01 X-0.90497 Y1.00986
G01 X-0.90398 Y1.00945
G01 X-0.90497 Y1.00986
G01 X-0.90497 Y1.28374
G01 X-0.90458 Y1.28384
G01 X-0.90497 Y1.28374
G01 X-0.90680 Y1.28692
G01 X-0.90927 Y1.29177
G01 X-0.91122 Y1.29685
G01 X-0.91361 Y1.30421
G01 X-0.91502 Y1.30946
G01 X-0.91587 Y1.31484
G01 X-0.91668 Y1.32253
G01 X-0.91697 Y1.32797
G01 X-0.91668 Y1.33340
G01 X-0.91587 Y1.34110
G01 X-0.91502 Y1.34647
G01 X-0.91361 Y1.35173
G01 X-0.91122 Y1.35909
G01 X-0.90927 Y1.36417
G01 X-0.90680 Y1.36902
G01 X-0.90293 Y1.37572
G01 X-0.90075 Y1.37908
G01 X-0.89960 Y1.37895
G01 X-0.90075 Y1.37908
G01 X-0.90259 Y1.38515
G01 X-0.90359 Y1.39529
G01 X-0.90359 Y1.43072
G01 X-0.90259 Y1.44087
G01 X-0.89963 Y1.45062
G01 X-0.89483 Y1.45961
G01 X-0.88836 Y1.46749
G01 X-0.88048 Y1.47396
G01 X-0.87656 Y1.47606
G01 X-0.86784 Y1.47797
G01 X-0.86785 Y1.47805
G01 X-0.86784 Y1.47797
G01 X-0.87656 Y1.47606
G01 X-0.87656 Y1.47606
G01 X-0.87714 Y1.47593
G01 X-1.07879 Y1.47593
G01 X-1.07879 Y1.47593
G01 X-1.07938 Y1.47606
G01 X-1.07546 Y1.47396
G01 X-1.06758 Y1.46749
G01 X-1.06111 Y1.45961
G01 X-1.05630 Y1.45062
G01 X-1.05335 Y1.44087
G01 X-1.05235 Y1.43072
G01 X-1.05235 Y1.39529
G01 X-1.05335 Y1.38515
G01 X-1.05519 Y1.37908
G01 X-1.05640 Y1.37893
G01 X-1.05519 Y1.37908
G01 X-1.05300 Y1.37572
G01 X-1.04913 Y1.36902
G01 X-1.04666 Y1.36417
G01 X-1.04471 Y1.35909
G01 X-1.04232 Y1.35173
G01 X-1.04091 Y1.34647
G01 X-1.04006 Y1.34110
G01 X-1.03925 Y1.33340
G01 X-1.03897 Y1.32797
G01 X-1.03925 Y1.32253
G01 X-1.04006 Y1.31484
G01 X-1.04091 Y1.30946
G01 X-1.04232 Y1.30421
G01 X-1.04471 Y1.29685
G01 X-1.04666 Y1.29177
G01 X-1.04913 Y1.28692
G01 X-1.05097 Y1.28374
G01 X-1.05136 Y1.28384
G01 X-1.05097 Y1.28374
G01 X-1.05097 Y0.86386
G01 X-1.06396 Y0.83249
G01 X-1.05097 Y0.86386
G01 X-1.05096 Y0.86387
G01 X-1.05096 Y0.86387
G01 X-1.05096 Y0.86387
G01 X-1.05096 Y0.86387
G01 X-1.03796 Y0.89526
G01 X-1.03796 Y0.89525
G01 X-1.03796 Y0.89526
G01 X-1.03796 Y0.89526
G01 X-0.91797 Y1.01525
G01 X-0.91698 Y1.01484
G01 X-0.91797 Y1.01525
G01 X-0.91797 Y1.28026
G01 X-0.91768 Y1.28032
G01 X-0.91797 Y1.28026
G01 X-0.91806 Y1.28042
G01 X-0.92115 Y1.28648
G01 X-0.92359 Y1.29283
G01 X-0.92598 Y1.30019
G01 X-0.92774 Y1.30676
G01 X-0.92880 Y1.31348
G01 X-0.92961 Y1.32117
G01 X-0.92997 Y1.32797
G01 X-0.92961 Y1.33476
G01 X-0.92880 Y1.34246
G01 X-0.92774 Y1.34918
G01 X-0.92598 Y1.35575
G01 X-0.92359 Y1.36310
G01 X-0.92115 Y1.36946
G01 X-0.91806 Y1.37552
G01 X-0.91487 Y1.38105
G01 X-0.91423 Y1.38093
G01 X-0.91487 Y1.38105
G01 X-0.91534 Y1.38261
G01 X-0.91659 Y1.39529
G01 X-0.91659 Y1.43072
G01 X-0.91534 Y1.44341
G01 X-0.91164 Y1.45560
G01 X-0.90760 Y1.46315
G01 X-0.90760 Y1.46315
G01 X-0.89820 Y1.46815
G01 X-0.89820 Y1.46816
G01 X-0.89820 Y1.46815
G01 X-0.90760 Y1.46315
G01 X-0.90760 Y1.46315
G01 X-0.90802 Y1.46293
G01 X-1.04789 Y1.46293
G01 X-1.04791 Y1.46293
G01 X-1.04833 Y1.46315
G01 X-1.05774 Y1.46815
G01 X-1.05773 Y1.46816
G01 X-1.05774 Y1.46815
G01 X-1.04833 Y1.46315
G01 X-1.04429 Y1.45560
G01 X-1.04059 Y1.44341
G01 X-1.03935 Y1.43072
G01 X-1.03935 Y1.39529
G01 X-1.04059 Y1.38261
G01 X-1.04107 Y1.38105
G01 X-1.04170 Y1.38093
G01 X-1.04107 Y1.38105
G01 X-1.03788 Y1.37552
G01 X-1.03479 Y1.36946
G01 X-1.03235 Y1.36310
G01 X-1.02996 Y1.35575
G01 X-1.02820 Y1.34918
G01 X-1.02713 Y1.34246
G01 X-1.02632 Y1.33476
G01 X-1.02597 Y1.32797
G01 X-1.03897 Y1.32797
G01 X-1.05197 Y1.32797
G01 X-1.06497 Y1.32797
G01 X-1.07797 Y1.32797
G01 X-1.07804 Y1.32661
G01 X-1.07885 Y1.31892
G01 X-1.07906 Y1.31757
G01 X-1.07941 Y1.31626
G01 X-1.08180 Y1.30890
G01 X-1.08229 Y1.30763
G01 X-1.08291 Y1.30642
G01 X-1.08678 Y1.29972
G01 X-1.08752 Y1.29858
G01 X-1.08837 Y1.29752
G01 X-1.08997 Y1.29575
G01 X-1.08997 Y0.82797
G01 X-1.09003 Y0.82669
G01 X-1.09051 Y0.82182
G01 X-1.09101 Y0.81932
G01 X-1.09243 Y0.81463
G01 X-1.09286 Y0.81343
G01 X-1.09341 Y0.81227
G01 X-1.09572 Y0.80795
G01 X-1.09637 Y0.80686
G01 X-1.09713 Y0.80583
G01 X-1.10024 Y0.80204
G01 X-1.10110 Y0.80110
G01 X-1.20110 Y0.70110
G01 X-1.20204 Y0.70024
G01 X-1.20583 Y0.69713
G01 X-1.20686 Y0.69637
G01 X-1.20795 Y0.69572
G01 X-1.21227 Y0.69341
G01 X-1.21343 Y0.69286
G01 X-1.21463 Y0.69243
G01 X-1.21932 Y0.69101
G01 X-1.22182 Y0.69051
G01 X-1.22669 Y0.69003
G01 X-1.22797 Y0.68997
G01 X-1.62797 Y0.68997
G01 X-1.62924 Y0.69003
G01 X-1.63412 Y0.69051
G01 X-1.63662 Y0.69101
G01 X-1.64131 Y0.69243
G01 X-1.64251 Y0.69286
G01 X-1.64366 Y0.69341
G01 X-1.64799 Y0.69572
G01 X-1.64908 Y0.69637
G01 X-1.65010 Y0.69713
G01 X-1.65389 Y0.70024
G01 X-1.65484 Y0.70110
G01 X-1.83192 Y0.87818
G01 X-1.83319 Y0.87824
G01 X-1.83454 Y0.87846
G01 X-1.84210 Y0.88006
G01 X-1.84342 Y0.88042
G01 X-1.84469 Y0.88090
G01 X-1.85176 Y0.88405
G01 X-1.85297 Y0.88467
G01 X-1.85411 Y0.88541
G01 X-1.86037 Y0.88996
G01 X-1.86142 Y0.89081
G01 X-1.86239 Y0.89177
G01 X-1.86756 Y0.89752
G01 X-1.86842 Y0.89858
G01 X-1.86916 Y0.89972
G01 X-1.87303 Y0.90642
G01 X-1.87365 Y0.90763
G01 X-1.87413 Y0.90890
G01 X-1.87652 Y0.91626
G01 X-1.87688 Y0.91757
G01 X-1.87709 Y0.91892
G01 X-1.87790 Y0.92661
G01 X-1.87797 Y0.92797
G01 X-1.87804 Y0.92933
G01 X-1.87885 Y0.93702
G01 X-1.87906 Y0.93836
G01 X-1.87941 Y0.93968
G01 X-1.88180 Y0.94704
G01 X-1.88229 Y0.94831
G01 X-1.88291 Y0.94952
G01 X-1.88678 Y0.95622
G01 X-1.88752 Y0.95736
G01 X-1.88837 Y0.95842
G01 X-1.88997 Y0.96019
G01 X-1.88997 Y0.99575
G01 X-1.88837 Y0.99752
G01 X-1.88752 Y0.99858
G01 X-1.88678 Y0.99972
G01 X-1.88291 Y1.00642
G01 X-1.88229 Y1.00763
G01 X-1.88180 Y1.00890
G01 X-1.87941 Y1.01626
G01 X-1.87906 Y1.01757
G01 X-1.87885 Y1.01892
G01 X-1.87804 Y1.02661
G01 X-1.87797 Y1.02797
G01 X-1.87790 Y1.02933
G01 X-1.87709 Y1.03702
G01 X-1.87688 Y1.03836
G01 X-1.87652 Y1.03968
G01 X-1.87413 Y1.04704
G01 X-1.87365 Y1.04831
G01 X-1.87303 Y1.04952
G01 X-1.86916 Y1.05622
G01 X-1.86842 Y1.05736
G01 X-1.86756 Y1.05842
G01 X-1.86239 Y1.06416
G01 X-1.86142 Y1.06513
G01 X-1.86037 Y1.06598
G01 X-1.85411 Y1.07053
G01 X-1.85297 Y1.07127
G01 X-1.85176 Y1.07189
G01 X-1.84469 Y1.07503
G01 X-1.84342 Y1.07552
G01 X-1.84210 Y1.07587
G01 X-1.83454 Y1.07748
G01 X-1.83319 Y1.07770
G01 X-1.83184 Y1.07777
G01 X-1.82410 Y1.07777
G01 X-1.82274 Y1.07770
G01 X-1.82140 Y1.07748
G01 X-1.81383 Y1.07587
G01 X-1.81252 Y1.07552
G01 X-1.81125 Y1.07503
G01 X-1.80418 Y1.07189
G01 X-1.80297 Y1.07127
G01 X-1.80183 Y1.07053
G01 X-1.79557 Y1.06598
G01 X-1.79451 Y1.06513
G01 X-1.79355 Y1.06416
G01 X-1.78837 Y1.05842
G01 X-1.78752 Y1.05736
G01 X-1.78678 Y1.05622
G01 X-1.78291 Y1.04952
G01 X-1.78229 Y1.04831
G01 X-1.78180 Y1.04704
G01 X-1.77941 Y1.03968
G01 X-1.77906 Y1.03836
G01 X-1.77885 Y1.03702
G01 X-1.77804 Y1.02933
G01 X-1.77797 Y1.02797
G01 X-1.77790 Y1.02661
G01 X-1.77709 Y1.01892
G01 X-1.77688 Y1.01757
G01 X-1.77652 Y1.01626
G01 X-1.77413 Y1.00890
G01 X-1.77365 Y1.00763
G01 X-1.77303 Y1.00642
G01 X-1.76916 Y0.99972
G01 X-1.76842 Y0.99858
G01 X-1.76756 Y0.99752
G01 X-1.76239 Y0.99177
G01 X-1.76142 Y0.99081
G01 X-1.76037 Y0.98996
G01 X-1.75597 Y0.98676
G01 X-1.75597 Y0.92797
G01 X-1.75591 Y0.92669
G01 X-1.75562 Y0.92377
G01 X-1.75543 Y0.92251
G01 X-1.75512 Y0.92127
G01 X-1.75427 Y0.91846
G01 X-1.75329 Y0.91610
G01 X-1.75191 Y0.91351
G01 X-1.75125 Y0.91241
G01 X-1.75049 Y0.91139
G01 X-1.74862 Y0.90912
G01 X-1.74777 Y0.90817
G01 X-1.64777 Y0.80817
G01 X-1.64682 Y0.80731
G01 X-1.64455 Y0.80545
G01 X-1.64352 Y0.80469
G01 X-1.64243 Y0.80403
G01 X-1.63984 Y0.80265
G01 X-1.63748 Y0.80167
G01 X-1.63467 Y0.80082
G01 X-1.63343 Y0.80051
G01 X-1.63217 Y0.80032
G01 X-1.62924 Y0.80003
G01 X-1.62797 Y0.79997
G01 X-1.62288 Y0.79997
G01 X-1.62286 Y0.79990
G01 X-1.62190 Y0.79785
G01 X-1.62060 Y0.79599
G01 X-1.61900 Y0.79439
G01 X-1.61715 Y0.79309
G01 X-1.61509 Y0.79213
G01 X-1.61290 Y0.79154
G01 X-1.61065 Y0.79135
G01 X-1.57521 Y0.79135
G01 X-1.57268 Y0.79160
G01 X-1.57024 Y0.79234
G01 X-1.56799 Y0.79354
G01 X-1.56602 Y0.79515
G01 X-1.56440 Y0.79712
G01 X-1.56320 Y0.79937
G01 X-1.56246 Y0.80181
G01 X-1.56221 Y0.80435
G01 X-1.56221 Y0.85159
G01 X-1.56246 Y0.85413
G01 X-1.56320 Y0.85657
G01 X-1.56440 Y0.85881
G01 X-1.56602 Y0.86078
G01 X-1.56799 Y0.86240
G01 X-1.57024 Y0.86360
G01 X-1.57268 Y0.86434
G01 X-1.57521 Y0.86459
G01 X-1.61065 Y0.86459
G01 X-1.61318 Y0.86434
G01 X-1.61562 Y0.86360
G01 X-1.61787 Y0.86240
G01 X-1.61984 Y0.86078
G01 X-1.62044 Y0.86004
G01 X-1.69997 Y0.93957
G01 X-1.69997 Y0.98676
G01 X-1.69557 Y0.98996
G01 X-1.69451 Y0.99081
G01 X-1.69355 Y0.99177
G01 X-1.68837 Y0.99752
G01 X-1.68752 Y0.99858
G01 X-1.68678 Y0.99972
G01 X-1.68291 Y1.00642
G01 X-1.68229 Y1.00763
G01 X-1.68180 Y1.00890
G01 X-1.67941 Y1.01626
G01 X-1.67906 Y1.01757
G01 X-1.67885 Y1.01892
G01 X-1.67804 Y1.02661
G01 X-1.67797 Y1.02797
G01 X-1.67790 Y1.02933
G01 X-1.67709 Y1.03702
G01 X-1.67688 Y1.03836
G01 X-1.67652 Y1.03968
G01 X-1.67413 Y1.04704
G01 X-1.67365 Y1.04831
G01 X-1.67303 Y1.04952
G01 X-1.66916 Y1.05622
G01 X-1.66842 Y1.05736
G01 X-1.66756 Y1.05842
G01 X-1.66239 Y1.06416
G01 X-1.66142 Y1.06513
G01 X-1.66037 Y1.06598
G01 X-1.65411 Y1.07053
G01 X-1.65297 Y1.07127
G01 X-1.65176 Y1.07189
G01 X-1.64469 Y1.07503
G01 X-1.64342 Y1.07552
G01 X-1.64210 Y1.07587
G01 X-1.63454 Y1.07748
G01 X-1.63319 Y1.07770
G01 X-1.63184 Y1.07777
G01 X-1.62410 Y1.07777
G01 X-1.62274 Y1.07770
G01 X-1.62140 Y1.07748
G01 X-1.61383 Y1.07587
G01 X-1.61252 Y1.07552
G01 X-1.61125 Y1.07503
G01 X-1.60418 Y1.07189
G01 X-1.60297 Y1.07127
G01 X-1.60183 Y1.07053
G01 X-1.59557 Y1.06598
G01 X-1.59451 Y1.06513
G01 X-1.59355 Y1.06416
G01 X-1.58837 Y1.05842
G01 X-1.58752 Y1.05736
G01 X-1.58678 Y1.05622
G01 X-1.58291 Y1.04952
G01 X-1.58229 Y1.04831
G01 X-1.58180 Y1.04704
G01 X-1.57941 Y1.03968
G01 X-1.57906 Y1.03836
G01 X-1.57885 Y1.03702
G01 X-1.57804 Y1.02933
G01 X-1.57797 Y1.02797
G01 X-1.57790 Y1.02661
G01 X-1.57709 Y1.01892
G01 X-1.57688 Y1.01757
G01 X-1.57652 Y1.01626
G01 X-1.57413 Y1.00890
G01 X-1.57365 Y1.00763
G01 X-1.57303 Y1.00642
G01 X-1.56916 Y0.99972
G01 X-1.56842 Y0.99858
G01 X-1.56756 Y0.99752
G01 X-1.56239 Y0.99177
G01 X-1.56142 Y0.99081
G01 X-1.56037 Y0.98996
G01 X-1.55411 Y0.98541
G01 X-1.55297 Y0.98467
G01 X-1.55176 Y0.98405
G01 X-1.54469 Y0.98090
G01 X-1.54342 Y0.98042
G01 X-1.54210 Y0.98006
G01 X-1.53454 Y0.97846
G01 X-1.53319 Y0.97824
G01 X-1.53184 Y0.97817
G01 X-1.52410 Y0.97817
G01 X-1.52274 Y0.97824
G01 X-1.52140 Y0.97846
G01 X-1.51383 Y0.98006
G01 X-1.51252 Y0.98042
G01 X-1.51125 Y0.98090
G01 X-1.50418 Y0.98405
G01 X-1.50297 Y0.98467
G01 X-1.50183 Y0.98541
G01 X-1.49557 Y0.98996
G01 X-1.49451 Y0.99081
G01 X-1.49355 Y0.99177
G01 X-1.48837 Y0.99752
G01 X-1.48752 Y0.99858
G01 X-1.48678 Y0.99972
G01 X-1.48291 Y1.00642
G01 X-1.48229 Y1.00763
G01 X-1.48180 Y1.00890
G01 X-1.47941 Y1.01626
G01 X-1.47906 Y1.01757
G01 X-1.47885 Y1.01892
G01 X-1.47804 Y1.02661
G01 X-1.47797 Y1.02797
G01 X-1.47790 Y1.02933
G01 X-1.47709 Y1.03702
G01 X-1.47688 Y1.03836
G01 X-1.47652 Y1.03968
G01 X-1.47413 Y1.04704
G01 X-1.47365 Y1.04831
G01 X-1.47303 Y1.04952
G01 X-1.46916 Y1.05622
G01 X-1.46842 Y1.05736
G01 X-1.46756 Y1.05842
G01 X-1.46239 Y1.06416
G01 X-1.46142 Y1.06513
G01 X-1.46037 Y1.06598
G01 X-1.45411 Y1.07053
G01 X-1.45297 Y1.07127
G01 X-1.45176 Y1.07189
G01 X-1.44469 Y1.07503
G01 X-1.44342 Y1.07552
G01 X-1.44210 Y1.07587
G01 X-1.43454 Y1.07748
G01 X-1.43319 Y1.07770
G01 X-1.43184 Y1.07777
G01 X-1.42410 Y1.07777
G01 X-1.42274 Y1.07770
G01 X-1.42140 Y1.07748
G01 X-1.41383 Y1.07587
G01 X-1.41252 Y1.07552
G01 X-1.41125 Y1.07503
G01 X-1.40418 Y1.07189
G01 X-1.40297 Y1.07127
G01 X-1.40183 Y1.07053
G01 X-1.39557 Y1.06598
G01 X-1.39451 Y1.06513
G01 X-1.39355 Y1.06416
G01 X-1.38837 Y1.05842
G01 X-1.38752 Y1.05736
G01 X-1.38678 Y1.05622
G01 X-1.38291 Y1.04952
G01 X-1.38229 Y1.04831
G01 X-1.38180 Y1.04704
G01 X-1.37941 Y1.03968
G01 X-1.37906 Y1.03836
G01 X-1.37885 Y1.03702
G01 X-1.37804 Y1.02933
G01 X-1.37797 Y1.02797
G01 X-1.36497 Y1.02797
G01 X-1.35197 Y1.02797
G01 X-1.33897 Y1.02797
G01 X-1.33925 Y1.02253
G01 X-1.34006 Y1.01484
G01 X-1.34091 Y1.00946
G01 X-1.34232 Y1.00421
G01 X-1.34471 Y0.99685
G01 X-1.34666 Y0.99177
G01 X-1.34913 Y0.98692
G01 X-1.35300 Y0.98022
G01 X-1.35597 Y0.97566
G01 X-1.35939 Y0.97143
G01 X-1.36457 Y0.96568
G01 X-1.36842 Y0.96183
G01 X-1.37265 Y0.95840
G01 X-1.37610 Y0.95589
G01 X-1.38065 Y0.95625
G01 X-1.38065 Y0.95623
G01 X-1.38065 Y0.95625
G01 X-1.37610 Y0.95589
G01 X-1.37610 Y0.95589
G01 X-1.32364 Y0.90344
G01 X-1.32399 Y0.90271
G01 X-1.32364 Y0.90344
G01 X-1.31507 Y0.90259
G01 X-1.30531 Y0.89963
G01 X-1.29632 Y0.89483
G01 X-1.28844 Y0.88836
G01 X-1.28198 Y0.88048
G01 X-1.27797 Y0.87298
G01 X-1.27396 Y0.88048
G01 X-1.26749 Y0.88836
G01 X-1.25961 Y0.89483
G01 X-1.25062 Y0.89963
G01 X-1.24087 Y0.90259
G01 X-1.23072 Y0.90359
G01 X-1.20497 Y0.90359
G01 X-1.20116 Y0.89978
G01 X-1.20497 Y0.90359
G01 X-1.20497 Y1.28374
G01 X-1.20458 Y1.28384
G01 X-1.20497 Y1.28374
G01 X-1.20680 Y1.28692
G01 X-1.20927 Y1.29177
G01 X-1.21122 Y1.29685
G01 X-1.21361 Y1.30421
G01 X-1.21502 Y1.30946
G01 X-1.21587 Y1.31484
G01 X-1.21668 Y1.32253
G01 X-1.21697 Y1.32797
G01 X-1.21668 Y1.33340
G01 X-1.21587 Y1.34110
G01 X-1.21502 Y1.34647
G01 X-1.21361 Y1.35173
G01 X-1.21122 Y1.35909
G01 X-1.20927 Y1.36417
G01 X-1.20680 Y1.36902
G01 X-1.20293 Y1.37572
G01 X-1.20075 Y1.37908
G01 X-1.19960 Y1.37895
G01 X-1.20075 Y1.37908
G01 X-1.20259 Y1.38515
G01 X-1.20359 Y1.39529
G01 X-1.20359 Y1.43072
G01 X-1.20259 Y1.44087
G01 X-1.19963 Y1.45062
G01 X-1.19483 Y1.45961
G01 X-1.18836 Y1.46749
G01 X-1.18048 Y1.47396
G01 X-1.17732 Y1.47565
G01 X-1.16784 Y1.47797
G01 X-1.16785 Y1.47806
G01 X-1.16784 Y1.47797
G01 X-1.17732 Y1.47565
G01 X-1.18287 Y1.47429
G01 X-1.18288 Y1.47432
G01 X-1.18287 Y1.47429
G01 X-1.19790 Y1.46829
G01 X-1.19791 Y1.46832
G01 X-1.19790 Y1.46829
G01 X-1.20778 Y1.46283
G01 X-1.21294 Y1.45997
G01 X-1.21295 Y1.45999
G01 X-1.21294 Y1.45997
G01 X-1.22682 Y1.45013
G01 X-1.22711 Y1.44993
G01 X-1.22883 Y1.44993
G01 X-1.22912 Y1.45013
G01 X-1.22797 Y1.44635
G01 X-1.22682 Y1.45013
G01 X-1.22797 Y1.44932
G01 X-1.22883 Y1.44993
G01 X-1.22912 Y1.45013
G01 X-1.22912 Y1.45014
G01 X-1.24300 Y1.45997
G01 X-1.24299 Y1.45999
G01 X-1.24300 Y1.45997
G01 X-1.24816 Y1.46283
G01 X-1.24816 Y1.46283
G01 X-1.24834 Y1.46293
G01 X-1.24816 Y1.46283
G01 X-1.24816 Y1.46283
G01 X-1.24429 Y1.45560
G01 X-1.24059 Y1.44341
G01 X-1.23935 Y1.43072
G01 X-1.23935 Y1.39529
G01 X-1.24059 Y1.38261
G01 X-1.24107 Y1.38105
G01 X-1.24170 Y1.38093
G01 X-1.24107 Y1.38105
G01 X-1.23788 Y1.37552
G01 X-1.23479 Y1.36946
G01 X-1.23235 Y1.36310
G01 X-1.22996 Y1.35575
G01 X-1.22820 Y1.34918
G01 X-1.22797 Y1.34773
G01 X-1.22774 Y1.34918
G01 X-1.22598 Y1.35575
G01 X-1.22359 Y1.36310
G01 X-1.22115 Y1.36946
G01 X-1.21806 Y1.37552
G01 X-1.21487 Y1.38105
G01 X-1.21423 Y1.38093
G01 X-1.21487 Y1.38105
G01 X-1.21534 Y1.38261
G01 X-1.21659 Y1.39529
G01 X-1.21659 Y1.43072
G01 X-1.21534 Y1.44341
G01 X-1.21164 Y1.45560
G01 X-1.20778 Y1.46283
G01 X-1.19790 Y1.46829
G01 X-1.20759 Y1.46293
G01 X-1.24834 Y1.46293
G01 X-1.24834 Y1.46293
G01 X-1.24834 Y1.46293
G01 X-1.25803 Y1.46829
G01 X-1.25802 Y1.46832
G01 X-1.25803 Y1.46829
G01 X-1.27306 Y1.47429
G01 X-1.27305 Y1.47432
G01 X-1.27306 Y1.47429
G01 X-1.27862 Y1.47565
G01 X-1.28809 Y1.47797
G01 X-1.28808 Y1.47806
G01 X-1.28809 Y1.47797
G01 X-1.27975 Y1.47593
G01 X-1.27862 Y1.47565
G01 X-1.27546 Y1.47396
G01 X-1.26758 Y1.46749
G01 X-1.26111 Y1.45961
G01 X-1.25630 Y1.45062
G01 X-1.25335 Y1.44087
G01 X-1.25235 Y1.43072
G01 X-1.25235 Y1.39529
G01 X-1.25335 Y1.38515
G01 X-1.25519 Y1.37908
G01 X-1.25633 Y1.37895
G01 X-1.25519 Y1.37908
G01 X-1.25300 Y1.37572
G01 X-1.24913 Y1.36902
G01 X-1.24666 Y1.36417
G01 X-1.24471 Y1.35909
G01 X-1.24232 Y1.35173
G01 X-1.24091 Y1.34647
G01 X-1.24006 Y1.34110
G01 X-1.23925 Y1.33340
G01 X-1.23897 Y1.32797
G01 X-1.22797 Y1.32134
G01 X-1.23897 Y1.32797
G01 X-1.25197 Y1.32797
G01 X-1.26497 Y1.32797
G01 X-1.27797 Y1.32797
G01 X-1.26497 Y1.32797
G01 X-1.25197 Y1.32797
G01 X-1.23897 Y1.32797
G01 X-1.23925 Y1.32253
G01 X-1.24006 Y1.31484
G01 X-1.24091 Y1.30946
G01 X-1.24232 Y1.30421
G01 X-1.24471 Y1.29685
G01 X-1.24666 Y1.29177
G01 X-1.24913 Y1.28692
G01 X-1.25300 Y1.28022
G01 X-1.25597 Y1.27566
G01 X-1.25939 Y1.27143
G01 X-1.26457 Y1.26568
G01 X-1.26842 Y1.26183
G01 X-1.27265 Y1.25840
G01 X-1.27890 Y1.25386
G01 X-1.28347 Y1.25089
G01 X-1.28832 Y1.24842
G01 X-1.29538 Y1.24528
G01 X-1.30047 Y1.24332
G01 X-1.30491 Y1.24213
G01 X-1.30514 Y1.24253
G01 X-1.30491 Y1.24213
G01 X-1.43028 Y1.11677
G01 X-1.43183 Y1.11612
G01 X-1.43028 Y1.11677
G01 X-1.43027 Y1.11677
G01 X-1.42410 Y1.11677
G01 X-1.41866 Y1.11648
G01 X-1.41329 Y1.11563
G01 X-1.40572 Y1.11402
G01 X-1.40047 Y1.11261
G01 X-1.39538 Y1.11066
G01 X-1.38832 Y1.10752
G01 X-1.38347 Y1.10505
G01 X-1.37890 Y1.10208
G01 X-1.37265 Y1.09753
G01 X-1.36842 Y1.09411
G01 X-1.36457 Y1.09026
G01 X-1.35939 Y1.08451
G01 X-1.35597 Y1.08028
G01 X-1.35300 Y1.07572
G01 X-1.34913 Y1.06902
G01 X-1.34666 Y1.06417
G01 X-1.34471 Y1.05909
G01 X-1.34232 Y1.05173
G01 X-1.34091 Y1.04647
G01 X-1.34006 Y1.04110
G01 X-1.33925 Y1.03340
G01 X-1.33897 Y1.02797
G01 X-1.32597 Y1.02797
G01 X-1.32632 Y1.02117
G01 X-1.32713 Y1.01348
G01 X-1.32820 Y1.00676
G01 X-1.32996 Y1.00019
G01 X-1.33235 Y0.99283
G01 X-1.33479 Y0.98648
G01 X-1.33788 Y0.98042
G01 X-1.34174 Y0.97372
G01 X-1.34545 Y0.96801
G01 X-1.34973 Y0.96273
G01 X-1.35491 Y0.95698
G01 X-1.35676 Y0.95513
G01 X-1.35696 Y0.95513
G01 X-1.37051 Y0.95545
G01 X-1.37051 Y0.95544
G01 X-1.37051 Y0.95545
G01 X-1.35696 Y0.95513
G01 X-1.35275 Y0.95503
G01 X-1.35275 Y0.95502
G01 X-1.35275 Y0.95503
G01 X-1.35085 Y0.95508
G01 X-1.35275 Y0.95503
G01 X-1.35696 Y0.95513
G01 X-1.35695 Y0.95512
G01 X-1.31767 Y0.91585
G01 X-1.31802 Y0.91512
G01 X-1.31767 Y0.91585
G01 X-1.31253 Y0.91534
G01 X-1.30034 Y0.91164
G01 X-1.28910 Y0.90564
G01 X-1.27925 Y0.89755
G01 X-1.27797 Y0.89599
G01 X-1.27669 Y0.89755
G01 X-1.26684 Y0.90564
G01 X-1.25560 Y0.91164
G01 X-1.24340 Y0.91534
G01 X-1.23072 Y0.91659
G01 X-1.21797 Y0.91659
G01 X-1.21416 Y0.91278
G01 X-1.21797 Y0.91659
G01 X-1.21797 Y1.28026
G01 X-1.21768 Y1.28032
G01 X-1.21797 Y1.28026
G01 X-1.21806 Y1.28042
G01 X-1.22115 Y1.28648
G01 X-1.22359 Y1.29283
G01 X-1.22598 Y1.30019
G01 X-1.22774 Y1.30676
G01 X-1.22797 Y1.30820
G01 X-1.22820 Y1.30676
G01 X-1.22996 Y1.30019
G01 X-1.23235 Y1.29283
G01 X-1.23479 Y1.28648
G01 X-1.23788 Y1.28042
G01 X-1.24174 Y1.27372
G01 X-1.24545 Y1.26801
G01 X-1.24973 Y1.26273
G01 X-1.25491 Y1.25698
G01 X-1.25972 Y1.25217
G01 X-1.26500 Y1.24789
G01 X-1.27126 Y1.24334
G01 X-1.27697 Y1.23963
G01 X-1.28303 Y1.23655
G01 X-1.29010 Y1.23340
G01 X-1.29645 Y1.23096
G01 X-1.29815 Y1.23050
G01 X-1.29830 Y1.23073
G01 X-1.29815 Y1.23050
G01 X-1.40219 Y1.12647
G01 X-1.40210 Y1.12649
G01 X-1.39645 Y1.12498
G01 X-1.39010 Y1.12254
G01 X-1.38303 Y1.11939
G01 X-1.37697 Y1.11630
G01 X-1.37126 Y1.11260
G01 X-1.36500 Y1.10805
G01 X-1.35972 Y1.10377
G01 X-1.35491 Y1.09896
G01 X-1.34973 Y1.09321
G01 X-1.34545 Y1.08792
G01 X-1.34174 Y1.08222
G01 X-1.33788 Y1.07552
G01 X-1.33479 Y1.06946
G01 X-1.33235 Y1.06310
G01 X-1.32996 Y1.05575
G01 X-1.32820 Y1.04918
G01 X-1.32713 Y1.04246
G01 X-1.32632 Y1.03476
G01 X-1.32597 Y1.02797
G01 X-1.31297 Y1.02797
G01 X-1.31340 Y1.01982
G01 X-1.31420 Y1.01212
G01 X-1.31548 Y1.00406
G01 X-1.31759 Y0.99617
G01 X-1.31998 Y0.98882
G01 X-1.32291 Y0.98119
G01 X-1.32662 Y0.97392
G01 X-1.33048 Y0.96722
G01 X-1.33493 Y0.96037
G01 X-1.33884 Y0.95555
G01 X-1.33897 Y0.95554
G01 X-1.34152 Y0.95532
G01 X-1.33897 Y0.95554
G01 X-1.33897 Y0.95553
G01 X-1.32198 Y0.95693
G01 X-1.32167 Y0.95695
G01 X-1.31923 Y0.96072
G01 X-1.31536 Y0.96742
G01 X-1.31103 Y0.97591
G01 X-1.30762 Y0.98480
G01 X-1.30523 Y0.99216
G01 X-1.30277 Y1.00136
G01 X-1.30128 Y1.01076
G01 X-1.30047 Y1.01846
G01 X-1.29997 Y1.02797
G01 X-1.30047 Y1.03748
G01 X-1.30128 Y1.04517
G01 X-1.30277 Y1.05458
G01 X-1.30523 Y1.06378
G01 X-1.30762 Y1.07114
G01 X-1.31103 Y1.08003
G01 X-1.31536 Y1.08852
G01 X-1.31923 Y1.09522
G01 X-1.32441 Y1.10321
G01 X-1.33041 Y1.11061
G01 X-1.33558 Y1.11636
G01 X-1.34232 Y1.12309
G01 X-1.34972 Y1.12909
G01 X-1.35598 Y1.13363
G01 X-1.35729 Y1.13448
G01 X-1.35729 Y1.13448
G01 X-1.37746 Y1.13187
G01 X-1.37747 Y1.13188
G01 X-1.37746 Y1.13187
G01 X-1.35742 Y1.13447
G01 X-1.28394 Y1.20795
G01 X-1.28405 Y1.20812
G01 X-1.28394 Y1.20795
G01 X-1.27952 Y1.20965
G01 X-1.27245 Y1.21279
G01 X-1.26397 Y1.21712
G01 X-1.25598 Y1.22231
G01 X-1.24972 Y1.22685
G01 X-1.24433 Y1.23121
G01 X-1.24759 Y1.22392
G01 X-1.25153 Y1.21618
G01 X-1.25697 Y1.20680
G01 X-1.25754 Y1.20582
G01 X-1.26717 Y1.20092
G01 X-1.27423 Y1.19777
G01 X-1.27667 Y1.19684
G01 X-1.27678 Y1.19700
G01 X-1.27667 Y1.19684
G01 X-1.33757 Y1.13593
G01 X-1.33757 Y1.13593
G01 X-1.34503 Y1.13556
G01 X-1.33757 Y1.13593
G01 X-1.33757 Y1.13593
G01 X-1.33755 Y1.13593
G01 X-1.33362 Y1.13275
G01 X-1.32592 Y1.12505
G01 X-1.32075 Y1.11931
G01 X-1.31390 Y1.11085
G01 X-1.30797 Y1.10172
G01 X-1.30410 Y1.09502
G01 X-1.29916 Y1.08532
G01 X-1.29526 Y1.07516
G01 X-1.29287 Y1.06780
G01 X-1.29005 Y1.05728
G01 X-1.28835 Y1.04653
G01 X-1.28754 Y1.03884
G01 X-1.28697 Y1.02797
G01 X-1.28754 Y1.01710
G01 X-1.28835 Y1.00941
G01 X-1.29005 Y0.99865
G01 X-1.29287 Y0.98814
G01 X-1.29526 Y0.98078
G01 X-1.29916 Y0.97062
G01 X-1.30410 Y0.96092
G01 X-1.30538 Y0.95871
G01 X-1.31382 Y0.95759
G01 X-1.30538 Y0.95871
G01 X-1.30537 Y0.95871
G01 X-1.29823 Y0.95156
G01 X-1.29844 Y0.95122
G01 X-1.29823 Y0.95156
G01 X-1.28541 Y0.94767
G01 X-1.27797 Y0.94369
G01 X-1.27052 Y0.94767
G01 X-1.25697 Y0.95179
G01 X-1.25441 Y0.94989
G01 X-1.25697 Y0.95179
G01 X-1.25697 Y1.20680
G01 X-1.25697 Y1.20680
G01 X-1.25697 Y1.20681
G01 X-1.25153 Y1.21618
G01 X-1.24759 Y1.22392
G01 X-1.24758 Y1.22392
G01 X-1.24759 Y1.22392
G01 X-1.24433 Y1.23121
G01 X-1.24433 Y1.23122
G01 X-1.24397 Y1.23203
G01 X-1.24433 Y1.23122
G01 X-1.24433 Y1.23121
G01 X-1.24433 Y1.23122
G01 X-1.24397 Y1.23203
G01 X-1.23916 Y1.24280
G01 X-1.23915 Y1.24279
G01 X-1.23916 Y1.24280
G01 X-1.24397 Y1.23203
G01 X-1.24397 Y1.23203
G01 X-1.24397 Y1.23203
G01 X-1.24397 Y1.23202
G01 X-1.24397 Y0.94129
G01 X-1.24060 Y0.93823
G01 X-1.24397 Y0.94129
G01 X-1.24848 Y0.94084
G01 X-1.26555 Y0.93566
G01 X-1.27797 Y0.92903
G01 X-1.29039 Y0.93566
G01 X-1.30521 Y0.94016
G01 X-1.30542 Y0.93982
G01 X-1.30521 Y0.94016
G01 X-1.32198 Y0.95692
G01 X-1.32198 Y0.95693
G01 X-1.32198 Y0.95693
G01 X-1.33897 Y0.95553
G01 X-1.31170 Y0.92826
G01 X-1.31192 Y0.92788
G01 X-1.31170 Y0.92826
G01 X-1.31000 Y0.92809
G01 X-1.29536 Y0.92365
G01 X-1.28188 Y0.91645
G01 X-1.27797 Y0.91324
G01 X-1.27406 Y0.91645
G01 X-1.26057 Y0.92365
G01 X-1.24594 Y0.92809
G01 X-1.23097 Y0.92957
G01 X-1.22760 Y0.92651
G01 X-1.23097 Y0.92957
G01 X-1.23097 Y1.26653
G01 X-1.23097 Y1.26655
G01 X-1.23097 Y1.26655
G01 X-1.23070 Y1.26735
G01 X-1.23097 Y1.26655
G01 X-1.23102 Y1.26640
G01 X-1.23493 Y1.26037
G01 X-1.24007 Y1.25403
G01 X-1.24524 Y1.24828
G01 X-1.25102 Y1.24251
G01 X-1.25736 Y1.23737
G01 X-1.26362 Y1.23282
G01 X-1.27047 Y1.22838
G01 X-1.27774 Y1.22467
G01 X-1.28481 Y1.22152
G01 X-1.29121 Y1.21907
G01 X-1.29135 Y1.21928
G01 X-1.29121 Y1.21907
G01 X-1.37862 Y1.13166
G01 X-1.38669 Y1.13016
G01 X-1.38670 Y1.13017
G01 X-1.38669 Y1.13016
G01 X-1.37862 Y1.13166
G01 X-1.37861 Y1.13166
G01 X-1.37774 Y1.13127
G01 X-1.37047 Y1.12756
G01 X-1.36362 Y1.12312
G01 X-1.35736 Y1.11857
G01 X-1.35102 Y1.11343
G01 X-1.34524 Y1.10766
G01 X-1.34007 Y1.10191
G01 X-1.33493 Y1.09556
G01 X-1.33048 Y1.08872
G01 X-1.32662 Y1.08202
G01 X-1.32291 Y1.07474
G01 X-1.31998 Y1.06712
G01 X-1.31759 Y1.05977
G01 X-1.31548 Y1.05188
G01 X-1.31420 Y1.04381
G01 X-1.31340 Y1.03612
G01 X-1.31297 Y1.02797
G01 X-1.29997 Y1.02797
G01 X-1.28697 Y1.02797
G01 X-1.27397 Y1.02797
G01 X-1.27461 Y1.04020
G01 X-1.27542 Y1.04789
G01 X-1.27733 Y1.05999
G01 X-1.28050 Y1.07182
G01 X-1.28289 Y1.07917
G01 X-1.28728 Y1.09061
G01 X-1.29284 Y1.10152
G01 X-1.29671 Y1.10822
G01 X-1.30338 Y1.11849
G01 X-1.31109 Y1.12801
G01 X-1.31626 Y1.13375
G01 X-1.31882 Y1.13631
G01 X-1.31881 Y1.13631
G01 X-1.26997 Y1.18515
G01 X-1.31881 Y1.13631
G01 X-1.31882 Y1.13631
G01 X-1.32964 Y1.13633
G01 X-1.33755 Y1.13593
G01 X-1.34503 Y1.13556
G01 X-1.35517 Y1.13476
G01 X-1.35729 Y1.13448
G01 X-1.37746 Y1.13187
G01 X-1.37861 Y1.13166
G01 X-1.38669 Y1.13016
G01 X-1.40210 Y1.12649
G01 X-1.40219 Y1.12647
G01 X-1.40219 Y1.12647
G01 X-1.40313 Y1.12625
G01 X-1.40313 Y1.12626
G01 X-1.40313 Y1.12625
G01 X-1.41157 Y1.12375
G01 X-1.42410 Y1.11933
G01 X-1.42411 Y1.11934
G01 X-1.42410 Y1.11933
G01 X-1.43027 Y1.11677
G01 X-1.43183 Y1.11612
G01 X-1.44175 Y1.11141
G01 X-1.44175 Y1.11141
G01 X-1.44175 Y1.11141
G01 X-1.44884 Y1.10756
G01 X-1.45696 Y1.10259
G01 X-1.45697 Y1.10260
G01 X-1.45696 Y1.10259
G01 X-1.46344 Y1.09813
G01 X-1.46345 Y1.09814
G01 X-1.46344 Y1.09813
G01 X-1.47033 Y1.09285
G01 X-1.47033 Y1.09286
G01 X-1.47033 Y1.09285
G01 X-1.47623 Y1.08781
G01 X-1.47797 Y1.08628
G01 X-1.47927 Y1.08620
G01 X-1.47927 Y1.08620
G01 X-1.48096 Y1.08609
G01 X-1.48571 Y1.08572
G01 X-1.48993 Y1.08549
G01 X-1.49099 Y1.08545
G01 X-1.49599 Y1.08514
G01 X-1.49838 Y1.08491
G01 X-1.50105 Y1.08472
G01 X-1.50204 Y1.08466
G01 X-1.50105 Y1.08473
G01 X-1.50105 Y1.08472
G01 X-1.49889 Y1.08376
G01 X-1.49647 Y1.08253
G01 X-1.49419 Y1.08105
G01 X-1.48793 Y1.07650
G01 X-1.48581 Y1.07479
G01 X-1.48389 Y1.07286
G01 X-1.47871 Y1.06711
G01 X-1.47797 Y1.06619
G01 X-1.47797 Y1.06779
G01 X-1.47797 Y1.07820
G01 X-1.47797 Y1.08514
G01 X-1.47797 Y1.08628
G01 X-1.47927 Y1.08620
G01 X-1.47797 Y1.08514
G01 X-1.47565 Y1.08702
G01 X-1.46939 Y1.09156
G01 X-1.46597 Y1.09379
G01 X-1.46233 Y1.09564
G01 X-1.45526 Y1.09879
G01 X-1.45145 Y1.10025
G01 X-1.44751 Y1.10131
G01 X-1.43994 Y1.10291
G01 X-1.43591 Y1.10355
G01 X-1.43184 Y1.10377
G01 X-1.42410 Y1.10377
G01 X-1.42002 Y1.10355
G01 X-1.41599 Y1.10291
G01 X-1.40843 Y1.10131
G01 X-1.40448 Y1.10025
G01 X-1.40067 Y1.09879
G01 X-1.39361 Y1.09564
G01 X-1.38997 Y1.09379
G01 X-1.38654 Y1.09156
G01 X-1.38029 Y1.08702
G01 X-1.37711 Y1.08445
G01 X-1.37423 Y1.08156
G01 X-1.36905 Y1.07581
G01 X-1.36648 Y1.07264
G01 X-1.36426 Y1.06922
G01 X-1.36039 Y1.06252
G01 X-1.35854 Y1.05888
G01 X-1.35708 Y1.05507
G01 X-1.35469 Y1.04771
G01 X-1.35363 Y1.04377
G01 X-1.35299 Y1.03974
G01 X-1.35218 Y1.03205
G01 X-1.35197 Y1.02797
G01 X-1.35218 Y1.02389
G01 X-1.35299 Y1.01620
G01 X-1.35363 Y1.01217
G01 X-1.35469 Y1.00822
G01 X-1.35708 Y1.00087
G01 X-1.35854 Y0.99706
G01 X-1.36039 Y0.99342
G01 X-1.36426 Y0.98672
G01 X-1.36648 Y0.98330
G01 X-1.36905 Y0.98012
G01 X-1.37423 Y0.97438
G01 X-1.37711 Y0.97149
G01 X-1.38029 Y0.96892
G01 X-1.38654 Y0.96437
G01 X-1.38997 Y0.96215
G01 X-1.39361 Y0.96030
G01 X-1.39726 Y0.95867
G01 X-1.40171 Y0.95949
G01 X-1.39726 Y0.95867
G01 X-1.39248 Y0.95778
G01 X-1.39248 Y0.95777
G01 X-1.39248 Y0.95778
G01 X-1.38065 Y0.95625
G01 X-1.37610 Y0.95589
G01 X-1.37051 Y0.95545
G01 X-1.35695 Y0.95512
G01 X-1.35275 Y0.95502
G01 X-1.35085 Y0.95508
G01 X-1.34152 Y0.95532
G01 X-1.33897 Y0.95553
G01 X-1.32198 Y0.95692
G01 X-1.31382 Y0.95759
G01 X-1.30537 Y0.95871
G01 X-1.30122 Y0.95926
G01 X-1.29419 Y0.96025
G01 X-1.29416 Y0.96014
G01 X-1.29419 Y0.96025
G01 X-1.28926 Y0.96236
G01 X-1.28044 Y0.95968
G01 X-1.27797 Y0.95836
G01 X-1.28044 Y0.95968
G01 X-1.28926 Y0.96236
G01 X-1.28867 Y0.96261
G01 X-1.28728 Y0.96533
G01 X-1.28289 Y0.97676
G01 X-1.28050 Y0.98412
G01 X-1.27733 Y0.99595
G01 X-1.27542 Y1.00805
G01 X-1.27461 Y1.01574
G01 X-1.27397 Y1.02797
G01 X-1.28697 Y1.02797
G01 X-1.29997 Y1.02797
G01 X-1.31297 Y1.02797
G01 X-1.32597 Y1.02797
G01 X-1.33897 Y1.02797
G01 X-1.35197 Y1.02797
G01 X-1.36497 Y1.02797
G01 X-1.37797 Y1.02797
G01 X-1.37804 Y1.02661
G01 X-1.37885 Y1.01892
G01 X-1.37906 Y1.01757
G01 X-1.37941 Y1.01626
G01 X-1.38180 Y1.00890
G01 X-1.38229 Y1.00763
G01 X-1.38291 Y1.00642
G01 X-1.38678 Y0.99972
G01 X-1.38752 Y0.99858
G01 X-1.38837 Y0.99752
G01 X-1.39355 Y0.99177
G01 X-1.39451 Y0.99081
G01 X-1.39557 Y0.98996
G01 X-1.40183 Y0.98541
G01 X-1.40297 Y0.98467
G01 X-1.40418 Y0.98405
G01 X-1.41125 Y0.98090
G01 X-1.41252 Y0.98042
G01 X-1.41383 Y0.98006
G01 X-1.42140 Y0.97846
G01 X-1.42274 Y0.97824
G01 X-1.42410 Y0.97817
G01 X-1.43184 Y0.97817
G01 X-1.43319 Y0.97824
G01 X-1.43454 Y0.97846
G01 X-1.44210 Y0.98006
G01 X-1.44342 Y0.98042
G01 X-1.44469 Y0.98090
G01 X-1.45176 Y0.98405
G01 X-1.45297 Y0.98467
G01 X-1.45411 Y0.98541
G01 X-1.46037 Y0.98996
G01 X-1.46142 Y0.99081
G01 X-1.46239 Y0.99177
G01 X-1.46756 Y0.99752
G01 X-1.46842 Y0.99858
G01 X-1.46916 Y0.99972
G01 X-1.47303 Y1.00642
G01 X-1.47365 Y1.00763
G01 X-1.47413 Y1.00890
G01 X-1.47652 Y1.01626
G01 X-1.47688 Y1.01757
G01 X-1.47709 Y1.01892
G01 X-1.47790 Y1.02661
G01 X-1.47797 Y1.02797
G01 X-1.47804 Y1.02933
G01 X-1.47885 Y1.03702
G01 X-1.47906 Y1.03836
G01 X-1.47941 Y1.03968
G01 X-1.48180 Y1.04704
G01 X-1.48229 Y1.04831
G01 X-1.48291 Y1.04952
G01 X-1.48678 Y1.05622
G01 X-1.48752 Y1.05736
G01 X-1.48837 Y1.05842
G01 X-1.49355 Y1.06416
G01 X-1.49451 Y1.06513
G01 X-1.49557 Y1.06598
G01 X-1.50183 Y1.07053
G01 X-1.50297 Y1.07127
G01 X-1.50418 Y1.07189
G01 X-1.51125 Y1.07503
G01 X-1.51252 Y1.07552
G01 X-1.51383 Y1.07587
G01 X-1.52140 Y1.07748
G01 X-1.52274 Y1.07770
G01 X-1.52410 Y1.07777
G01 X-1.53184 Y1.07777
G01 X-1.53319 Y1.07770
G01 X-1.53454 Y1.07748
G01 X-1.54210 Y1.07587
G01 X-1.54342 Y1.07552
G01 X-1.54469 Y1.07503
G01 X-1.55176 Y1.07189
G01 X-1.55297 Y1.07127
G01 X-1.55411 Y1.07053
G01 X-1.56037 Y1.06598
G01 X-1.56142 Y1.06513
G01 X-1.56239 Y1.06416
G01 X-1.56756 Y1.05842
G01 X-1.56842 Y1.05736
G01 X-1.56916 Y1.05622
G01 X-1.57303 Y1.04952
G01 X-1.57365 Y1.04831
G01 X-1.57413 Y1.04704
G01 X-1.57652 Y1.03968
G01 X-1.57688 Y1.03836
G01 X-1.57709 Y1.03702
G01 X-1.57790 Y1.02933
G01 X-1.57797 Y1.02797
G01 X-1.57804 Y1.02661
G01 X-1.57885 Y1.01892
G01 X-1.57906 Y1.01757
G01 X-1.57941 Y1.01626
G01 X-1.58180 Y1.00890
G01 X-1.58229 Y1.00763
G01 X-1.58269 Y1.00685
G01 X-1.53181 Y0.95597
G01 X-1.44293 Y0.95597
G01 X-1.44165 Y0.95591
G01 X-1.43873 Y0.95562
G01 X-1.43747 Y0.95543
G01 X-1.43623 Y0.95512
G01 X-1.43341 Y0.95427
G01 X-1.43106 Y0.95329
G01 X-1.42847 Y0.95191
G01 X-1.42737 Y0.95125
G01 X-1.42635 Y0.95049
G01 X-1.42407 Y0.94862
G01 X-1.42313 Y0.94777
G01 X-1.33995 Y0.86459
G01 X-1.32521 Y0.86459
G01 X-1.32268 Y0.86434
G01 X-1.32024 Y0.86360
G01 X-1.31799 Y0.86240
G01 X-1.31602 Y0.86078
G01 X-1.31440 Y0.85881
G01 X-1.31320 Y0.85657
G01 X-1.31246 Y0.85413
G01 X-1.31221 Y0.85159
G01 X-1.31221 Y0.80435
G01 X-1.29921 Y0.80435
G01 X-1.28621 Y0.80435
G01 X-1.27797 Y0.80435
G01 X-1.28621 Y0.80435
G01 X-1.29921 Y0.80435
G01 X-1.31221 Y0.80435
G01 X-1.31246 Y0.80181
G01 X-1.31320 Y0.79937
G01 X-1.31440 Y0.79712
G01 X-1.31602 Y0.79515
G01 X-1.31799 Y0.79354
G01 X-1.32024 Y0.79234
G01 X-1.32268 Y0.79160
G01 X-1.32521 Y0.79135
G01 X-1.36065 Y0.79135
G01 X-1.36318 Y0.79160
G01 X-1.36562 Y0.79234
G01 X-1.36787 Y0.79354
G01 X-1.36984 Y0.79515
G01 X-1.37145 Y0.79712
G01 X-1.37266 Y0.79937
G01 X-1.37340 Y0.80181
G01 X-1.37365 Y0.80435
G01 X-1.37365 Y0.81909
G01 X-1.41045 Y0.85589
G01 X-1.43229 Y0.83405
G01 X-1.43229 Y0.80435
G01 X-1.43254 Y0.80181
G01 X-1.43328 Y0.79937
G01 X-1.43448 Y0.79712
G01 X-1.43610 Y0.79515
G01 X-1.43807 Y0.79354
G01 X-1.44032 Y0.79234
G01 X-1.44275 Y0.79160
G01 X-1.44529 Y0.79135
G01 X-1.48072 Y0.79135
G01 X-1.48326 Y0.79160
G01 X-1.48570 Y0.79234
G01 X-1.48795 Y0.79354
G01 X-1.48992 Y0.79515
G01 X-1.49153 Y0.79712
G01 X-1.49273 Y0.79937
G01 X-1.49347 Y0.80181
G01 X-1.49372 Y0.80435
G01 X-1.49372 Y0.85159
G01 X-1.49347 Y0.85413
G01 X-1.49273 Y0.85657
G01 X-1.49153 Y0.85881
G01 X-1.48992 Y0.86078
G01 X-1.48795 Y0.86240
G01 X-1.48570 Y0.86360
G01 X-1.48326 Y0.86434
G01 X-1.48097 Y0.86457
G01 X-1.45005 Y0.89549
G01 X-1.45453 Y0.89997
G01 X-1.54341 Y0.89997
G01 X-1.54468 Y0.90003
G01 X-1.54761 Y0.90032
G01 X-1.54887 Y0.90051
G01 X-1.55011 Y0.90082
G01 X-1.55292 Y0.90167
G01 X-1.55528 Y0.90265
G01 X-1.55787 Y0.90403
G01 X-1.55896 Y0.90469
G01 X-1.55999 Y0.90545
G01 X-1.56226 Y0.90731
G01 X-1.56321 Y0.90817
G01 X-1.63330 Y0.97826
G01 X-1.63454 Y0.97846
G01 X-1.64210 Y0.98006
G01 X-1.64342 Y0.98042
G01 X-1.64469 Y0.98090
G01 X-1.65176 Y0.98405
G01 X-1.65297 Y0.98467
G01 X-1.65411 Y0.98541
G01 X-1.66037 Y0.98996
G01 X-1.66142 Y0.99081
G01 X-1.66239 Y0.99177
G01 X-1.66756 Y0.99752
G01 X-1.66842 Y0.99858
G01 X-1.66916 Y0.99972
G01 X-1.67303 Y1.00642
G01 X-1.67365 Y1.00763
G01 X-1.67413 Y1.00890
G01 X-1.67652 Y1.01626
G01 X-1.67688 Y1.01757
G01 X-1.67709 Y1.01892
G01 X-1.67790 Y1.02661
G01 X-1.67797 Y1.02797
G01 X-1.67804 Y1.02933
G01 X-1.67885 Y1.03702
G01 X-1.67906 Y1.03836
G01 X-1.67941 Y1.03968
G01 X-1.68180 Y1.04704
G01 X-1.68229 Y1.04831
G01 X-1.68291 Y1.04952
G01 X-1.64247 Y1.08997
G01 X-1.52797 Y1.08997
G01 X-1.52669 Y1.09003
G01 X-1.52182 Y1.09051
G01 X-1.51932 Y1.09101
G01 X-1.51463 Y1.09243
G01 X-1.51343 Y1.09286
G01 X-1.51227 Y1.09341
G01 X-1.50795 Y1.09572
G01 X-1.50686 Y1.09637
G01 X-1.50583 Y1.09713
G01 X-1.50204 Y1.10024
G01 X-1.50110 Y1.10110
G01 X-1.32402 Y1.27818
G01 X-1.32274 Y1.27824
G01 X-1.32140 Y1.27846
G01 X-1.31383 Y1.28006
G01 X-1.31252 Y1.28042
G01 X-1.31125 Y1.28090
G01 X-1.30418 Y1.28405
G01 X-1.30297 Y1.28467
G01 X-1.30183 Y1.28541
G01 X-1.29557 Y1.28996
G01 X-1.29451 Y1.29081
G01 X-1.29355 Y1.29177
G01 X-1.28837 Y1.29752
G01 X-1.28752 Y1.29858
G01 X-1.28678 Y1.29972
G01 X-1.28291 Y1.30642
G01 X-1.28229 Y1.30763
G01 X-1.28180 Y1.30890
G01 X-1.27941 Y1.31626
G01 X-1.27906 Y1.31757
G01 X-1.27885 Y1.31892
G01 X-1.27804 Y1.32661
G01 X-1.27797 Y1.32797
G01 X-1.27804 Y1.32933
G01 X-1.27885 Y1.33702
G01 X-1.27906 Y1.33836
G01 X-1.27941 Y1.33968
G01 X-1.28180 Y1.34704
G01 X-1.28229 Y1.34831
G01 X-1.28291 Y1.34952
G01 X-1.28678 Y1.35622
G01 X-1.28752 Y1.35736
G01 X-1.28837 Y1.35842
G01 X-1.29355 Y1.36416
G01 X-1.29451 Y1.36513
G01 X-1.29557 Y1.36598
G01 X-1.29997 Y1.36918
G01 X-1.29997 Y1.38310
G01 X-1.29937 Y1.38328
G01 X-1.29712 Y1.38448
G01 X-1.29515 Y1.38610
G01 X-1.29354 Y1.38807
G01 X-1.29234 Y1.39032
G01 X-1.29160 Y1.39276
G01 X-1.29135 Y1.39529
G01 X-1.29135 Y1.43072
G01 X-1.29160 Y1.43326
G01 X-1.29234 Y1.43570
G01 X-1.29354 Y1.43795
G01 X-1.29515 Y1.43992
G01 X-1.29712 Y1.44153
G01 X-1.29937 Y1.44274
G01 X-1.30181 Y1.44348
G01 X-1.30435 Y1.44372
G01 X-1.35159 Y1.44372
G01 X-1.35413 Y1.44348
G01 X-1.35656 Y1.44274
G01 X-1.35881 Y1.44153
G01 X-1.36078 Y1.43992
G01 X-1.36240 Y1.43795
G01 X-1.36360 Y1.43570
G01 X-1.36434 Y1.43326
G01 X-1.36459 Y1.43072
G01 X-1.36459 Y1.39529
G01 X-1.36434 Y1.39276
G01 X-1.36360 Y1.39032
G01 X-1.36240 Y1.38807
G01 X-1.36078 Y1.38610
G01 X-1.35881 Y1.38448
G01 X-1.35656 Y1.38328
G01 X-1.35597 Y1.38310
G01 X-1.35597 Y1.36918
G01 X-1.36037 Y1.36598
G01 X-1.36142 Y1.36513
G01 X-1.36239 Y1.36416
G01 X-1.36756 Y1.35842
G01 X-1.36842 Y1.35736
G01 X-1.36916 Y1.35622
G01 X-1.37303 Y1.34952
G01 X-1.37365 Y1.34831
G01 X-1.37413 Y1.34704
G01 X-1.37652 Y1.33968
G01 X-1.37688 Y1.33836
G01 X-1.37709 Y1.33702
G01 X-1.37761 Y1.33207
G01 X-1.54371 Y1.16597
G01 X-1.65821 Y1.16597
G01 X-1.65948 Y1.16591
G01 X-1.66436 Y1.16543
G01 X-1.66686 Y1.16493
G01 X-1.67155 Y1.16351
G01 X-1.67390 Y1.16253
G01 X-1.67823 Y1.16022
G01 X-1.68034 Y1.15881
G01 X-1.68413 Y1.15570
G01 X-1.68508 Y1.15484
G01 X-1.75484 Y1.08508
G01 X-1.75553 Y1.08433
G01 X-1.75808 Y1.08135
G01 X-1.75928 Y1.07970
G01 X-1.76133 Y1.07635
G01 X-1.76225 Y1.07453
G01 X-1.76375 Y1.07091
G01 X-1.76439 Y1.06897
G01 X-1.76530 Y1.06516
G01 X-1.76562 Y1.06314
G01 X-1.76584 Y1.06033
G01 X-1.76756 Y1.05842
G01 X-1.76842 Y1.05736
G01 X-1.76916 Y1.05622
G01 X-1.77303 Y1.04952
G01 X-1.77365 Y1.04831
G01 X-1.77413 Y1.04704
G01 X-1.77652 Y1.03968
G01 X-1.77688 Y1.03836
G01 X-1.77709 Y1.03702
G01 X-1.77790 Y1.02933
G01 X-1.77797 Y1.02797
G01 X-1.77804 Y1.02661
G01 X-1.77885 Y1.01892
G01 X-1.77906 Y1.01757
G01 X-1.77941 Y1.01626
G01 X-1.78180 Y1.00890
G01 X-1.78229 Y1.00763
G01 X-1.78291 Y1.00642
G01 X-1.78678 Y0.99972
G01 X-1.78752 Y0.99858
G01 X-1.78837 Y0.99752
G01 X-1.78997 Y0.99575
G01 X-1.78997 Y0.96019
G01 X-1.78837 Y0.95842
G01 X-1.78752 Y0.95736
G01 X-1.78678 Y0.95622
G01 X-1.78291 Y0.94952
G01 X-1.78229 Y0.94831
G01 X-1.78180 Y0.94704
G01 X-1.77941 Y0.93968
G01 X-1.77906 Y0.93836
G01 X-1.77885 Y0.93702
G01 X-1.77833 Y0.93207
G01 X-1.61223 Y0.76597
G01 X-1.24371 Y0.76597
G01 X-1.21833 Y0.79135
G01 X-1.23072 Y0.79135
G01 X-1.23326 Y0.79160
G01 X-1.23570 Y0.79234
G01 X-1.23795 Y0.79354
G01 X-1.23992 Y0.79515
G01 X-1.24153 Y0.79712
G01 X-1.24273 Y0.79937
G01 X-1.24347 Y0.80181
G01 X-1.24372 Y0.80435
G01 X-1.24372 Y0.85159
G01 X-1.24347 Y0.85413
G01 X-1.24273 Y0.85657
G01 X-1.24153 Y0.85881
G01 X-1.23992 Y0.86078
G01 X-1.23795 Y0.86240
G01 X-1.23570 Y0.86360
G01 X-1.23326 Y0.86434
G01 X-1.23072 Y0.86459
G01 X-1.19529 Y0.86459
G01 X-1.19275 Y0.86434
G01 X-1.19032 Y0.86360
G01 X-1.18807 Y0.86240
G01 X-1.18610 Y0.86078
G01 X-1.18448 Y0.85881
G01 X-1.18328 Y0.85657
G01 X-1.18310 Y0.85597
G01 X-1.16597 Y0.85597
G01 X-1.16597 Y1.29575
G01 X-1.16756 Y1.29752
G01 X-1.16842 Y1.29858
G01 X-1.16916 Y1.29972
G01 X-1.17303 Y1.30642
G01 X-1.17365 Y1.30763
G01 X-1.17413 Y1.30890
G01 X-1.17652 Y1.31626
G01 X-1.17688 Y1.31757
G01 X-1.17709 Y1.31892
G01 X-1.17790 Y1.32661
G01 X-1.17797 Y1.32797
G01 X-1.17790 Y1.32933
G01 X-1.17709 Y1.33702
G01 X-1.17688 Y1.33836
G01 X-1.17652 Y1.33968
G01 X-1.17413 Y1.34704
G01 X-1.17365 Y1.34831
G01 X-1.17303 Y1.34952
G01 X-1.16916 Y1.35622
G01 X-1.16842 Y1.35736
G01 X-1.16756 Y1.35842
G01 X-1.16239 Y1.36416
G01 X-1.16142 Y1.36513
G01 X-1.16037 Y1.36598
G01 X-1.15597 Y1.36918
G01 X-1.15597 Y1.38310
G01 X-1.15656 Y1.38328
G01 X-1.15881 Y1.38448
G01 X-1.16078 Y1.38610
G01 X-1.16240 Y1.38807
G01 X-1.16360 Y1.39032
G01 X-1.16434 Y1.39276
G01 X-1.16459 Y1.39529
G01 X-1.16459 Y1.43072
G01 X-1.16434 Y1.43326
G01 X-1.16360 Y1.43570
G01 X-1.16240 Y1.43795
G01 X-1.16078 Y1.43992
G01 X-1.15881 Y1.44153
G01 X-1.15656 Y1.44274
G01 X-1.15413 Y1.44348
G01 X-1.15159 Y1.44372
G01 X-1.10435 Y1.44372
G01 X-1.10181 Y1.44348
G01 X-1.09937 Y1.44274
G01 X-1.09712 Y1.44153
G01 X-1.09515 Y1.43992
G01 X-1.09354 Y1.43795
G01 X-1.09234 Y1.43570
G01 X-1.09160 Y1.43326
G01 X-1.09135 Y1.43072
G01 X-1.09135 Y1.39529
G01 X-1.09160 Y1.39276
G01 X-1.09234 Y1.39032
G01 X-1.09354 Y1.38807
G01 X-1.09515 Y1.38610
G01 X-1.09712 Y1.38448
G01 X-1.09937 Y1.38328
G01 X-1.09997 Y1.38310
G01 X-1.09997 Y1.36918
G01 X-1.09557 Y1.36598
G01 X-1.09451 Y1.36513
G01 X-1.09355 Y1.36416
G01 X-1.08837 Y1.35842
G01 X-1.08752 Y1.35736
G01 X-1.08678 Y1.35622
G01 X-1.08291 Y1.34952
G01 X-1.08229 Y1.34831
G01 X-1.08180 Y1.34704
G01 X-1.07941 Y1.33968
G01 X-1.07906 Y1.33836
G01 X-1.07885 Y1.33702
G01 X-1.07804 Y1.32933
G01 X-1.07797 Y1.32797
G01 X-1.06497 Y1.32797
G01 X-1.05197 Y1.32797
G01 X-1.03897 Y1.32797
G01 X-1.02597 Y1.32797
G01 X-1.01297 Y1.32797
G01 X-0.99997 Y1.32797
G01 X-0.98697 Y1.32797
G01 X-0.97797 Y1.33984
G01 X-0.97797 Y1.33985
G01 X-0.97797 Y1.34762
G01 X-0.97797 Y1.34763
G01 X-0.97797 Y1.36235
G01 X-0.97543 Y1.37182
G01 X-0.97304 Y1.37917
G01 X-0.96865 Y1.39061
G01 X-0.96821 Y1.39147
G01 X-0.96796 Y1.39143
G01 X-0.96821 Y1.39147
G01 X-0.96859 Y1.39529
G01 X-0.96859 Y1.41093
G01 X-0.95559 Y1.42393
G01 X-0.94880 Y1.43073
G01 X-0.94199 Y1.43682
G01 X-0.92856 Y1.44886
G01 X-0.92711 Y1.44993
G01 X-0.92682 Y1.45014
G01 X-0.91844 Y1.45634
G01 X-0.90832 Y1.46278
G01 X-0.90802 Y1.46293
G01 X-0.90760 Y1.46315
G01 X-0.90760 Y1.46315
G01 X-0.90760 Y1.46315
G01 X-0.89820 Y1.46815
G01 X-0.88808 Y1.47248
G01 X-0.88808 Y1.47249
G01 X-0.88808 Y1.47248
G01 X-0.87796 Y1.47575
G01 X-0.87796 Y1.47577
G01 X-0.87796 Y1.47575
G01 X-0.87714 Y1.47593
G01 X-0.87656 Y1.47606
G01 X-0.86784 Y1.47797
G01 X-0.85159 Y1.47797
G01 X-0.80435 Y1.47797
G01 X-0.78810 Y1.47797
G01 X-0.78001 Y1.47593
G01 X-0.75177 Y1.47593
G01 X-0.75150 Y1.47668
G01 X-0.75177 Y1.47593
G01 X-0.66764 Y1.40752
G01 X-0.68178 Y1.40861
G01 X-0.68986 Y1.40883
G01 X-0.69093 Y1.40805
G01 X-0.69622 Y1.40377
G01 X-0.70103 Y1.39896
G01 X-0.70621 Y1.39321
G01 X-0.71049 Y1.38792
G01 X-0.71419 Y1.38222
G01 X-0.71806 Y1.37552
G01 X-0.72115 Y1.36946
G01 X-0.72359 Y1.36310
G01 X-0.72598 Y1.35575
G01 X-0.72774 Y1.34918
G01 X-0.72797 Y1.34773
G01 X-0.72820 Y1.34918
G01 X-0.72996 Y1.35575
G01 X-0.73235 Y1.36310
G01 X-0.73479 Y1.36946
G01 X-0.73788 Y1.37552
G01 X-0.74107 Y1.38105
G01 X-0.74170 Y1.38093
G01 X-0.74107 Y1.38105
G01 X-0.74059 Y1.38261
G01 X-0.73935 Y1.39529
G01 X-0.73935 Y1.43072
G01 X-0.74059 Y1.44341
G01 X-0.74333 Y1.45241
G01 X-0.74806 Y1.45884
G01 X-0.74805 Y1.45885
G01 X-0.74806 Y1.45884
G01 X-0.74313 Y1.45215
G01 X-0.68986 Y1.40883
G01 X-0.69153 Y1.40888
G01 X-0.69153 Y1.40889
G01 X-0.69153 Y1.40888
G01 X-0.70998 Y1.40837
G01 X-0.71143 Y1.40833
G01 X-0.71966 Y1.40769
G01 X-0.72033 Y1.40594
G01 X-0.72403 Y1.39529
G01 X-0.72598 Y1.38903
G01 X-0.72695 Y1.38613
G01 X-0.72797 Y1.38306
G01 X-0.72814 Y1.38309
G01 X-0.72797 Y1.38306
G01 X-0.72800 Y1.38306
G01 X-0.72797 Y1.38306
G01 X-0.72738 Y1.38484
G01 X-0.72635 Y1.39529
G01 X-0.72634 Y1.42174
G01 X-0.72634 Y1.42174
G01 X-0.72634 Y1.42174
G01 X-0.71966 Y1.40769
G01 X-0.71143 Y1.40833
G01 X-0.70998 Y1.40837
G01 X-0.69153 Y1.40888
G01 X-0.70998 Y1.40837
G01 X-0.70998 Y1.40837
G01 X-0.71069 Y1.40766
G01 X-0.71587 Y1.40191
G01 X-0.72100 Y1.39556
G01 X-0.72545 Y1.38872
G01 X-0.72695 Y1.38613
G01 X-0.72797 Y1.38306
G01 X-0.72797 Y1.38124
G01 X-0.72797 Y1.36452
G01 X-0.72797 Y1.35639
G01 X-0.72797 Y1.34773
G01 X-0.72797 Y1.34236
G01 X-0.72797 Y1.33459
G01 X-0.73897 Y1.32797
G01 X-0.75197 Y1.32797
G01 X-0.76497 Y1.32797
G01 X-0.77797 Y1.32797
G01 X-0.76497 Y1.32797
G01 X-0.75197 Y1.32797
G01 X-0.73897 Y1.32797
G01 X-0.72797 Y1.33459
G01 X-0.72797 Y1.32135
G01 X-0.72797 Y1.31357
G01 X-0.72797 Y1.30821
G01 X-0.72797 Y1.29955
G01 X-0.72797 Y1.29141
G01 X-0.72797 Y1.27767
G01 X-0.72797 Y1.06939
G01 X-0.72771 Y1.06934
G01 X-0.72797 Y1.06939
G01 X-0.73796 Y1.04525
G01 X-0.75096 Y1.01387
G01 X-0.76396 Y0.98249
G01 X-0.75096 Y1.01387
G01 X-0.73797 Y1.04525
G01 X-0.73797 Y1.28026
G01 X-0.73825 Y1.28032
G01 X-0.73797 Y1.28026
G01 X-0.73788 Y1.28042
G01 X-0.73479 Y1.28648
G01 X-0.73235 Y1.29283
G01 X-0.72996 Y1.30019
G01 X-0.72820 Y1.30676
G01 X-0.72797 Y1.30821
G01 X-0.72774 Y1.30676
G01 X-0.72598 Y1.30019
G01 X-0.72359 Y1.29283
G01 X-0.72115 Y1.28648
G01 X-0.71806 Y1.28042
G01 X-0.71797 Y1.28026
G01 X-0.71768 Y1.28032
G01 X-0.71797 Y1.28026
G01 X-0.71797 Y1.06525
G01 X-0.71698 Y1.06484
G01 X-0.71797 Y1.06525
G01 X-0.73796 Y1.04525
G01 X-0.73797 Y1.04525
G01 X-0.75096 Y1.01387
G01 X-0.75097 Y1.01386
G01 X-0.75096 Y1.01387
G01 X-0.75096 Y1.01387
G01 X-0.70497 Y1.05986
G01 X-0.70398 Y1.05945
G01 X-0.70497 Y1.05986
G01 X-0.70497 Y1.28374
G01 X-0.70457 Y1.28384
G01 X-0.70497 Y1.28374
G01 X-0.70680 Y1.28692
G01 X-0.70927 Y1.29177
G01 X-0.71122 Y1.29685
G01 X-0.71361 Y1.30421
G01 X-0.71502 Y1.30946
G01 X-0.71587 Y1.31484
G01 X-0.71668 Y1.32253
G01 X-0.71697 Y1.32797
G01 X-0.71668 Y1.33340
G01 X-0.71587 Y1.34110
G01 X-0.71502 Y1.34647
G01 X-0.71361 Y1.35173
G01 X-0.71122 Y1.35909
G01 X-0.70927 Y1.36417
G01 X-0.70680 Y1.36902
G01 X-0.70293 Y1.37572
G01 X-0.69997 Y1.38028
G01 X-0.69655 Y1.38451
G01 X-0.69137 Y1.39026
G01 X-0.68752 Y1.39411
G01 X-0.68329 Y1.39753
G01 X-0.67703 Y1.40208
G01 X-0.67247 Y1.40505
G01 X-0.66763 Y1.40751
G01 X-0.66762 Y1.40752
G01 X-0.66764 Y1.40752
G01 X-0.66763 Y1.40751
G01 X-0.66762 Y1.40752
G01 X-0.65862 Y1.40632
G01 X-0.64816 Y1.40438
G01 X-0.64816 Y1.40440
G01 X-0.64816 Y1.40438
G01 X-0.64108 Y1.40267
G01 X-0.63983 Y1.40237
G01 X-0.63982 Y1.40239
G01 X-0.63983 Y1.40237
G01 X-0.63184 Y1.40001
G01 X-0.63183 Y1.40002
G01 X-0.63184 Y1.40001
G01 X-0.62410 Y1.39726
G01 X-0.62409 Y1.39728
G01 X-0.62410 Y1.39726
G01 X-0.61775 Y1.39463
G01 X-0.61775 Y1.39464
G01 X-0.61775 Y1.39463
G01 X-0.61058 Y1.39119
G01 X-0.61057 Y1.39121
G01 X-0.61058 Y1.39119
G01 X-0.60532 Y1.38834
G01 X-0.60531 Y1.38835
G01 X-0.60532 Y1.38834
G01 X-0.59867 Y1.38425
G01 X-0.59866 Y1.38427
G01 X-0.59867 Y1.38425
G01 X-0.59413 Y1.38113
G01 X-0.59134 Y1.37898
G01 X-0.59133 Y1.37898
G01 X-0.59129 Y1.37894
G01 X-0.59128 Y1.37894
G01 X-0.59127 Y1.37893
G01 X-0.58799 Y1.37641
G01 X-0.58798 Y1.37642
G01 X-0.58799 Y1.37641
G01 X-0.58456 Y1.37347
G01 X-0.57760 Y1.36781
G01 X-0.57760 Y1.36781
G01 X-0.57760 Y1.36781
G01 X-0.57824 Y1.36753
G01 X-0.57760 Y1.36781
G01 X-0.57734 Y1.36759
G01 X-0.57760 Y1.36781
G01 X-0.57734 Y1.36759
G01 X-0.57177 Y1.36811
G01 X-0.57734 Y1.36759
G01 X-0.57777 Y1.36711
G01 X-0.57824 Y1.36653
G01 X-0.57824 Y1.36753
G01 X-0.57825 Y1.36753
G01 X-0.58387 Y1.37288
G01 X-0.58411 Y1.37308
G01 X-0.58411 Y1.37309
G01 X-0.58456 Y1.37347
G01 X-0.58411 Y1.37309
G01 X-0.58411 Y1.37308
G01 X-0.58389 Y1.37286
G01 X-0.57871 Y1.36711
G01 X-0.57824 Y1.36653
G01 X-0.57824 Y1.36114
G01 X-0.57824 Y1.35221
G01 X-0.57824 Y1.34819
G01 X-0.57824 Y1.34006
G01 X-0.57824 Y1.33709
G01 X-0.57824 Y1.33124
G01 X-0.57763 Y1.33702
G01 X-0.57742 Y1.33836
G01 X-0.57707 Y1.33968
G01 X-0.57468 Y1.34704
G01 X-0.57419 Y1.34831
G01 X-0.57357 Y1.34952
G01 X-0.56970 Y1.35622
G01 X-0.56896 Y1.35736
G01 X-0.56810 Y1.35842
G01 X-0.56293 Y1.36416
G01 X-0.56197 Y1.36513
G01 X-0.56091 Y1.36598
G01 X-0.55766 Y1.36835
G01 X-0.73792 Y1.51493
G01 X-0.79648 Y1.51493
G01 X-0.79712 Y1.51440
G01 X-0.79937 Y1.51320
G01 X-0.80181 Y1.51246
G01 X-0.80435 Y1.51221
G01 X-0.85159 Y1.51221
G01 X-0.85413 Y1.51246
G01 X-0.85656 Y1.51320
G01 X-0.85881 Y1.51440
G01 X-0.85945 Y1.51493
G01 X-1.09648 Y1.51493
G01 X-1.09712 Y1.51440
G01 X-1.09937 Y1.51320
G01 X-1.10181 Y1.51246
G01 X-1.10435 Y1.51221
G01 X-1.15159 Y1.51221
G01 X-1.15413 Y1.51246
G01 X-1.15656 Y1.51320
G01 X-1.15881 Y1.51440
G01 X-1.15945 Y1.51493
G01 X-1.29648 Y1.51493
G01 X-1.29712 Y1.51440
G01 X-1.29937 Y1.51320
G01 X-1.30181 Y1.51246
G01 X-1.30435 Y1.51221
G01 X-1.35159 Y1.51221
G01 X-1.35413 Y1.51246
G01 X-1.35656 Y1.51320
G01 X-1.35881 Y1.51440
G01 X-1.35945 Y1.51493
G01 X-1.49648 Y1.51493
G01 X-1.49712 Y1.51440
G01 X-1.49937 Y1.51320
G01 X-1.50181 Y1.51246
G01 X-1.50435 Y1.51221
G01 X-1.55159 Y1.51221
G01 X-1.55413 Y1.51246
G01 X-1.55656 Y1.51320
G01 X-1.55881 Y1.51440
G01 X-1.55945 Y1.51493
G01 X-1.69648 Y1.51493
G01 X-1.69712 Y1.51440
G01 X-1.69937 Y1.51320
G01 X-1.70181 Y1.51246
G01 X-1.70435 Y1.51221
G01 X-1.75159 Y1.51221
G01 X-1.75413 Y1.51246
G01 X-1.75656 Y1.51320
G01 X-1.75881 Y1.51440
G01 X-1.75945 Y1.51493
G01 X-1.89648 Y1.51493
G01 X-1.89712 Y1.51440
G01 X-1.89937 Y1.51320
G01 X-1.90181 Y1.51246
G01 X-1.90435 Y1.51221
G01 X-1.95159 Y1.51221
G01 X-1.95413 Y1.51246
G01 X-1.95656 Y1.51320
G01 X-1.95881 Y1.51440
G01 X-1.95945 Y1.51493
G01 X-2.19648 Y1.51493
G01 X-2.19712 Y1.51440
G01 X-2.19937 Y1.51320
G01 X-2.20181 Y1.51246
G01 X-2.20435 Y1.51221
G01 X-2.25159 Y1.51221
G01 X-2.25413 Y1.51246
G01 X-2.25656 Y1.51320
G01 X-2.25881 Y1.51440
G01 X-2.25945 Y1.51493
G01 X-2.39648 Y1.51493
G01 X-2.39712 Y1.51440
G01 X-2.39937 Y1.51320
G01 X-2.40181 Y1.51246
G01 X-2.40435 Y1.51221
G01 X-2.45159 Y1.51221
G01 X-2.45413 Y1.51246
G01 X-2.45656 Y1.51320
G01 X-2.45881 Y1.51440
G01 X-2.45945 Y1.51493
G01 X-2.59648 Y1.51493
G01 X-2.59712 Y1.51440
G01 X-2.59937 Y1.51320
G01 X-2.60181 Y1.51246
G01 X-2.60435 Y1.51221
G01 X-2.65159 Y1.51221
G01 X-2.65413 Y1.51246
G01 X-2.65656 Y1.51320
G01 X-2.65881 Y1.51440
G01 X-2.65945 Y1.51493
G01 X-2.79648 Y1.51493
G01 X-2.79712 Y1.51440
G01 X-2.79937 Y1.51320
G01 X-2.80181 Y1.51246
G01 X-2.80435 Y1.51221
G01 X-2.85159 Y1.51221
G01 X-2.85413 Y1.51246
G01 X-2.85656 Y1.51320
G01 X-2.85881 Y1.51440
G01 X-2.85945 Y1.51493
G01 X-3.09648 Y1.51493
G01 X-3.09712 Y1.51440
G01 X-3.09937 Y1.51320
G01 X-3.10181 Y1.51246
G01 X-3.10435 Y1.51221
G01 X-3.15159 Y1.51221
G01 X-3.15413 Y1.51246
G01 X-3.15656 Y1.51320
G01 X-3.15881 Y1.51440
G01 X-3.15945 Y1.51493
G01 X-3.29648 Y1.51493
G01 X-3.29712 Y1.51440
G01 X-3.29937 Y1.51320
G01 X-3.30181 Y1.51246
G01 X-3.30435 Y1.51221
G01 X-3.35159 Y1.51221
G01 X-3.35413 Y1.51246
G01 X-3.35656 Y1.51320
G01 X-3.35881 Y1.51440
G01 X-3.35945 Y1.51493
G01 X-3.49648 Y1.51493
G01 X-3.49712 Y1.51440
G01 X-3.49937 Y1.51320
G01 X-3.50181 Y1.51246
G01 X-3.50435 Y1.51221
G01 X-3.55159 Y1.51221
G01 X-3.55413 Y1.51246
G01 X-3.55656 Y1.51320
G01 X-3.55881 Y1.51440
G01 X-3.55945 Y1.51493
G01 X-3.69648 Y1.51493
G01 X-3.69712 Y1.51440
G01 X-3.69937 Y1.51320
G01 X-3.70181 Y1.51246
G01 X-3.70435 Y1.51221
G01 X-3.75159 Y1.51221
G01 X-3.75413 Y1.51246
G01 X-3.75656 Y1.51320
G01 X-3.75881 Y1.51440
G01 X-3.75945 Y1.51493
G01 X-3.99648 Y1.51493
G01 X-3.99712 Y1.51440
G01 X-3.99937 Y1.51320
G01 X-4.00181 Y1.51246
G01 X-4.00435 Y1.51221
G01 X-4.05159 Y1.51221
G01 X-4.05413 Y1.51246
G01 X-4.05656 Y1.51320
G01 X-4.05881 Y1.51440
G01 X-4.05945 Y1.51493
G01 X-4.19648 Y1.51493
G01 X-4.19712 Y1.51440
G01 X-4.19937 Y1.51320
G01 X-4.20181 Y1.51246
G01 X-4.20435 Y1.51221
G01 X-4.25159 Y1.51221
G01 X-4.25413 Y1.51246
G01 X-4.25656 Y1.51320
G01 X-4.25881 Y1.51440
G01 X-4.25945 Y1.51493
G01 X-4.39648 Y1.51493
G01 X-4.39712 Y1.51440
G01 X-4.39937 Y1.51320
G01 X-4.40181 Y1.51246
G01 X-4.40435 Y1.51221
G01 X-4.45159 Y1.51221
G01 X-4.45413 Y1.51246
G01 X-4.45656 Y1.51320
G01 X-4.45881 Y1.51440
G01 X-4.45945 Y1.51493
G01 X-4.59648 Y1.51493
G01 X-4.59712 Y1.51440
G01 X-4.59937 Y1.51320
G01 X-4.60181 Y1.51246
G01 X-4.60435 Y1.51221
G01 X-4.65159 Y1.51221
G01 X-4.65413 Y1.51246
G01 X-4.65656 Y1.51320
G01 X-4.65881 Y1.51440
G01 X-4.66078 Y1.51602
G01 X-4.66240 Y1.51799
G01 X-4.66360 Y1.52024
G01 X-4.66434 Y1.52268
G01 X-4.66459 Y1.52521
G01 X-4.66459 Y1.56065
G01 X-4.66434 Y1.56318
G01 X-4.66360 Y1.56562
G01 X-4.66240 Y1.56787
G01 X-4.66078 Y1.56984
G01 X-4.65881 Y1.57146
G01 X-4.65656 Y1.57266
G01 X-4.65413 Y1.57340
G01 X-4.65159 Y1.57365
G01 X-4.60435 Y1.57365
G01 X-4.60181 Y1.57340
G01 X-4.59937 Y1.57266
G01 X-4.59712 Y1.57146
G01 X-4.59648 Y1.57093
G01 X-4.45945 Y1.57093
G01 X-4.45881 Y1.57146
G01 X-4.45656 Y1.57266
G01 X-4.45413 Y1.57340
G01 X-4.45159 Y1.57365
G01 X-4.40435 Y1.57365
G01 X-4.40181 Y1.57340
G01 X-4.39937 Y1.57266
G01 X-4.39712 Y1.57146
G01 X-4.39648 Y1.57093
G01 X-4.25945 Y1.57093
G01 X-4.25881 Y1.57146
G01 X-4.25656 Y1.57266
G01 X-4.25413 Y1.57340
G01 X-4.25159 Y1.57365
G01 X-4.20435 Y1.57365
G01 X-4.20181 Y1.57340
G01 X-4.19937 Y1.57266
G01 X-4.19712 Y1.57146
G01 X-4.19648 Y1.57093
G01 X-4.05945 Y1.57093
G01 X-4.05881 Y1.57146
G01 X-4.05656 Y1.57266
G01 X-4.05413 Y1.57340
G01 X-4.05159 Y1.57365
G01 X-4.00435 Y1.57365
G01 X-4.00181 Y1.57340
G01 X-3.99937 Y1.57266
G01 X-3.99712 Y1.57146
G01 X-3.99648 Y1.57093
G01 X-3.75945 Y1.57093
G01 X-3.75881 Y1.57146
G01 X-3.75656 Y1.57266
G01 X-3.75413 Y1.57340
G01 X-3.75159 Y1.57365
G01 X-3.70435 Y1.57365
G01 X-3.70181 Y1.57340
G01 X-3.69937 Y1.57266
G01 X-3.69712 Y1.57146
G01 X-3.69648 Y1.57093
G01 X-3.55945 Y1.57093
G01 X-3.55881 Y1.57146
G01 X-3.55656 Y1.57266
G01 X-3.55413 Y1.57340
G01 X-3.55159 Y1.57365
G01 X-3.50435 Y1.57365
G01 X-3.50181 Y1.57340
G01 X-3.49937 Y1.57266
G01 X-3.49712 Y1.57146
G01 X-3.49648 Y1.57093
G01 X-3.35945 Y1.57093
G01 X-3.35881 Y1.57146
G01 X-3.35656 Y1.57266
G01 X-3.35413 Y1.57340
G01 X-3.35159 Y1.57365
G01 X-3.30435 Y1.57365
G01 X-3.30181 Y1.57340
G01 X-3.29937 Y1.57266
G01 X-3.29712 Y1.57146
G01 X-3.29648 Y1.57093
G01 X-3.15945 Y1.57093
G01 X-3.15881 Y1.57146
G01 X-3.15656 Y1.57266
G01 X-3.15413 Y1.57340
G01 X-3.15159 Y1.57365
G01 X-3.10435 Y1.57365
G01 X-3.10181 Y1.57340
G01 X-3.09937 Y1.57266
G01 X-3.09712 Y1.57146
G01 X-3.09648 Y1.57093
G01 X-2.85945 Y1.57093
G01 X-2.85881 Y1.57146
G01 X-2.85656 Y1.57266
G01 X-2.85413 Y1.57340
G01 X-2.85159 Y1.57365
G01 X-2.80435 Y1.57365
G01 X-2.80181 Y1.57340
G01 X-2.79937 Y1.57266
G01 X-2.79712 Y1.57146
G01 X-2.79648 Y1.57093
G01 X-2.65945 Y1.57093
G01 X-2.65881 Y1.57146
G01 X-2.65656 Y1.57266
G01 X-2.65413 Y1.57340
G01 X-2.65159 Y1.57365
G01 X-2.60435 Y1.57365
G01 X-2.60181 Y1.57340
G01 X-2.59937 Y1.57266
G01 X-2.59712 Y1.57146
G01 X-2.59648 Y1.57093
G01 X-2.45945 Y1.57093
G01 X-2.45881 Y1.57146
G01 X-2.45656 Y1.57266
G01 X-2.45413 Y1.57340
G01 X-2.45159 Y1.57365
G01 X-2.40435 Y1.57365
G01 X-2.40181 Y1.57340
G01 X-2.39937 Y1.57266
G01 X-2.39712 Y1.57146
G01 X-2.39648 Y1.57093
G01 X-2.25945 Y1.57093
G01 X-2.25881 Y1.57146
G01 X-2.25656 Y1.57266
G01 X-2.25413 Y1.57340
G01 X-2.25159 Y1.57365
G01 X-2.20435 Y1.57365
G01 X-2.20181 Y1.57340
G01 X-2.19937 Y1.57266
G01 X-2.19712 Y1.57146
G01 X-2.19648 Y1.57093
G01 X-1.95945 Y1.57093
G01 X-1.95881 Y1.57146
G01 X-1.95656 Y1.57266
G01 X-1.95413 Y1.57340
G01 X-1.95159 Y1.57365
G01 X-1.90435 Y1.57365
G01 X-1.90181 Y1.57340
G01 X-1.89937 Y1.57266
G01 X-1.89712 Y1.57146
G01 X-1.89648 Y1.57093
G01 X-1.75945 Y1.57093
G01 X-1.75881 Y1.57146
G01 X-1.75656 Y1.57266
G01 X-1.75413 Y1.57340
G01 X-1.75159 Y1.57365
G01 X-1.70435 Y1.57365
G01 X-1.70181 Y1.57340
G01 X-1.69937 Y1.57266
G01 X-1.69712 Y1.57146
G01 X-1.69648 Y1.57093
G01 X-1.55945 Y1.57093
G01 X-1.55881 Y1.57146
G01 X-1.55656 Y1.57266
G01 X-1.55413 Y1.57340
G01 X-1.55159 Y1.57365
G01 X-1.50435 Y1.57365
G01 X-1.50181 Y1.57340
G01 X-1.49937 Y1.57266
G01 X-1.49712 Y1.57146
G01 X-1.49648 Y1.57093
G01 X-1.35945 Y1.57093
G01 X-1.35881 Y1.57146
G01 X-1.35656 Y1.57266
G01 X-1.35413 Y1.57340
G01 X-1.35159 Y1.57365
G01 X-1.30435 Y1.57365
G01 X-1.30181 Y1.57340
G01 X-1.29937 Y1.57266
G01 X-1.29712 Y1.57146
G01 X-1.29648 Y1.57093
G01 X-1.15945 Y1.57093
G01 X-1.15881 Y1.57146
G01 X-1.15656 Y1.57266
G01 X-1.15413 Y1.57340
G01 X-1.15159 Y1.57365
G01 X-1.10435 Y1.57365
G01 X-1.10181 Y1.57340
G01 X-1.09937 Y1.57266
G01 X-1.09712 Y1.57146
G01 X-1.09648 Y1.57093
G01 X-0.85945 Y1.57093
G01 X-0.85881 Y1.57146
G01 X-0.85656 Y1.57266
G01 X-0.85413 Y1.57340
G01 X-0.85159 Y1.57365
G01 X-0.80435 Y1.57365
G01 X-0.80181 Y1.57340
G01 X-0.79937 Y1.57266
G01 X-0.79712 Y1.57146
G01 X-0.79648 Y1.57093
G01 X-0.72797 Y1.57093
G01 X-0.72686 Y1.57088
G01 X-0.72431 Y1.57066
G01 X-0.72213 Y1.57029
G01 X-0.71965 Y1.56964
G01 X-0.71757 Y1.56890
G01 X-0.71524 Y1.56784
G01 X-0.71331 Y1.56675
G01 X-0.71119 Y1.56532
G01 X-0.71030 Y1.56465
G01 X-0.51030 Y1.40202
G01 X-0.50944 Y1.40125
G01 X-0.50753 Y1.39940
G01 X-0.50603 Y1.39765
G01 X-0.50448 Y1.39549
G01 X-0.50331 Y1.39350
G01 X-0.50217 Y1.39110
G01 X-0.50136 Y1.38893
G01 X-0.50066 Y1.38637
G01 X-0.50026 Y1.38410
G01 X-0.50002 Y1.38145
G01 X-0.49997 Y1.38030
G01 X-0.49997 Y1.36878
G01 X-0.49611 Y1.36598
G01 X-0.49505 Y1.36513
G01 X-0.49409 Y1.36416
G01 X-0.48892 Y1.35842
G01 X-0.48806 Y1.35736
G01 X-0.48732 Y1.35622
G01 X-0.48345 Y1.34952
G01 X-0.48283 Y1.34831
G01 X-0.48235 Y1.34704
G01 X-0.47996 Y1.33968
G01 X-0.47960 Y1.33836
G01 X-0.47939 Y1.33702
G01 X-0.47858 Y1.32933
G01 X-0.47851 Y1.32797
G01 X-0.46551 Y1.32797
G01 X-0.46565 Y1.32525
G01 X-0.46646 Y1.31756
G01 X-0.46689 Y1.31487
G01 X-0.46759 Y1.31224
G01 X-0.46998 Y1.30489
G01 X-0.47096 Y1.30234
G01 X-0.47219 Y1.29992
G01 X-0.47606 Y1.29322
G01 X-0.47697 Y1.29182
G01 X-0.47740 Y1.29194
G01 X-0.47697 Y1.29182
G01 X-0.47697 Y0.97797
G01 X-0.47709 Y0.97542
G01 X-0.47757 Y0.97054
G01 X-0.47795 Y0.96802
G01 X-0.47857 Y0.96554
G01 X-0.47999 Y0.96085
G01 X-0.48194 Y0.95615
G01 X-0.48425 Y0.95182
G01 X-0.48556 Y0.94963
G01 X-0.48708 Y0.94759
G01 X-0.49019 Y0.94380
G01 X-0.49191 Y0.94191
G01 X-1.04191 Y0.39191
G01 X-1.04380 Y0.39019
G01 X-1.04758 Y0.38708
G01 X-1.04963 Y0.38556
G01 X-1.05182 Y0.38425
G01 X-1.05614 Y0.38194
G01 X-1.05845 Y0.38085
G01 X-1.06085 Y0.37999
G01 X-1.06554 Y0.37857
G01 X-1.07054 Y0.37757
G01 X-1.07542 Y0.37709
G01 X-1.07797 Y0.37697
G01 X-1.39133 Y0.37697
G01 X-1.39151 Y0.37756
G01 X-1.39133 Y0.37697
G01 X-1.39419 Y0.37489
G01 X-1.39647 Y0.37341
G01 X-1.39889 Y0.37217
G01 X-1.40596 Y0.36903
G01 X-1.40850 Y0.36805
G01 X-1.41113 Y0.36735
G01 X-1.41869 Y0.36574
G01 X-1.42138 Y0.36531
G01 X-1.42410 Y0.36517
G01 X-1.43184 Y0.36517
G01 X-1.43455 Y0.36531
G01 X-1.43724 Y0.36574
G01 X-1.44481 Y0.36735
G01 X-1.44744 Y0.36805
G01 X-1.44998 Y0.36903
G01 X-1.45704 Y0.37217
G01 X-1.45947 Y0.37341
G01 X-1.46175 Y0.37489
G01 X-1.46801 Y0.37944
G01 X-1.47012 Y0.38115
G01 X-1.47205 Y0.38308
G01 X-1.47722 Y0.38882
G01 X-1.47797 Y0.38974
G01 X-1.47871 Y0.38882
G01 X-1.48389 Y0.38308
G01 X-1.48581 Y0.38115
G01 X-1.48793 Y0.37944
G01 X-1.49419 Y0.37489
G01 X-1.49647 Y0.37341
G01 X-1.49889 Y0.37217
G01 X-1.50596 Y0.36903
G01 X-1.50850 Y0.36805
G01 X-1.51113 Y0.36735
G01 X-1.51869 Y0.36574
G01 X-1.52138 Y0.36531
G01 X-1.52410 Y0.36517
G01 X-1.53184 Y0.36517
G01 X-1.53455 Y0.36531
G01 X-1.53724 Y0.36574
G01 X-1.54481 Y0.36735
G01 X-1.54744 Y0.36805
G01 X-1.54998 Y0.36903
G01 X-1.55704 Y0.37217
G01 X-1.55947 Y0.37341
G01 X-1.56175 Y0.37489
G01 X-1.56801 Y0.37944
G01 X-1.57012 Y0.38115
G01 X-1.57205 Y0.38308
G01 X-1.57722 Y0.38882
G01 X-1.57797 Y0.38974
G01 X-1.57871 Y0.38882
G01 X-1.58389 Y0.38308
G01 X-1.58581 Y0.38115
G01 X-1.58793 Y0.37944
G01 X-1.59419 Y0.37489
G01 X-1.59647 Y0.37341
G01 X-1.59889 Y0.37217
G01 X-1.60596 Y0.36903
G01 X-1.60850 Y0.36805
G01 X-1.61113 Y0.36735
G01 X-1.61869 Y0.36574
G01 X-1.62138 Y0.36531
G01 X-1.62410 Y0.36517
G01 X-1.63184 Y0.36517
G01 X-1.63455 Y0.36531
G01 X-1.63724 Y0.36574
G01 X-1.64481 Y0.36735
G01 X-1.64744 Y0.36805
G01 X-1.64998 Y0.36903
G01 X-1.65704 Y0.37217
G01 X-1.65947 Y0.37341
G01 X-1.66175 Y0.37489
G01 X-1.66801 Y0.37944
G01 X-1.67012 Y0.38115
G01 X-1.67205 Y0.38308
G01 X-1.67722 Y0.38882
G01 X-1.67797 Y0.38974
G01 X-1.67871 Y0.38882
G01 X-1.68389 Y0.38308
G01 X-1.68581 Y0.38115
G01 X-1.68793 Y0.37944
G01 X-1.69419 Y0.37489
G01 X-1.69647 Y0.37341
G01 X-1.69889 Y0.37217
G01 X-1.70596 Y0.36903
G01 X-1.70850 Y0.36805
G01 X-1.71113 Y0.36735
G01 X-1.71869 Y0.36574
G01 X-1.72138 Y0.36531
G01 X-1.72410 Y0.36517
G01 X-1.73184 Y0.36517
G01 X-1.73455 Y0.36531
G01 X-1.73724 Y0.36574
G01 X-1.74481 Y0.36735
G01 X-1.74744 Y0.36805
G01 X-1.74998 Y0.36903
G01 X-1.75704 Y0.37217
G01 X-1.75947 Y0.37341
G01 X-1.76175 Y0.37489
G01 X-1.76801 Y0.37944
G01 X-1.77012 Y0.38115
G01 X-1.77205 Y0.38308
G01 X-1.77722 Y0.38882
G01 X-1.77797 Y0.38974
G01 X-1.77871 Y0.38882
G01 X-1.78389 Y0.38308
G01 X-1.78581 Y0.38115
G01 X-1.78793 Y0.37944
G01 X-1.79419 Y0.37489
G01 X-1.79647 Y0.37341
G01 X-1.79889 Y0.37217
G01 X-1.80596 Y0.36903
G01 X-1.80850 Y0.36805
G01 X-1.81113 Y0.36735
G01 X-1.81869 Y0.36574
G01 X-1.82138 Y0.36531
G01 X-1.82410 Y0.36517
G01 X-1.83184 Y0.36517
G01 X-1.83455 Y0.36531
G01 X-1.83724 Y0.36574
G01 X-1.84481 Y0.36735
G01 X-1.84744 Y0.36805
G01 X-1.84998 Y0.36903
G01 X-1.85704 Y0.37217
G01 X-1.85947 Y0.37341
G01 X-1.86175 Y0.37489
G01 X-1.86801 Y0.37944
G01 X-1.87012 Y0.38115
G01 X-1.87205 Y0.38308
G01 X-1.87722 Y0.38882
G01 X-1.87797 Y0.38974
G01 X-1.87871 Y0.38882
G01 X-1.88389 Y0.38308
G01 X-1.88581 Y0.38115
G01 X-1.88793 Y0.37944
G01 X-1.89419 Y0.37489
G01 X-1.89647 Y0.37341
G01 X-1.89889 Y0.37217
G01 X-1.90596 Y0.36903
G01 X-1.90850 Y0.36805
G01 X-1.91113 Y0.36735
G01 X-1.91869 Y0.36574
G01 X-1.92138 Y0.36531
G01 X-1.92410 Y0.36517
G01 X-1.93184 Y0.36517
G01 X-1.93455 Y0.36531
G01 X-1.93724 Y0.36574
G01 X-1.94481 Y0.36735
G01 X-1.94744 Y0.36805
G01 X-1.94998 Y0.36903
G01 X-1.95704 Y0.37217
G01 X-1.95947 Y0.37341
G01 X-1.96175 Y0.37489
G01 X-1.96801 Y0.37944
G01 X-1.97012 Y0.38115
G01 X-1.97205 Y0.38308
G01 X-1.97722 Y0.38882
G01 X-1.97797 Y0.38974
G01 X-1.97871 Y0.38882
G01 X-1.98389 Y0.38308
G01 X-1.98581 Y0.38115
G01 X-1.98793 Y0.37944
G01 X-1.99419 Y0.37489
G01 X-1.99647 Y0.37341
G01 X-1.99889 Y0.37217
G01 X-2.00596 Y0.36903
G01 X-2.00850 Y0.36805
G01 X-2.01113 Y0.36735
G01 X-2.01869 Y0.36574
G01 X-2.02138 Y0.36531
G01 X-2.02410 Y0.36517
G01 X-2.03184 Y0.36517
G01 X-2.03455 Y0.36531
G01 X-2.03724 Y0.36574
G01 X-2.04481 Y0.36735
G01 X-2.04744 Y0.36805
G01 X-2.04998 Y0.36903
G01 X-2.05704 Y0.37217
G01 X-2.05947 Y0.37341
G01 X-2.06175 Y0.37489
G01 X-2.06801 Y0.37944
G01 X-2.07012 Y0.38115
G01 X-2.07205 Y0.38308
G01 X-2.07722 Y0.38882
G01 X-2.07797 Y0.38974
G01 X-2.07871 Y0.38882
G01 X-2.08389 Y0.38308
G01 X-2.08581 Y0.38115
G01 X-2.08793 Y0.37944
G01 X-2.09419 Y0.37489
G01 X-2.09647 Y0.37341
G01 X-2.09889 Y0.37217
G01 X-2.10596 Y0.36903
G01 X-2.10850 Y0.36805
G01 X-2.11113 Y0.36735
G01 X-2.11869 Y0.36574
G01 X-2.12138 Y0.36531
G01 X-2.12410 Y0.36517
G01 X-2.13184 Y0.36517
G01 X-2.13455 Y0.36531
G01 X-2.13724 Y0.36574
G01 X-2.14481 Y0.36735
G01 X-2.14744 Y0.36805
G01 X-2.14998 Y0.36903
G01 X-2.15704 Y0.37217
G01 X-2.15947 Y0.37341
G01 X-2.16175 Y0.37489
G01 X-2.16801 Y0.37944
G01 X-2.17012 Y0.38115
G01 X-2.17205 Y0.38308
G01 X-2.17722 Y0.38882
G01 X-2.17797 Y0.38974
G01 X-2.17871 Y0.38882
G01 X-2.18389 Y0.38308
G01 X-2.18581 Y0.38115
G01 X-2.18793 Y0.37944
G01 X-2.19419 Y0.37489
G01 X-2.19647 Y0.37341
G01 X-2.19889 Y0.37217
G01 X-2.20596 Y0.36903
G01 X-2.20850 Y0.36805
G01 X-2.21113 Y0.36735
G01 X-2.21869 Y0.36574
G01 X-2.22138 Y0.36531
G01 X-2.22410 Y0.36517
G01 X-2.23184 Y0.36517
G01 X-2.23455 Y0.36531
G01 X-2.23724 Y0.36574
G01 X-2.24481 Y0.36735
G01 X-2.24744 Y0.36805
G01 X-2.24998 Y0.36903
G01 X-2.25704 Y0.37217
G01 X-2.25947 Y0.37341
G01 X-2.26175 Y0.37489
G01 X-2.26801 Y0.37944
G01 X-2.27012 Y0.38115
G01 X-2.27205 Y0.38308
G01 X-2.27722 Y0.38882
G01 X-2.27797 Y0.38974
G01 X-2.27871 Y0.38882
G01 X-2.28389 Y0.38308
G01 X-2.28581 Y0.38115
G01 X-2.28793 Y0.37944
G01 X-2.29419 Y0.37489
G01 X-2.29647 Y0.37341
G01 X-2.29889 Y0.37217
G01 X-2.30596 Y0.36903
G01 X-2.30850 Y0.36805
G01 X-2.31113 Y0.36735
G01 X-2.31869 Y0.36574
G01 X-2.32138 Y0.36531
G01 X-2.32410 Y0.36517
G01 X-2.33184 Y0.36517
G01 X-2.33455 Y0.36531
G01 X-2.33724 Y0.36574
G01 X-2.34481 Y0.36735
G01 X-2.34744 Y0.36805
G01 X-2.34998 Y0.36903
G01 X-2.35704 Y0.37217
G01 X-2.35947 Y0.37341
G01 X-2.36175 Y0.37489
G01 X-2.36801 Y0.37944
G01 X-2.37012 Y0.38115
G01 X-2.37205 Y0.38308
G01 X-2.37722 Y0.38882
G01 X-2.37797 Y0.38974
G01 X-2.37797 Y0.39463
G01 X-2.37797 Y0.40357
G01 X-2.37797 Y0.40766
G01 X-2.37797 Y0.41579
G01 X-2.37797 Y0.41882
G01 X-2.37797 Y0.42660
G01 X-2.37797 Y0.42797
G01 X-2.37790 Y0.42661
G01 X-2.37709 Y0.41892
G01 X-2.37688 Y0.41757
G01 X-2.37652 Y0.41626
G01 X-2.37413 Y0.40890
G01 X-2.37365 Y0.40763
G01 X-2.37303 Y0.40642
G01 X-2.36916 Y0.39972
G01 X-2.36842 Y0.39858
G01 X-2.36756 Y0.39752
G01 X-2.36239 Y0.39177
G01 X-2.36142 Y0.39081
G01 X-2.36037 Y0.38996
G01 X-2.35411 Y0.38541
G01 X-2.35297 Y0.38467
G01 X-2.35176 Y0.38405
G01 X-2.34469 Y0.38090
G01 X-2.34342 Y0.38042
G01 X-2.34210 Y0.38006
G01 X-2.33454 Y0.37846
G01 X-2.33319 Y0.37824
G01 X-2.33184 Y0.37817
G01 X-2.32410 Y0.37817
G01 X-2.32274 Y0.37824
G01 X-2.32140 Y0.37846
G01 X-2.31383 Y0.38006
G01 X-2.31252 Y0.38042
G01 X-2.31125 Y0.38090
G01 X-2.30418 Y0.38405
G01 X-2.30297 Y0.38467
G01 X-2.30183 Y0.38541
G01 X-2.29557 Y0.38996
G01 X-2.29451 Y0.39081
G01 X-2.29355 Y0.39177
G01 X-2.28837 Y0.39752
G01 X-2.28752 Y0.39858
G01 X-2.28678 Y0.39972
G01 X-2.28291 Y0.40642
G01 X-2.28229 Y0.40763
G01 X-2.28180 Y0.40890
G01 X-2.27941 Y0.41626
G01 X-2.27906 Y0.41757
G01 X-2.27885 Y0.41892
G01 X-2.27804 Y0.42661
G01 X-2.27797 Y0.42797
G01 X-2.27790 Y0.42933
G01 X-2.27709 Y0.43702
G01 X-2.27688 Y0.43836
G01 X-2.27652 Y0.43968
G01 X-2.27413 Y0.44704
G01 X-2.27365 Y0.44831
G01 X-2.27303 Y0.44952
G01 X-2.26916 Y0.45622
G01 X-2.26842 Y0.45736
G01 X-2.26756 Y0.45842
G01 X-2.26239 Y0.46416
G01 X-2.26142 Y0.46513
G01 X-2.26037 Y0.46598
G01 X-2.25411 Y0.47053
G01 X-2.25297 Y0.47127
G01 X-2.25176 Y0.47189
G01 X-2.24469 Y0.47503
G01 X-2.24342 Y0.47552
G01 X-2.24210 Y0.47587
G01 X-2.23454 Y0.47748
G01 X-2.23319 Y0.47770
G01 X-2.23184 Y0.47777
G01 X-2.22410 Y0.47777
G01 X-2.22274 Y0.47770
G01 X-2.22140 Y0.47748
G01 X-2.21383 Y0.47587
G01 X-2.21252 Y0.47552
G01 X-2.21125 Y0.47503
G01 X-2.20418 Y0.47189
G01 X-2.20297 Y0.47127
G01 X-2.20183 Y0.47053
G01 X-2.19557 Y0.46598
G01 X-2.19451 Y0.46513
G01 X-2.19355 Y0.46416
G01 X-2.18837 Y0.45842
G01 X-2.18752 Y0.45736
G01 X-2.18678 Y0.45622
G01 X-2.18291 Y0.44952
G01 X-2.18229 Y0.44831
G01 X-2.18180 Y0.44704
G01 X-2.17941 Y0.43968
G01 X-2.17906 Y0.43836
G01 X-2.17885 Y0.43702
G01 X-2.17804 Y0.42933
G01 X-2.17797 Y0.42797
G01 X-2.17790 Y0.42661
G01 X-2.17709 Y0.41892
G01 X-2.17688 Y0.41757
G01 X-2.17652 Y0.41626
G01 X-2.17413 Y0.40890
G01 X-2.17365 Y0.40763
G01 X-2.17303 Y0.40642
G01 X-2.16916 Y0.39972
G01 X-2.16842 Y0.39858
G01 X-2.16756 Y0.39752
G01 X-2.16239 Y0.39177
G01 X-2.16142 Y0.39081
G01 X-2.16037 Y0.38996
G01 X-2.15411 Y0.38541
G01 X-2.15297 Y0.38467
G01 X-2.15176 Y0.38405
G01 X-2.14469 Y0.38090
G01 X-2.14342 Y0.38042
G01 X-2.14210 Y0.38006
G01 X-2.13454 Y0.37846
G01 X-2.13319 Y0.37824
G01 X-2.13184 Y0.37817
G01 X-2.12410 Y0.37817
G01 X-2.12274 Y0.37824
G01 X-2.12140 Y0.37846
G01 X-2.11383 Y0.38006
G01 X-2.11252 Y0.38042
G01 X-2.11125 Y0.38090
G01 X-2.10418 Y0.38405
G01 X-2.10297 Y0.38467
G01 X-2.10183 Y0.38541
G01 X-2.09557 Y0.38996
G01 X-2.09451 Y0.39081
G01 X-2.09355 Y0.39177
G01 X-2.08837 Y0.39752
G01 X-2.08752 Y0.39858
G01 X-2.08678 Y0.39972
G01 X-2.08291 Y0.40642
G01 X-2.08229 Y0.40763
G01 X-2.08180 Y0.40890
G01 X-2.07941 Y0.41626
G01 X-2.07906 Y0.41757
G01 X-2.07885 Y0.41892
G01 X-2.07804 Y0.42661
G01 X-2.07797 Y0.42797
G01 X-2.07790 Y0.42933
G01 X-2.07709 Y0.43702
G01 X-2.07688 Y0.43836
G01 X-2.07652 Y0.43968
G01 X-2.07413 Y0.44704
G01 X-2.07365 Y0.44831
G01 X-2.07303 Y0.44952
G01 X-2.06916 Y0.45622
G01 X-2.06842 Y0.45736
G01 X-2.06756 Y0.45842
G01 X-2.06239 Y0.46416
G01 X-2.06142 Y0.46513
G01 X-2.06037 Y0.46598
G01 X-2.05411 Y0.47053
G01 X-2.05297 Y0.47127
G01 X-2.05176 Y0.47189
G01 X-2.04469 Y0.47503
G01 X-2.04342 Y0.47552
G01 X-2.04210 Y0.47587
G01 X-2.03454 Y0.47748
G01 X-2.03319 Y0.47770
G01 X-2.03184 Y0.47777
G01 X-2.02410 Y0.47777
G01 X-2.02274 Y0.47770
G01 X-2.02140 Y0.47748
G01 X-2.01383 Y0.47587
G01 X-2.01252 Y0.47552
G01 X-2.01125 Y0.47503
G01 X-2.00418 Y0.47189
G01 X-2.00297 Y0.47127
G01 X-2.00183 Y0.47053
G01 X-1.99557 Y0.46598
G01 X-1.99451 Y0.46513
G01 X-1.99355 Y0.46416
G01 X-1.98837 Y0.45842
G01 X-1.98752 Y0.45736
G01 X-1.98678 Y0.45622
G01 X-1.98291 Y0.44952
G01 X-1.98229 Y0.44831
G01 X-1.98180 Y0.44704
G01 X-1.97941 Y0.43968
G01 X-1.97906 Y0.43836
G01 X-1.97885 Y0.43702
G01 X-1.97804 Y0.42933
G01 X-1.97797 Y0.42797
G01 X-1.97790 Y0.42661
G01 X-1.97709 Y0.41892
G01 X-1.97688 Y0.41757
G01 X-1.97652 Y0.41626
G01 X-1.97413 Y0.40890
G01 X-1.97365 Y0.40763
G01 X-1.97303 Y0.40642
G01 X-1.96916 Y0.39972
G01 X-1.96842 Y0.39858
G01 X-1.96756 Y0.39752
G01 X-1.96239 Y0.39177
G01 X-1.96142 Y0.39081
G01 X-1.96037 Y0.38996
G01 X-1.95411 Y0.38541
G01 X-1.95297 Y0.38467
G01 X-1.95176 Y0.38405
G01 X-1.94469 Y0.38090
G01 X-1.94342 Y0.38042
G01 X-1.94210 Y0.38006
G01 X-1.93454 Y0.37846
G01 X-1.93319 Y0.37824
G01 X-1.93184 Y0.37817
G01 X-1.92410 Y0.37817
G01 X-1.92274 Y0.37824
G01 X-1.92140 Y0.37846
G01 X-1.91383 Y0.38006
G01 X-1.91252 Y0.38042
G01 X-1.91125 Y0.38090
G01 X-1.90418 Y0.38405
G01 X-1.90297 Y0.38467
G01 X-1.90183 Y0.38541
G01 X-1.89557 Y0.38996
G01 X-1.89451 Y0.39081
G01 X-1.89355 Y0.39177
G01 X-1.88837 Y0.39752
G01 X-1.88752 Y0.39858
G01 X-1.88678 Y0.39972
G01 X-1.88291 Y0.40642
G01 X-1.88229 Y0.40763
G01 X-1.88180 Y0.40890
G01 X-1.87941 Y0.41626
G01 X-1.87906 Y0.41757
G01 X-1.87885 Y0.41892
G01 X-1.87804 Y0.42661
G01 X-1.87797 Y0.42797
G01 X-1.87790 Y0.42933
G01 X-1.87709 Y0.43702
G01 X-1.87688 Y0.43836
G01 X-1.87652 Y0.43968
G01 X-1.87413 Y0.44704
G01 X-1.87365 Y0.44831
G01 X-1.87303 Y0.44952
G01 X-1.86916 Y0.45622
G01 X-1.86842 Y0.45736
G01 X-1.86756 Y0.45842
G01 X-1.86239 Y0.46416
G01 X-1.86142 Y0.46513
G01 X-1.86037 Y0.46598
G01 X-1.85411 Y0.47053
G01 X-1.85297 Y0.47127
G01 X-1.85176 Y0.47189
G01 X-1.84469 Y0.47503
G01 X-1.84342 Y0.47552
G01 X-1.84210 Y0.47587
G01 X-1.83454 Y0.47748
G01 X-1.83319 Y0.47770
G01 X-1.83184 Y0.47777
G01 X-1.82410 Y0.47777
G01 X-1.82274 Y0.47770
G01 X-1.82140 Y0.47748
G01 X-1.81383 Y0.47587
G01 X-1.81252 Y0.47552
G01 X-1.81125 Y0.47503
G01 X-1.80418 Y0.47189
G01 X-1.80297 Y0.47127
G01 X-1.80183 Y0.47053
G01 X-1.79557 Y0.46598
G01 X-1.79451 Y0.46513
G01 X-1.79355 Y0.46416
G01 X-1.78837 Y0.45842
G01 X-1.78752 Y0.45736
G01 X-1.78678 Y0.45622
G01 X-1.78291 Y0.44952
G01 X-1.78229 Y0.44831
G01 X-1.78180 Y0.44704
G01 X-1.77941 Y0.43968
G01 X-1.77906 Y0.43836
G01 X-1.77885 Y0.43702
G01 X-1.77804 Y0.42933
G01 X-1.77797 Y0.42797
G01 X-1.77790 Y0.42661
G01 X-1.77709 Y0.41892
G01 X-1.77688 Y0.41757
G01 X-1.77652 Y0.41626
G01 X-1.77413 Y0.40890
G01 X-1.77365 Y0.40763
G01 X-1.77303 Y0.40642
G01 X-1.76916 Y0.39972
G01 X-1.76842 Y0.39858
G01 X-1.76756 Y0.39752
G01 X-1.76239 Y0.39177
G01 X-1.76142 Y0.39081
G01 X-1.76037 Y0.38996
G01 X-1.75411 Y0.38541
G01 X-1.75297 Y0.38467
G01 X-1.75176 Y0.38405
G01 X-1.74469 Y0.38090
G01 X-1.74342 Y0.38042
G01 X-1.74210 Y0.38006
G01 X-1.73454 Y0.37846
G01 X-1.73319 Y0.37824
G01 X-1.73184 Y0.37817
G01 X-1.72410 Y0.37817
G01 X-1.72274 Y0.37824
G01 X-1.72140 Y0.37846
G01 X-1.71383 Y0.38006
G01 X-1.71252 Y0.38042
G01 X-1.71125 Y0.38090
G01 X-1.70418 Y0.38405
G01 X-1.70297 Y0.38467
G01 X-1.70183 Y0.38541
G01 X-1.69557 Y0.38996
G01 X-1.69451 Y0.39081
G01 X-1.69355 Y0.39177
G01 X-1.68837 Y0.39752
G01 X-1.68752 Y0.39858
G01 X-1.68678 Y0.39972
G01 X-1.68291 Y0.40642
G01 X-1.68229 Y0.40763
G01 X-1.68180 Y0.40890
G01 X-1.67941 Y0.41626
G01 X-1.67906 Y0.41757
G01 X-1.67885 Y0.41892
G01 X-1.67804 Y0.42661
G01 X-1.67797 Y0.42797
G01 X-1.67790 Y0.42933
G01 X-1.67709 Y0.43702
G01 X-1.67688 Y0.43836
G01 X-1.67652 Y0.43968
G01 X-1.67413 Y0.44704
G01 X-1.67365 Y0.44831
G01 X-1.67303 Y0.44952
G01 X-1.66916 Y0.45622
G01 X-1.66842 Y0.45736
G01 X-1.66756 Y0.45842
G01 X-1.66239 Y0.46416
G01 X-1.66142 Y0.46513
G01 X-1.66037 Y0.46598
G01 X-1.65411 Y0.47053
G01 X-1.65297 Y0.47127
G01 X-1.65176 Y0.47189
G01 X-1.64469 Y0.47503
G01 X-1.64342 Y0.47552
G01 X-1.64210 Y0.47587
G01 X-1.63454 Y0.47748
G01 X-1.63319 Y0.47770
G01 X-1.63184 Y0.47777
G01 X-1.62410 Y0.47777
G01 X-1.62274 Y0.47770
G01 X-1.62140 Y0.47748
G01 X-1.61383 Y0.47587
G01 X-1.61252 Y0.47552
G01 X-1.61125 Y0.47503
G01 X-1.60418 Y0.47189
G01 X-1.60297 Y0.47127
G01 X-1.60183 Y0.47053
G01 X-1.59557 Y0.46598
G01 X-1.59451 Y0.46513
G01 X-1.59355 Y0.46416
G01 X-1.58837 Y0.45842
G01 X-1.58752 Y0.45736
G01 X-1.58678 Y0.45622
G01 X-1.58291 Y0.44952
G01 X-1.58229 Y0.44831
G01 X-1.58180 Y0.44704
G01 X-1.57941 Y0.43968
G01 X-1.57906 Y0.43836
G01 X-1.57885 Y0.43702
G01 X-1.57804 Y0.42933
G01 X-1.57797 Y0.42797
G01 X-1.57790 Y0.42661
G01 X-1.57709 Y0.41892
G01 X-1.57688 Y0.41757
G01 X-1.57652 Y0.41626
G01 X-1.57413 Y0.40890
G01 X-1.57365 Y0.40763
G01 X-1.57303 Y0.40642
G01 X-1.56916 Y0.39972
G01 X-1.56842 Y0.39858
G01 X-1.56756 Y0.39752
G01 X-1.56239 Y0.39177
G01 X-1.56142 Y0.39081
G01 X-1.56037 Y0.38996
G01 X-1.55411 Y0.38541
G01 X-1.55297 Y0.38467
G01 X-1.55176 Y0.38405
G01 X-1.54469 Y0.38090
G01 X-1.54342 Y0.38042
G01 X-1.54210 Y0.38006
G01 X-1.53454 Y0.37846
G01 X-1.53319 Y0.37824
G01 X-1.53184 Y0.37817
G01 X-1.52410 Y0.37817
G01 X-1.52274 Y0.37824
G01 X-1.52140 Y0.37846
G01 X-1.51383 Y0.38006
G01 X-1.51252 Y0.38042
G01 X-1.51125 Y0.38090
G01 X-1.50418 Y0.38405
G01 X-1.50297 Y0.38467
G01 X-1.50183 Y0.38541
G01 X-1.49557 Y0.38996
G01 X-1.49451 Y0.39081
G01 X-1.49355 Y0.39177
G01 X-1.48837 Y0.39752
G01 X-1.48752 Y0.39858
G01 X-1.48678 Y0.39972
G01 X-1.48291 Y0.40642
G01 X-1.48229 Y0.40763
G01 X-1.48180 Y0.40890
G01 X-1.47941 Y0.41626
G01 X-1.47906 Y0.41757
G01 X-1.47885 Y0.41892
G01 X-1.47804 Y0.42661
G01 X-1.47797 Y0.42797
G01 X-1.47790 Y0.42933
G01 X-1.47709 Y0.43702
G01 X-1.47688 Y0.43836
G01 X-1.47652 Y0.43968
G01 X-1.47413 Y0.44704
G01 X-1.47365 Y0.44831
G01 X-1.47303 Y0.44952
G01 X-1.46916 Y0.45622
G01 X-1.46842 Y0.45736
G01 X-1.46756 Y0.45842
G01 X-1.46239 Y0.46416
G01 X-1.46142 Y0.46513
G01 X-1.46037 Y0.46598
G01 X-1.45411 Y0.47053
G01 X-1.45297 Y0.47127
G01 X-1.45176 Y0.47189
G01 X-1.44469 Y0.47503
G01 X-1.44342 Y0.47552
G01 X-1.44210 Y0.47587
G01 X-1.43454 Y0.47748
G01 X-1.43319 Y0.47770
G01 X-1.43184 Y0.47777
G01 X-1.42410 Y0.47777
G01 X-1.42274 Y0.47770
G01 X-1.42140 Y0.47748
G01 X-1.41383 Y0.47587
G01 X-1.41252 Y0.47552
G01 X-1.41125 Y0.47503
G01 X-1.40418 Y0.47189
G01 X-1.40297 Y0.47127
G01 X-1.40183 Y0.47053
G01 X-1.39557 Y0.46598
G01 X-1.39555 Y0.46597
G01 X-1.09371 Y0.46597
G01 X-0.56597 Y0.99371
G01 X-0.56597 Y1.29515
G01 X-0.56810 Y1.29752
G01 X-0.56896 Y1.29858
G01 X-0.56970 Y1.29972
G01 X-0.57357 Y1.30642
G01 X-0.57419 Y1.30763
G01 X-0.57468 Y1.30890
G01 X-0.57707 Y1.31626
G01 X-0.57742 Y1.31757
G01 X-0.57763 Y1.31892
G01 X-0.57824 Y1.32469
G01 X-0.57824 Y1.32471
G01 X-0.57885 Y1.31892
G01 X-0.57906 Y1.31757
G01 X-0.57941 Y1.31626
G01 X-0.58180 Y1.30890
G01 X-0.58229 Y1.30763
G01 X-0.58291 Y1.30642
G01 X-0.58678 Y1.29972
G01 X-0.58752 Y1.29858
G01 X-0.58837 Y1.29752
G01 X-0.58997 Y1.29575
G01 X-0.58997 Y1.02797
G01 X-0.59001 Y1.02695
G01 X-0.59031 Y1.02304
G01 X-0.59063 Y1.02102
G01 X-0.59155 Y1.01721
G01 X-0.59218 Y1.01527
G01 X-0.59368 Y1.01164
G01 X-0.59461 Y1.00983
G01 X-0.59666 Y1.00648
G01 X-0.59786 Y1.00483
G01 X-0.60040 Y1.00185
G01 X-0.60110 Y1.00110
G01 X-1.10110 Y0.50110
G01 X-1.10204 Y0.50024
G01 X-1.10583 Y0.49713
G01 X-1.10795 Y0.49572
G01 X-1.11227 Y0.49341
G01 X-1.11463 Y0.49243
G01 X-1.11932 Y0.49101
G01 X-1.12182 Y0.49051
G01 X-1.12669 Y0.49003
G01 X-1.12797 Y0.48997
G01 X-1.77797 Y0.48997
G01 X-1.77924 Y0.49003
G01 X-1.78412 Y0.49051
G01 X-1.78662 Y0.49101
G01 X-1.79131 Y0.49243
G01 X-1.79251 Y0.49286
G01 X-1.79366 Y0.49341
G01 X-1.79799 Y0.49572
G01 X-1.79908 Y0.49637
G01 X-1.80010 Y0.49713
G01 X-1.80389 Y0.50024
G01 X-1.80484 Y0.50110
G01 X-1.85484 Y0.55110
G01 X-1.85569 Y0.55204
G01 X-1.85880 Y0.55583
G01 X-1.85956 Y0.55686
G01 X-1.86022 Y0.55795
G01 X-1.86253 Y0.56227
G01 X-1.86308 Y0.56343
G01 X-1.86351 Y0.56463
G01 X-1.86493 Y0.56932
G01 X-1.86508 Y0.57006
G01 X-1.89648 Y0.57006
G01 X-1.89712 Y0.56954
G01 X-1.89937 Y0.56833
G01 X-1.90181 Y0.56759
G01 X-1.90435 Y0.56735
G01 X-1.95159 Y0.56735
G01 X-1.95413 Y0.56759
G01 X-1.95656 Y0.56833
G01 X-1.95881 Y0.56954
G01 X-1.95945 Y0.57006
G01 X-1.99648 Y0.57006
G01 X-1.99712 Y0.56954
G01 X-1.99937 Y0.56833
G01 X-2.00181 Y0.56759
G01 X-2.00435 Y0.56735
G01 X-2.05159 Y0.56735
G01 X-2.05413 Y0.56759
G01 X-2.05656 Y0.56833
G01 X-2.05881 Y0.56954
G01 X-2.05945 Y0.57006
G01 X-2.09648 Y0.57006
G01 X-2.09712 Y0.56954
G01 X-2.09937 Y0.56833
G01 X-2.10181 Y0.56759
G01 X-2.10435 Y0.56735
G01 X-2.15159 Y0.56735
G01 X-2.15413 Y0.56759
G01 X-2.15656 Y0.56833
G01 X-2.15881 Y0.56954
G01 X-2.15945 Y0.57006
G01 X-2.19648 Y0.57006
G01 X-2.19712 Y0.56954
G01 X-2.19937 Y0.56833
G01 X-2.20181 Y0.56759
G01 X-2.20435 Y0.56735
G01 X-2.25159 Y0.56735
G01 X-2.25413 Y0.56759
G01 X-2.25656 Y0.56833
G01 X-2.25881 Y0.56954
G01 X-2.25945 Y0.57006
G01 X-2.29648 Y0.57006
G01 X-2.29712 Y0.56954
G01 X-2.29937 Y0.56833
G01 X-2.30181 Y0.56759
G01 X-2.30435 Y0.56735
G01 X-2.35159 Y0.56735
G01 X-2.35413 Y0.56759
G01 X-2.35656 Y0.56833
G01 X-2.35881 Y0.56954
G01 X-2.35945 Y0.57006
G01 X-2.39648 Y0.57006
G01 X-2.39712 Y0.56954
G01 X-2.39937 Y0.56833
G01 X-2.40181 Y0.56759
G01 X-2.40435 Y0.56735
G01 X-2.45159 Y0.56735
G01 X-2.45413 Y0.56759
G01 X-2.45656 Y0.56833
G01 X-2.45881 Y0.56954
G01 X-2.45945 Y0.57006
G01 X-2.49648 Y0.57006
G01 X-2.49712 Y0.56954
G01 X-2.49937 Y0.56833
G01 X-2.50181 Y0.56759
G01 X-2.50435 Y0.56735
G01 X-2.55159 Y0.56735
G01 X-2.55413 Y0.56759
G01 X-2.55656 Y0.56833
G01 X-2.55881 Y0.56954
G01 X-2.55945 Y0.57006
G01 X-2.59582 Y0.57006
G01 X-2.59712 Y0.56900
G01 X-2.59937 Y0.56779
G01 X-2.60181 Y0.56705
G01 X-2.60435 Y0.56680
G01 X-2.65159 Y0.56680
G01 X-2.65413 Y0.56705
G01 X-2.65656 Y0.56779
G01 X-2.65881 Y0.56900
G01 X-2.65935 Y0.56944
G01 X-2.78997 Y0.56909
G01 X-2.78997 Y0.46019
G01 X-2.78837 Y0.45842
G01 X-2.78752 Y0.45736
G01 X-2.78678 Y0.45622
G01 X-2.78291 Y0.44952
G01 X-2.78229 Y0.44831
G01 X-2.78180 Y0.44704
G01 X-2.77941 Y0.43968
G01 X-2.77906 Y0.43836
G01 X-2.77885 Y0.43702
G01 X-2.77804 Y0.42933
G01 X-2.77797 Y0.42797
G01 X-2.77790 Y0.42661
G01 X-2.77709 Y0.41892
G01 X-2.77688 Y0.41757
G01 X-2.77652 Y0.41626
G01 X-2.77413 Y0.40890
G01 X-2.77365 Y0.40763
G01 X-2.77303 Y0.40642
G01 X-2.76916 Y0.39972
G01 X-2.76842 Y0.39858
G01 X-2.76756 Y0.39752
G01 X-2.76239 Y0.39177
G01 X-2.76142 Y0.39081
G01 X-2.76037 Y0.38996
G01 X-2.75411 Y0.38541
G01 X-2.75297 Y0.38467
G01 X-2.75176 Y0.38405
G01 X-2.74469 Y0.38090
G01 X-2.74342 Y0.38042
G01 X-2.74210 Y0.38006
G01 X-2.73454 Y0.37846
G01 X-2.73319 Y0.37824
G01 X-2.73184 Y0.37817
G01 X-2.72410 Y0.37817
G01 X-2.72274 Y0.37824
G01 X-2.72140 Y0.37846
G01 X-2.71383 Y0.38006
G01 X-2.71252 Y0.38042
G01 X-2.71125 Y0.38090
G01 X-2.70418 Y0.38405
G01 X-2.70297 Y0.38467
G01 X-2.70183 Y0.38541
G01 X-2.69557 Y0.38996
G01 X-2.69451 Y0.39081
G01 X-2.69355 Y0.39177
G01 X-2.68837 Y0.39752
G01 X-2.68752 Y0.39858
G01 X-2.68678 Y0.39972
G01 X-2.68291 Y0.40642
G01 X-2.68229 Y0.40763
G01 X-2.68180 Y0.40890
G01 X-2.67941 Y0.41626
G01 X-2.67906 Y0.41757
G01 X-2.67885 Y0.41892
G01 X-2.67804 Y0.42661
G01 X-2.67797 Y0.42797
G01 X-2.67790 Y0.42933
G01 X-2.67709 Y0.43702
G01 X-2.67688 Y0.43836
G01 X-2.67652 Y0.43968
G01 X-2.67413 Y0.44704
G01 X-2.67365 Y0.44831
G01 X-2.67303 Y0.44952
G01 X-2.66916 Y0.45622
G01 X-2.66842 Y0.45736
G01 X-2.66756 Y0.45842
G01 X-2.66239 Y0.46416
G01 X-2.66142 Y0.46513
G01 X-2.66037 Y0.46598
G01 X-2.65411 Y0.47053
G01 X-2.65297 Y0.47127
G01 X-2.65176 Y0.47189
G01 X-2.64469 Y0.47503
G01 X-2.64342 Y0.47552
G01 X-2.64210 Y0.47587
G01 X-2.63454 Y0.47748
G01 X-2.63319 Y0.47770
G01 X-2.63184 Y0.47777
G01 X-2.62410 Y0.47777
G01 X-2.62274 Y0.47770
G01 X-2.62140 Y0.47748
G01 X-2.61383 Y0.47587
G01 X-2.61252 Y0.47552
G01 X-2.61125 Y0.47503
G01 X-2.60418 Y0.47189
G01 X-2.60297 Y0.47127
G01 X-2.60183 Y0.47053
G01 X-2.59557 Y0.46598
G01 X-2.59451 Y0.46513
G01 X-2.59355 Y0.46416
G01 X-2.58837 Y0.45842
G01 X-2.58752 Y0.45736
G01 X-2.58678 Y0.45622
G01 X-2.58291 Y0.44952
G01 X-2.58229 Y0.44831
G01 X-2.58180 Y0.44704
G01 X-2.57941 Y0.43968
G01 X-2.57906 Y0.43836
G01 X-2.57885 Y0.43702
G01 X-2.57804 Y0.42933
G01 X-2.57797 Y0.42797
G01 X-2.57790 Y0.42661
G01 X-2.57709 Y0.41892
G01 X-2.57688 Y0.41757
G01 X-2.57652 Y0.41626
G01 X-2.57413 Y0.40890
G01 X-2.57365 Y0.40763
G01 X-2.57303 Y0.40642
G01 X-2.56916 Y0.39972
G01 X-2.56842 Y0.39858
G01 X-2.56756 Y0.39752
G01 X-2.56239 Y0.39177
G01 X-2.56142 Y0.39081
G01 X-2.56037 Y0.38996
G01 X-2.55411 Y0.38541
G01 X-2.55297 Y0.38467
G01 X-2.55176 Y0.38405
G01 X-2.54469 Y0.38090
G01 X-2.54342 Y0.38042
G01 X-2.54210 Y0.38006
G01 X-2.53454 Y0.37846
G01 X-2.53319 Y0.37824
G01 X-2.53184 Y0.37817
G01 X-2.52410 Y0.37817
G01 X-2.52274 Y0.37824
G01 X-2.52140 Y0.37846
G01 X-2.51383 Y0.38006
G01 X-2.51252 Y0.38042
G01 X-2.51125 Y0.38090
G01 X-2.50418 Y0.38405
G01 X-2.50297 Y0.38467
G01 X-2.50183 Y0.38541
G01 X-2.49557 Y0.38996
G01 X-2.49451 Y0.39081
G01 X-2.49355 Y0.39177
G01 X-2.48837 Y0.39752
G01 X-2.48752 Y0.39858
G01 X-2.48678 Y0.39972
G01 X-2.48291 Y0.40642
G01 X-2.48229 Y0.40763
G01 X-2.48180 Y0.40890
G01 X-2.47941 Y0.41626
G01 X-2.47906 Y0.41757
G01 X-2.47885 Y0.41892
G01 X-2.47804 Y0.42661
G01 X-2.47797 Y0.42797
G01 X-2.47790 Y0.42933
G01 X-2.47709 Y0.43702
G01 X-2.47688 Y0.43836
G01 X-2.47652 Y0.43968
G01 X-2.47413 Y0.44704
G01 X-2.47365 Y0.44831
G01 X-2.47303 Y0.44952
G01 X-2.46916 Y0.45622
G01 X-2.46842 Y0.45736
G01 X-2.46756 Y0.45842
G01 X-2.46239 Y0.46416
G01 X-2.46142 Y0.46513
G01 X-2.46037 Y0.46598
G01 X-2.45411 Y0.47053
G01 X-2.45297 Y0.47127
G01 X-2.45176 Y0.47189
G01 X-2.44469 Y0.47503
G01 X-2.44342 Y0.47552
G01 X-2.44210 Y0.47587
G01 X-2.43454 Y0.47748
G01 X-2.43319 Y0.47770
G01 X-2.43184 Y0.47777
G01 X-2.42410 Y0.47777
G01 X-2.42274 Y0.47770
G01 X-2.42140 Y0.47748
G01 X-2.41383 Y0.47587
G01 X-2.41252 Y0.47552
G01 X-2.41125 Y0.47503
G01 X-2.40418 Y0.47189
G01 X-2.40297 Y0.47127
G01 X-2.40183 Y0.47053
G01 X-2.39557 Y0.46598
G01 X-2.39451 Y0.46513
G01 X-2.39355 Y0.46416
G01 X-2.38837 Y0.45842
G01 X-2.38752 Y0.45736
G01 X-2.38678 Y0.45622
G01 X-2.38291 Y0.44952
G01 X-2.38229 Y0.44831
G01 X-2.38180 Y0.44704
G01 X-2.37941 Y0.43968
G01 X-2.37906 Y0.43836
G01 X-2.37885 Y0.43702
G01 X-2.37804 Y0.42933
G01 X-2.37797 Y0.42797
G01 X-2.37797 Y0.42934
G01 X-2.37797 Y0.43711
G01 X-2.37797 Y0.44015
G01 X-2.37797 Y0.44828
G01 X-2.37797 Y0.45237
G01 X-2.37797 Y0.46130
G01 X-2.37797 Y0.46619
G01 X-2.37722 Y0.46711
G01 X-2.37205 Y0.47286
G01 X-2.37012 Y0.47479
G01 X-2.36801 Y0.47650
G01 X-2.36175 Y0.48105
G01 X-2.35947 Y0.48253
G01 X-2.35704 Y0.48376
G01 X-2.34998 Y0.48691
G01 X-2.34744 Y0.48789
G01 X-2.34481 Y0.48859
G01 X-2.33724 Y0.49020
G01 X-2.33455 Y0.49062
G01 X-2.33184 Y0.49077
G01 X-2.32410 Y0.49077
G01 X-2.32138 Y0.49062
G01 X-2.31869 Y0.49020
G01 X-2.31113 Y0.48859
G01 X-2.30850 Y0.48789
G01 X-2.30596 Y0.48691
G01 X-2.29889 Y0.48376
G01 X-2.29647 Y0.48253
G01 X-2.29419 Y0.48105
G01 X-2.28793 Y0.47650
G01 X-2.28581 Y0.47479
G01 X-2.28389 Y0.47286
G01 X-2.27871 Y0.46711
G01 X-2.27797 Y0.46619
G01 X-2.27722 Y0.46711
G01 X-2.27205 Y0.47286
G01 X-2.27012 Y0.47479
G01 X-2.26801 Y0.47650
G01 X-2.26175 Y0.48105
G01 X-2.25947 Y0.48253
G01 X-2.25704 Y0.48376
G01 X-2.24998 Y0.48691
G01 X-2.24744 Y0.48789
G01 X-2.24481 Y0.48859
G01 X-2.23724 Y0.49020
G01 X-2.23455 Y0.49062
G01 X-2.23184 Y0.49077
G01 X-2.22410 Y0.49077
G01 X-2.22138 Y0.49062
G01 X-2.21869 Y0.49020
G01 X-2.21113 Y0.48859
G01 X-2.20850 Y0.48789
G01 X-2.20596 Y0.48691
G01 X-2.19889 Y0.48376
G01 X-2.19647 Y0.48253
G01 X-2.19419 Y0.48105
G01 X-2.18793 Y0.47650
G01 X-2.18581 Y0.47479
G01 X-2.18389 Y0.47286
G01 X-2.17871 Y0.46711
G01 X-2.17797 Y0.46619
G01 X-2.17722 Y0.46711
G01 X-2.17205 Y0.47286
G01 X-2.17012 Y0.47479
G01 X-2.16801 Y0.47650
G01 X-2.16175 Y0.48105
G01 X-2.15947 Y0.48253
G01 X-2.15704 Y0.48376
G01 X-2.14998 Y0.48691
G01 X-2.14744 Y0.48789
G01 X-2.14481 Y0.48859
G01 X-2.13724 Y0.49020
G01 X-2.13455 Y0.49062
G01 X-2.13184 Y0.49077
G01 X-2.12410 Y0.49077
G01 X-2.12138 Y0.49062
G01 X-2.11869 Y0.49020
G01 X-2.11113 Y0.48859
G01 X-2.10850 Y0.48789
G01 X-2.10596 Y0.48691
G01 X-2.09889 Y0.48376
G01 X-2.09647 Y0.48253
G01 X-2.09419 Y0.48105
G01 X-2.08793 Y0.47650
G01 X-2.08581 Y0.47479
G01 X-2.08389 Y0.47286
G01 X-2.07871 Y0.46711
G01 X-2.07797 Y0.46619
G01 X-2.07722 Y0.46711
G01 X-2.07205 Y0.47286
G01 X-2.07012 Y0.47479
G01 X-2.06801 Y0.47650
G01 X-2.06175 Y0.48105
G01 X-2.05947 Y0.48253
G01 X-2.05704 Y0.48376
G01 X-2.04998 Y0.48691
G01 X-2.04744 Y0.48789
G01 X-2.04481 Y0.48859
G01 X-2.03724 Y0.49020
G01 X-2.03455 Y0.49062
G01 X-2.03184 Y0.49077
G01 X-2.02410 Y0.49077
G01 X-2.02138 Y0.49062
G01 X-2.01869 Y0.49020
G01 X-2.01113 Y0.48859
G01 X-2.00850 Y0.48789
G01 X-2.00596 Y0.48691
G01 X-1.99889 Y0.48376
G01 X-1.99647 Y0.48253
G01 X-1.99419 Y0.48105
G01 X-1.98793 Y0.47650
G01 X-1.98581 Y0.47479
G01 X-1.98389 Y0.47286
G01 X-1.97871 Y0.46711
G01 X-1.97797 Y0.46619
G01 X-1.97722 Y0.46711
G01 X-1.97205 Y0.47286
G01 X-1.97012 Y0.47479
G01 X-1.96801 Y0.47650
G01 X-1.96175 Y0.48105
G01 X-1.95947 Y0.48253
G01 X-1.95704 Y0.48376
G01 X-1.94998 Y0.48691
G01 X-1.94744 Y0.48789
G01 X-1.94481 Y0.48859
G01 X-1.93724 Y0.49020
G01 X-1.93455 Y0.49062
G01 X-1.93184 Y0.49077
G01 X-1.92410 Y0.49077
G01 X-1.92138 Y0.49062
G01 X-1.91869 Y0.49020
G01 X-1.91113 Y0.48859
G01 X-1.90850 Y0.48789
G01 X-1.90596 Y0.48691
G01 X-1.89889 Y0.48376
G01 X-1.89647 Y0.48253
G01 X-1.89419 Y0.48105
G01 X-1.88793 Y0.47650
G01 X-1.88581 Y0.47479
G01 X-1.88389 Y0.47286
G01 X-1.87871 Y0.46711
G01 X-1.87797 Y0.46619
G01 X-1.87722 Y0.46711
G01 X-1.87205 Y0.47286
G01 X-1.87012 Y0.47479
G01 X-1.86801 Y0.47650
G01 X-1.86175 Y0.48105
G01 X-1.85947 Y0.48253
G01 X-1.85704 Y0.48376
G01 X-1.84998 Y0.48691
G01 X-1.84744 Y0.48789
G01 X-1.84481 Y0.48859
G01 X-1.83724 Y0.49020
G01 X-1.83455 Y0.49062
G01 X-1.83184 Y0.49077
G01 X-1.82410 Y0.49077
G01 X-1.82138 Y0.49062
G01 X-1.81869 Y0.49020
G01 X-1.81113 Y0.48859
G01 X-1.80976 Y0.48822
G01 X-1.80976 Y0.48822
G01 X-1.80971 Y0.48820
G01 X-1.80971 Y0.48819
G01 X-1.80971 Y0.48820
G01 X-1.81214 Y0.49019
G01 X-1.81403 Y0.49191
G01 X-1.86403 Y0.54191
G01 X-1.86574 Y0.54380
G01 X-1.86885 Y0.54759
G01 X-1.87037 Y0.54963
G01 X-1.87168 Y0.55182
G01 X-1.87399 Y0.55615
G01 X-1.87443 Y0.55706
G01 X-1.87335 Y0.55888
G01 X-1.87443 Y0.55706
G01 X-1.89302 Y0.55706
G01 X-1.89305 Y0.55725
G01 X-1.89302 Y0.55706
G01 X-1.89440 Y0.55632
G01 X-1.89927 Y0.55484
G01 X-1.90435 Y0.55435
G01 X-1.95159 Y0.55435
G01 X-1.95666 Y0.55484
G01 X-1.96154 Y0.55632
G01 X-1.96292 Y0.55706
G01 X-1.96289 Y0.55725
G01 X-1.96292 Y0.55706
G01 X-1.99302 Y0.55706
G01 X-1.99305 Y0.55725
G01 X-1.99302 Y0.55706
G01 X-1.99440 Y0.55632
G01 X-1.99927 Y0.55484
G01 X-2.00435 Y0.55435
G01 X-2.05159 Y0.55435
G01 X-2.05666 Y0.55484
G01 X-2.06154 Y0.55632
G01 X-2.06292 Y0.55706
G01 X-2.06289 Y0.55725
G01 X-2.06292 Y0.55706
G01 X-2.09302 Y0.55706
G01 X-2.09305 Y0.55725
G01 X-2.09302 Y0.55706
G01 X-2.09440 Y0.55632
G01 X-2.09927 Y0.55484
G01 X-2.10435 Y0.55435
G01 X-2.15159 Y0.55435
G01 X-2.15666 Y0.55484
G01 X-2.16154 Y0.55632
G01 X-2.16292 Y0.55706
G01 X-2.16289 Y0.55725
G01 X-2.16292 Y0.55706
G01 X-2.19302 Y0.55706
G01 X-2.19305 Y0.55725
G01 X-2.19302 Y0.55706
G01 X-2.19440 Y0.55632
G01 X-2.19927 Y0.55484
G01 X-2.20435 Y0.55435
G01 X-2.25159 Y0.55435
G01 X-2.25666 Y0.55484
G01 X-2.26154 Y0.55632
G01 X-2.26292 Y0.55706
G01 X-2.26289 Y0.55725
G01 X-2.26292 Y0.55706
G01 X-2.29302 Y0.55706
G01 X-2.29305 Y0.55725
G01 X-2.29302 Y0.55706
G01 X-2.29440 Y0.55632
G01 X-2.29927 Y0.55484
G01 X-2.30435 Y0.55435
G01 X-2.35159 Y0.55435
G01 X-2.35666 Y0.55484
G01 X-2.36154 Y0.55632
G01 X-2.36292 Y0.55706
G01 X-2.36289 Y0.55725
G01 X-2.36292 Y0.55706
G01 X-2.39302 Y0.55706
G01 X-2.39305 Y0.55725
G01 X-2.39302 Y0.55706
G01 X-2.39440 Y0.55632
G01 X-2.39927 Y0.55484
G01 X-2.40435 Y0.55435
G01 X-2.45159 Y0.55435
G01 X-2.45666 Y0.55484
G01 X-2.46154 Y0.55632
G01 X-2.46292 Y0.55706
G01 X-2.46289 Y0.55725
G01 X-2.46292 Y0.55706
G01 X-2.49302 Y0.55706
G01 X-2.49305 Y0.55725
G01 X-2.49302 Y0.55706
G01 X-2.49440 Y0.55632
G01 X-2.49927 Y0.55484
G01 X-2.50435 Y0.55435
G01 X-2.55159 Y0.55435
G01 X-2.55666 Y0.55484
G01 X-2.56154 Y0.55632
G01 X-2.56292 Y0.55706
G01 X-2.56289 Y0.55725
G01 X-2.56292 Y0.55706
G01 X-2.59200 Y0.55706
G01 X-2.59204 Y0.55728
G01 X-2.59200 Y0.55706
G01 X-2.59440 Y0.55578
G01 X-2.59927 Y0.55430
G01 X-2.60435 Y0.55380
G01 X-2.65159 Y0.55380
G01 X-2.65666 Y0.55430
G01 X-2.66154 Y0.55578
G01 X-2.66275 Y0.55643
G01 X-2.66272 Y0.55662
G01 X-2.66275 Y0.55643
G01 X-2.77697 Y0.55613
G01 X-2.78076 Y0.55991
G01 X-2.77697 Y0.55613
G01 X-2.77697 Y0.46740
G01 X-2.77711 Y0.46702
G01 X-2.77697 Y0.46740
G01 X-2.77697 Y0.46740
G01 X-2.77205 Y0.47286
G01 X-2.77012 Y0.47479
G01 X-2.76801 Y0.47650
G01 X-2.76175 Y0.48105
G01 X-2.75947 Y0.48253
G01 X-2.75704 Y0.48376
G01 X-2.74998 Y0.48691
G01 X-2.74744 Y0.48789
G01 X-2.74481 Y0.48859
G01 X-2.73724 Y0.49020
G01 X-2.73455 Y0.49062
G01 X-2.73184 Y0.49077
G01 X-2.72410 Y0.49077
G01 X-2.72138 Y0.49062
G01 X-2.71869 Y0.49020
G01 X-2.71113 Y0.48859
G01 X-2.70850 Y0.48789
G01 X-2.70596 Y0.48691
G01 X-2.69889 Y0.48376
G01 X-2.69647 Y0.48253
G01 X-2.69419 Y0.48105
G01 X-2.68793 Y0.47650
G01 X-2.68581 Y0.47479
G01 X-2.68389 Y0.47286
G01 X-2.67871 Y0.46711
G01 X-2.67797 Y0.46619
G01 X-2.67722 Y0.46711
G01 X-2.67205 Y0.47286
G01 X-2.67012 Y0.47479
G01 X-2.66801 Y0.47650
G01 X-2.66175 Y0.48105
G01 X-2.65947 Y0.48253
G01 X-2.65704 Y0.48376
G01 X-2.64998 Y0.48691
G01 X-2.64744 Y0.48789
G01 X-2.64481 Y0.48859
G01 X-2.63724 Y0.49020
G01 X-2.63455 Y0.49062
G01 X-2.63184 Y0.49077
G01 X-2.62410 Y0.49077
G01 X-2.62138 Y0.49062
G01 X-2.61869 Y0.49020
G01 X-2.61113 Y0.48859
G01 X-2.60850 Y0.48789
G01 X-2.60596 Y0.48691
G01 X-2.59889 Y0.48376
G01 X-2.59647 Y0.48253
G01 X-2.59419 Y0.48105
G01 X-2.58793 Y0.47650
G01 X-2.58581 Y0.47479
G01 X-2.58389 Y0.47286
G01 X-2.57871 Y0.46711
G01 X-2.57797 Y0.46619
G01 X-2.57722 Y0.46711
G01 X-2.57205 Y0.47286
G01 X-2.57012 Y0.47479
G01 X-2.56801 Y0.47650
G01 X-2.56175 Y0.48105
G01 X-2.55947 Y0.48253
G01 X-2.55704 Y0.48376
G01 X-2.54998 Y0.48691
G01 X-2.54744 Y0.48789
G01 X-2.54481 Y0.48859
G01 X-2.53724 Y0.49020
G01 X-2.53455 Y0.49062
G01 X-2.53184 Y0.49077
G01 X-2.52410 Y0.49077
G01 X-2.52138 Y0.49062
G01 X-2.51869 Y0.49020
G01 X-2.51113 Y0.48859
G01 X-2.50850 Y0.48789
G01 X-2.50596 Y0.48691
G01 X-2.49889 Y0.48376
G01 X-2.49647 Y0.48253
G01 X-2.49419 Y0.48105
G01 X-2.48793 Y0.47650
G01 X-2.48581 Y0.47479
G01 X-2.48389 Y0.47286
G01 X-2.47871 Y0.46711
G01 X-2.47797 Y0.46619
G01 X-2.47722 Y0.46711
G01 X-2.47205 Y0.47286
G01 X-2.47012 Y0.47479
G01 X-2.46801 Y0.47650
G01 X-2.46175 Y0.48105
G01 X-2.45947 Y0.48253
G01 X-2.45704 Y0.48376
G01 X-2.44998 Y0.48691
G01 X-2.44744 Y0.48789
G01 X-2.44481 Y0.48859
G01 X-2.43724 Y0.49020
G01 X-2.43455 Y0.49062
G01 X-2.43184 Y0.49077
G01 X-2.42410 Y0.49077
G01 X-2.42138 Y0.49062
G01 X-2.41869 Y0.49020
G01 X-2.41113 Y0.48859
G01 X-2.40850 Y0.48789
G01 X-2.40596 Y0.48691
G01 X-2.39889 Y0.48376
G01 X-2.39647 Y0.48253
G01 X-2.39419 Y0.48105
G01 X-2.38793 Y0.47650
G01 X-2.38581 Y0.47479
G01 X-2.38389 Y0.47286
G01 X-2.37871 Y0.46711
G01 X-2.37797 Y0.46619
G01 X-2.37797 Y0.46779
G01 X-2.37797 Y0.47820
G01 X-2.37797 Y0.48514
G01 X-2.37565 Y0.48702
G01 X-2.36939 Y0.49156
G01 X-2.36597 Y0.49379
G01 X-2.36233 Y0.49564
G01 X-2.35526 Y0.49879
G01 X-2.35145 Y0.50025
G01 X-2.34751 Y0.50131
G01 X-2.33994 Y0.50291
G01 X-2.33591 Y0.50355
G01 X-2.33184 Y0.50377
G01 X-2.32410 Y0.50377
G01 X-2.32002 Y0.50355
G01 X-2.31599 Y0.50291
G01 X-2.30843 Y0.50131
G01 X-2.30448 Y0.50025
G01 X-2.30067 Y0.49879
G01 X-2.29361 Y0.49564
G01 X-2.28997 Y0.49379
G01 X-2.28654 Y0.49156
G01 X-2.28029 Y0.48702
G01 X-2.27797 Y0.48514
G01 X-2.27565 Y0.48702
G01 X-2.26939 Y0.49156
G01 X-2.26597 Y0.49379
G01 X-2.26233 Y0.49564
G01 X-2.25526 Y0.49879
G01 X-2.25145 Y0.50025
G01 X-2.24751 Y0.50131
G01 X-2.23994 Y0.50291
G01 X-2.23591 Y0.50355
G01 X-2.23184 Y0.50377
G01 X-2.22410 Y0.50377
G01 X-2.22002 Y0.50355
G01 X-2.21599 Y0.50291
G01 X-2.20843 Y0.50131
G01 X-2.20448 Y0.50025
G01 X-2.20067 Y0.49879
G01 X-2.19361 Y0.49564
G01 X-2.18997 Y0.49379
G01 X-2.18654 Y0.49156
G01 X-2.18029 Y0.48702
G01 X-2.17797 Y0.48514
G01 X-2.17565 Y0.48702
G01 X-2.16939 Y0.49156
G01 X-2.16597 Y0.49379
G01 X-2.16233 Y0.49564
G01 X-2.15526 Y0.49879
G01 X-2.15145 Y0.50025
G01 X-2.14751 Y0.50131
G01 X-2.13994 Y0.50291
G01 X-2.13591 Y0.50355
G01 X-2.13184 Y0.50377
G01 X-2.12410 Y0.50377
G01 X-2.12002 Y0.50355
G01 X-2.11599 Y0.50291
G01 X-2.10843 Y0.50131
G01 X-2.10448 Y0.50025
G01 X-2.10067 Y0.49879
G01 X-2.09361 Y0.49564
G01 X-2.08997 Y0.49379
G01 X-2.08654 Y0.49156
G01 X-2.08029 Y0.48702
G01 X-2.07797 Y0.48514
G01 X-2.07565 Y0.48702
G01 X-2.06939 Y0.49156
G01 X-2.06597 Y0.49379
G01 X-2.06233 Y0.49564
G01 X-2.05526 Y0.49879
G01 X-2.05145 Y0.50025
G01 X-2.04751 Y0.50131
G01 X-2.03994 Y0.50291
G01 X-2.03591 Y0.50355
G01 X-2.03184 Y0.50377
G01 X-2.02410 Y0.50377
G01 X-2.02002 Y0.50355
G01 X-2.01599 Y0.50291
G01 X-2.00843 Y0.50131
G01 X-2.00448 Y0.50025
G01 X-2.00067 Y0.49879
G01 X-1.99361 Y0.49564
G01 X-1.98997 Y0.49379
G01 X-1.98654 Y0.49156
G01 X-1.98029 Y0.48702
G01 X-1.97797 Y0.48514
G01 X-1.97565 Y0.48702
G01 X-1.96939 Y0.49156
G01 X-1.96597 Y0.49379
G01 X-1.96233 Y0.49564
G01 X-1.95526 Y0.49879
G01 X-1.95145 Y0.50025
G01 X-1.94751 Y0.50131
G01 X-1.93994 Y0.50291
G01 X-1.93591 Y0.50355
G01 X-1.93184 Y0.50377
G01 X-1.92410 Y0.50377
G01 X-1.92002 Y0.50355
G01 X-1.91599 Y0.50291
G01 X-1.90843 Y0.50131
G01 X-1.90448 Y0.50025
G01 X-1.90067 Y0.49879
G01 X-1.89361 Y0.49564
G01 X-1.88997 Y0.49379
G01 X-1.88654 Y0.49156
G01 X-1.88029 Y0.48702
G01 X-1.87797 Y0.48514
G01 X-1.87565 Y0.48702
G01 X-1.86939 Y0.49156
G01 X-1.86597 Y0.49379
G01 X-1.86233 Y0.49564
G01 X-1.85526 Y0.49879
G01 X-1.85145 Y0.50025
G01 X-1.84751 Y0.50131
G01 X-1.84281 Y0.50230
G01 X-1.83961 Y0.50136
G01 X-1.84281 Y0.50230
G01 X-1.84281 Y0.50230
G01 X-1.87322 Y0.53271
G01 X-1.87579 Y0.53555
G01 X-1.87890 Y0.53934
G01 X-1.88118 Y0.54241
G01 X-1.88217 Y0.54406
G01 X-1.88154 Y0.54537
G01 X-1.88217 Y0.54406
G01 X-1.89025 Y0.54406
G01 X-1.89027 Y0.54420
G01 X-1.89025 Y0.54406
G01 X-1.89674 Y0.54209
G01 X-1.90435 Y0.54135
G01 X-1.95159 Y0.54135
G01 X-1.95920 Y0.54209
G01 X-1.96569 Y0.54406
G01 X-1.96566 Y0.54420
G01 X-1.96569 Y0.54406
G01 X-1.99025 Y0.54406
G01 X-1.99027 Y0.54420
G01 X-1.99025 Y0.54406
G01 X-1.99674 Y0.54209
G01 X-2.00435 Y0.54135
G01 X-2.05159 Y0.54135
G01 X-2.05920 Y0.54209
G01 X-2.06569 Y0.54406
G01 X-2.06566 Y0.54420
G01 X-2.06569 Y0.54406
G01 X-2.09025 Y0.54406
G01 X-2.09027 Y0.54420
G01 X-2.09025 Y0.54406
G01 X-2.09674 Y0.54209
G01 X-2.10435 Y0.54135
G01 X-2.15159 Y0.54135
G01 X-2.15920 Y0.54209
G01 X-2.16569 Y0.54406
G01 X-2.16566 Y0.54420
G01 X-2.16569 Y0.54406
G01 X-2.19025 Y0.54406
G01 X-2.19027 Y0.54420
G01 X-2.19025 Y0.54406
G01 X-2.19674 Y0.54209
G01 X-2.20435 Y0.54135
G01 X-2.25159 Y0.54135
G01 X-2.25920 Y0.54209
G01 X-2.26569 Y0.54406
G01 X-2.26566 Y0.54420
G01 X-2.26569 Y0.54406
G01 X-2.29025 Y0.54406
G01 X-2.29027 Y0.54420
G01 X-2.29025 Y0.54406
G01 X-2.29674 Y0.54209
G01 X-2.30435 Y0.54135
G01 X-2.35159 Y0.54135
G01 X-2.35920 Y0.54209
G01 X-2.36569 Y0.54406
G01 X-2.36566 Y0.54420
G01 X-2.36569 Y0.54406
G01 X-2.39025 Y0.54406
G01 X-2.39027 Y0.54420
G01 X-2.39025 Y0.54406
G01 X-2.39674 Y0.54209
G01 X-2.40435 Y0.54135
G01 X-2.45159 Y0.54135
G01 X-2.45920 Y0.54209
G01 X-2.46569 Y0.54406
G01 X-2.46566 Y0.54420
G01 X-2.46569 Y0.54406
G01 X-2.49025 Y0.54406
G01 X-2.49027 Y0.54420
G01 X-2.49025 Y0.54406
G01 X-2.49674 Y0.54209
G01 X-2.50435 Y0.54135
G01 X-2.55159 Y0.54135
G01 X-2.55920 Y0.54209
G01 X-2.56569 Y0.54406
G01 X-2.56566 Y0.54420
G01 X-2.56569 Y0.54406
G01 X-2.58888 Y0.54406
G01 X-2.58890 Y0.54422
G01 X-2.58888 Y0.54406
G01 X-2.58942 Y0.54377
G01 X-2.59674 Y0.54155
G01 X-2.60435 Y0.54080
G01 X-2.65159 Y0.54080
G01 X-2.65920 Y0.54155
G01 X-2.66536 Y0.54342
G01 X-2.66534 Y0.54357
G01 X-2.66536 Y0.54342
G01 X-2.76397 Y0.54316
G01 X-2.76776 Y0.54695
G01 X-2.76397 Y0.54316
G01 X-2.76397 Y0.49469
G01 X-2.76738 Y0.48880
G01 X-2.76740 Y0.48881
G01 X-2.76738 Y0.48880
G01 X-2.76388 Y0.49485
G01 X-2.76388 Y0.49485
G01 X-2.76233 Y0.49564
G01 X-2.75526 Y0.49879
G01 X-2.75145 Y0.50025
G01 X-2.74751 Y0.50131
G01 X-2.73994 Y0.50291
G01 X-2.73591 Y0.50355
G01 X-2.73184 Y0.50377
G01 X-2.72410 Y0.50377
G01 X-2.72002 Y0.50355
G01 X-2.71599 Y0.50291
G01 X-2.70843 Y0.50131
G01 X-2.70448 Y0.50025
G01 X-2.70067 Y0.49879
G01 X-2.69361 Y0.49564
G01 X-2.68997 Y0.49379
G01 X-2.68654 Y0.49156
G01 X-2.68029 Y0.48702
G01 X-2.67797 Y0.48514
G01 X-2.67565 Y0.48702
G01 X-2.66939 Y0.49156
G01 X-2.66597 Y0.49379
G01 X-2.66233 Y0.49564
G01 X-2.65526 Y0.49879
G01 X-2.65145 Y0.50025
G01 X-2.64751 Y0.50131
G01 X-2.63994 Y0.50291
G01 X-2.63591 Y0.50355
G01 X-2.63184 Y0.50377
G01 X-2.62410 Y0.50377
G01 X-2.62002 Y0.50355
G01 X-2.61599 Y0.50291
G01 X-2.60843 Y0.50131
G01 X-2.60448 Y0.50025
G01 X-2.60067 Y0.49879
G01 X-2.59361 Y0.49564
G01 X-2.58997 Y0.49379
G01 X-2.58654 Y0.49156
G01 X-2.58029 Y0.48702
G01 X-2.57797 Y0.48514
G01 X-2.57565 Y0.48702
G01 X-2.56939 Y0.49156
G01 X-2.56597 Y0.49379
G01 X-2.56233 Y0.49564
G01 X-2.55526 Y0.49879
G01 X-2.55145 Y0.50025
G01 X-2.54751 Y0.50131
G01 X-2.53994 Y0.50291
G01 X-2.53591 Y0.50355
G01 X-2.53184 Y0.50377
G01 X-2.52410 Y0.50377
G01 X-2.52002 Y0.50355
G01 X-2.51599 Y0.50291
G01 X-2.50843 Y0.50131
G01 X-2.50448 Y0.50025
G01 X-2.50067 Y0.49879
G01 X-2.49361 Y0.49564
G01 X-2.48997 Y0.49379
G01 X-2.48654 Y0.49156
G01 X-2.48029 Y0.48702
G01 X-2.47797 Y0.48514
G01 X-2.47565 Y0.48702
G01 X-2.46939 Y0.49156
G01 X-2.46597 Y0.49379
G01 X-2.46233 Y0.49564
G01 X-2.45526 Y0.49879
G01 X-2.45145 Y0.50025
G01 X-2.44751 Y0.50131
G01 X-2.43994 Y0.50291
G01 X-2.43591 Y0.50355
G01 X-2.43184 Y0.50377
G01 X-2.42410 Y0.50377
G01 X-2.42002 Y0.50355
G01 X-2.41599 Y0.50291
G01 X-2.40843 Y0.50131
G01 X-2.40448 Y0.50025
G01 X-2.40067 Y0.49879
G01 X-2.39361 Y0.49564
G01 X-2.38997 Y0.49379
G01 X-2.38654 Y0.49156
G01 X-2.38029 Y0.48702
G01 X-2.37797 Y0.48514
G01 X-2.37797 Y0.49021
G01 X-2.37797 Y0.50140
G01 X-2.37703 Y0.50208
G01 X-2.37247 Y0.50505
G01 X-2.36762 Y0.50752
G01 X-2.36055 Y0.51066
G01 X-2.35547 Y0.51261
G01 X-2.35021 Y0.51402
G01 X-2.34265 Y0.51563
G01 X-2.33727 Y0.51648
G01 X-2.33184 Y0.51677
G01 X-2.32410 Y0.51677
G01 X-2.31866 Y0.51648
G01 X-2.31329 Y0.51563
G01 X-2.30572 Y0.51402
G01 X-2.30047 Y0.51261
G01 X-2.29538 Y0.51066
G01 X-2.28832 Y0.50752
G01 X-2.28347 Y0.50505
G01 X-2.27890 Y0.50208
G01 X-2.27797 Y0.50140
G01 X-2.27703 Y0.50208
G01 X-2.27247 Y0.50505
G01 X-2.26762 Y0.50752
G01 X-2.26055 Y0.51066
G01 X-2.25547 Y0.51261
G01 X-2.25021 Y0.51402
G01 X-2.24265 Y0.51563
G01 X-2.23727 Y0.51648
G01 X-2.23184 Y0.51677
