( pcb2gcode 2.1.0 )
( Software-independent Gcode )

G94 ( Inches per minute feed rate. )
G20 ( Units == INCHES. )

G90 ( Absolute coordinates. )
G00 S15000 ( RPM spindle speed. )
G01 F1000.00000 ( Feedrate. )


G00 Z0.05000 (Retract to tool change height)
G04 P0.00000 (Wait for spindle to stop)
(MSG, Change tool bit to mill diameter 0.01000in)
G04 P0.00000 (Wait for spindle to get up to speed)
G04 P0 ( dwell for no time -- G64 should not smooth over this point )
G00 Z0.05000 ( retract )

G00 X-0.16469 Y2.39500 ( rapid move to begin. )
G01 F100.00000
( Mill infeed pass 1/1 )
G01 Z-0.05000
G04 P0 ( dwell for no time -- G64 should not smooth over this point )
G01 F1000.00000
G01 X-0.16469 Y2.39500
G01 X-0.16471 Y2.39451
G01 X-0.16543 Y2.38719
G01 X-0.16562 Y2.38623
G01 X-0.16775 Y2.37920
G01 X-0.16792 Y2.37874
G01 X-0.16813 Y2.37829
G01 X-0.17160 Y2.37181
G01 X-0.17214 Y2.37099
G01 X-0.17680 Y2.36531
G01 X-0.17713 Y2.36495
G01 X-0.17750 Y2.36462
G01 X-0.18318 Y2.35995
G01 X-0.18399 Y2.35941
G01 X-0.19048 Y2.35594
G01 X-0.19092 Y2.35574
G01 X-0.19138 Y2.35557
G01 X-0.19842 Y2.35344
G01 X-0.19938 Y2.35324
G01 X-0.20669 Y2.35252
G01 X-0.20719 Y2.35250
G01 X-0.40719 Y2.35250
G01 X-0.40768 Y2.35252
G01 X-0.41499 Y2.35324
G01 X-0.41595 Y2.35344
G01 X-0.42299 Y2.35557
G01 X-0.42345 Y2.35574
G01 X-0.42389 Y2.35594
G01 X-0.43038 Y2.35941
G01 X-0.43119 Y2.35995
G01 X-0.43687 Y2.36462
G01 X-0.43724 Y2.36495
G01 X-0.43757 Y2.36531
G01 X-0.44223 Y2.37099
G01 X-0.44277 Y2.37181
G01 X-0.44624 Y2.37829
G01 X-0.44645 Y2.37874
G01 X-0.44662 Y2.37920
G01 X-0.44875 Y2.38623
G01 X-0.44894 Y2.38719
G01 X-0.44966 Y2.39451
G01 X-0.44969 Y2.39500
G01 X-0.44966 Y2.39549
G01 X-0.44894 Y2.40281
G01 X-0.44887 Y2.40329
G01 X-0.44875 Y2.40377
G01 X-0.44717 Y2.40898
G01 X-0.44559 Y3.72845
G01 X-0.57214 Y3.85500
G01 X-0.69557 Y3.85500
G01 X-0.76557 Y3.78500
G01 X-0.76557 Y3.76528
G01 X-0.76470 Y3.76377
G01 X-0.76446 Y3.76330
G01 X-0.76427 Y3.76281
G01 X-0.76169 Y3.75486
G01 X-0.76155 Y3.75436
G01 X-0.76147 Y3.75384
G01 X-0.76060 Y3.74552
G01 X-0.76057 Y3.74500
G01 X-0.76060 Y3.74448
G01 X-0.76147 Y3.73616
G01 X-0.76155 Y3.73564
G01 X-0.76169 Y3.73514
G01 X-0.76427 Y3.72719
G01 X-0.76446 Y3.72670
G01 X-0.76470 Y3.72623
G01 X-0.76557 Y3.72472
G01 X-0.76557 Y3.29500
G01 X-0.76560 Y3.29451
G01 X-0.76627 Y3.28768
G01 X-0.76646 Y3.28672
G01 X-0.76845 Y3.28015
G01 X-0.76862 Y3.27969
G01 X-0.76883 Y3.27925
G01 X-0.77206 Y3.27320
G01 X-0.77260 Y3.27238
G01 X-0.77696 Y3.26708
G01 X-0.77729 Y3.26672
G01 X-0.77765 Y3.26639
G01 X-0.78295 Y3.26203
G01 X-0.78377 Y3.26149
G01 X-0.78982 Y3.25825
G01 X-0.79026 Y3.25804
G01 X-0.79073 Y3.25788
G01 X-0.79729 Y3.25589
G01 X-0.79825 Y3.25570
G01 X-0.80508 Y3.25502
G01 X-0.80557 Y3.25500
G01 X-0.80606 Y3.25502
G01 X-0.81289 Y3.25570
G01 X-0.81385 Y3.25589
G01 X-0.82042 Y3.25788
G01 X-0.82088 Y3.25804
G01 X-0.82132 Y3.25825
G01 X-0.82737 Y3.26149
G01 X-0.82819 Y3.26203
G01 X-0.83349 Y3.26639
G01 X-0.83386 Y3.26672
G01 X-0.83418 Y3.26708
G01 X-0.83854 Y3.27238
G01 X-0.83908 Y3.27320
G01 X-0.84232 Y3.27925
G01 X-0.84253 Y3.27969
G01 X-0.84269 Y3.28015
G01 X-0.84468 Y3.28672
G01 X-0.84487 Y3.28768
G01 X-0.84555 Y3.29451
G01 X-0.84557 Y3.29500
G01 X-0.84557 Y3.72472
G01 X-0.84644 Y3.72623
G01 X-0.84668 Y3.72670
G01 X-0.84687 Y3.72719
G01 X-0.84809 Y3.73095
G01 X-0.97214 Y3.85500
G01 X-1.19498 Y3.85500
G01 X-1.26498 Y3.78500
G01 X-1.26498 Y3.76528
G01 X-1.26411 Y3.76377
G01 X-1.26387 Y3.76330
G01 X-1.26368 Y3.76281
G01 X-1.26110 Y3.75486
G01 X-1.26096 Y3.75436
G01 X-1.26088 Y3.75384
G01 X-1.26000 Y3.74552
G01 X-1.25998 Y3.74500
G01 X-1.26000 Y3.74448
G01 X-1.26088 Y3.73616
G01 X-1.26096 Y3.73564
G01 X-1.26110 Y3.73514
G01 X-1.26368 Y3.72719
G01 X-1.26387 Y3.72670
G01 X-1.26411 Y3.72623
G01 X-1.26557 Y3.72369
G01 X-1.26557 Y3.29500
G01 X-1.26560 Y3.29451
G01 X-1.26627 Y3.28768
G01 X-1.26646 Y3.28672
G01 X-1.26845 Y3.28015
G01 X-1.26862 Y3.27969
G01 X-1.26883 Y3.27925
G01 X-1.27206 Y3.27320
G01 X-1.27260 Y3.27238
G01 X-1.27696 Y3.26708
G01 X-1.27729 Y3.26672
G01 X-1.27765 Y3.26639
G01 X-1.28295 Y3.26203
G01 X-1.28377 Y3.26149
G01 X-1.28982 Y3.25825
G01 X-1.29026 Y3.25804
G01 X-1.29073 Y3.25788
G01 X-1.29729 Y3.25589
G01 X-1.29825 Y3.25570
G01 X-1.30508 Y3.25502
G01 X-1.30557 Y3.25500
G01 X-1.30606 Y3.25502
G01 X-1.31289 Y3.25570
G01 X-1.31385 Y3.25589
G01 X-1.32042 Y3.25788
G01 X-1.32088 Y3.25804
G01 X-1.32132 Y3.25825
G01 X-1.32737 Y3.26149
G01 X-1.32819 Y3.26203
G01 X-1.33349 Y3.26639
G01 X-1.33386 Y3.26672
G01 X-1.33418 Y3.26708
G01 X-1.33854 Y3.27238
G01 X-1.33908 Y3.27320
G01 X-1.34232 Y3.27925
G01 X-1.34253 Y3.27969
G01 X-1.34269 Y3.28015
G01 X-1.34468 Y3.28672
G01 X-1.34487 Y3.28768
G01 X-1.34555 Y3.29451
G01 X-1.34557 Y3.29500
G01 X-1.34557 Y3.70500
G01 X-1.64012 Y3.70500
G01 X-1.57011 Y3.41841
G01 X-1.56998 Y3.41819
G01 X-1.56651 Y3.41171
G01 X-1.56614 Y3.41080
G01 X-1.56401 Y3.40377
G01 X-1.56389 Y3.40329
G01 X-1.56382 Y3.40281
G01 X-1.56310 Y3.39549
G01 X-1.56307 Y3.39500
G01 X-1.56307 Y3.29500
G01 X-1.56310 Y3.29451
G01 X-1.56382 Y3.28719
G01 X-1.56389 Y3.28671
G01 X-1.56401 Y3.28623
G01 X-1.56614 Y3.27920
G01 X-1.56651 Y3.27829
G01 X-1.56998 Y3.27181
G01 X-1.57023 Y3.27139
G01 X-1.57053 Y3.27099
G01 X-1.57519 Y3.26531
G01 X-1.57552 Y3.26495
G01 X-1.57588 Y3.26462
G01 X-1.58157 Y3.25995
G01 X-1.58238 Y3.25941
G01 X-1.58886 Y3.25594
G01 X-1.58931 Y3.25574
G01 X-1.58977 Y3.25557
G01 X-1.59680 Y3.25344
G01 X-1.59728 Y3.25332
G01 X-1.59776 Y3.25324
G01 X-1.60508 Y3.25252
G01 X-1.60606 Y3.25252
G01 X-1.61338 Y3.25324
G01 X-1.61386 Y3.25332
G01 X-1.61434 Y3.25344
G01 X-1.62137 Y3.25557
G01 X-1.62184 Y3.25574
G01 X-1.62228 Y3.25594
G01 X-1.62876 Y3.25941
G01 X-1.62958 Y3.25995
G01 X-1.63526 Y3.26462
G01 X-1.63562 Y3.26495
G01 X-1.63595 Y3.26531
G01 X-1.64062 Y3.27099
G01 X-1.64091 Y3.27139
G01 X-1.64116 Y3.27181
G01 X-1.64463 Y3.27829
G01 X-1.64500 Y3.27920
G01 X-1.64714 Y3.28623
G01 X-1.64725 Y3.28671
G01 X-1.64733 Y3.28719
G01 X-1.64805 Y3.29451
G01 X-1.64807 Y3.29500
G01 X-1.64807 Y3.39500
G01 X-1.64805 Y3.39549
G01 X-1.64771 Y3.39893
G01 X-1.72514 Y3.71592
G01 X-1.72715 Y3.71814
G01 X-1.72748 Y3.71855
G01 X-1.72776 Y3.71899
G01 X-1.73194 Y3.72623
G01 X-1.73218 Y3.72670
G01 X-1.73237 Y3.72719
G01 X-1.73495 Y3.73514
G01 X-1.73509 Y3.73564
G01 X-1.73517 Y3.73616
G01 X-1.73604 Y3.74448
G01 X-1.73607 Y3.74500
G01 X-1.73604 Y3.74552
G01 X-1.73517 Y3.75384
G01 X-1.73509 Y3.75436
G01 X-1.73495 Y3.75486
G01 X-1.73237 Y3.76281
G01 X-1.73218 Y3.76330
G01 X-1.73194 Y3.76377
G01 X-1.73107 Y3.76528
G01 X-1.73107 Y3.78500
G01 X-1.75207 Y3.80600
G01 X-1.89939 Y3.80600
G01 X-1.92667 Y3.77872
G01 X-1.92667 Y3.76528
G01 X-1.92580 Y3.76377
G01 X-1.92556 Y3.76330
G01 X-1.92537 Y3.76281
G01 X-1.92377 Y3.75789
G01 X-1.92152 Y3.75485
G01 X-1.92101 Y3.75400
G01 X-1.91809 Y3.74780
G01 X-1.91776 Y3.74688
G01 X-1.91609 Y3.74022
G01 X-1.91600 Y3.73974
G01 X-1.86802 Y3.41452
G01 X-1.86652 Y3.41171
G01 X-1.86614 Y3.41080
G01 X-1.86401 Y3.40377
G01 X-1.86389 Y3.40329
G01 X-1.86382 Y3.40281
G01 X-1.86310 Y3.39549
G01 X-1.86307 Y3.39500
G01 X-1.86307 Y3.29500
G01 X-1.86310 Y3.29451
G01 X-1.86382 Y3.28719
G01 X-1.86389 Y3.28671
G01 X-1.86401 Y3.28623
G01 X-1.86614 Y3.27920
G01 X-1.86652 Y3.27829
G01 X-1.86998 Y3.27181
G01 X-1.87023 Y3.27139
G01 X-1.87053 Y3.27099
G01 X-1.87519 Y3.26531
G01 X-1.87552 Y3.26495
G01 X-1.87588 Y3.26462
G01 X-1.88157 Y3.25995
G01 X-1.88238 Y3.25941
G01 X-1.88886 Y3.25594
G01 X-1.88931 Y3.25574
G01 X-1.88977 Y3.25557
G01 X-1.89680 Y3.25344
G01 X-1.89728 Y3.25332
G01 X-1.89777 Y3.25324
G01 X-1.90508 Y3.25252
G01 X-1.90606 Y3.25252
G01 X-1.91338 Y3.25324
G01 X-1.91386 Y3.25332
G01 X-1.91434 Y3.25344
G01 X-1.92137 Y3.25557
G01 X-1.92184 Y3.25574
G01 X-1.92228 Y3.25594
G01 X-1.92876 Y3.25941
G01 X-1.92958 Y3.25995
G01 X-1.93526 Y3.26462
G01 X-1.93562 Y3.26495
G01 X-1.93595 Y3.26531
G01 X-1.94062 Y3.27099
G01 X-1.94091 Y3.27139
G01 X-1.94116 Y3.27181
G01 X-1.94463 Y3.27829
G01 X-1.94500 Y3.27920
G01 X-1.94714 Y3.28623
G01 X-1.94725 Y3.28671
G01 X-1.94733 Y3.28719
G01 X-1.94805 Y3.29451
G01 X-1.94807 Y3.29500
G01 X-1.94807 Y3.39500
G01 X-1.94805 Y3.39549
G01 X-1.94733 Y3.40281
G01 X-1.94725 Y3.40329
G01 X-1.94724 Y3.40336
G01 X-1.99221 Y3.70820
G01 X-1.99638 Y3.71123
G01 X-1.99678 Y3.71156
G01 X-1.99715 Y3.71193
G01 X-2.00275 Y3.71814
G01 X-2.00308 Y3.71855
G01 X-2.00336 Y3.71899
G01 X-2.00754 Y3.72623
G01 X-2.00778 Y3.72670
G01 X-2.00797 Y3.72719
G01 X-2.01055 Y3.73514
G01 X-2.01069 Y3.73564
G01 X-2.01077 Y3.73616
G01 X-2.01164 Y3.74448
G01 X-2.01167 Y3.74500
G01 X-2.01164 Y3.74552
G01 X-2.01077 Y3.75384
G01 X-2.01069 Y3.75436
G01 X-2.01055 Y3.75486
G01 X-2.00797 Y3.76281
G01 X-2.00778 Y3.76330
G01 X-2.00754 Y3.76377
G01 X-2.00667 Y3.76528
G01 X-2.00667 Y3.78500
G01 X-2.02767 Y3.80600
G01 X-2.13800 Y3.80600
G01 X-2.17513 Y3.76887
G01 X-2.19801 Y3.73770
G01 X-2.19817 Y3.73616
G01 X-2.19825 Y3.73564
G01 X-2.19839 Y3.73514
G01 X-2.20038 Y3.72902
G01 X-2.16725 Y3.41308
G01 X-2.16652 Y3.41171
G01 X-2.16614 Y3.41080
G01 X-2.16401 Y3.40377
G01 X-2.16389 Y3.40329
G01 X-2.16382 Y3.40281
G01 X-2.16310 Y3.39549
G01 X-2.16307 Y3.39500
G01 X-2.16307 Y3.29500
G01 X-2.16310 Y3.29451
G01 X-2.16382 Y3.28719
G01 X-2.16389 Y3.28671
G01 X-2.16401 Y3.28623
G01 X-2.16614 Y3.27920
G01 X-2.16652 Y3.27829
G01 X-2.16998 Y3.27181
G01 X-2.17023 Y3.27139
G01 X-2.17053 Y3.27099
G01 X-2.17519 Y3.26531
G01 X-2.17552 Y3.26495
G01 X-2.17588 Y3.26462
G01 X-2.18157 Y3.25995
G01 X-2.18238 Y3.25941
G01 X-2.18886 Y3.25594
G01 X-2.18931 Y3.25574
G01 X-2.18977 Y3.25557
G01 X-2.19680 Y3.25344
G01 X-2.19728 Y3.25332
G01 X-2.19777 Y3.25324
G01 X-2.20508 Y3.25252
G01 X-2.20606 Y3.25252
G01 X-2.21338 Y3.25324
G01 X-2.21386 Y3.25332
G01 X-2.21434 Y3.25344
G01 X-2.22137 Y3.25557
G01 X-2.22184 Y3.25574
G01 X-2.22228 Y3.25594
G01 X-2.22876 Y3.25941
G01 X-2.22958 Y3.25995
G01 X-2.23526 Y3.26462
G01 X-2.23562 Y3.26495
G01 X-2.23595 Y3.26531
G01 X-2.24062 Y3.27099
G01 X-2.24091 Y3.27139
G01 X-2.24116 Y3.27181
G01 X-2.24463 Y3.27829
G01 X-2.24500 Y3.27920
G01 X-2.24714 Y3.28623
G01 X-2.24725 Y3.28671
G01 X-2.24733 Y3.28719
G01 X-2.24805 Y3.29451
G01 X-2.24807 Y3.29500
G01 X-2.24807 Y3.39500
G01 X-2.24805 Y3.39549
G01 X-2.24733 Y3.40281
G01 X-2.24725 Y3.40329
G01 X-2.24714 Y3.40377
G01 X-2.24682 Y3.40481
G01 X-2.27994 Y3.72068
G01 X-2.28314 Y3.72623
G01 X-2.28338 Y3.72670
G01 X-2.28357 Y3.72719
G01 X-2.28615 Y3.73514
G01 X-2.28629 Y3.73564
G01 X-2.28637 Y3.73616
G01 X-2.28724 Y3.74448
G01 X-2.28727 Y3.74500
G01 X-2.28724 Y3.74552
G01 X-2.28637 Y3.75384
G01 X-2.28629 Y3.75436
G01 X-2.28615 Y3.75486
G01 X-2.28357 Y3.76281
G01 X-2.28338 Y3.76330
G01 X-2.28314 Y3.76377
G01 X-2.28227 Y3.76528
G01 X-2.28227 Y3.78500
G01 X-2.30327 Y3.80600
G01 X-2.41198 Y3.80600
G01 X-2.46907 Y3.74891
G01 X-2.46883 Y3.74845
G01 X-2.46845 Y3.74755
G01 X-2.46646 Y3.74098
G01 X-2.46627 Y3.74002
G01 X-2.46560 Y3.73319
G01 X-2.46557 Y3.73270
G01 X-2.46557 Y3.40892
G01 X-2.46401 Y3.40377
G01 X-2.46389 Y3.40329
G01 X-2.46382 Y3.40281
G01 X-2.46310 Y3.39549
G01 X-2.46307 Y3.39500
G01 X-2.46307 Y3.29500
G01 X-2.46310 Y3.29451
G01 X-2.46382 Y3.28719
G01 X-2.46389 Y3.28671
G01 X-2.46401 Y3.28623
G01 X-2.46614 Y3.27920
G01 X-2.46652 Y3.27829
G01 X-2.46998 Y3.27181
G01 X-2.47023 Y3.27139
G01 X-2.47053 Y3.27099
G01 X-2.47519 Y3.26531
G01 X-2.47552 Y3.26495
G01 X-2.47588 Y3.26462
G01 X-2.48157 Y3.25995
G01 X-2.48238 Y3.25941
G01 X-2.48886 Y3.25594
G01 X-2.48931 Y3.25574
G01 X-2.48977 Y3.25557
G01 X-2.49680 Y3.25344
G01 X-2.49728 Y3.25332
G01 X-2.49777 Y3.25324
G01 X-2.50508 Y3.25252
G01 X-2.50606 Y3.25252
G01 X-2.51338 Y3.25324
G01 X-2.51386 Y3.25332
G01 X-2.51434 Y3.25344
G01 X-2.52137 Y3.25557
G01 X-2.52184 Y3.25574
G01 X-2.52228 Y3.25594
G01 X-2.52876 Y3.25941
G01 X-2.52958 Y3.25995
G01 X-2.53526 Y3.26462
G01 X-2.53562 Y3.26495
G01 X-2.53595 Y3.26531
G01 X-2.54062 Y3.27099
G01 X-2.54091 Y3.27139
G01 X-2.54116 Y3.27181
G01 X-2.54463 Y3.27829
G01 X-2.54500 Y3.27920
G01 X-2.54714 Y3.28623
G01 X-2.54725 Y3.28671
G01 X-2.54733 Y3.28719
G01 X-2.54805 Y3.29451
G01 X-2.54807 Y3.29500
G01 X-2.54807 Y3.39500
G01 X-2.54805 Y3.39549
G01 X-2.54733 Y3.40281
G01 X-2.54725 Y3.40329
G01 X-2.54714 Y3.40377
G01 X-2.54557 Y3.40892
G01 X-2.54557 Y3.70977
G01 X-2.54758 Y3.71123
G01 X-2.54798 Y3.71156
G01 X-2.54835 Y3.71193
G01 X-2.55395 Y3.71814
G01 X-2.55428 Y3.71855
G01 X-2.55456 Y3.71899
G01 X-2.55874 Y3.72623
G01 X-2.55898 Y3.72670
G01 X-2.55917 Y3.72719
G01 X-2.56175 Y3.73514
G01 X-2.56189 Y3.73564
G01 X-2.56197 Y3.73616
G01 X-2.56284 Y3.74448
G01 X-2.56287 Y3.74500
G01 X-2.56284 Y3.74552
G01 X-2.56197 Y3.75384
G01 X-2.56189 Y3.75436
G01 X-2.56175 Y3.75486
G01 X-2.55917 Y3.76281
G01 X-2.55898 Y3.76330
G01 X-2.55874 Y3.76377
G01 X-2.55787 Y3.76528
G01 X-2.55787 Y3.78500
G01 X-2.57887 Y3.80600
G01 X-2.83800 Y3.80600
G01 X-2.85107 Y3.79293
G01 X-2.85107 Y3.76528
G01 X-2.85020 Y3.76377
G01 X-2.84996 Y3.76330
G01 X-2.84977 Y3.76281
G01 X-2.84719 Y3.75486
G01 X-2.84705 Y3.75436
G01 X-2.84697 Y3.75384
G01 X-2.84610 Y3.74552
G01 X-2.84607 Y3.74500
G01 X-2.84610 Y3.74448
G01 X-2.84697 Y3.73616
G01 X-2.84705 Y3.73564
G01 X-2.84719 Y3.73514
G01 X-2.84931 Y3.72861
G01 X-2.77034 Y3.41873
G01 X-2.76998 Y3.41819
G01 X-2.76652 Y3.41171
G01 X-2.76614 Y3.41080
G01 X-2.76401 Y3.40377
G01 X-2.76389 Y3.40329
G01 X-2.76382 Y3.40281
G01 X-2.76310 Y3.39549
G01 X-2.76307 Y3.39500
G01 X-2.76307 Y3.29500
G01 X-2.76310 Y3.29451
G01 X-2.76382 Y3.28719
G01 X-2.76389 Y3.28671
G01 X-2.76401 Y3.28623
G01 X-2.76614 Y3.27920
G01 X-2.76652 Y3.27829
G01 X-2.76998 Y3.27181
G01 X-2.77023 Y3.27139
G01 X-2.77053 Y3.27099
G01 X-2.77519 Y3.26531
G01 X-2.77552 Y3.26495
G01 X-2.77588 Y3.26462
G01 X-2.78157 Y3.25995
G01 X-2.78238 Y3.25941
G01 X-2.78886 Y3.25594
G01 X-2.78931 Y3.25574
G01 X-2.78977 Y3.25557
G01 X-2.79680 Y3.25344
G01 X-2.79728 Y3.25332
G01 X-2.79777 Y3.25324
G01 X-2.80508 Y3.25252
G01 X-2.80606 Y3.25252
G01 X-2.81338 Y3.25324
G01 X-2.81386 Y3.25332
G01 X-2.81434 Y3.25344
G01 X-2.82137 Y3.25557
G01 X-2.82184 Y3.25574
G01 X-2.82228 Y3.25594
G01 X-2.82876 Y3.25941
G01 X-2.82958 Y3.25995
G01 X-2.83526 Y3.26462
G01 X-2.83562 Y3.26495
G01 X-2.83595 Y3.26531
G01 X-2.84062 Y3.27099
G01 X-2.84091 Y3.27139
G01 X-2.84116 Y3.27181
G01 X-2.84463 Y3.27829
G01 X-2.84500 Y3.27920
G01 X-2.84714 Y3.28623
G01 X-2.84725 Y3.28671
G01 X-2.84733 Y3.28719
G01 X-2.84805 Y3.29451
G01 X-2.84807 Y3.29500
G01 X-2.84807 Y3.39500
G01 X-2.84805 Y3.39549
G01 X-2.84775 Y3.39853
G01 X-2.92983 Y3.72062
G01 X-2.92993 Y3.72110
G01 X-2.93027 Y3.72333
G01 X-2.93194 Y3.72623
G01 X-2.93218 Y3.72670
G01 X-2.93237 Y3.72719
G01 X-2.93495 Y3.73514
G01 X-2.93509 Y3.73564
G01 X-2.93517 Y3.73616
G01 X-2.93604 Y3.74448
G01 X-2.93607 Y3.74500
G01 X-2.93604 Y3.74552
G01 X-2.93517 Y3.75384
G01 X-2.93509 Y3.75436
G01 X-2.93495 Y3.75486
G01 X-2.93237 Y3.76281
G01 X-2.93218 Y3.76330
G01 X-2.93194 Y3.76377
G01 X-2.93107 Y3.76528
G01 X-2.93107 Y3.78500
G01 X-2.95207 Y3.80600
G01 X-3.09939 Y3.80600
G01 X-3.12667 Y3.77872
G01 X-3.12667 Y3.76528
G01 X-3.12611 Y3.76431
G01 X-3.12440 Y3.76276
G01 X-3.12406 Y3.76242
G01 X-3.12375 Y3.76204
G01 X-3.11937 Y3.75613
G01 X-3.11910 Y3.75572
G01 X-3.11887 Y3.75529
G01 X-3.11573 Y3.74864
G01 X-3.11540 Y3.74772
G01 X-3.11362 Y3.74058
G01 X-3.11353 Y3.74010
G01 X-3.06353 Y3.40120
G01 X-3.06349 Y3.40084
G01 X-3.06308 Y3.39537
G01 X-3.06307 Y3.39500
G01 X-3.06307 Y3.29500
G01 X-3.06310 Y3.29451
G01 X-3.06382 Y3.28719
G01 X-3.06389 Y3.28671
G01 X-3.06401 Y3.28623
G01 X-3.06614 Y3.27920
G01 X-3.06652 Y3.27829
G01 X-3.06998 Y3.27181
G01 X-3.07023 Y3.27139
G01 X-3.07053 Y3.27099
G01 X-3.07519 Y3.26531
G01 X-3.07552 Y3.26495
G01 X-3.07588 Y3.26462
G01 X-3.08157 Y3.25995
G01 X-3.08238 Y3.25941
G01 X-3.08886 Y3.25594
G01 X-3.08931 Y3.25574
G01 X-3.08977 Y3.25557
G01 X-3.09680 Y3.25344
G01 X-3.09728 Y3.25332
G01 X-3.09777 Y3.25324
G01 X-3.10508 Y3.25252
G01 X-3.10606 Y3.25252
G01 X-3.11338 Y3.25324
G01 X-3.11386 Y3.25332
G01 X-3.11434 Y3.25344
G01 X-3.12137 Y3.25557
G01 X-3.12184 Y3.25574
G01 X-3.12228 Y3.25594
G01 X-3.12876 Y3.25941
G01 X-3.12958 Y3.25995
G01 X-3.13526 Y3.26462
G01 X-3.13562 Y3.26495
G01 X-3.13595 Y3.26531
G01 X-3.14062 Y3.27099
G01 X-3.14091 Y3.27139
G01 X-3.14116 Y3.27181
G01 X-3.14463 Y3.27829
G01 X-3.14500 Y3.27920
G01 X-3.14714 Y3.28623
G01 X-3.14725 Y3.28671
G01 X-3.14733 Y3.28719
G01 X-3.14805 Y3.29451
G01 X-3.14807 Y3.29500
G01 X-3.14807 Y3.39188
G01 X-3.19504 Y3.71026
G01 X-3.19638 Y3.71123
G01 X-3.19678 Y3.71156
G01 X-3.19715 Y3.71193
G01 X-3.20275 Y3.71814
G01 X-3.20308 Y3.71855
G01 X-3.20336 Y3.71899
G01 X-3.20754 Y3.72623
G01 X-3.20778 Y3.72670
G01 X-3.20797 Y3.72719
G01 X-3.21055 Y3.73514
G01 X-3.21069 Y3.73564
G01 X-3.21077 Y3.73616
G01 X-3.21164 Y3.74448
G01 X-3.21167 Y3.74500
G01 X-3.21164 Y3.74552
G01 X-3.21077 Y3.75384
G01 X-3.21069 Y3.75436
G01 X-3.21055 Y3.75486
G01 X-3.20797 Y3.76281
G01 X-3.20778 Y3.76330
G01 X-3.20754 Y3.76377
G01 X-3.20667 Y3.76528
G01 X-3.20667 Y3.78500
G01 X-3.22767 Y3.80600
G01 X-3.38127 Y3.80600
G01 X-3.40227 Y3.78500
G01 X-3.40227 Y3.76528
G01 X-3.40140 Y3.76377
G01 X-3.40116 Y3.76330
G01 X-3.40097 Y3.76281
G01 X-3.39839 Y3.75486
G01 X-3.39825 Y3.75436
G01 X-3.39817 Y3.75384
G01 X-3.39730 Y3.74552
G01 X-3.39727 Y3.74500
G01 X-3.39730 Y3.74448
G01 X-3.39817 Y3.73616
G01 X-3.39825 Y3.73564
G01 X-3.39839 Y3.73514
G01 X-3.40038 Y3.72902
G01 X-3.36725 Y3.41308
G01 X-3.36652 Y3.41171
G01 X-3.36631 Y3.41126
G01 X-3.36614 Y3.41080
G01 X-3.36401 Y3.40377
G01 X-3.36389 Y3.40329
G01 X-3.36382 Y3.40281
G01 X-3.36310 Y3.39549
G01 X-3.36307 Y3.39500
G01 X-3.36307 Y3.29500
G01 X-3.36310 Y3.29451
G01 X-3.36382 Y3.28719
G01 X-3.36389 Y3.28671
G01 X-3.36401 Y3.28623
G01 X-3.36614 Y3.27920
G01 X-3.36652 Y3.27829
G01 X-3.36998 Y3.27181
G01 X-3.37023 Y3.27139
G01 X-3.37053 Y3.27099
G01 X-3.37519 Y3.26531
G01 X-3.37552 Y3.26495
G01 X-3.37588 Y3.26462
G01 X-3.38157 Y3.25995
G01 X-3.38238 Y3.25941
G01 X-3.38886 Y3.25594
G01 X-3.38931 Y3.25574
G01 X-3.38977 Y3.25557
G01 X-3.39680 Y3.25344
G01 X-3.39728 Y3.25332
G01 X-3.39777 Y3.25324
G01 X-3.40508 Y3.25252
G01 X-3.40606 Y3.25252
G01 X-3.41338 Y3.25324
G01 X-3.41386 Y3.25332
G01 X-3.41434 Y3.25344
G01 X-3.42137 Y3.25557
G01 X-3.42184 Y3.25574
G01 X-3.42228 Y3.25594
G01 X-3.42876 Y3.25941
G01 X-3.42958 Y3.25995
G01 X-3.43526 Y3.26462
G01 X-3.43562 Y3.26495
G01 X-3.43595 Y3.26531
G01 X-3.44062 Y3.27099
G01 X-3.44091 Y3.27139
G01 X-3.44116 Y3.27181
G01 X-3.44463 Y3.27829
G01 X-3.44500 Y3.27920
G01 X-3.44714 Y3.28623
G01 X-3.44725 Y3.28671
G01 X-3.44733 Y3.28719
G01 X-3.44805 Y3.29451
G01 X-3.44807 Y3.29500
G01 X-3.44807 Y3.39500
G01 X-3.44805 Y3.39549
G01 X-3.44733 Y3.40281
G01 X-3.44725 Y3.40329
G01 X-3.44714 Y3.40377
G01 X-3.44682 Y3.40481
G01 X-3.47994 Y3.72068
G01 X-3.48314 Y3.72623
G01 X-3.48338 Y3.72670
G01 X-3.48357 Y3.72719
G01 X-3.48615 Y3.73514
G01 X-3.48629 Y3.73564
G01 X-3.48637 Y3.73616
G01 X-3.48724 Y3.74448
G01 X-3.48727 Y3.74500
G01 X-3.48724 Y3.74552
G01 X-3.48637 Y3.75384
G01 X-3.48629 Y3.75436
G01 X-3.48615 Y3.75486
G01 X-3.48357 Y3.76281
G01 X-3.48338 Y3.76330
G01 X-3.48314 Y3.76377
G01 X-3.48227 Y3.76528
G01 X-3.48227 Y3.78500
G01 X-3.50327 Y3.80600
G01 X-3.65687 Y3.80600
G01 X-3.67787 Y3.78500
G01 X-3.67787 Y3.76528
G01 X-3.67700 Y3.76377
G01 X-3.67676 Y3.76330
G01 X-3.67657 Y3.76281
G01 X-3.67399 Y3.75486
G01 X-3.67385 Y3.75436
G01 X-3.67377 Y3.75384
G01 X-3.67290 Y3.74552
G01 X-3.67287 Y3.74500
G01 X-3.67290 Y3.74448
G01 X-3.67377 Y3.73616
G01 X-3.67385 Y3.73564
G01 X-3.67399 Y3.73514
G01 X-3.67657 Y3.72719
G01 X-3.67676 Y3.72670
G01 X-3.67700 Y3.72623
G01 X-3.67773 Y3.72496
G01 X-3.66560 Y3.39648
G01 X-3.66560 Y3.39638
G01 X-3.66557 Y3.39509
G01 X-3.66557 Y3.39500
G01 X-3.66557 Y3.29500
G01 X-3.66560 Y3.29451
G01 X-3.66627 Y3.28768
G01 X-3.66646 Y3.28672
G01 X-3.66845 Y3.28015
G01 X-3.66883 Y3.27925
G01 X-3.67206 Y3.27320
G01 X-3.67231 Y3.27278
G01 X-3.67260 Y3.27238
G01 X-3.67696 Y3.26708
G01 X-3.67765 Y3.26639
G01 X-3.68295 Y3.26203
G01 X-3.68335 Y3.26174
G01 X-3.68377 Y3.26149
G01 X-3.68982 Y3.25825
G01 X-3.69073 Y3.25788
G01 X-3.69729 Y3.25589
G01 X-3.69777 Y3.25577
G01 X-3.69825 Y3.25570
G01 X-3.70508 Y3.25502
G01 X-3.70606 Y3.25502
G01 X-3.71289 Y3.25570
G01 X-3.71337 Y3.25577
G01 X-3.71385 Y3.25589
G01 X-3.72042 Y3.25788
G01 X-3.72132 Y3.25825
G01 X-3.72737 Y3.26149
G01 X-3.72779 Y3.26174
G01 X-3.72819 Y3.26203
G01 X-3.73349 Y3.26639
G01 X-3.73418 Y3.26708
G01 X-3.73854 Y3.27238
G01 X-3.73883 Y3.27278
G01 X-3.73908 Y3.27320
G01 X-3.74232 Y3.27925
G01 X-3.74269 Y3.28015
G01 X-3.74468 Y3.28672
G01 X-3.74487 Y3.28768
G01 X-3.74555 Y3.29451
G01 X-3.74557 Y3.29500
G01 X-3.74557 Y3.39425
G01 X-3.75777 Y3.72455
G01 X-3.75874 Y3.72623
G01 X-3.75898 Y3.72670
G01 X-3.75917 Y3.72719
G01 X-3.76175 Y3.73514
G01 X-3.76189 Y3.73564
G01 X-3.76197 Y3.73616
G01 X-3.76284 Y3.74448
G01 X-3.76287 Y3.74500
G01 X-3.76284 Y3.74552
G01 X-3.76197 Y3.75384
G01 X-3.76189 Y3.75436
G01 X-3.76175 Y3.75486
G01 X-3.75917 Y3.76281
G01 X-3.75898 Y3.76330
G01 X-3.75874 Y3.76377
G01 X-3.75787 Y3.76528
G01 X-3.75787 Y3.78500
G01 X-3.77887 Y3.80600
G01 X-4.03800 Y3.80600
G01 X-4.05107 Y3.79293
G01 X-4.05107 Y3.76528
G01 X-4.05020 Y3.76377
G01 X-4.04996 Y3.76330
G01 X-4.04977 Y3.76281
G01 X-4.04719 Y3.75486
G01 X-4.04705 Y3.75436
G01 X-4.04697 Y3.75384
G01 X-4.04610 Y3.74552
G01 X-4.04607 Y3.74500
G01 X-4.04610 Y3.74448
G01 X-4.04697 Y3.73616
G01 X-4.04705 Y3.73564
G01 X-4.04719 Y3.73514
G01 X-4.04736 Y3.73462
G01 X-3.96671 Y3.40449
G01 X-3.96665 Y3.40420
G01 X-3.96590 Y3.40008
G01 X-3.96583 Y3.39948
G01 X-3.96558 Y3.39530
G01 X-3.96557 Y3.39500
G01 X-3.96557 Y3.29500
G01 X-3.96560 Y3.29451
G01 X-3.96627 Y3.28768
G01 X-3.96634 Y3.28720
G01 X-3.96646 Y3.28672
G01 X-3.96845 Y3.28015
G01 X-3.96883 Y3.27925
G01 X-3.97206 Y3.27320
G01 X-3.97231 Y3.27278
G01 X-3.97260 Y3.27238
G01 X-3.97696 Y3.26708
G01 X-3.97765 Y3.26639
G01 X-3.98295 Y3.26203
G01 X-3.98335 Y3.26174
G01 X-3.98377 Y3.26149
G01 X-3.98982 Y3.25825
G01 X-3.99073 Y3.25788
G01 X-3.99729 Y3.25589
G01 X-3.99777 Y3.25577
G01 X-3.99825 Y3.25570
G01 X-4.00508 Y3.25502
G01 X-4.00606 Y3.25502
G01 X-4.01289 Y3.25570
G01 X-4.01337 Y3.25577
G01 X-4.01385 Y3.25589
G01 X-4.02042 Y3.25788
G01 X-4.02132 Y3.25825
G01 X-4.02737 Y3.26149
G01 X-4.02779 Y3.26174
G01 X-4.02819 Y3.26203
G01 X-4.03349 Y3.26639
G01 X-4.03418 Y3.26708
G01 X-4.03854 Y3.27238
G01 X-4.03883 Y3.27278
G01 X-4.03908 Y3.27320
G01 X-4.04232 Y3.27925
G01 X-4.04269 Y3.28015
G01 X-4.04468 Y3.28672
G01 X-4.04487 Y3.28768
G01 X-4.04555 Y3.29451
G01 X-4.04557 Y3.29500
G01 X-4.04557 Y3.39019
G01 X-4.12514 Y3.71592
G01 X-4.12715 Y3.71814
G01 X-4.12748 Y3.71855
G01 X-4.12776 Y3.71899
G01 X-4.13194 Y3.72623
G01 X-4.13218 Y3.72670
G01 X-4.13237 Y3.72719
G01 X-4.13495 Y3.73514
G01 X-4.13509 Y3.73564
G01 X-4.13517 Y3.73616
G01 X-4.13604 Y3.74448
G01 X-4.13607 Y3.74500
G01 X-4.13604 Y3.74552
G01 X-4.13517 Y3.75384
G01 X-4.13509 Y3.75436
G01 X-4.13495 Y3.75486
G01 X-4.13237 Y3.76281
G01 X-4.13218 Y3.76330
G01 X-4.13194 Y3.76377
G01 X-4.13107 Y3.76528
G01 X-4.13107 Y3.78500
G01 X-4.15207 Y3.80600
G01 X-4.30567 Y3.80600
G01 X-4.32667 Y3.78500
G01 X-4.32667 Y3.76528
G01 X-4.32580 Y3.76377
G01 X-4.32556 Y3.76330
G01 X-4.32537 Y3.76281
G01 X-4.32279 Y3.75486
G01 X-4.32265 Y3.75436
G01 X-4.32257 Y3.75384
G01 X-4.32170 Y3.74552
G01 X-4.32167 Y3.74500
G01 X-4.32170 Y3.74448
G01 X-4.32257 Y3.73616
G01 X-4.32265 Y3.73564
G01 X-4.32279 Y3.73514
G01 X-4.32380 Y3.73203
G01 X-4.26617 Y3.40188
G01 X-4.26611 Y3.40145
G01 X-4.26559 Y3.39543
G01 X-4.26557 Y3.39500
G01 X-4.26557 Y3.29500
G01 X-4.26560 Y3.29451
G01 X-4.26627 Y3.28768
G01 X-4.26634 Y3.28720
G01 X-4.26646 Y3.28672
G01 X-4.26845 Y3.28015
G01 X-4.26883 Y3.27925
G01 X-4.27206 Y3.27320
G01 X-4.27231 Y3.27278
G01 X-4.27260 Y3.27238
G01 X-4.27696 Y3.26708
G01 X-4.27765 Y3.26639
G01 X-4.28295 Y3.26203
G01 X-4.28335 Y3.26174
G01 X-4.28377 Y3.26149
G01 X-4.28982 Y3.25825
G01 X-4.29073 Y3.25788
G01 X-4.29729 Y3.25589
G01 X-4.29777 Y3.25577
G01 X-4.29825 Y3.25570
G01 X-4.30508 Y3.25502
G01 X-4.30606 Y3.25502
G01 X-4.31289 Y3.25570
G01 X-4.31337 Y3.25577
G01 X-4.31385 Y3.25589
G01 X-4.32042 Y3.25788
G01 X-4.32132 Y3.25825
G01 X-4.32737 Y3.26149
G01 X-4.32779 Y3.26174
G01 X-4.32819 Y3.26203
G01 X-4.33349 Y3.26639
G01 X-4.33418 Y3.26708
G01 X-4.33854 Y3.27238
G01 X-4.33883 Y3.27278
G01 X-4.33908 Y3.27320
G01 X-4.34232 Y3.27925
G01 X-4.34269 Y3.28015
G01 X-4.34468 Y3.28672
G01 X-4.34487 Y3.28768
G01 X-4.34555 Y3.29451
G01 X-4.34557 Y3.29500
G01 X-4.34557 Y3.39153
G01 X-4.40255 Y3.71792
G01 X-4.40275 Y3.71814
G01 X-4.40308 Y3.71855
G01 X-4.40336 Y3.71899
G01 X-4.40754 Y3.72623
G01 X-4.40778 Y3.72670
G01 X-4.40797 Y3.72719
G01 X-4.41055 Y3.73514
G01 X-4.41069 Y3.73564
G01 X-4.41077 Y3.73616
G01 X-4.41164 Y3.74448
G01 X-4.41167 Y3.74500
G01 X-4.41164 Y3.74552
G01 X-4.41077 Y3.75384
G01 X-4.41069 Y3.75436
G01 X-4.41055 Y3.75486
G01 X-4.40797 Y3.76281
G01 X-4.40778 Y3.76330
G01 X-4.40754 Y3.76377
G01 X-4.40667 Y3.76528
G01 X-4.40667 Y3.78500
G01 X-4.42767 Y3.80600
G01 X-4.58127 Y3.80600
G01 X-4.60227 Y3.78500
G01 X-4.60227 Y3.76528
G01 X-4.60140 Y3.76377
G01 X-4.60116 Y3.76330
G01 X-4.60097 Y3.76281
G01 X-4.59839 Y3.75486
G01 X-4.59825 Y3.75436
G01 X-4.59817 Y3.75384
G01 X-4.59730 Y3.74552
G01 X-4.59727 Y3.74500
G01 X-4.59730 Y3.74448
G01 X-4.59817 Y3.73616
G01 X-4.59825 Y3.73564
G01 X-4.59839 Y3.73514
G01 X-4.60006 Y3.72999
G01 X-4.56578 Y3.39912
G01 X-4.56576 Y3.39886
G01 X-4.56558 Y3.39526
G01 X-4.56557 Y3.39500
G01 X-4.56557 Y3.29500
G01 X-4.56560 Y3.29451
G01 X-4.56627 Y3.28768
G01 X-4.56646 Y3.28672
G01 X-4.56845 Y3.28015
G01 X-4.56883 Y3.27925
G01 X-4.57206 Y3.27320
G01 X-4.57231 Y3.27278
G01 X-4.57260 Y3.27238
G01 X-4.57696 Y3.26708
G01 X-4.57765 Y3.26639
G01 X-4.58295 Y3.26203
G01 X-4.58335 Y3.26174
G01 X-4.58377 Y3.26149
G01 X-4.58982 Y3.25825
G01 X-4.59073 Y3.25788
G01 X-4.59729 Y3.25589
G01 X-4.59777 Y3.25577
G01 X-4.59825 Y3.25570
G01 X-4.60508 Y3.25502
G01 X-4.60606 Y3.25502
G01 X-4.61289 Y3.25570
G01 X-4.61337 Y3.25577
G01 X-4.61385 Y3.25589
G01 X-4.62042 Y3.25788
G01 X-4.62132 Y3.25825
G01 X-4.62737 Y3.26149
G01 X-4.62779 Y3.26174
G01 X-4.62819 Y3.26203
G01 X-4.63349 Y3.26639
G01 X-4.63418 Y3.26708
G01 X-4.63854 Y3.27238
G01 X-4.63883 Y3.27278
G01 X-4.63908 Y3.27320
G01 X-4.64232 Y3.27925
G01 X-4.64269 Y3.28015
G01 X-4.64468 Y3.28672
G01 X-4.64487 Y3.28768
G01 X-4.64555 Y3.29451
G01 X-4.64557 Y3.29500
G01 X-4.64557 Y3.39293
G01 X-4.67944 Y3.71981
G01 X-4.68314 Y3.72623
G01 X-4.68338 Y3.72670
G01 X-4.68357 Y3.72719
G01 X-4.68615 Y3.73514
G01 X-4.68629 Y3.73564
G01 X-4.68637 Y3.73616
G01 X-4.68724 Y3.74448
G01 X-4.68727 Y3.74500
G01 X-4.68724 Y3.74552
G01 X-4.68637 Y3.75384
G01 X-4.68629 Y3.75436
G01 X-4.68615 Y3.75486
G01 X-4.68357 Y3.76281
G01 X-4.68338 Y3.76330
G01 X-4.68314 Y3.76377
G01 X-4.68227 Y3.76528
G01 X-4.68227 Y3.78500
G01 X-4.70327 Y3.80600
G01 X-4.83800 Y3.80600
G01 X-4.87044 Y3.77356
G01 X-4.87522 Y3.75866
G01 X-4.87399 Y3.75486
G01 X-4.87385 Y3.75436
G01 X-4.87377 Y3.75384
G01 X-4.87290 Y3.74552
G01 X-4.87287 Y3.74500
G01 X-4.87290 Y3.74448
G01 X-4.87377 Y3.73616
G01 X-4.87385 Y3.73564
G01 X-4.87399 Y3.73514
G01 X-4.87641 Y3.72768
G01 X-4.86559 Y3.39631
G01 X-4.86559 Y3.39622
G01 X-4.86557 Y3.39508
G01 X-4.86557 Y3.39500
G01 X-4.86557 Y3.29500
G01 X-4.86560 Y3.29451
G01 X-4.86627 Y3.28768
G01 X-4.86634 Y3.28720
G01 X-4.86646 Y3.28672
G01 X-4.86845 Y3.28015
G01 X-4.86883 Y3.27925
G01 X-4.87206 Y3.27320
G01 X-4.87231 Y3.27278
G01 X-4.87260 Y3.27238
G01 X-4.87696 Y3.26708
G01 X-4.87765 Y3.26639
G01 X-4.88295 Y3.26203
G01 X-4.88335 Y3.26174
G01 X-4.88377 Y3.26149
G01 X-4.88982 Y3.25825
G01 X-4.89073 Y3.25788
G01 X-4.89729 Y3.25589
G01 X-4.89777 Y3.25577
G01 X-4.89825 Y3.25570
G01 X-4.90508 Y3.25502
G01 X-4.90606 Y3.25502
G01 X-4.91289 Y3.25570
G01 X-4.91337 Y3.25577
G01 X-4.91385 Y3.25589
G01 X-4.92042 Y3.25788
G01 X-4.92132 Y3.25825
G01 X-4.92737 Y3.26149
G01 X-4.92779 Y3.26174
G01 X-4.92819 Y3.26203
G01 X-4.93349 Y3.26639
G01 X-4.93418 Y3.26708
G01 X-4.93854 Y3.27238
G01 X-4.93883 Y3.27278
G01 X-4.93908 Y3.27320
G01 X-4.94232 Y3.27925
G01 X-4.94269 Y3.28015
G01 X-4.94468 Y3.28672
G01 X-4.94487 Y3.28768
G01 X-4.94555 Y3.29451
G01 X-4.94557 Y3.29500
G01 X-4.94557 Y3.39434
G01 X-4.95627 Y3.72195
G01 X-4.95874 Y3.72623
G01 X-4.95898 Y3.72670
G01 X-4.95917 Y3.72719
G01 X-4.96175 Y3.73514
G01 X-4.96189 Y3.73564
G01 X-4.96197 Y3.73616
G01 X-4.96284 Y3.74448
G01 X-4.96287 Y3.74500
G01 X-4.96284 Y3.74552
G01 X-4.96197 Y3.75384
G01 X-4.96189 Y3.75436
G01 X-4.96175 Y3.75486
G01 X-4.95917 Y3.76281
G01 X-4.95898 Y3.76330
G01 X-4.95874 Y3.76377
G01 X-4.95787 Y3.76528
G01 X-4.95787 Y3.78500
G01 X-4.97887 Y3.80600
G01 X-5.23800 Y3.80600
G01 X-5.25107 Y3.79293
G01 X-5.25107 Y3.76528
G01 X-5.25020 Y3.76377
G01 X-5.24996 Y3.76330
G01 X-5.24977 Y3.76281
G01 X-5.24719 Y3.75486
G01 X-5.24705 Y3.75436
G01 X-5.24697 Y3.75384
G01 X-5.24610 Y3.74552
G01 X-5.24607 Y3.74500
G01 X-5.24610 Y3.74448
G01 X-5.24697 Y3.73616
G01 X-5.24705 Y3.73564
G01 X-5.24719 Y3.73514
G01 X-5.24736 Y3.73462
G01 X-5.16671 Y3.40449
G01 X-5.16665 Y3.40420
G01 X-5.16590 Y3.40008
G01 X-5.16583 Y3.39948
G01 X-5.16558 Y3.39530
G01 X-5.16557 Y3.39500
G01 X-5.16557 Y3.29500
G01 X-5.16560 Y3.29451
G01 X-5.16627 Y3.28768
G01 X-5.16646 Y3.28672
G01 X-5.16845 Y3.28015
G01 X-5.16883 Y3.27925
G01 X-5.17206 Y3.27320
G01 X-5.17231 Y3.27278
G01 X-5.17260 Y3.27238
G01 X-5.17696 Y3.26708
G01 X-5.17765 Y3.26639
G01 X-5.18295 Y3.26203
G01 X-5.18335 Y3.26174
G01 X-5.18377 Y3.26149
G01 X-5.18982 Y3.25825
G01 X-5.19073 Y3.25788
G01 X-5.19729 Y3.25589
G01 X-5.19777 Y3.25577
G01 X-5.19825 Y3.25570
G01 X-5.20508 Y3.25502
G01 X-5.20606 Y3.25502
G01 X-5.21289 Y3.25570
G01 X-5.21337 Y3.25577
G01 X-5.21385 Y3.25589
G01 X-5.22042 Y3.25788
G01 X-5.22132 Y3.25825
G01 X-5.22737 Y3.26149
G01 X-5.22779 Y3.26174
G01 X-5.22819 Y3.26203
G01 X-5.23349 Y3.26639
G01 X-5.23418 Y3.26708
G01 X-5.23854 Y3.27238
G01 X-5.23883 Y3.27278
G01 X-5.23908 Y3.27320
G01 X-5.24232 Y3.27925
G01 X-5.24269 Y3.28015
G01 X-5.24468 Y3.28672
G01 X-5.24487 Y3.28768
G01 X-5.24555 Y3.29451
G01 X-5.24557 Y3.29500
G01 X-5.24557 Y3.39018
G01 X-5.32514 Y3.71592
G01 X-5.32715 Y3.71814
G01 X-5.32748 Y3.71855
G01 X-5.32776 Y3.71899
G01 X-5.33194 Y3.72623
G01 X-5.33218 Y3.72670
G01 X-5.33237 Y3.72719
G01 X-5.33495 Y3.73514
G01 X-5.33509 Y3.73564
G01 X-5.33517 Y3.73616
G01 X-5.33604 Y3.74448
G01 X-5.33607 Y3.74500
G01 X-5.33604 Y3.74552
G01 X-5.33517 Y3.75384
G01 X-5.33509 Y3.75436
G01 X-5.33495 Y3.75486
G01 X-5.33237 Y3.76281
G01 X-5.33218 Y3.76330
G01 X-5.33194 Y3.76377
G01 X-5.33107 Y3.76528
G01 X-5.33107 Y3.78500
G01 X-5.35207 Y3.80600
G01 X-5.50567 Y3.80600
G01 X-5.52667 Y3.78500
G01 X-5.52667 Y3.76528
G01 X-5.52580 Y3.76377
G01 X-5.52556 Y3.76330
G01 X-5.52537 Y3.76281
G01 X-5.52279 Y3.75486
G01 X-5.52265 Y3.75436
G01 X-5.52257 Y3.75384
G01 X-5.52170 Y3.74552
G01 X-5.52167 Y3.74500
G01 X-5.52170 Y3.74448
G01 X-5.52257 Y3.73616
G01 X-5.52265 Y3.73564
G01 X-5.52279 Y3.73514
G01 X-5.52380 Y3.73203
G01 X-5.46617 Y3.40188
G01 X-5.46611 Y3.40145
G01 X-5.46559 Y3.39543
G01 X-5.46557 Y3.39500
G01 X-5.46557 Y3.29500
G01 X-5.46560 Y3.29451
G01 X-5.46627 Y3.28768
G01 X-5.46634 Y3.28720
G01 X-5.46646 Y3.28672
G01 X-5.46845 Y3.28015
G01 X-5.46862 Y3.27969
G01 X-5.46883 Y3.27925
G01 X-5.47206 Y3.27320
G01 X-5.47260 Y3.27238
G01 X-5.47696 Y3.26708
G01 X-5.47765 Y3.26639
G01 X-5.48295 Y3.26203
G01 X-5.48335 Y3.26174
G01 X-5.48377 Y3.26149
G01 X-5.48982 Y3.25825
G01 X-5.49026 Y3.25804
G01 X-5.49072 Y3.25788
G01 X-5.49729 Y3.25589
G01 X-5.49825 Y3.25570
G01 X-5.50508 Y3.25502
G01 X-5.50606 Y3.25502
G01 X-5.51289 Y3.25570
G01 X-5.51385 Y3.25589
G01 X-5.52042 Y3.25788
G01 X-5.52088 Y3.25804
G01 X-5.52132 Y3.25825
G01 X-5.52737 Y3.26149
G01 X-5.52779 Y3.26174
G01 X-5.52819 Y3.26203
G01 X-5.53349 Y3.26639
G01 X-5.53418 Y3.26708
G01 X-5.53854 Y3.27238
G01 X-5.53908 Y3.27320
G01 X-5.54232 Y3.27925
G01 X-5.54253 Y3.27969
G01 X-5.54269 Y3.28015
G01 X-5.54468 Y3.28672
G01 X-5.54480 Y3.28720
G01 X-5.54487 Y3.28768
G01 X-5.54555 Y3.29451
G01 X-5.54557 Y3.29500
G01 X-5.54557 Y3.39153
G01 X-5.60255 Y3.71792
G01 X-5.60275 Y3.71814
G01 X-5.60308 Y3.71855
G01 X-5.60336 Y3.71899
G01 X-5.60754 Y3.72623
G01 X-5.60778 Y3.72670
G01 X-5.60797 Y3.72719
G01 X-5.61055 Y3.73514
G01 X-5.61069 Y3.73564
G01 X-5.61077 Y3.73616
G01 X-5.61164 Y3.74448
G01 X-5.61167 Y3.74500
G01 X-5.61164 Y3.74552
G01 X-5.61077 Y3.75384
G01 X-5.61069 Y3.75436
G01 X-5.61055 Y3.75486
G01 X-5.60797 Y3.76281
G01 X-5.60778 Y3.76330
G01 X-5.60754 Y3.76377
G01 X-5.60667 Y3.76528
G01 X-5.60667 Y3.78500
G01 X-5.62767 Y3.80600
G01 X-5.78800 Y3.80600
G01 X-5.80227 Y3.79173
G01 X-5.80227 Y3.76528
G01 X-5.80140 Y3.76377
G01 X-5.80116 Y3.76330
G01 X-5.80097 Y3.76281
G01 X-5.79839 Y3.75486
G01 X-5.79825 Y3.75436
G01 X-5.79817 Y3.75384
G01 X-5.79730 Y3.74552
G01 X-5.79727 Y3.74500
G01 X-5.79730 Y3.74448
G01 X-5.79817 Y3.73616
G01 X-5.79825 Y3.73564
G01 X-5.79839 Y3.73514
G01 X-5.80038 Y3.72902
G01 X-5.76579 Y3.39917
G01 X-5.76577 Y3.39891
G01 X-5.76558 Y3.39526
G01 X-5.76557 Y3.39500
G01 X-5.76557 Y3.29500
G01 X-5.76559 Y3.29451
G01 X-5.76627 Y3.28768
G01 X-5.76634 Y3.28720
G01 X-5.76646 Y3.28672
G01 X-5.76845 Y3.28015
G01 X-5.76862 Y3.27969
G01 X-5.76882 Y3.27925
G01 X-5.77206 Y3.27320
G01 X-5.77260 Y3.27238
G01 X-5.77696 Y3.26708
G01 X-5.77765 Y3.26639
G01 X-5.78295 Y3.26203
G01 X-5.78335 Y3.26174
G01 X-5.78377 Y3.26149
G01 X-5.78982 Y3.25825
G01 X-5.79026 Y3.25804
G01 X-5.79073 Y3.25788
G01 X-5.79729 Y3.25589
G01 X-5.79825 Y3.25570
G01 X-5.80508 Y3.25502
G01 X-5.80606 Y3.25502
G01 X-5.81289 Y3.25570
G01 X-5.81385 Y3.25589
G01 X-5.82042 Y3.25788
G01 X-5.82088 Y3.25804
G01 X-5.82132 Y3.25825
G01 X-5.82737 Y3.26149
G01 X-5.82779 Y3.26174
G01 X-5.82819 Y3.26203
G01 X-5.83349 Y3.26639
G01 X-5.83418 Y3.26708
G01 X-5.83854 Y3.27238
G01 X-5.83908 Y3.27320
G01 X-5.84232 Y3.27925
G01 X-5.84253 Y3.27969
G01 X-5.84269 Y3.28015
G01 X-5.84468 Y3.28672
G01 X-5.84480 Y3.28720
G01 X-5.84487 Y3.28768
G01 X-5.84555 Y3.29451
G01 X-5.84557 Y3.29500
G01 X-5.84557 Y3.39291
G01 X-5.87994 Y3.72068
G01 X-5.88314 Y3.72623
G01 X-5.88338 Y3.72670
G01 X-5.88357 Y3.72719
G01 X-5.88615 Y3.73514
G01 X-5.88629 Y3.73564
G01 X-5.88637 Y3.73616
G01 X-5.88724 Y3.74448
G01 X-5.88727 Y3.74500
G01 X-5.88724 Y3.74552
G01 X-5.88637 Y3.75384
G01 X-5.88629 Y3.75436
G01 X-5.88615 Y3.75486
G01 X-5.88357 Y3.76281
G01 X-5.88338 Y3.76330
G01 X-5.88314 Y3.76377
G01 X-5.88227 Y3.76528
G01 X-5.88227 Y3.78500
G01 X-5.90327 Y3.80600
G01 X-6.05687 Y3.80600
G01 X-6.07787 Y3.78500
G01 X-6.07787 Y3.76528
G01 X-6.07700 Y3.76377
G01 X-6.07676 Y3.76330
G01 X-6.07657 Y3.76281
G01 X-6.07399 Y3.75486
G01 X-6.07385 Y3.75436
G01 X-6.07377 Y3.75384
G01 X-6.07290 Y3.74552
G01 X-6.07287 Y3.74500
G01 X-6.07290 Y3.74448
G01 X-6.07377 Y3.73616
G01 X-6.07385 Y3.73564
G01 X-6.07399 Y3.73514
G01 X-6.07657 Y3.72719
G01 X-6.07676 Y3.72670
G01 X-6.07700 Y3.72623
G01 X-6.07706 Y3.72612
G01 X-6.06560 Y3.44664
G01 X-6.06560 Y3.44654
G01 X-6.06557 Y3.44510
G01 X-6.06557 Y3.44500
G01 X-6.06557 Y3.29500
G01 X-6.06560 Y3.29451
G01 X-6.06627 Y3.28768
G01 X-6.06634 Y3.28720
G01 X-6.06646 Y3.28672
G01 X-6.06845 Y3.28015
G01 X-6.06862 Y3.27969
G01 X-6.06883 Y3.27925
G01 X-6.07206 Y3.27320
G01 X-6.07260 Y3.27238
G01 X-6.07696 Y3.26708
G01 X-6.07765 Y3.26639
G01 X-6.08295 Y3.26203
G01 X-6.08335 Y3.26174
G01 X-6.08377 Y3.26149
G01 X-6.08982 Y3.25825
G01 X-6.09026 Y3.25804
G01 X-6.09073 Y3.25788
G01 X-6.09729 Y3.25589
G01 X-6.09825 Y3.25570
G01 X-6.10508 Y3.25502
G01 X-6.10606 Y3.25502
G01 X-6.11289 Y3.25570
G01 X-6.11385 Y3.25589
G01 X-6.12042 Y3.25788
G01 X-6.12088 Y3.25804
G01 X-6.12132 Y3.25825
G01 X-6.12737 Y3.26149
G01 X-6.12779 Y3.26174
G01 X-6.12819 Y3.26203
G01 X-6.13349 Y3.26639
G01 X-6.13418 Y3.26708
G01 X-6.13854 Y3.27238
G01 X-6.13908 Y3.27320
G01 X-6.14232 Y3.27925
G01 X-6.14253 Y3.27969
G01 X-6.14269 Y3.28015
G01 X-6.14468 Y3.28672
G01 X-6.14480 Y3.28720
G01 X-6.14487 Y3.28768
G01 X-6.14555 Y3.29451
G01 X-6.14557 Y3.29500
G01 X-6.14557 Y3.44418
G01 X-6.15701 Y3.72323
G01 X-6.15874 Y3.72623
G01 X-6.15898 Y3.72670
G01 X-6.15917 Y3.72719
G01 X-6.16175 Y3.73514
G01 X-6.16189 Y3.73564
G01 X-6.16197 Y3.73616
G01 X-6.16284 Y3.74448
G01 X-6.16287 Y3.74500
G01 X-6.16284 Y3.74552
G01 X-6.16197 Y3.75384
G01 X-6.16189 Y3.75436
G01 X-6.16175 Y3.75486
G01 X-6.15917 Y3.76281
G01 X-6.15898 Y3.76330
G01 X-6.15874 Y3.76377
G01 X-6.15787 Y3.76528
G01 X-6.15787 Y3.80157
G01 X-6.15786 Y3.80196
G01 X-6.15742 Y3.80744
G01 X-6.15730 Y3.80821
G01 X-6.15602 Y3.81355
G01 X-6.15578 Y3.81430
G01 X-6.15368 Y3.81937
G01 X-6.15332 Y3.82007
G01 X-6.15045 Y3.82475
G01 X-6.14999 Y3.82539
G01 X-6.14642 Y3.82956
G01 X-6.14616 Y3.82985
G01 X-6.10172 Y3.87429
G01 X-6.10136 Y3.87461
G01 X-6.09606 Y3.87897
G01 X-6.09566 Y3.87926
G01 X-6.09524 Y3.87951
G01 X-6.08919 Y3.88275
G01 X-6.08828 Y3.88312
G01 X-6.08172 Y3.88511
G01 X-6.08124 Y3.88523
G01 X-6.08076 Y3.88530
G01 X-6.07393 Y3.88598
G01 X-6.07344 Y3.88600
G01 X-5.88670 Y3.88600
G01 X-5.88631 Y3.88599
G01 X-5.88083 Y3.88555
G01 X-5.88006 Y3.88543
G01 X-5.87472 Y3.88415
G01 X-5.87397 Y3.88391
G01 X-5.86890 Y3.88181
G01 X-5.86820 Y3.88145
G01 X-5.86352 Y3.87858
G01 X-5.86288 Y3.87812
G01 X-5.85871 Y3.87455
G01 X-5.85842 Y3.87428
G01 X-5.84564 Y3.86150
G01 X-5.83285 Y3.87429
G01 X-5.83249 Y3.87461
G01 X-5.82719 Y3.87897
G01 X-5.82679 Y3.87926
G01 X-5.82637 Y3.87951
G01 X-5.82032 Y3.88275
G01 X-5.81942 Y3.88312
G01 X-5.81285 Y3.88511
G01 X-5.81237 Y3.88523
G01 X-5.81189 Y3.88530
G01 X-5.80506 Y3.88598
G01 X-5.80457 Y3.88600
G01 X-5.61110 Y3.88600
G01 X-5.61061 Y3.88598
G01 X-5.60378 Y3.88530
G01 X-5.60330 Y3.88523
G01 X-5.60282 Y3.88511
G01 X-5.59626 Y3.88312
G01 X-5.59535 Y3.88275
G01 X-5.58930 Y3.87951
G01 X-5.58888 Y3.87926
G01 X-5.58849 Y3.87897
G01 X-5.58318 Y3.87461
G01 X-5.58282 Y3.87429
G01 X-5.56667 Y3.85814
G01 X-5.55052 Y3.87428
G01 X-5.55024 Y3.87455
G01 X-5.54606 Y3.87812
G01 X-5.54542 Y3.87858
G01 X-5.54074 Y3.88145
G01 X-5.54004 Y3.88181
G01 X-5.53497 Y3.88391
G01 X-5.53422 Y3.88415
G01 X-5.52888 Y3.88543
G01 X-5.52811 Y3.88555
G01 X-5.52263 Y3.88599
G01 X-5.52224 Y3.88600
G01 X-5.33550 Y3.88600
G01 X-5.33511 Y3.88599
G01 X-5.32963 Y3.88555
G01 X-5.32886 Y3.88543
G01 X-5.32352 Y3.88415
G01 X-5.32277 Y3.88391
G01 X-5.31770 Y3.88181
G01 X-5.31700 Y3.88145
G01 X-5.31232 Y3.87858
G01 X-5.31168 Y3.87812
G01 X-5.30751 Y3.87455
G01 X-5.30722 Y3.87428
G01 X-5.29504 Y3.86210
G01 X-5.28285 Y3.87429
G01 X-5.28249 Y3.87462
G01 X-5.27719 Y3.87897
G01 X-5.27637 Y3.87951
G01 X-5.27032 Y3.88275
G01 X-5.26942 Y3.88312
G01 X-5.26285 Y3.88511
G01 X-5.26189 Y3.88530
G01 X-5.25506 Y3.88598
G01 X-5.25457 Y3.88600
G01 X-4.96230 Y3.88600
G01 X-4.96191 Y3.88599
G01 X-4.95643 Y3.88555
G01 X-4.95566 Y3.88543
G01 X-4.95032 Y3.88415
G01 X-4.94957 Y3.88391
G01 X-4.94450 Y3.88181
G01 X-4.94380 Y3.88145
G01 X-4.93912 Y3.87858
G01 X-4.93848 Y3.87812
G01 X-4.93431 Y3.87455
G01 X-4.93402 Y3.87428
G01 X-4.90844 Y3.84870
G01 X-4.88285 Y3.87429
G01 X-4.88249 Y3.87462
G01 X-4.87719 Y3.87897
G01 X-4.87637 Y3.87951
G01 X-4.87032 Y3.88275
G01 X-4.86942 Y3.88312
G01 X-4.86285 Y3.88511
G01 X-4.86189 Y3.88530
G01 X-4.85506 Y3.88598
G01 X-4.85457 Y3.88600
G01 X-4.68670 Y3.88600
G01 X-4.68631 Y3.88599
G01 X-4.68083 Y3.88555
G01 X-4.68006 Y3.88543
G01 X-4.67472 Y3.88415
G01 X-4.67397 Y3.88391
G01 X-4.66890 Y3.88181
G01 X-4.66820 Y3.88145
G01 X-4.66352 Y3.87858
G01 X-4.66288 Y3.87812
G01 X-4.65871 Y3.87455
G01 X-4.65842 Y3.87428
G01 X-4.64227 Y3.85814
G01 X-4.62612 Y3.87429
G01 X-4.62576 Y3.87461
G01 X-4.62046 Y3.87897
G01 X-4.62006 Y3.87926
G01 X-4.61964 Y3.87951
G01 X-4.61359 Y3.88275
G01 X-4.61268 Y3.88312
G01 X-4.60612 Y3.88511
G01 X-4.60516 Y3.88530
G01 X-4.59833 Y3.88598
G01 X-4.59784 Y3.88600
G01 X-4.41110 Y3.88600
G01 X-4.41071 Y3.88599
G01 X-4.40523 Y3.88555
G01 X-4.40446 Y3.88543
G01 X-4.39912 Y3.88415
G01 X-4.39837 Y3.88391
G01 X-4.39330 Y3.88181
G01 X-4.39260 Y3.88145
G01 X-4.38792 Y3.87858
G01 X-4.38728 Y3.87812
G01 X-4.38311 Y3.87455
G01 X-4.38282 Y3.87428
G01 X-4.36667 Y3.85814
G01 X-4.35052 Y3.87429
G01 X-4.35016 Y3.87461
G01 X-4.34486 Y3.87897
G01 X-4.34446 Y3.87926
G01 X-4.34404 Y3.87951
G01 X-4.33799 Y3.88275
G01 X-4.33708 Y3.88312
G01 X-4.33052 Y3.88511
G01 X-4.32956 Y3.88530
G01 X-4.32273 Y3.88598
G01 X-4.32224 Y3.88600
G01 X-4.13550 Y3.88600
G01 X-4.13511 Y3.88599
G01 X-4.12963 Y3.88555
G01 X-4.12886 Y3.88543
G01 X-4.12352 Y3.88415
G01 X-4.12277 Y3.88391
G01 X-4.11770 Y3.88181
G01 X-4.11700 Y3.88145
G01 X-4.11232 Y3.87858
G01 X-4.11168 Y3.87812
G01 X-4.10751 Y3.87455
G01 X-4.10722 Y3.87428
G01 X-4.09504 Y3.86210
G01 X-4.08285 Y3.87429
G01 X-4.08249 Y3.87462
G01 X-4.07719 Y3.87897
G01 X-4.07637 Y3.87951
G01 X-4.07032 Y3.88275
G01 X-4.06942 Y3.88312
G01 X-4.06285 Y3.88511
G01 X-4.06189 Y3.88530
G01 X-4.05506 Y3.88598
G01 X-4.05457 Y3.88600
G01 X-3.76230 Y3.88600
G01 X-3.76191 Y3.88599
G01 X-3.75643 Y3.88555
G01 X-3.75566 Y3.88543
G01 X-3.75032 Y3.88415
G01 X-3.74957 Y3.88391
G01 X-3.74450 Y3.88181
G01 X-3.74380 Y3.88145
G01 X-3.73912 Y3.87858
G01 X-3.73848 Y3.87812
G01 X-3.73431 Y3.87455
G01 X-3.73402 Y3.87428
G01 X-3.71787 Y3.85814
G01 X-3.70172 Y3.87429
G01 X-3.70136 Y3.87461
G01 X-3.69606 Y3.87897
G01 X-3.69566 Y3.87926
G01 X-3.69524 Y3.87951
G01 X-3.68919 Y3.88275
G01 X-3.68828 Y3.88312
G01 X-3.68172 Y3.88511
G01 X-3.68076 Y3.88530
G01 X-3.67393 Y3.88598
G01 X-3.67344 Y3.88600
G01 X-3.48670 Y3.88600
G01 X-3.48631 Y3.88599
G01 X-3.48083 Y3.88555
G01 X-3.48006 Y3.88543
G01 X-3.47472 Y3.88415
G01 X-3.47397 Y3.88391
G01 X-3.46890 Y3.88181
G01 X-3.46820 Y3.88145
G01 X-3.46352 Y3.87858
G01 X-3.46288 Y3.87812
G01 X-3.45871 Y3.87455
G01 X-3.45842 Y3.87428
G01 X-3.44227 Y3.85814
G01 X-3.42612 Y3.87429
G01 X-3.42576 Y3.87461
G01 X-3.42046 Y3.87897
G01 X-3.42006 Y3.87926
G01 X-3.41964 Y3.87951
G01 X-3.41359 Y3.88275
G01 X-3.41268 Y3.88312
G01 X-3.40612 Y3.88511
G01 X-3.40516 Y3.88530
G01 X-3.39833 Y3.88598
G01 X-3.39784 Y3.88600
G01 X-3.21110 Y3.88600
G01 X-3.21071 Y3.88599
G01 X-3.20523 Y3.88555
G01 X-3.20446 Y3.88543
G01 X-3.19912 Y3.88415
G01 X-3.19837 Y3.88391
G01 X-3.19330 Y3.88181
G01 X-3.19260 Y3.88145
G01 X-3.18792 Y3.87858
G01 X-3.18728 Y3.87812
G01 X-3.18311 Y3.87455
G01 X-3.18282 Y3.87428
G01 X-3.16353 Y3.85500
G01 X-3.14425 Y3.87429
G01 X-3.14388 Y3.87461
G01 X-3.13858 Y3.87897
G01 X-3.13818 Y3.87926
G01 X-3.13776 Y3.87951
G01 X-3.13171 Y3.88275
G01 X-3.13081 Y3.88312
G01 X-3.12424 Y3.88511
G01 X-3.12328 Y3.88530
G01 X-3.11645 Y3.88598
G01 X-3.11596 Y3.88600
G01 X-2.93550 Y3.88600
G01 X-2.93511 Y3.88599
G01 X-2.92963 Y3.88555
G01 X-2.92886 Y3.88543
G01 X-2.92352 Y3.88415
G01 X-2.92277 Y3.88391
G01 X-2.91770 Y3.88181
G01 X-2.91700 Y3.88145
G01 X-2.91232 Y3.87858
G01 X-2.91168 Y3.87812
G01 X-2.90751 Y3.87455
G01 X-2.90722 Y3.87428
G01 X-2.89504 Y3.86210
G01 X-2.88285 Y3.87429
G01 X-2.88249 Y3.87462
G01 X-2.87719 Y3.87897
G01 X-2.87637 Y3.87951
G01 X-2.87032 Y3.88275
G01 X-2.86942 Y3.88312
G01 X-2.86285 Y3.88511
G01 X-2.86189 Y3.88530
G01 X-2.85506 Y3.88598
G01 X-2.85457 Y3.88600
G01 X-2.56230 Y3.88600
G01 X-2.56191 Y3.88599
G01 X-2.55643 Y3.88555
G01 X-2.55566 Y3.88543
G01 X-2.55032 Y3.88415
G01 X-2.54957 Y3.88391
G01 X-2.54450 Y3.88181
G01 X-2.54380 Y3.88145
G01 X-2.53912 Y3.87858
G01 X-2.53848 Y3.87812
G01 X-2.53431 Y3.87455
G01 X-2.53402 Y3.87428
G01 X-2.49543 Y3.83569
G01 X-2.45684 Y3.87429
G01 X-2.45647 Y3.87461
G01 X-2.45117 Y3.87897
G01 X-2.45035 Y3.87951
G01 X-2.44430 Y3.88275
G01 X-2.44340 Y3.88312
G01 X-2.43683 Y3.88511
G01 X-2.43587 Y3.88530
G01 X-2.42904 Y3.88598
G01 X-2.42855 Y3.88600
G01 X-2.28670 Y3.88600
G01 X-2.28631 Y3.88599
G01 X-2.28083 Y3.88555
G01 X-2.28006 Y3.88543
G01 X-2.27472 Y3.88415
G01 X-2.27397 Y3.88391
G01 X-2.26890 Y3.88181
G01 X-2.26820 Y3.88145
G01 X-2.26352 Y3.87858
G01 X-2.26288 Y3.87812
G01 X-2.25871 Y3.87455
G01 X-2.25842 Y3.87428
G01 X-2.22064 Y3.83650
G01 X-2.18285 Y3.87429
G01 X-2.18249 Y3.87462
G01 X-2.17719 Y3.87897
G01 X-2.17637 Y3.87951
G01 X-2.17032 Y3.88275
G01 X-2.16942 Y3.88312
G01 X-2.16285 Y3.88511
G01 X-2.16189 Y3.88530
G01 X-2.15506 Y3.88598
G01 X-2.15457 Y3.88600
G01 X-2.01110 Y3.88600
G01 X-2.01071 Y3.88599
G01 X-2.00523 Y3.88555
G01 X-2.00446 Y3.88543
G01 X-1.99912 Y3.88415
G01 X-1.99837 Y3.88391
G01 X-1.99330 Y3.88181
G01 X-1.99260 Y3.88145
G01 X-1.98792 Y3.87858
G01 X-1.98728 Y3.87812
G01 X-1.98311 Y3.87455
G01 X-1.98282 Y3.87428
G01 X-1.96353 Y3.85500
G01 X-1.94425 Y3.87429
G01 X-1.94388 Y3.87461
G01 X-1.93858 Y3.87897
G01 X-1.93818 Y3.87926
G01 X-1.93776 Y3.87951
G01 X-1.93171 Y3.88275
G01 X-1.93081 Y3.88312
G01 X-1.92424 Y3.88511
G01 X-1.92328 Y3.88530
G01 X-1.91645 Y3.88598
G01 X-1.91596 Y3.88600
G01 X-1.73550 Y3.88600
G01 X-1.73511 Y3.88599
G01 X-1.72963 Y3.88555
G01 X-1.72886 Y3.88543
G01 X-1.72352 Y3.88415
G01 X-1.72277 Y3.88391
G01 X-1.71770 Y3.88181
G01 X-1.71700 Y3.88145
G01 X-1.71232 Y3.87858
G01 X-1.71168 Y3.87812
G01 X-1.70751 Y3.87455
G01 X-1.70722 Y3.87428
G01 X-1.66279 Y3.82985
G01 X-1.66246 Y3.82949
G01 X-1.65810 Y3.82419
G01 X-1.65756 Y3.82337
G01 X-1.65433 Y3.81732
G01 X-1.65395 Y3.81641
G01 X-1.65196 Y3.80985
G01 X-1.65177 Y3.80889
G01 X-1.65110 Y3.80206
G01 X-1.65107 Y3.80157
G01 X-1.65107 Y3.78500
G01 X-1.34498 Y3.78500
G01 X-1.34498 Y3.80157
G01 X-1.34496 Y3.80196
G01 X-1.34453 Y3.80744
G01 X-1.34441 Y3.80821
G01 X-1.34313 Y3.81355
G01 X-1.34288 Y3.81430
G01 X-1.34078 Y3.81937
G01 X-1.34043 Y3.82007
G01 X-1.33756 Y3.82475
G01 X-1.33709 Y3.82539
G01 X-1.33353 Y3.82957
G01 X-1.33326 Y3.82985
G01 X-1.23983 Y3.92328
G01 X-1.23947 Y3.92361
G01 X-1.23416 Y3.92797
G01 X-1.23335 Y3.92851
G01 X-1.22730 Y3.93175
G01 X-1.22639 Y3.93212
G01 X-1.21982 Y3.93411
G01 X-1.21886 Y3.93430
G01 X-1.21204 Y3.93498
G01 X-1.21155 Y3.93500
G01 X-0.95557 Y3.93500
G01 X-0.95518 Y3.93498
G01 X-0.94970 Y3.93455
G01 X-0.94893 Y3.93443
G01 X-0.94359 Y3.93315
G01 X-0.94284 Y3.93291
G01 X-0.93777 Y3.93080
G01 X-0.93707 Y3.93045
G01 X-0.93239 Y3.92758
G01 X-0.93175 Y3.92712
G01 X-0.92758 Y3.92355
G01 X-0.92729 Y3.92328
G01 X-0.83386 Y3.82985
G01 X-0.74042 Y3.92328
G01 X-0.74006 Y3.92361
G01 X-0.73476 Y3.92797
G01 X-0.73394 Y3.92851
G01 X-0.72789 Y3.93175
G01 X-0.72698 Y3.93212
G01 X-0.72042 Y3.93411
G01 X-0.71946 Y3.93430
G01 X-0.71263 Y3.93498
G01 X-0.71214 Y3.93500
G01 X-0.55557 Y3.93500
G01 X-0.55518 Y3.93498
G01 X-0.54970 Y3.93455
G01 X-0.54893 Y3.93443
G01 X-0.54359 Y3.93315
G01 X-0.54284 Y3.93291
G01 X-0.53777 Y3.93080
G01 X-0.53707 Y3.93045
G01 X-0.53239 Y3.92758
G01 X-0.53175 Y3.92712
G01 X-0.52758 Y3.92355
G01 X-0.52729 Y3.92328
G01 X-0.37729 Y3.77328
G01 X-0.37702 Y3.77300
G01 X-0.37345 Y3.76881
G01 X-0.37299 Y3.76818
G01 X-0.37011 Y3.76349
G01 X-0.36976 Y3.76279
G01 X-0.36766 Y3.75770
G01 X-0.36741 Y3.75695
G01 X-0.36613 Y3.75161
G01 X-0.36601 Y3.75083
G01 X-0.36559 Y3.74535
G01 X-0.36557 Y3.74495
G01 X-0.36713 Y2.43750
G01 X-0.20719 Y2.43750
G01 X-0.20669 Y2.43748
G01 X-0.19938 Y2.43676
G01 X-0.19842 Y2.43656
G01 X-0.19138 Y2.43443
G01 X-0.19092 Y2.43426
G01 X-0.19048 Y2.43406
G01 X-0.18399 Y2.43059
G01 X-0.18318 Y2.43005
G01 X-0.17750 Y2.42538
G01 X-0.17713 Y2.42505
G01 X-0.17680 Y2.42469
G01 X-0.17214 Y2.41901
G01 X-0.17160 Y2.41819
G01 X-0.16813 Y2.41171
G01 X-0.16792 Y2.41126
G01 X-0.16775 Y2.41080
G01 X-0.16562 Y2.40377
G01 X-0.16543 Y2.40281
G01 X-0.16471 Y2.39549
G01 X-0.16469 Y2.39500
G04 P0 ( dwell for no time -- G64 should not smooth over this point )
G00 Z0.05000 ( retract )

G00 X-0.16519 Y2.09500 ( rapid move to begin. )
G01 F100.00000
( Mill infeed pass 1/1 )
G01 Z-0.05000
G04 P0 ( dwell for no time -- G64 should not smooth over this point )
G01 F1000.00000
G01 X-0.16519 Y2.09500
G01 X-0.16521 Y2.09448
G01 X-0.16557 Y2.09107
G01 X-0.16557 Y1.94500
G01 X-0.16560 Y1.94451
G01 X-0.16627 Y1.93768
G01 X-0.16646 Y1.93672
G01 X-0.16845 Y1.93015
G01 X-0.16862 Y1.92969
G01 X-0.16883 Y1.92925
G01 X-0.17206 Y1.92320
G01 X-0.17260 Y1.92238
G01 X-0.17696 Y1.91708
G01 X-0.17729 Y1.91672
G01 X-1.80719 Y0.28681
G01 X-1.80756 Y0.28648
G01 X-1.81286 Y0.28213
G01 X-1.81326 Y0.28184
G01 X-1.81368 Y0.28158
G01 X-1.81973 Y0.27835
G01 X-1.82063 Y0.27797
G01 X-1.82720 Y0.27598
G01 X-1.82816 Y0.27579
G01 X-1.83499 Y0.27512
G01 X-1.83548 Y0.27509
G01 X-2.65557 Y0.27509
G01 X-2.65606 Y0.27512
G01 X-2.66289 Y0.27579
G01 X-2.66385 Y0.27598
G01 X-2.67042 Y0.27797
G01 X-2.67132 Y0.27835
G01 X-2.67737 Y0.28158
G01 X-2.67779 Y0.28184
G01 X-2.67819 Y0.28213
G01 X-2.68349 Y0.28648
G01 X-2.68418 Y0.28717
G01 X-2.68854 Y0.29248
G01 X-2.68883 Y0.29287
G01 X-2.68908 Y0.29329
G01 X-2.69005 Y0.29509
G01 X-2.77753 Y0.29509
G01 X-2.77779 Y0.29460
G01 X-2.77841 Y0.29384
G01 X-2.77917 Y0.29322
G01 X-2.78004 Y0.29276
G01 X-2.78097 Y0.29247
G01 X-2.78195 Y0.29238
G01 X-2.82919 Y0.29238
G01 X-2.83017 Y0.29247
G01 X-2.83111 Y0.29276
G01 X-2.83197 Y0.29322
G01 X-2.83273 Y0.29384
G01 X-2.83335 Y0.29460
G01 X-2.83361 Y0.29509
G01 X-2.87753 Y0.29509
G01 X-2.87779 Y0.29460
G01 X-2.87841 Y0.29384
G01 X-2.87917 Y0.29322
G01 X-2.88004 Y0.29276
G01 X-2.88097 Y0.29247
G01 X-2.88195 Y0.29238
G01 X-2.92919 Y0.29238
G01 X-2.93017 Y0.29247
G01 X-2.93111 Y0.29276
G01 X-2.93197 Y0.29322
G01 X-2.93273 Y0.29384
G01 X-2.93335 Y0.29460
G01 X-2.93361 Y0.29509
G01 X-2.97753 Y0.29509
G01 X-2.97779 Y0.29460
G01 X-2.97841 Y0.29384
G01 X-2.97917 Y0.29322
G01 X-2.98004 Y0.29276
G01 X-2.98097 Y0.29247
G01 X-2.98195 Y0.29238
G01 X-3.02919 Y0.29238
G01 X-3.03017 Y0.29247
G01 X-3.03111 Y0.29276
G01 X-3.03197 Y0.29322
G01 X-3.03273 Y0.29384
G01 X-3.03335 Y0.29460
G01 X-3.03361 Y0.29509
G01 X-3.07753 Y0.29509
G01 X-3.07779 Y0.29460
G01 X-3.07841 Y0.29384
G01 X-3.07917 Y0.29322
G01 X-3.08004 Y0.29276
G01 X-3.08097 Y0.29247
G01 X-3.08195 Y0.29238
G01 X-3.12919 Y0.29238
G01 X-3.13017 Y0.29247
G01 X-3.13111 Y0.29276
G01 X-3.13197 Y0.29322
G01 X-3.13273 Y0.29384
G01 X-3.13335 Y0.29460
G01 X-3.13361 Y0.29509
G01 X-3.17753 Y0.29509
G01 X-3.17779 Y0.29460
G01 X-3.17841 Y0.29384
G01 X-3.17917 Y0.29322
G01 X-3.18004 Y0.29276
G01 X-3.18097 Y0.29247
G01 X-3.18195 Y0.29238
G01 X-3.22919 Y0.29238
G01 X-3.23017 Y0.29247
G01 X-3.23111 Y0.29276
G01 X-3.23197 Y0.29322
G01 X-3.23273 Y0.29384
G01 X-3.23335 Y0.29460
G01 X-3.23361 Y0.29509
G01 X-3.27753 Y0.29509
G01 X-3.27779 Y0.29460
G01 X-3.27841 Y0.29384
G01 X-3.27917 Y0.29322
G01 X-3.28004 Y0.29276
G01 X-3.28097 Y0.29247
G01 X-3.28195 Y0.29238
G01 X-3.32919 Y0.29238
G01 X-3.33017 Y0.29247
G01 X-3.33111 Y0.29276
G01 X-3.33197 Y0.29322
G01 X-3.33273 Y0.29384
G01 X-3.33335 Y0.29460
G01 X-3.33361 Y0.29509
G01 X-3.37753 Y0.29509
G01 X-3.37779 Y0.29460
G01 X-3.37841 Y0.29384
G01 X-3.37917 Y0.29322
G01 X-3.38004 Y0.29276
G01 X-3.38097 Y0.29247
G01 X-3.38195 Y0.29238
G01 X-3.42919 Y0.29238
G01 X-3.43017 Y0.29247
G01 X-3.43111 Y0.29276
G01 X-3.43197 Y0.29322
G01 X-3.43273 Y0.29384
G01 X-3.43335 Y0.29460
G01 X-3.43361 Y0.29509
G01 X-3.47728 Y0.29509
G01 X-3.47733 Y0.29492
G01 X-3.47779 Y0.29406
G01 X-3.47841 Y0.29330
G01 X-3.47917 Y0.29268
G01 X-3.48004 Y0.29222
G01 X-3.48097 Y0.29193
G01 X-3.48195 Y0.29184
G01 X-3.52919 Y0.29184
G01 X-3.53017 Y0.29193
G01 X-3.53111 Y0.29222
G01 X-3.53197 Y0.29268
G01 X-3.53273 Y0.29330
G01 X-3.53335 Y0.29406
G01 X-3.53362 Y0.29455
G01 X-3.66557 Y0.29455
G01 X-3.66557 Y0.14500
G01 X-3.66560 Y0.14451
G01 X-3.66627 Y0.13768
G01 X-3.66646 Y0.13672
G01 X-3.66845 Y0.13015
G01 X-3.66883 Y0.12925
G01 X-3.67206 Y0.12320
G01 X-3.67231 Y0.12278
G01 X-3.67260 Y0.12238
G01 X-3.67696 Y0.11708
G01 X-3.67765 Y0.11639
G01 X-3.68295 Y0.11203
G01 X-3.68335 Y0.11174
G01 X-3.68377 Y0.11149
G01 X-3.68982 Y0.10825
G01 X-3.69073 Y0.10788
G01 X-3.69729 Y0.10589
G01 X-3.69825 Y0.10570
G01 X-3.70508 Y0.10502
G01 X-3.70557 Y0.10500
G01 X-3.70606 Y0.10502
G01 X-3.71289 Y0.10570
G01 X-3.71385 Y0.10589
G01 X-3.72042 Y0.10788
G01 X-3.72132 Y0.10825
G01 X-3.72737 Y0.11149
G01 X-3.72779 Y0.11174
G01 X-3.72819 Y0.11203
G01 X-3.73349 Y0.11639
G01 X-3.73418 Y0.11708
G01 X-3.73854 Y0.12238
G01 X-3.73883 Y0.12278
G01 X-3.73908 Y0.12320
G01 X-3.74232 Y0.12925
G01 X-3.74269 Y0.13015
G01 X-3.74468 Y0.13672
G01 X-3.74487 Y0.13768
G01 X-3.74555 Y0.14451
G01 X-3.74557 Y0.14500
G01 X-3.74557 Y0.33004
G01 X-3.74555 Y0.33053
G01 X-3.74487 Y0.33736
G01 X-3.74468 Y0.33832
G01 X-3.74409 Y0.34028
G01 X-3.81114 Y0.40732
G01 X-3.82919 Y0.40732
G01 X-3.83017 Y0.40742
G01 X-3.83111 Y0.40770
G01 X-3.83197 Y0.40817
G01 X-3.83273 Y0.40879
G01 X-3.83335 Y0.40954
G01 X-3.83362 Y0.41004
G01 X-3.97753 Y0.41004
G01 X-3.97779 Y0.40954
G01 X-3.97841 Y0.40879
G01 X-3.97917 Y0.40817
G01 X-3.98004 Y0.40770
G01 X-3.98097 Y0.40742
G01 X-3.98195 Y0.40732
G01 X-4.02919 Y0.40732
G01 X-4.03017 Y0.40742
G01 X-4.03111 Y0.40770
G01 X-4.03197 Y0.40817
G01 X-4.03273 Y0.40879
G01 X-4.03335 Y0.40954
G01 X-4.03362 Y0.41004
G01 X-4.07753 Y0.41004
G01 X-4.07779 Y0.40954
G01 X-4.07841 Y0.40879
G01 X-4.07917 Y0.40817
G01 X-4.08004 Y0.40770
G01 X-4.08097 Y0.40742
G01 X-4.08195 Y0.40732
G01 X-4.12919 Y0.40732
G01 X-4.13017 Y0.40742
G01 X-4.13111 Y0.40770
G01 X-4.13197 Y0.40817
G01 X-4.13273 Y0.40879
G01 X-4.13335 Y0.40954
G01 X-4.13362 Y0.41004
G01 X-4.17753 Y0.41004
G01 X-4.17779 Y0.40954
G01 X-4.17841 Y0.40879
G01 X-4.17917 Y0.40817
G01 X-4.18004 Y0.40770
G01 X-4.18097 Y0.40742
G01 X-4.18195 Y0.40732
G01 X-4.22919 Y0.40732
G01 X-4.23017 Y0.40742
G01 X-4.23111 Y0.40770
G01 X-4.23197 Y0.40817
G01 X-4.23273 Y0.40879
G01 X-4.23335 Y0.40954
G01 X-4.23362 Y0.41004
G01 X-4.27753 Y0.41004
G01 X-4.27779 Y0.40954
G01 X-4.27841 Y0.40879
G01 X-4.27917 Y0.40817
G01 X-4.28004 Y0.40770
G01 X-4.28097 Y0.40742
G01 X-4.28195 Y0.40732
G01 X-4.32919 Y0.40732
G01 X-4.33017 Y0.40742
G01 X-4.33111 Y0.40770
G01 X-4.33197 Y0.40817
G01 X-4.33273 Y0.40879
G01 X-4.33335 Y0.40954
G01 X-4.33362 Y0.41004
G01 X-4.37753 Y0.41004
G01 X-4.37779 Y0.40955
G01 X-4.37841 Y0.40879
G01 X-4.37917 Y0.40817
G01 X-4.38004 Y0.40770
G01 X-4.38097 Y0.40742
G01 X-4.38195 Y0.40732
G01 X-4.40000 Y0.40732
G01 X-4.41151 Y0.39582
G01 X-4.41179 Y0.39555
G01 X-4.41358 Y0.39402
G01 X-4.41422 Y0.39356
G01 X-4.41623 Y0.39233
G01 X-4.41693 Y0.39198
G01 X-4.41910 Y0.39108
G01 X-4.41985 Y0.39083
G01 X-4.42214 Y0.39028
G01 X-4.42291 Y0.39016
G01 X-4.42526 Y0.38998
G01 X-4.42565 Y0.38996
G01 X-4.47753 Y0.38996
G01 X-4.47779 Y0.38947
G01 X-4.47841 Y0.38871
G01 X-4.47917 Y0.38809
G01 X-4.48004 Y0.38762
G01 X-4.48097 Y0.38734
G01 X-4.48195 Y0.38725
G01 X-4.52919 Y0.38725
G01 X-4.53017 Y0.38734
G01 X-4.53111 Y0.38762
G01 X-4.53197 Y0.38809
G01 X-4.53273 Y0.38871
G01 X-4.53335 Y0.38947
G01 X-4.53361 Y0.38996
G01 X-4.57753 Y0.38996
G01 X-4.57779 Y0.38947
G01 X-4.57841 Y0.38871
G01 X-4.57917 Y0.38809
G01 X-4.58004 Y0.38762
G01 X-4.58097 Y0.38734
G01 X-4.58195 Y0.38725
G01 X-4.62919 Y0.38725
G01 X-4.63017 Y0.38734
G01 X-4.63111 Y0.38762
G01 X-4.63197 Y0.38809
G01 X-4.63273 Y0.38871
G01 X-4.63335 Y0.38947
G01 X-4.63381 Y0.39033
G01 X-4.63410 Y0.39127
G01 X-4.63419 Y0.39224
G01 X-4.63419 Y0.42768
G01 X-4.63410 Y0.42865
G01 X-4.63381 Y0.42959
G01 X-4.63335 Y0.43046
G01 X-4.63273 Y0.43121
G01 X-4.63197 Y0.43183
G01 X-4.63111 Y0.43230
G01 X-4.63017 Y0.43258
G01 X-4.62919 Y0.43268
G01 X-4.58195 Y0.43268
G01 X-4.58097 Y0.43258
G01 X-4.58004 Y0.43230
G01 X-4.57917 Y0.43183
G01 X-4.57841 Y0.43121
G01 X-4.57779 Y0.43046
G01 X-4.57753 Y0.42996
G01 X-4.53361 Y0.42996
G01 X-4.53335 Y0.43046
G01 X-4.53273 Y0.43121
G01 X-4.53197 Y0.43183
G01 X-4.53111 Y0.43230
G01 X-4.53017 Y0.43258
G01 X-4.52919 Y0.43268
G01 X-4.48195 Y0.43268
G01 X-4.48097 Y0.43258
G01 X-4.48004 Y0.43230
G01 X-4.47917 Y0.43183
G01 X-4.47841 Y0.43121
G01 X-4.47779 Y0.43046
G01 X-4.47753 Y0.42996
G01 X-4.43419 Y0.42996
G01 X-4.43419 Y0.44776
G01 X-4.43410 Y0.44873
G01 X-4.43381 Y0.44967
G01 X-4.43335 Y0.45053
G01 X-4.43273 Y0.45129
G01 X-4.43197 Y0.45191
G01 X-4.43111 Y0.45238
G01 X-4.43017 Y0.45266
G01 X-4.42919 Y0.45276
G01 X-4.38195 Y0.45276
G01 X-4.38097 Y0.45266
G01 X-4.38004 Y0.45238
G01 X-4.37917 Y0.45191
G01 X-4.37841 Y0.45129
G01 X-4.37779 Y0.45053
G01 X-4.37753 Y0.45004
G01 X-4.33361 Y0.45004
G01 X-4.33335 Y0.45053
G01 X-4.33273 Y0.45129
G01 X-4.33197 Y0.45191
G01 X-4.33111 Y0.45238
G01 X-4.33017 Y0.45266
G01 X-4.32919 Y0.45276
G01 X-4.28195 Y0.45276
G01 X-4.28097 Y0.45266
G01 X-4.28004 Y0.45238
G01 X-4.27917 Y0.45191
G01 X-4.27841 Y0.45129
G01 X-4.27779 Y0.45053
G01 X-4.27753 Y0.45004
G01 X-4.23361 Y0.45004
G01 X-4.23335 Y0.45053
G01 X-4.23273 Y0.45129
G01 X-4.23197 Y0.45191
G01 X-4.23111 Y0.45238
G01 X-4.23017 Y0.45266
G01 X-4.22919 Y0.45276
G01 X-4.18195 Y0.45276
G01 X-4.18097 Y0.45266
G01 X-4.18004 Y0.45238
G01 X-4.17917 Y0.45191
G01 X-4.17841 Y0.45129
G01 X-4.17779 Y0.45053
G01 X-4.17753 Y0.45004
G01 X-4.13361 Y0.45004
G01 X-4.13335 Y0.45053
G01 X-4.13273 Y0.45129
G01 X-4.13197 Y0.45191
G01 X-4.13111 Y0.45238
G01 X-4.13017 Y0.45266
G01 X-4.12919 Y0.45276
G01 X-4.08195 Y0.45276
G01 X-4.08097 Y0.45266
G01 X-4.08004 Y0.45238
G01 X-4.07917 Y0.45191
G01 X-4.07841 Y0.45129
G01 X-4.07779 Y0.45053
G01 X-4.07753 Y0.45004
G01 X-4.03361 Y0.45004
G01 X-4.03335 Y0.45053
G01 X-4.03273 Y0.45129
G01 X-4.03197 Y0.45191
G01 X-4.03111 Y0.45238
G01 X-4.03017 Y0.45266
G01 X-4.02919 Y0.45276
G01 X-3.98195 Y0.45276
G01 X-3.98097 Y0.45266
G01 X-3.98004 Y0.45238
G01 X-3.97917 Y0.45191
G01 X-3.97841 Y0.45129
G01 X-3.97779 Y0.45053
G01 X-3.97753 Y0.45004
G01 X-3.83361 Y0.45004
G01 X-3.83335 Y0.45053
G01 X-3.83273 Y0.45129
G01 X-3.83197 Y0.45191
G01 X-3.83111 Y0.45238
G01 X-3.83017 Y0.45266
G01 X-3.82919 Y0.45276
G01 X-3.78195 Y0.45276
G01 X-3.78097 Y0.45266
G01 X-3.78004 Y0.45238
G01 X-3.77917 Y0.45191
G01 X-3.77841 Y0.45129
G01 X-3.77779 Y0.45053
G01 X-3.77733 Y0.44967
G01 X-3.77705 Y0.44873
G01 X-3.77695 Y0.44776
G01 X-3.77695 Y0.42970
G01 X-3.71581 Y0.36856
G01 X-3.71385 Y0.36915
G01 X-3.71289 Y0.36934
G01 X-3.70606 Y0.37002
G01 X-3.70557 Y0.37004
G01 X-3.70508 Y0.37002
G01 X-3.69825 Y0.36934
G01 X-3.69777 Y0.36927
G01 X-3.69729 Y0.36915
G01 X-3.69073 Y0.36716
G01 X-3.68982 Y0.36679
G01 X-3.68377 Y0.36355
G01 X-3.68335 Y0.36330
G01 X-3.68295 Y0.36301
G01 X-3.67765 Y0.35865
G01 X-3.67696 Y0.35796
G01 X-3.67260 Y0.35266
G01 X-3.67231 Y0.35226
G01 X-3.67206 Y0.35184
G01 X-3.66883 Y0.34579
G01 X-3.66845 Y0.34489
G01 X-3.66646 Y0.33832
G01 X-3.66627 Y0.33736
G01 X-3.66599 Y0.33455
G01 X-3.53361 Y0.33455
G01 X-3.53335 Y0.33505
G01 X-3.53273 Y0.33580
G01 X-3.53197 Y0.33643
G01 X-3.53111 Y0.33689
G01 X-3.53017 Y0.33717
G01 X-3.52919 Y0.33727
G01 X-3.48195 Y0.33727
G01 X-3.48097 Y0.33717
G01 X-3.48004 Y0.33689
G01 X-3.47917 Y0.33643
G01 X-3.47841 Y0.33580
G01 X-3.47783 Y0.33509
G01 X-3.43361 Y0.33509
G01 X-3.43335 Y0.33559
G01 X-3.43273 Y0.33634
G01 X-3.43197 Y0.33697
G01 X-3.43111 Y0.33743
G01 X-3.43017 Y0.33771
G01 X-3.42919 Y0.33781
G01 X-3.38195 Y0.33781
G01 X-3.38097 Y0.33771
G01 X-3.38004 Y0.33743
G01 X-3.37917 Y0.33697
G01 X-3.37841 Y0.33634
G01 X-3.37779 Y0.33559
G01 X-3.37753 Y0.33509
G01 X-3.33361 Y0.33509
G01 X-3.33335 Y0.33559
G01 X-3.33273 Y0.33634
G01 X-3.33197 Y0.33697
G01 X-3.33111 Y0.33743
G01 X-3.33017 Y0.33771
G01 X-3.32919 Y0.33781
G01 X-3.28195 Y0.33781
G01 X-3.28097 Y0.33771
G01 X-3.28004 Y0.33743
G01 X-3.27917 Y0.33697
G01 X-3.27841 Y0.33634
G01 X-3.27779 Y0.33559
G01 X-3.27753 Y0.33509
G01 X-3.23361 Y0.33509
G01 X-3.23335 Y0.33559
G01 X-3.23273 Y0.33634
G01 X-3.23197 Y0.33697
G01 X-3.23111 Y0.33743
G01 X-3.23017 Y0.33771
G01 X-3.22919 Y0.33781
G01 X-3.18195 Y0.33781
G01 X-3.18097 Y0.33771
G01 X-3.18004 Y0.33743
G01 X-3.17917 Y0.33697
G01 X-3.17841 Y0.33634
G01 X-3.17779 Y0.33559
G01 X-3.17753 Y0.33509
G01 X-3.13361 Y0.33509
G01 X-3.13335 Y0.33559
G01 X-3.13273 Y0.33634
G01 X-3.13197 Y0.33697
G01 X-3.13111 Y0.33743
G01 X-3.13017 Y0.33771
G01 X-3.12919 Y0.33781
G01 X-3.08195 Y0.33781
G01 X-3.08097 Y0.33771
G01 X-3.08004 Y0.33743
G01 X-3.07917 Y0.33697
G01 X-3.07841 Y0.33634
G01 X-3.07779 Y0.33559
G01 X-3.07753 Y0.33509
G01 X-3.03361 Y0.33509
G01 X-3.03335 Y0.33559
G01 X-3.03273 Y0.33634
G01 X-3.03197 Y0.33697
G01 X-3.03111 Y0.33743
G01 X-3.03017 Y0.33771
G01 X-3.02919 Y0.33781
G01 X-2.98195 Y0.33781
G01 X-2.98097 Y0.33771
G01 X-2.98004 Y0.33743
G01 X-2.97917 Y0.33697
G01 X-2.97841 Y0.33634
G01 X-2.97779 Y0.33559
G01 X-2.97753 Y0.33509
G01 X-2.93361 Y0.33509
G01 X-2.93335 Y0.33559
G01 X-2.93273 Y0.33634
G01 X-2.93197 Y0.33697
G01 X-2.93111 Y0.33743
G01 X-2.93017 Y0.33771
G01 X-2.92919 Y0.33781
G01 X-2.88195 Y0.33781
G01 X-2.88097 Y0.33771
G01 X-2.88004 Y0.33743
G01 X-2.87917 Y0.33697
G01 X-2.87841 Y0.33634
G01 X-2.87779 Y0.33559
G01 X-2.87753 Y0.33509
G01 X-2.83361 Y0.33509
G01 X-2.83335 Y0.33559
G01 X-2.83273 Y0.33634
G01 X-2.83197 Y0.33697
G01 X-2.83111 Y0.33743
G01 X-2.83017 Y0.33771
G01 X-2.82919 Y0.33781
G01 X-2.78195 Y0.33781
G01 X-2.78097 Y0.33771
G01 X-2.78004 Y0.33743
G01 X-2.77917 Y0.33697
G01 X-2.77841 Y0.33634
G01 X-2.77779 Y0.33559
G01 X-2.77753 Y0.33509
G01 X-2.69005 Y0.33509
G01 X-2.68908 Y0.33690
G01 X-2.68883 Y0.33732
G01 X-2.68854 Y0.33771
G01 X-2.68418 Y0.34301
G01 X-2.68349 Y0.34371
G01 X-2.67819 Y0.34806
G01 X-2.67779 Y0.34835
G01 X-2.67737 Y0.34861
G01 X-2.67132 Y0.35184
G01 X-2.67042 Y0.35221
G01 X-2.66385 Y0.35421
G01 X-2.66289 Y0.35440
G01 X-2.65606 Y0.35507
G01 X-2.65557 Y0.35509
G01 X-1.85205 Y0.35509
G01 X-0.24557 Y1.96157
G01 X-0.24557 Y2.07796
G01 X-0.24574 Y2.07841
G01 X-0.24813 Y2.08576
G01 X-0.24827 Y2.08627
G01 X-0.24835 Y2.08678
G01 X-0.24916 Y2.09448
G01 X-0.24919 Y2.09500
G01 X-0.24916 Y2.09552
G01 X-0.24835 Y2.10322
G01 X-0.24827 Y2.10373
G01 X-0.24813 Y2.10424
G01 X-0.24574 Y2.11159
G01 X-0.24555 Y2.11208
G01 X-0.24532 Y2.11255
G01 X-0.24145 Y2.11925
G01 X-0.24116 Y2.11969
G01 X-0.24083 Y2.12009
G01 X-0.23566 Y2.12584
G01 X-0.23529 Y2.12621
G01 X-0.23488 Y2.12654
G01 X-0.22862 Y2.13109
G01 X-0.22819 Y2.13137
G01 X-0.22772 Y2.13161
G01 X-0.22065 Y2.13476
G01 X-0.22016 Y2.13494
G01 X-0.21966 Y2.13508
G01 X-0.21209 Y2.13669
G01 X-0.21158 Y2.13677
G01 X-0.21105 Y2.13680
G01 X-0.20332 Y2.13680
G01 X-0.20280 Y2.13677
G01 X-0.20228 Y2.13669
G01 X-0.19471 Y2.13508
G01 X-0.19421 Y2.13494
G01 X-0.19372 Y2.13476
G01 X-0.18665 Y2.13161
G01 X-0.18619 Y2.13137
G01 X-0.18575 Y2.13109
G01 X-0.17949 Y2.12654
G01 X-0.17908 Y2.12621
G01 X-0.17871 Y2.12584
G01 X-0.17354 Y2.12009
G01 X-0.17321 Y2.11969
G01 X-0.17292 Y2.11925
G01 X-0.16905 Y2.11255
G01 X-0.16882 Y2.11208
G01 X-0.16863 Y2.11159
G01 X-0.16624 Y2.10424
G01 X-0.16610 Y2.10373
G01 X-0.16602 Y2.10322
G01 X-0.16521 Y2.09552
G01 X-0.16519 Y2.09500
G04 P0 ( dwell for no time -- G64 should not smooth over this point )
G00 Z0.05000 ( retract )

G00 X-0.00500 Y1.80557 ( rapid move to begin. )
G01 F100.00000
( Mill infeed pass 1/1 )
G01 Z-0.05000
G04 P0 ( dwell for no time -- G64 should not smooth over this point )
G01 F1000.00000
G01 X-0.00500 Y1.80557
G01 X-0.00500 Y2.08443
G01 X-0.00501 Y2.08482
G01 X-0.00545 Y2.09030
G01 X-0.00557 Y2.09107
G01 X-0.00685 Y2.09641
G01 X-0.00709 Y2.09716
G01 X-0.00919 Y2.10223
G01 X-0.00955 Y2.10293
G01 X-0.01242 Y2.10761
G01 X-0.01288 Y2.10825
G01 X-0.01645 Y2.11243
G01 X-0.01671 Y2.11271
G01 X-0.12729 Y2.22328
G01 X-0.12765 Y2.22361
G01 X-0.13295 Y2.22797
G01 X-0.13377 Y2.22851
G01 X-0.13982 Y2.23175
G01 X-0.14073 Y2.23212
G01 X-0.14729 Y2.23411
G01 X-0.14825 Y2.23430
G01 X-0.15508 Y2.23498
G01 X-0.15557 Y2.23500
G01 X-0.30557 Y2.23500
G01 X-0.30606 Y2.23498
G01 X-0.31289 Y2.23430
G01 X-0.31385 Y2.23411
G01 X-0.32042 Y2.23212
G01 X-0.32088 Y2.23196
G01 X-0.32132 Y2.23175
G01 X-0.32737 Y2.22851
G01 X-0.32819 Y2.22797
G01 X-0.33349 Y2.22361
G01 X-0.33386 Y2.22328
G01 X-0.42052 Y2.13662
G01 X-0.50800 Y2.22410
G01 X-0.50837 Y2.22443
G01 X-0.51064 Y2.22630
G01 X-0.51146 Y2.22684
G01 X-0.51405 Y2.22823
G01 X-0.51449 Y2.22844
G01 X-0.51495 Y2.22860
G01 X-0.51777 Y2.22946
G01 X-0.51873 Y2.22965
G01 X-0.52166 Y2.22994
G01 X-0.52215 Y2.22996
G01 X-0.92753 Y2.22996
G01 X-0.92779 Y2.23046
G01 X-0.92841 Y2.23121
G01 X-0.92917 Y2.23183
G01 X-0.93004 Y2.23230
G01 X-0.93097 Y2.23258
G01 X-0.93195 Y2.23268
G01 X-0.97919 Y2.23268
G01 X-0.98017 Y2.23258
G01 X-0.98111 Y2.23230
G01 X-0.98197 Y2.23183
G01 X-0.98273 Y2.23121
G01 X-0.98335 Y2.23046
G01 X-0.98361 Y2.22996
G01 X-1.42753 Y2.22996
G01 X-1.42779 Y2.23046
G01 X-1.42841 Y2.23121
G01 X-1.42917 Y2.23183
G01 X-1.43004 Y2.23230
G01 X-1.43097 Y2.23258
G01 X-1.43195 Y2.23268
G01 X-1.47919 Y2.23268
G01 X-1.48017 Y2.23258
G01 X-1.48111 Y2.23230
G01 X-1.48197 Y2.23183
G01 X-1.48273 Y2.23121
G01 X-1.48335 Y2.23046
G01 X-1.48361 Y2.22996
G01 X-1.72753 Y2.22996
G01 X-1.72779 Y2.23046
G01 X-1.72841 Y2.23121
G01 X-1.72917 Y2.23183
G01 X-1.73004 Y2.23230
G01 X-1.73097 Y2.23258
G01 X-1.73195 Y2.23268
G01 X-1.77919 Y2.23268
G01 X-1.78017 Y2.23258
G01 X-1.78111 Y2.23230
G01 X-1.78197 Y2.23183
G01 X-1.78273 Y2.23121
G01 X-1.78335 Y2.23046
G01 X-1.78361 Y2.22996
G01 X-2.02753 Y2.22996
G01 X-2.02779 Y2.23046
G01 X-2.02841 Y2.23121
G01 X-2.02917 Y2.23183
G01 X-2.03004 Y2.23230
G01 X-2.03097 Y2.23258
G01 X-2.03195 Y2.23268
G01 X-2.07919 Y2.23268
G01 X-2.08017 Y2.23258
G01 X-2.08111 Y2.23230
G01 X-2.08197 Y2.23183
G01 X-2.08273 Y2.23121
G01 X-2.08335 Y2.23046
G01 X-2.08361 Y2.22996
G01 X-2.32753 Y2.22996
G01 X-2.32779 Y2.23046
G01 X-2.32841 Y2.23121
G01 X-2.32917 Y2.23183
G01 X-2.33004 Y2.23230
G01 X-2.33097 Y2.23258
G01 X-2.33195 Y2.23268
G01 X-2.37919 Y2.23268
G01 X-2.38017 Y2.23258
G01 X-2.38111 Y2.23230
G01 X-2.38197 Y2.23183
G01 X-2.38273 Y2.23121
G01 X-2.38335 Y2.23046
G01 X-2.38361 Y2.22996
G01 X-2.62753 Y2.22996
G01 X-2.62779 Y2.23046
G01 X-2.62841 Y2.23121
G01 X-2.62917 Y2.23183
G01 X-2.63004 Y2.23230
G01 X-2.63097 Y2.23258
G01 X-2.63195 Y2.23268
G01 X-2.67919 Y2.23268
G01 X-2.68017 Y2.23258
G01 X-2.68111 Y2.23230
G01 X-2.68197 Y2.23183
G01 X-2.68273 Y2.23121
G01 X-2.68335 Y2.23046
G01 X-2.68361 Y2.22996
G01 X-2.92753 Y2.22996
G01 X-2.92779 Y2.23046
G01 X-2.92841 Y2.23121
G01 X-2.92917 Y2.23183
G01 X-2.93004 Y2.23230
G01 X-2.93097 Y2.23258
G01 X-2.93195 Y2.23268
G01 X-2.97919 Y2.23268
G01 X-2.98017 Y2.23258
G01 X-2.98111 Y2.23230
G01 X-2.98197 Y2.23183
G01 X-2.98273 Y2.23121
G01 X-2.98335 Y2.23046
G01 X-2.98361 Y2.22996
G01 X-3.22753 Y2.22996
G01 X-3.22779 Y2.23046
G01 X-3.22841 Y2.23121
G01 X-3.22917 Y2.23183
G01 X-3.23004 Y2.23230
G01 X-3.23097 Y2.23258
G01 X-3.23195 Y2.23268
G01 X-3.27919 Y2.23268
G01 X-3.28017 Y2.23258
G01 X-3.28111 Y2.23230
G01 X-3.28197 Y2.23183
G01 X-3.28273 Y2.23121
G01 X-3.28335 Y2.23046
G01 X-3.28361 Y2.22996
G01 X-3.52753 Y2.22996
G01 X-3.52779 Y2.23046
G01 X-3.52841 Y2.23121
G01 X-3.52917 Y2.23183
G01 X-3.53004 Y2.23230
G01 X-3.53097 Y2.23258
G01 X-3.53195 Y2.23268
G01 X-3.57919 Y2.23268
G01 X-3.58017 Y2.23258
G01 X-3.58111 Y2.23230
G01 X-3.58197 Y2.23183
G01 X-3.58273 Y2.23121
G01 X-3.58335 Y2.23046
G01 X-3.58361 Y2.22996
G01 X-3.82753 Y2.22996
G01 X-3.82779 Y2.23046
G01 X-3.82841 Y2.23121
G01 X-3.82917 Y2.23183
G01 X-3.83004 Y2.23230
G01 X-3.83097 Y2.23258
G01 X-3.83195 Y2.23268
G01 X-3.87919 Y2.23268
G01 X-3.88017 Y2.23258
G01 X-3.88111 Y2.23230
G01 X-3.88197 Y2.23183
G01 X-3.88273 Y2.23121
G01 X-3.88335 Y2.23046
G01 X-3.88361 Y2.22996
G01 X-4.12753 Y2.22996
G01 X-4.12779 Y2.23046
G01 X-4.12841 Y2.23121
G01 X-4.12917 Y2.23183
G01 X-4.13004 Y2.23230
G01 X-4.13097 Y2.23258
G01 X-4.13195 Y2.23268
G01 X-4.17919 Y2.23268
G01 X-4.18017 Y2.23258
G01 X-4.18111 Y2.23230
G01 X-4.18197 Y2.23183
G01 X-4.18273 Y2.23121
G01 X-4.18335 Y2.23046
G01 X-4.18361 Y2.22996
G01 X-4.42753 Y2.22996
G01 X-4.42779 Y2.23046
G01 X-4.42841 Y2.23121
G01 X-4.42917 Y2.23183
G01 X-4.43004 Y2.23230
G01 X-4.43097 Y2.23258
G01 X-4.43195 Y2.23268
G01 X-4.47919 Y2.23268
G01 X-4.48017 Y2.23258
G01 X-4.48111 Y2.23230
G01 X-4.48197 Y2.23183
G01 X-4.48273 Y2.23121
G01 X-4.48335 Y2.23046
G01 X-4.48361 Y2.22996
G01 X-4.72753 Y2.22996
G01 X-4.72779 Y2.23046
G01 X-4.72841 Y2.23121
G01 X-4.72917 Y2.23183
G01 X-4.73004 Y2.23230
G01 X-4.73097 Y2.23258
G01 X-4.73195 Y2.23268
G01 X-4.77919 Y2.23268
G01 X-4.78017 Y2.23258
G01 X-4.78111 Y2.23230
G01 X-4.78197 Y2.23183
G01 X-4.78273 Y2.23121
G01 X-4.78335 Y2.23046
G01 X-4.78361 Y2.22996
G01 X-5.02753 Y2.22996
G01 X-5.02779 Y2.23046
G01 X-5.02841 Y2.23121
G01 X-5.02917 Y2.23183
G01 X-5.03004 Y2.23230
G01 X-5.03097 Y2.23258
G01 X-5.03195 Y2.23268
G01 X-5.07919 Y2.23268
G01 X-5.08017 Y2.23258
G01 X-5.08111 Y2.23230
G01 X-5.08197 Y2.23183
G01 X-5.08273 Y2.23121
G01 X-5.08335 Y2.23046
G01 X-5.08361 Y2.22996
G01 X-5.32753 Y2.22996
G01 X-5.32779 Y2.23046
G01 X-5.32841 Y2.23121
G01 X-5.32917 Y2.23183
G01 X-5.33004 Y2.23230
G01 X-5.33097 Y2.23258
G01 X-5.33195 Y2.23268
G01 X-5.37919 Y2.23268
G01 X-5.38017 Y2.23258
G01 X-5.38111 Y2.23230
G01 X-5.38197 Y2.23183
G01 X-5.38273 Y2.23121
G01 X-5.38335 Y2.23046
G01 X-5.38361 Y2.22996
G01 X-5.62753 Y2.22996
G01 X-5.62779 Y2.23046
G01 X-5.62841 Y2.23121
G01 X-5.62917 Y2.23183
G01 X-5.63003 Y2.23230
G01 X-5.63097 Y2.23258
G01 X-5.63195 Y2.23268
G01 X-5.67919 Y2.23268
G01 X-5.68017 Y2.23258
G01 X-5.68111 Y2.23230
G01 X-5.68197 Y2.23183
G01 X-5.68273 Y2.23121
G01 X-5.68335 Y2.23046
G01 X-5.68361 Y2.22996
G01 X-5.92753 Y2.22996
G01 X-5.92779 Y2.23046
G01 X-5.92841 Y2.23121
G01 X-5.92917 Y2.23183
G01 X-5.93004 Y2.23230
G01 X-5.93097 Y2.23258
G01 X-5.93195 Y2.23268
G01 X-5.97919 Y2.23268
G01 X-5.98017 Y2.23258
G01 X-5.98111 Y2.23230
G01 X-5.98197 Y2.23183
G01 X-5.98273 Y2.23121
G01 X-5.98335 Y2.23046
G01 X-5.98361 Y2.22996
G01 X-6.22753 Y2.22996
G01 X-6.22779 Y2.23046
G01 X-6.22841 Y2.23121
G01 X-6.22917 Y2.23183
G01 X-6.23004 Y2.23230
G01 X-6.23097 Y2.23258
G01 X-6.23195 Y2.23268
G01 X-6.27919 Y2.23268
G01 X-6.28017 Y2.23258
G01 X-6.28111 Y2.23230
G01 X-6.28197 Y2.23183
G01 X-6.28273 Y2.23121
G01 X-6.28335 Y2.23046
G01 X-6.28381 Y2.22959
G01 X-6.28410 Y2.22865
G01 X-6.28419 Y2.22768
G01 X-6.28419 Y2.19224
G01 X-6.28410 Y2.19127
G01 X-6.28381 Y2.19033
G01 X-6.28335 Y2.18947
G01 X-6.28273 Y2.18871
G01 X-6.28197 Y2.18809
G01 X-6.28111 Y2.18762
G01 X-6.28017 Y2.18734
G01 X-6.27919 Y2.18724
G01 X-6.23195 Y2.18724
G01 X-6.23097 Y2.18734
G01 X-6.23004 Y2.18762
G01 X-6.22917 Y2.18809
G01 X-6.22841 Y2.18871
G01 X-6.22779 Y2.18947
G01 X-6.22753 Y2.18996
G01 X-5.98361 Y2.18996
G01 X-5.98335 Y2.18947
G01 X-5.98273 Y2.18871
G01 X-5.98197 Y2.18809
G01 X-5.98111 Y2.18762
G01 X-5.98017 Y2.18734
G01 X-5.97919 Y2.18724
G01 X-5.93195 Y2.18724
G01 X-5.93097 Y2.18734
G01 X-5.93004 Y2.18762
G01 X-5.92917 Y2.18809
G01 X-5.92841 Y2.18871
G01 X-5.92779 Y2.18947
G01 X-5.92753 Y2.18996
G01 X-5.68361 Y2.18996
G01 X-5.68335 Y2.18947
G01 X-5.68273 Y2.18871
G01 X-5.68197 Y2.18809
G01 X-5.68111 Y2.18762
G01 X-5.68017 Y2.18734
G01 X-5.67919 Y2.18724
G01 X-5.63195 Y2.18724
G01 X-5.63097 Y2.18734
G01 X-5.63003 Y2.18762
G01 X-5.62917 Y2.18809
G01 X-5.62841 Y2.18871
G01 X-5.62779 Y2.18947
G01 X-5.62753 Y2.18996
G01 X-5.38361 Y2.18996
G01 X-5.38335 Y2.18947
G01 X-5.38273 Y2.18871
G01 X-5.38197 Y2.18809
G01 X-5.38111 Y2.18762
G01 X-5.38017 Y2.18734
G01 X-5.37919 Y2.18724
G01 X-5.33195 Y2.18724
G01 X-5.33097 Y2.18734
G01 X-5.33004 Y2.18762
G01 X-5.32917 Y2.18809
G01 X-5.32841 Y2.18871
G01 X-5.32779 Y2.18947
G01 X-5.32753 Y2.18996
G01 X-5.08361 Y2.18996
G01 X-5.08335 Y2.18947
G01 X-5.08273 Y2.18871
G01 X-5.08197 Y2.18809
G01 X-5.08111 Y2.18762
G01 X-5.08017 Y2.18734
G01 X-5.07919 Y2.18724
G01 X-5.03195 Y2.18724
G01 X-5.03097 Y2.18734
G01 X-5.03004 Y2.18762
G01 X-5.02917 Y2.18809
G01 X-5.02841 Y2.18871
G01 X-5.02779 Y2.18947
G01 X-5.02753 Y2.18996
G01 X-4.78361 Y2.18996
G01 X-4.78335 Y2.18947
G01 X-4.78273 Y2.18871
G01 X-4.78197 Y2.18809
G01 X-4.78111 Y2.18762
G01 X-4.78017 Y2.18734
G01 X-4.77919 Y2.18724
G01 X-4.73195 Y2.18724
G01 X-4.73097 Y2.18734
G01 X-4.73004 Y2.18762
G01 X-4.72917 Y2.18809
G01 X-4.72841 Y2.18871
G01 X-4.72779 Y2.18947
G01 X-4.72753 Y2.18996
G01 X-4.48361 Y2.18996
G01 X-4.48335 Y2.18947
G01 X-4.48273 Y2.18871
G01 X-4.48197 Y2.18809
G01 X-4.48111 Y2.18762
G01 X-4.48017 Y2.18734
G01 X-4.47919 Y2.18724
G01 X-4.43195 Y2.18724
G01 X-4.43097 Y2.18734
G01 X-4.43004 Y2.18762
G01 X-4.42917 Y2.18809
G01 X-4.42841 Y2.18871
G01 X-4.42779 Y2.18947
G01 X-4.42753 Y2.18996
G01 X-4.18361 Y2.18996
G01 X-4.18335 Y2.18947
G01 X-4.18273 Y2.18871
G01 X-4.18197 Y2.18809
G01 X-4.18111 Y2.18762
G01 X-4.18017 Y2.18734
G01 X-4.17919 Y2.18724
G01 X-4.13195 Y2.18724
G01 X-4.13097 Y2.18734
G01 X-4.13004 Y2.18762
G01 X-4.12917 Y2.18809
G01 X-4.12841 Y2.18871
G01 X-4.12779 Y2.18947
G01 X-4.12753 Y2.18996
G01 X-3.88361 Y2.18996
G01 X-3.88335 Y2.18947
G01 X-3.88273 Y2.18871
G01 X-3.88197 Y2.18809
G01 X-3.88111 Y2.18762
G01 X-3.88017 Y2.18734
G01 X-3.87919 Y2.18724
G01 X-3.83195 Y2.18724
G01 X-3.83097 Y2.18734
G01 X-3.83004 Y2.18762
G01 X-3.82917 Y2.18809
G01 X-3.82841 Y2.18871
G01 X-3.82779 Y2.18947
G01 X-3.82753 Y2.18996
G01 X-3.58361 Y2.18996
G01 X-3.58335 Y2.18947
G01 X-3.58273 Y2.18871
G01 X-3.58197 Y2.18809
G01 X-3.58111 Y2.18762
G01 X-3.58017 Y2.18734
G01 X-3.57919 Y2.18724
G01 X-3.53195 Y2.18724
G01 X-3.53097 Y2.18734
G01 X-3.53004 Y2.18762
G01 X-3.52917 Y2.18809
G01 X-3.52841 Y2.18871
G01 X-3.52779 Y2.18947
G01 X-3.52753 Y2.18996
G01 X-3.28361 Y2.18996
G01 X-3.28335 Y2.18947
G01 X-3.28273 Y2.18871
G01 X-3.28197 Y2.18809
G01 X-3.28111 Y2.18762
G01 X-3.28017 Y2.18734
G01 X-3.27919 Y2.18724
G01 X-3.23195 Y2.18724
G01 X-3.23097 Y2.18734
G01 X-3.23004 Y2.18762
G01 X-3.22917 Y2.18809
G01 X-3.22841 Y2.18871
G01 X-3.22779 Y2.18947
G01 X-3.22753 Y2.18996
G01 X-2.98361 Y2.18996
G01 X-2.98335 Y2.18947
G01 X-2.98273 Y2.18871
G01 X-2.98197 Y2.18809
G01 X-2.98111 Y2.18762
G01 X-2.98017 Y2.18734
G01 X-2.97919 Y2.18724
G01 X-2.93195 Y2.18724
G01 X-2.93097 Y2.18734
G01 X-2.93004 Y2.18762
G01 X-2.92917 Y2.18809
G01 X-2.92841 Y2.18871
G01 X-2.92779 Y2.18947
G01 X-2.92753 Y2.18996
G01 X-2.68361 Y2.18996
G01 X-2.68335 Y2.18947
G01 X-2.68273 Y2.18871
G01 X-2.68197 Y2.18809
G01 X-2.68111 Y2.18762
G01 X-2.68017 Y2.18734
G01 X-2.67919 Y2.18724
G01 X-2.63195 Y2.18724
G01 X-2.63097 Y2.18734
G01 X-2.63004 Y2.18762
G01 X-2.62917 Y2.18809
G01 X-2.62841 Y2.18871
G01 X-2.62779 Y2.18947
G01 X-2.62753 Y2.18996
G01 X-2.38361 Y2.18996
G01 X-2.38335 Y2.18947
G01 X-2.38273 Y2.18871
G01 X-2.38197 Y2.18809
G01 X-2.38111 Y2.18762
G01 X-2.38017 Y2.18734
G01 X-2.37919 Y2.18724
G01 X-2.33195 Y2.18724
G01 X-2.33097 Y2.18734
G01 X-2.33004 Y2.18762
G01 X-2.32917 Y2.18809
G01 X-2.32841 Y2.18871
G01 X-2.32779 Y2.18947
G01 X-2.32753 Y2.18996
G01 X-2.08361 Y2.18996
G01 X-2.08335 Y2.18947
G01 X-2.08273 Y2.18871
G01 X-2.08197 Y2.18809
G01 X-2.08111 Y2.18762
G01 X-2.08017 Y2.18734
G01 X-2.07919 Y2.18724
G01 X-2.03195 Y2.18724
G01 X-2.03097 Y2.18734
G01 X-2.03004 Y2.18762
G01 X-2.02917 Y2.18809
G01 X-2.02841 Y2.18871
G01 X-2.02779 Y2.18947
G01 X-2.02753 Y2.18996
G01 X-1.78361 Y2.18996
G01 X-1.78335 Y2.18947
G01 X-1.78273 Y2.18871
G01 X-1.78197 Y2.18809
G01 X-1.78111 Y2.18762
G01 X-1.78017 Y2.18734
G01 X-1.77919 Y2.18724
G01 X-1.73195 Y2.18724
G01 X-1.73097 Y2.18734
G01 X-1.73004 Y2.18762
G01 X-1.72917 Y2.18809
G01 X-1.72841 Y2.18871
G01 X-1.72779 Y2.18947
G01 X-1.72753 Y2.18996
G01 X-1.48361 Y2.18996
G01 X-1.48335 Y2.18947
G01 X-1.48273 Y2.18871
G01 X-1.48197 Y2.18809
G01 X-1.48111 Y2.18762
G01 X-1.48017 Y2.18734
G01 X-1.47919 Y2.18724
G01 X-1.43195 Y2.18724
G01 X-1.43097 Y2.18734
G01 X-1.43004 Y2.18762
G01 X-1.42917 Y2.18809
G01 X-1.42841 Y2.18871
G01 X-1.42779 Y2.18947
G01 X-1.42753 Y2.18996
G01 X-0.98362 Y2.18996
G01 X-0.98335 Y2.18947
G01 X-0.98273 Y2.18871
G01 X-0.98197 Y2.18809
G01 X-0.98111 Y2.18762
G01 X-0.98017 Y2.18734
G01 X-0.97919 Y2.18724
G01 X-0.93195 Y2.18724
G01 X-0.93097 Y2.18734
G01 X-0.93004 Y2.18762
G01 X-0.92917 Y2.18809
G01 X-0.92841 Y2.18871
G01 X-0.92779 Y2.18947
G01 X-0.92753 Y2.18996
G01 X-0.53043 Y2.18996
G01 X-0.44729 Y2.10682
G01 X-0.44813 Y2.10424
G01 X-0.44827 Y2.10373
G01 X-0.44835 Y2.10322
G01 X-0.44916 Y2.09552
G01 X-0.44919 Y2.09500
G01 X-0.44916 Y2.09448
G01 X-0.44835 Y2.08678
G01 X-0.44827 Y2.08627
G01 X-0.44813 Y2.08576
G01 X-0.44574 Y2.07841
G01 X-0.44555 Y2.07792
G01 X-0.44532 Y2.07745
G01 X-0.44145 Y2.07075
G01 X-0.44116 Y2.07031
G01 X-0.44083 Y2.06991
G01 X-0.43566 Y2.06416
G01 X-0.43529 Y2.06379
G01 X-0.43488 Y2.06346
G01 X-0.42862 Y2.05891
G01 X-0.42819 Y2.05863
G01 X-0.42772 Y2.05839
G01 X-0.42065 Y2.05524
G01 X-0.42016 Y2.05506
G01 X-0.41966 Y2.05492
G01 X-0.41209 Y2.05331
G01 X-0.41158 Y2.05323
G01 X-0.41105 Y2.05320
G01 X-0.40332 Y2.05320
G01 X-0.40280 Y2.05323
G01 X-0.40228 Y2.05331
G01 X-0.39471 Y2.05492
G01 X-0.39421 Y2.05506
G01 X-0.39372 Y2.05524
G01 X-0.38665 Y2.05839
G01 X-0.38619 Y2.05863
G01 X-0.38575 Y2.05891
G01 X-0.37949 Y2.06346
G01 X-0.37908 Y2.06379
G01 X-0.37871 Y2.06416
G01 X-0.37354 Y2.06991
G01 X-0.37321 Y2.07031
G01 X-0.37292 Y2.07075
G01 X-0.37247 Y2.07153
G01 X-0.28900 Y2.15500
G01 X-0.17214 Y2.15500
G01 X-0.08500 Y2.06786
G01 X-0.08500 Y1.82214
G01 X-1.72214 Y0.18500
G01 X-2.30557 Y0.18500
G01 X-2.30606 Y0.18498
G01 X-2.31289 Y0.18430
G01 X-2.31385 Y0.18411
G01 X-2.32042 Y0.18212
G01 X-2.32132 Y0.18175
G01 X-2.32179 Y0.18150
G01 X-2.33707 Y0.18150
G01 X-2.33804 Y0.18140
G01 X-2.33898 Y0.18112
G01 X-2.33984 Y0.18065
G01 X-2.34060 Y0.18003
G01 X-2.34122 Y0.17927
G01 X-2.34169 Y0.17841
G01 X-2.34197 Y0.17747
G01 X-2.34207 Y0.17650
G01 X-2.34207 Y0.16122
G01 X-2.34232 Y0.16075
G01 X-2.34269 Y0.15985
G01 X-2.34468 Y0.15328
G01 X-2.34487 Y0.15232
G01 X-2.34555 Y0.14549
G01 X-2.34557 Y0.14500
G01 X-2.34555 Y0.14451
G01 X-2.34487 Y0.13768
G01 X-2.34468 Y0.13672
G01 X-2.34269 Y0.13015
G01 X-2.34232 Y0.12925
G01 X-2.34207 Y0.12878
G01 X-2.34207 Y0.11350
G01 X-2.34197 Y0.11253
G01 X-2.34169 Y0.11159
G01 X-2.34122 Y0.11073
G01 X-2.34060 Y0.10997
G01 X-2.33984 Y0.10935
G01 X-2.33898 Y0.10888
G01 X-2.33804 Y0.10860
G01 X-2.33707 Y0.10850
G01 X-2.32179 Y0.10850
G01 X-2.32132 Y0.10825
G01 X-2.32042 Y0.10788
G01 X-2.31385 Y0.10589
G01 X-2.31289 Y0.10570
G01 X-2.30606 Y0.10502
G01 X-2.30557 Y0.10500
G01 X-1.70557 Y0.10500
G01 X-1.70508 Y0.10502
G01 X-1.69825 Y0.10570
G01 X-1.69729 Y0.10589
G01 X-1.69073 Y0.10788
G01 X-1.68982 Y0.10825
G01 X-1.68377 Y0.11149
G01 X-1.68335 Y0.11174
G01 X-1.68295 Y0.11203
G01 X-1.67765 Y0.11639
G01 X-1.67729 Y0.11672
G01 X-0.01671 Y1.77729
G01 X-0.01639 Y1.77765
G01 X-0.01203 Y1.78296
G01 X-0.01149 Y1.78377
G01 X-0.00825 Y1.78982
G01 X-0.00804 Y1.79026
G01 X-0.00788 Y1.79073
G01 X-0.00589 Y1.79729
G01 X-0.00577 Y1.79777
G01 X-0.00570 Y1.79826
G01 X-0.00502 Y1.80508
G01 X-0.00500 Y1.80557
G04 P0 ( dwell for no time -- G64 should not smooth over this point )
G00 Z0.05000 ( retract )

G00 X-0.56466 Y2.09500 ( rapid move to begin. )
G01 F100.00000
( Mill infeed pass 1/1 )
G01 Z-0.05000
G04 P0 ( dwell for no time -- G64 should not smooth over this point )
G01 F1000.00000
G01 X-0.56466 Y2.09500
G01 X-0.56468 Y2.09448
G01 X-0.56549 Y2.08678
G01 X-0.56557 Y2.08627
G01 X-0.56571 Y2.08576
G01 X-0.56810 Y2.07841
G01 X-0.56829 Y2.07792
G01 X-0.56852 Y2.07745
G01 X-0.57239 Y2.07075
G01 X-0.57268 Y2.07031
G01 X-0.57301 Y2.06991
G01 X-0.57818 Y2.06416
G01 X-0.57855 Y2.06379
G01 X-0.57896 Y2.06346
G01 X-0.58522 Y2.05891
G01 X-0.58566 Y2.05863
G01 X-0.58612 Y2.05839
G01 X-0.59319 Y2.05524
G01 X-0.59368 Y2.05506
G01 X-0.59418 Y2.05492
G01 X-0.60175 Y2.05331
G01 X-0.60226 Y2.05323
G01 X-0.60279 Y2.05320
G01 X-0.61052 Y2.05320
G01 X-0.61105 Y2.05323
G01 X-0.61156 Y2.05331
G01 X-0.61913 Y2.05492
G01 X-0.61943 Y2.05500
G01 X-0.76557 Y2.05500
G01 X-0.76557 Y1.64500
G01 X-0.76560 Y1.64451
G01 X-0.76627 Y1.63768
G01 X-0.76634 Y1.63720
G01 X-0.76646 Y1.63672
G01 X-0.76845 Y1.63015
G01 X-0.76862 Y1.62969
G01 X-0.76883 Y1.62925
G01 X-0.77206 Y1.62320
G01 X-0.77260 Y1.62238
G01 X-0.77696 Y1.61708
G01 X-0.77729 Y1.61672
G01 X-1.95920 Y0.43481
G01 X-1.95956 Y0.43448
G01 X-1.96486 Y0.43012
G01 X-1.96526 Y0.42983
G01 X-1.96568 Y0.42958
G01 X-1.97173 Y0.42634
G01 X-1.97264 Y0.42597
G01 X-1.97920 Y0.42398
G01 X-1.98016 Y0.42379
G01 X-1.98699 Y0.42312
G01 X-1.98748 Y0.42309
G01 X-2.66820 Y0.42309
G01 X-2.66869 Y0.42312
G01 X-2.67552 Y0.42379
G01 X-2.67648 Y0.42398
G01 X-2.68305 Y0.42597
G01 X-2.68395 Y0.42634
G01 X-2.69000 Y0.42958
G01 X-2.69082 Y0.43012
G01 X-2.69612 Y0.43448
G01 X-2.69649 Y0.43481
G01 X-2.78478 Y0.52310
G01 X-2.78478 Y0.46773
G01 X-2.78195 Y0.46773
G01 X-2.78097 Y0.46763
G01 X-2.78004 Y0.46735
G01 X-2.77917 Y0.46689
G01 X-2.77841 Y0.46627
G01 X-2.77779 Y0.46551
G01 X-2.77733 Y0.46464
G01 X-2.77705 Y0.46371
G01 X-2.77695 Y0.46273
G01 X-2.77695 Y0.42730
G01 X-2.77705 Y0.42632
G01 X-2.77733 Y0.42538
G01 X-2.77779 Y0.42452
G01 X-2.77841 Y0.42376
G01 X-2.77917 Y0.42314
G01 X-2.78004 Y0.42268
G01 X-2.78097 Y0.42239
G01 X-2.78195 Y0.42230
G01 X-2.82919 Y0.42230
G01 X-2.83017 Y0.42239
G01 X-2.83111 Y0.42268
G01 X-2.83197 Y0.42314
G01 X-2.83273 Y0.42376
G01 X-2.83335 Y0.42452
G01 X-2.83381 Y0.42538
G01 X-2.83410 Y0.42632
G01 X-2.83419 Y0.42730
G01 X-2.83419 Y0.46273
G01 X-2.83410 Y0.46371
G01 X-2.83381 Y0.46464
G01 X-2.83335 Y0.46551
G01 X-2.83273 Y0.46627
G01 X-2.83197 Y0.46689
G01 X-2.83111 Y0.46735
G01 X-2.83017 Y0.46763
G01 X-2.82919 Y0.46773
G01 X-2.82478 Y0.46773
G01 X-2.82478 Y0.56310
G01 X-2.83386 Y0.57217
G01 X-2.83412 Y0.57246
G01 X-2.83769 Y0.57664
G01 X-2.83815 Y0.57727
G01 X-2.84102 Y0.58196
G01 X-2.84138 Y0.58265
G01 X-2.84348 Y0.58773
G01 X-2.84372 Y0.58848
G01 X-2.84500 Y0.59382
G01 X-2.84512 Y0.59459
G01 X-2.84556 Y0.60007
G01 X-2.84557 Y0.60046
G01 X-2.84557 Y0.74500
G01 X-2.84555 Y0.74549
G01 X-2.84487 Y0.75232
G01 X-2.84480 Y0.75280
G01 X-2.84468 Y0.75328
G01 X-2.84269 Y0.75985
G01 X-2.84232 Y0.76075
G01 X-2.83908 Y0.76680
G01 X-2.83883 Y0.76722
G01 X-2.83854 Y0.76762
G01 X-2.83418 Y0.77292
G01 X-2.83349 Y0.77361
G01 X-2.82819 Y0.77797
G01 X-2.82779 Y0.77826
G01 X-2.82737 Y0.77851
G01 X-2.82132 Y0.78175
G01 X-2.82042 Y0.78212
G01 X-2.81385 Y0.78411
G01 X-2.81289 Y0.78430
G01 X-2.80606 Y0.78498
G01 X-2.80557 Y0.78500
G01 X-2.80508 Y0.78498
G01 X-2.79825 Y0.78430
G01 X-2.79777 Y0.78423
G01 X-2.79729 Y0.78411
G01 X-2.79073 Y0.78212
G01 X-2.78982 Y0.78175
G01 X-2.78377 Y0.77851
G01 X-2.78335 Y0.77826
G01 X-2.78295 Y0.77797
G01 X-2.77765 Y0.77361
G01 X-2.77696 Y0.77292
G01 X-2.77260 Y0.76762
G01 X-2.77231 Y0.76722
G01 X-2.77206 Y0.76680
G01 X-2.76883 Y0.76075
G01 X-2.76845 Y0.75985
G01 X-2.76646 Y0.75328
G01 X-2.76627 Y0.75232
G01 X-2.76560 Y0.74549
G01 X-2.76557 Y0.74500
G01 X-2.76557 Y0.61703
G01 X-2.65163 Y0.50309
G01 X-2.00405 Y0.50309
G01 X-0.84557 Y1.66157
G01 X-0.84557 Y2.06004
G01 X-0.92753 Y2.06004
G01 X-0.92779 Y2.05954
G01 X-0.92841 Y2.05879
G01 X-0.92917 Y2.05817
G01 X-0.93004 Y2.05770
G01 X-0.93097 Y2.05742
G01 X-0.93195 Y2.05732
G01 X-0.97919 Y2.05732
G01 X-0.98017 Y2.05742
G01 X-0.98111 Y2.05770
G01 X-0.98197 Y2.05817
G01 X-0.98273 Y2.05879
G01 X-0.98335 Y2.05954
G01 X-0.98381 Y2.06041
G01 X-0.98410 Y2.06135
G01 X-0.98419 Y2.06232
G01 X-0.98419 Y2.09776
G01 X-0.98410 Y2.09873
G01 X-0.98381 Y2.09967
G01 X-0.98335 Y2.10053
G01 X-0.98273 Y2.10129
G01 X-0.98197 Y2.10191
G01 X-0.98111 Y2.10238
G01 X-0.98017 Y2.10266
G01 X-0.97919 Y2.10276
G01 X-0.93195 Y2.10276
G01 X-0.93097 Y2.10266
G01 X-0.93004 Y2.10238
G01 X-0.92917 Y2.10191
G01 X-0.92841 Y2.10129
G01 X-0.92779 Y2.10053
G01 X-0.92753 Y2.10004
G01 X-0.84927 Y2.10004
G01 X-0.84905 Y2.10232
G01 X-0.84886 Y2.10328
G01 X-0.84686 Y2.10985
G01 X-0.84670 Y2.11031
G01 X-0.84649 Y2.11075
G01 X-0.84326 Y2.11680
G01 X-0.84271 Y2.11762
G01 X-0.83836 Y2.12292
G01 X-0.83803 Y2.12328
G01 X-0.83766 Y2.12361
G01 X-0.83236 Y2.12797
G01 X-0.83155 Y2.12851
G01 X-0.82646 Y2.13123
G01 X-0.82624 Y2.13137
G01 X-0.82577 Y2.13161
G01 X-0.82562 Y2.13168
G01 X-0.82549 Y2.13175
G01 X-0.82499 Y2.13195
G01 X-0.81871 Y2.13476
G01 X-0.81822 Y2.13494
G01 X-0.81771 Y2.13508
G01 X-0.81015 Y2.13669
G01 X-0.80963 Y2.13677
G01 X-0.80911 Y2.13680
G01 X-0.80137 Y2.13680
G01 X-0.80085 Y2.13677
G01 X-0.80033 Y2.13669
G01 X-0.79277 Y2.13508
G01 X-0.79247 Y2.13500
G01 X-0.61943 Y2.13500
G01 X-0.61913 Y2.13508
G01 X-0.61156 Y2.13669
G01 X-0.61105 Y2.13677
G01 X-0.61052 Y2.13680
G01 X-0.60279 Y2.13680
G01 X-0.60226 Y2.13677
G01 X-0.60175 Y2.13669
G01 X-0.59418 Y2.13508
G01 X-0.59368 Y2.13494
G01 X-0.59319 Y2.13476
G01 X-0.58612 Y2.13161
G01 X-0.58566 Y2.13137
G01 X-0.58522 Y2.13109
G01 X-0.57896 Y2.12654
G01 X-0.57855 Y2.12621
G01 X-0.57818 Y2.12584
G01 X-0.57301 Y2.12009
G01 X-0.57268 Y2.11969
G01 X-0.57239 Y2.11925
G01 X-0.56852 Y2.11255
G01 X-0.56829 Y2.11208
G01 X-0.56810 Y2.11159
G01 X-0.56571 Y2.10424
G01 X-0.56557 Y2.10373
G01 X-0.56549 Y2.10322
G01 X-0.56468 Y2.09552
G01 X-0.56466 Y2.09500
G04 P0 ( dwell for no time -- G64 should not smooth over this point )
G00 Z0.05000 ( retract )

G00 X-0.56466 Y2.39500 ( rapid move to begin. )
G01 F100.00000
( Mill infeed pass 1/1 )
G01 Z-0.05000
G04 P0 ( dwell for no time -- G64 should not smooth over this point )
G01 F1000.00000
G01 X-0.56466 Y2.39500
G01 X-0.56468 Y2.39448
G01 X-0.56549 Y2.38678
G01 X-0.56557 Y2.38627
G01 X-0.56571 Y2.38576
G01 X-0.56810 Y2.37841
G01 X-0.56829 Y2.37792
G01 X-0.56852 Y2.37745
G01 X-0.57239 Y2.37075
G01 X-0.57268 Y2.37031
G01 X-0.57301 Y2.36991
G01 X-0.57818 Y2.36416
G01 X-0.57855 Y2.36379
G01 X-0.57896 Y2.36346
G01 X-0.58522 Y2.35891
G01 X-0.58566 Y2.35863
G01 X-0.58612 Y2.35839
G01 X-0.59319 Y2.35524
G01 X-0.59368 Y2.35506
G01 X-0.59418 Y2.35492
G01 X-0.60175 Y2.35331
G01 X-0.60226 Y2.35323
G01 X-0.60279 Y2.35320
G01 X-0.61052 Y2.35320
G01 X-0.61105 Y2.35323
G01 X-0.61156 Y2.35331
G01 X-0.61913 Y2.35492
G01 X-0.61963 Y2.35506
G01 X-0.62012 Y2.35524
G01 X-0.62719 Y2.35839
G01 X-0.62766 Y2.35863
G01 X-0.62809 Y2.35891
G01 X-0.63435 Y2.36346
G01 X-0.63476 Y2.36379
G01 X-0.63513 Y2.36416
G01 X-0.64030 Y2.36991
G01 X-0.64063 Y2.37031
G01 X-0.64092 Y2.37075
G01 X-0.64479 Y2.37745
G01 X-0.64502 Y2.37792
G01 X-0.64521 Y2.37841
G01 X-0.64760 Y2.38576
G01 X-0.64774 Y2.38627
G01 X-0.64782 Y2.38678
G01 X-0.64863 Y2.39448
G01 X-0.64866 Y2.39500
G01 X-0.64863 Y2.39552
G01 X-0.64782 Y2.40322
G01 X-0.64774 Y2.40373
G01 X-0.64760 Y2.40424
G01 X-0.64557 Y2.41049
G01 X-0.64557 Y3.39147
G01 X-0.70049 Y3.70000
G01 X-0.70787 Y3.70000
G01 X-0.70885 Y3.70010
G01 X-0.70978 Y3.70038
G01 X-0.71065 Y3.70084
G01 X-0.71141 Y3.70146
G01 X-0.71203 Y3.70222
G01 X-0.71249 Y3.70309
G01 X-0.71277 Y3.70402
G01 X-0.71287 Y3.70500
G01 X-0.71287 Y3.78500
G01 X-0.71277 Y3.78598
G01 X-0.71249 Y3.78691
G01 X-0.71203 Y3.78778
G01 X-0.71141 Y3.78854
G01 X-0.71065 Y3.78916
G01 X-0.70978 Y3.78962
G01 X-0.70885 Y3.78990
G01 X-0.70787 Y3.79000
G01 X-0.62787 Y3.79000
G01 X-0.62690 Y3.78990
G01 X-0.62596 Y3.78962
G01 X-0.62509 Y3.78916
G01 X-0.62434 Y3.78854
G01 X-0.62371 Y3.78778
G01 X-0.62325 Y3.78691
G01 X-0.62297 Y3.78598
G01 X-0.62287 Y3.78500
G01 X-0.62287 Y3.72044
G01 X-0.56619 Y3.40201
G01 X-0.56613 Y3.40157
G01 X-0.56559 Y3.39544
G01 X-0.56557 Y3.39500
G01 X-0.56557 Y2.40372
G01 X-0.56549 Y2.40322
G01 X-0.56468 Y2.39552
G01 X-0.56466 Y2.39500
G04 P0 ( dwell for no time -- G64 should not smooth over this point )
G00 Z0.05000 ( retract )

G00 X-0.76324 Y2.39500 ( rapid move to begin. )
G01 F100.00000
( Mill infeed pass 1/1 )
G01 Z-0.05000
G04 P0 ( dwell for no time -- G64 should not smooth over this point )
G01 F1000.00000
G01 X-0.76324 Y2.39500
G01 X-0.76327 Y2.39448
G01 X-0.76408 Y2.38678
G01 X-0.76416 Y2.38627
G01 X-0.76429 Y2.38576
G01 X-0.76668 Y2.37841
G01 X-0.76687 Y2.37792
G01 X-0.76711 Y2.37745
G01 X-0.77098 Y2.37075
G01 X-0.77126 Y2.37031
G01 X-0.77159 Y2.36991
G01 X-0.77677 Y2.36416
G01 X-0.77714 Y2.36379
G01 X-0.77754 Y2.36346
G01 X-0.78380 Y2.35891
G01 X-0.78424 Y2.35863
G01 X-0.78471 Y2.35839
G01 X-0.79177 Y2.35524
G01 X-0.79226 Y2.35506
G01 X-0.79277 Y2.35492
G01 X-0.80033 Y2.35331
G01 X-0.80085 Y2.35323
G01 X-0.80137 Y2.35320
G01 X-0.80911 Y2.35320
G01 X-0.80963 Y2.35323
G01 X-0.81015 Y2.35331
G01 X-0.81771 Y2.35492
G01 X-0.81822 Y2.35506
G01 X-0.81871 Y2.35524
G01 X-0.82577 Y2.35839
G01 X-0.82624 Y2.35863
G01 X-0.82668 Y2.35891
G01 X-0.83294 Y2.36346
G01 X-0.83334 Y2.36379
G01 X-0.83371 Y2.36416
G01 X-0.83889 Y2.36991
G01 X-0.83922 Y2.37031
G01 X-0.83950 Y2.37075
G01 X-0.84337 Y2.37745
G01 X-0.84361 Y2.37792
G01 X-0.84380 Y2.37841
G01 X-0.84619 Y2.38576
G01 X-0.84632 Y2.38627
G01 X-0.84640 Y2.38678
G01 X-0.84721 Y2.39448
G01 X-0.84724 Y2.39500
G01 X-0.84721 Y2.39552
G01 X-0.84719 Y2.39578
G01 X-0.84719 Y3.19500
G01 X-0.84716 Y3.19549
G01 X-0.84649 Y3.20232
G01 X-0.84630 Y3.20328
G01 X-0.84431 Y3.20985
G01 X-0.84414 Y3.21031
G01 X-0.84393 Y3.21075
G01 X-0.84070 Y3.21680
G01 X-0.84015 Y3.21762
G01 X-0.83580 Y3.22292
G01 X-0.83547 Y3.22328
G01 X-0.83511 Y3.22361
G01 X-0.82980 Y3.22797
G01 X-0.82899 Y3.22851
G01 X-0.82294 Y3.23175
G01 X-0.82249 Y3.23196
G01 X-0.82203 Y3.23212
G01 X-0.81546 Y3.23411
G01 X-0.81450 Y3.23430
G01 X-0.80768 Y3.23498
G01 X-0.80719 Y3.23500
G01 X-0.80669 Y3.23498
G01 X-0.79987 Y3.23430
G01 X-0.79891 Y3.23411
G01 X-0.79234 Y3.23212
G01 X-0.79188 Y3.23196
G01 X-0.79143 Y3.23175
G01 X-0.78538 Y3.22851
G01 X-0.78457 Y3.22797
G01 X-0.77926 Y3.22361
G01 X-0.77890 Y3.22328
G01 X-0.77857 Y3.22292
G01 X-0.77422 Y3.21762
G01 X-0.77367 Y3.21680
G01 X-0.77044 Y3.21075
G01 X-0.77023 Y3.21031
G01 X-0.77006 Y3.20985
G01 X-0.76807 Y3.20328
G01 X-0.76788 Y3.20232
G01 X-0.76721 Y3.19549
G01 X-0.76719 Y3.19500
G01 X-0.76719 Y2.41268
G01 X-0.76711 Y2.41255
G01 X-0.76687 Y2.41208
G01 X-0.76668 Y2.41159
G01 X-0.76429 Y2.40424
G01 X-0.76416 Y2.40373
G01 X-0.76408 Y2.40322
G01 X-0.76327 Y2.39552
G01 X-0.76324 Y2.39500
G04 P0 ( dwell for no time -- G64 should not smooth over this point )
G00 Z0.05000 ( retract )

G00 X-1.06357 Y2.39500 ( rapid move to begin. )
G01 F100.00000
( Mill infeed pass 1/1 )
G01 Z-0.05000
G04 P0 ( dwell for no time -- G64 should not smooth over this point )
G01 F1000.00000
G01 X-1.06357 Y2.39500
G01 X-1.06360 Y2.39448
G01 X-1.06441 Y2.38678
G01 X-1.06449 Y2.38627
G01 X-1.06462 Y2.38576
G01 X-1.06701 Y2.37841
G01 X-1.06720 Y2.37792
G01 X-1.06744 Y2.37745
G01 X-1.07131 Y2.37075
G01 X-1.07159 Y2.37031
G01 X-1.07192 Y2.36991
G01 X-1.07710 Y2.36416
G01 X-1.07747 Y2.36379
G01 X-1.07787 Y2.36346
G01 X-1.08413 Y2.35891
G01 X-1.08457 Y2.35863
G01 X-1.08504 Y2.35839
G01 X-1.09210 Y2.35524
G01 X-1.09259 Y2.35506
G01 X-1.09310 Y2.35492
G01 X-1.10066 Y2.35331
G01 X-1.10118 Y2.35323
G01 X-1.10170 Y2.35320
G01 X-1.10944 Y2.35320
G01 X-1.10996 Y2.35323
G01 X-1.11048 Y2.35331
G01 X-1.11804 Y2.35492
G01 X-1.11855 Y2.35506
G01 X-1.11904 Y2.35524
G01 X-1.12610 Y2.35839
G01 X-1.12657 Y2.35863
G01 X-1.12701 Y2.35891
G01 X-1.13327 Y2.36346
G01 X-1.13367 Y2.36379
G01 X-1.13404 Y2.36416
G01 X-1.13922 Y2.36991
G01 X-1.13955 Y2.37031
G01 X-1.13983 Y2.37075
G01 X-1.14370 Y2.37745
G01 X-1.14394 Y2.37792
G01 X-1.14413 Y2.37841
G01 X-1.14652 Y2.38576
G01 X-1.14665 Y2.38627
G01 X-1.14674 Y2.38678
G01 X-1.14754 Y2.39448
G01 X-1.14757 Y2.39500
G01 X-1.14754 Y2.39552
G01 X-1.14674 Y2.40322
G01 X-1.14665 Y2.40373
G01 X-1.14652 Y2.40424
G01 X-1.14557 Y2.40715
G01 X-1.14557 Y3.39150
G01 X-1.19996 Y3.70000
G01 X-1.20728 Y3.70000
G01 X-1.20825 Y3.70010
G01 X-1.20919 Y3.70038
G01 X-1.21006 Y3.70084
G01 X-1.21081 Y3.70146
G01 X-1.21143 Y3.70222
G01 X-1.21190 Y3.70309
G01 X-1.21218 Y3.70402
G01 X-1.21228 Y3.70500
G01 X-1.21228 Y3.78500
G01 X-1.21218 Y3.78598
G01 X-1.21190 Y3.78691
G01 X-1.21143 Y3.78778
G01 X-1.21081 Y3.78854
G01 X-1.21006 Y3.78916
G01 X-1.20919 Y3.78962
G01 X-1.20825 Y3.78990
G01 X-1.20728 Y3.79000
G01 X-1.12728 Y3.79000
G01 X-1.12630 Y3.78990
G01 X-1.12536 Y3.78962
G01 X-1.12450 Y3.78916
G01 X-1.12374 Y3.78854
G01 X-1.12312 Y3.78778
G01 X-1.12266 Y3.78691
G01 X-1.12237 Y3.78598
G01 X-1.12228 Y3.78500
G01 X-1.12228 Y3.72014
G01 X-1.06618 Y3.40195
G01 X-1.06612 Y3.40151
G01 X-1.06559 Y3.39544
G01 X-1.06557 Y3.39500
G01 X-1.06557 Y2.40715
G01 X-1.06462 Y2.40424
G01 X-1.06449 Y2.40373
G01 X-1.06441 Y2.40322
G01 X-1.06360 Y2.39552
G01 X-1.06357 Y2.39500
G04 P0 ( dwell for no time -- G64 should not smooth over this point )
G00 Z0.05000 ( retract )

G00 X-1.56357 Y2.89500 ( rapid move to begin. )
G01 F100.00000
( Mill infeed pass 1/1 )
G01 Z-0.05000
G04 P0 ( dwell for no time -- G64 should not smooth over this point )
G01 F1000.00000
G01 X-1.56357 Y2.89500
G01 X-1.56360 Y2.89552
G01 X-1.56441 Y2.90322
G01 X-1.56449 Y2.90373
G01 X-1.56462 Y2.90424
G01 X-1.56557 Y2.90715
G01 X-1.56557 Y3.19500
G01 X-1.56560 Y3.19549
G01 X-1.56627 Y3.20232
G01 X-1.56646 Y3.20328
G01 X-1.56845 Y3.20985
G01 X-1.56883 Y3.21075
G01 X-1.57206 Y3.21680
G01 X-1.57231 Y3.21722
G01 X-1.57260 Y3.21762
G01 X-1.57696 Y3.22292
G01 X-1.57765 Y3.22361
G01 X-1.58295 Y3.22797
G01 X-1.58335 Y3.22826
G01 X-1.58377 Y3.22851
G01 X-1.58982 Y3.23175
G01 X-1.59073 Y3.23212
G01 X-1.59729 Y3.23411
G01 X-1.59777 Y3.23423
G01 X-1.59825 Y3.23430
G01 X-1.60508 Y3.23498
G01 X-1.60606 Y3.23498
G01 X-1.61289 Y3.23430
G01 X-1.61385 Y3.23411
G01 X-1.62042 Y3.23212
G01 X-1.62088 Y3.23196
G01 X-1.62132 Y3.23175
G01 X-1.62737 Y3.22851
G01 X-1.62779 Y3.22826
G01 X-1.62819 Y3.22797
G01 X-1.63349 Y3.22361
G01 X-1.63418 Y3.22292
G01 X-1.63854 Y3.21762
G01 X-1.63883 Y3.21722
G01 X-1.63908 Y3.21680
G01 X-1.64232 Y3.21075
G01 X-1.64269 Y3.20985
G01 X-1.64468 Y3.20328
G01 X-1.64487 Y3.20232
G01 X-1.64555 Y3.19549
G01 X-1.64557 Y3.19500
G01 X-1.64557 Y2.90715
G01 X-1.64652 Y2.90424
G01 X-1.64665 Y2.90373
G01 X-1.64674 Y2.90322
G01 X-1.64754 Y2.89552
G01 X-1.64757 Y2.89500
G01 X-1.64754 Y2.89448
G01 X-1.64674 Y2.88678
G01 X-1.64665 Y2.88627
G01 X-1.64652 Y2.88576
G01 X-1.64413 Y2.87841
G01 X-1.64394 Y2.87792
G01 X-1.64370 Y2.87745
G01 X-1.63983 Y2.87075
G01 X-1.63955 Y2.87031
G01 X-1.63922 Y2.86991
G01 X-1.63404 Y2.86416
G01 X-1.63367 Y2.86379
G01 X-1.63327 Y2.86346
G01 X-1.62701 Y2.85891
G01 X-1.62657 Y2.85863
G01 X-1.62610 Y2.85839
G01 X-1.61904 Y2.85524
G01 X-1.61855 Y2.85506
G01 X-1.61804 Y2.85492
G01 X-1.61048 Y2.85331
G01 X-1.60996 Y2.85323
G01 X-1.60944 Y2.85320
G01 X-1.60170 Y2.85320
G01 X-1.60118 Y2.85323
G01 X-1.60066 Y2.85331
G01 X-1.59310 Y2.85492
G01 X-1.59259 Y2.85506
G01 X-1.59210 Y2.85524
G01 X-1.58504 Y2.85839
G01 X-1.58457 Y2.85863
G01 X-1.58413 Y2.85891
G01 X-1.57787 Y2.86346
G01 X-1.57747 Y2.86379
G01 X-1.57710 Y2.86416
G01 X-1.57192 Y2.86991
G01 X-1.57159 Y2.87031
G01 X-1.57131 Y2.87075
G01 X-1.56744 Y2.87745
G01 X-1.56720 Y2.87792
G01 X-1.56701 Y2.87841
G01 X-1.56462 Y2.88576
G01 X-1.56449 Y2.88627
G01 X-1.56441 Y2.88678
G01 X-1.56360 Y2.89448
G01 X-1.56357 Y2.89500
G04 P0 ( dwell for no time -- G64 should not smooth over this point )
G00 Z0.05000 ( retract )

G00 X-1.86357 Y2.89500 ( rapid move to begin. )
G01 F100.00000
( Mill infeed pass 1/1 )
G01 Z-0.05000
G04 P0 ( dwell for no time -- G64 should not smooth over this point )
G01 F1000.00000
G01 X-1.86357 Y2.89500
G01 X-1.86360 Y2.89552
G01 X-1.86441 Y2.90322
G01 X-1.86449 Y2.90373
G01 X-1.86462 Y2.90424
G01 X-1.86557 Y2.90715
G01 X-1.86557 Y3.19500
G01 X-1.86560 Y3.19549
G01 X-1.86627 Y3.20232
G01 X-1.86646 Y3.20328
G01 X-1.86845 Y3.20985
G01 X-1.86883 Y3.21075
G01 X-1.87206 Y3.21680
G01 X-1.87231 Y3.21722
G01 X-1.87260 Y3.21762
G01 X-1.87696 Y3.22292
G01 X-1.87765 Y3.22361
G01 X-1.88295 Y3.22797
G01 X-1.88335 Y3.22826
G01 X-1.88377 Y3.22851
G01 X-1.88982 Y3.23175
G01 X-1.89073 Y3.23212
G01 X-1.89729 Y3.23411
G01 X-1.89777 Y3.23423
G01 X-1.89825 Y3.23430
G01 X-1.90508 Y3.23498
G01 X-1.90606 Y3.23498
G01 X-1.91289 Y3.23430
G01 X-1.91337 Y3.23423
G01 X-1.91385 Y3.23411
G01 X-1.92042 Y3.23212
G01 X-1.92132 Y3.23175
G01 X-1.92737 Y3.22851
G01 X-1.92779 Y3.22826
G01 X-1.92819 Y3.22797
G01 X-1.93349 Y3.22361
G01 X-1.93418 Y3.22292
G01 X-1.93854 Y3.21762
G01 X-1.93883 Y3.21722
G01 X-1.93908 Y3.21680
G01 X-1.94232 Y3.21075
G01 X-1.94269 Y3.20985
G01 X-1.94468 Y3.20328
G01 X-1.94480 Y3.20280
G01 X-1.94487 Y3.20232
G01 X-1.94555 Y3.19549
G01 X-1.94557 Y3.19500
G01 X-1.94557 Y2.90715
G01 X-1.94652 Y2.90424
G01 X-1.94665 Y2.90373
G01 X-1.94674 Y2.90322
G01 X-1.94754 Y2.89552
G01 X-1.94757 Y2.89500
G01 X-1.94754 Y2.89448
G01 X-1.94674 Y2.88678
G01 X-1.94665 Y2.88627
G01 X-1.94652 Y2.88576
G01 X-1.94413 Y2.87841
G01 X-1.94394 Y2.87792
G01 X-1.94370 Y2.87745
G01 X-1.93983 Y2.87075
G01 X-1.93955 Y2.87031
G01 X-1.93922 Y2.86991
G01 X-1.93404 Y2.86416
G01 X-1.93367 Y2.86379
G01 X-1.93327 Y2.86346
G01 X-1.92701 Y2.85891
G01 X-1.92657 Y2.85863
G01 X-1.92610 Y2.85839
G01 X-1.91904 Y2.85524
G01 X-1.91855 Y2.85506
G01 X-1.91804 Y2.85492
G01 X-1.91048 Y2.85331
G01 X-1.90996 Y2.85323
G01 X-1.90944 Y2.85320
G01 X-1.90170 Y2.85320
G01 X-1.90118 Y2.85323
G01 X-1.90066 Y2.85331
G01 X-1.89310 Y2.85492
G01 X-1.89259 Y2.85506
G01 X-1.89210 Y2.85524
G01 X-1.88504 Y2.85839
G01 X-1.88457 Y2.85863
G01 X-1.88413 Y2.85891
G01 X-1.87787 Y2.86346
G01 X-1.87747 Y2.86379
G01 X-1.87710 Y2.86416
G01 X-1.87192 Y2.86991
G01 X-1.87159 Y2.87031
G01 X-1.87131 Y2.87075
G01 X-1.86744 Y2.87745
G01 X-1.86720 Y2.87792
G01 X-1.86701 Y2.87841
G01 X-1.86462 Y2.88576
G01 X-1.86449 Y2.88627
G01 X-1.86441 Y2.88678
G01 X-1.86360 Y2.89448
G01 X-1.86357 Y2.89500
G04 P0 ( dwell for no time -- G64 should not smooth over this point )
G00 Z0.05000 ( retract )

G00 X-2.16357 Y2.89500 ( rapid move to begin. )
G01 F100.00000
( Mill infeed pass 1/1 )
G01 Z-0.05000
G04 P0 ( dwell for no time -- G64 should not smooth over this point )
G01 F1000.00000
G01 X-2.16357 Y2.89500
G01 X-2.16360 Y2.89552
G01 X-2.16441 Y2.90322
G01 X-2.16449 Y2.90373
G01 X-2.16462 Y2.90424
G01 X-2.16557 Y2.90715
G01 X-2.16557 Y3.19500
G01 X-2.16560 Y3.19549
G01 X-2.16627 Y3.20232
G01 X-2.16646 Y3.20328
G01 X-2.16845 Y3.20985
G01 X-2.16883 Y3.21075
G01 X-2.17206 Y3.21680
G01 X-2.17231 Y3.21722
G01 X-2.17260 Y3.21762
G01 X-2.17696 Y3.22292
G01 X-2.17765 Y3.22361
G01 X-2.18295 Y3.22797
G01 X-2.18335 Y3.22826
G01 X-2.18377 Y3.22851
G01 X-2.18982 Y3.23175
G01 X-2.19073 Y3.23212
G01 X-2.19729 Y3.23411
G01 X-2.19777 Y3.23423
G01 X-2.19825 Y3.23430
G01 X-2.20508 Y3.23498
G01 X-2.20606 Y3.23498
G01 X-2.21289 Y3.23430
G01 X-2.21385 Y3.23411
G01 X-2.22042 Y3.23212
G01 X-2.22088 Y3.23196
G01 X-2.22132 Y3.23175
G01 X-2.22737 Y3.22851
G01 X-2.22779 Y3.22826
G01 X-2.22819 Y3.22797
G01 X-2.23349 Y3.22361
G01 X-2.23418 Y3.22292
G01 X-2.23854 Y3.21762
G01 X-2.23883 Y3.21722
G01 X-2.23908 Y3.21680
G01 X-2.24232 Y3.21075
G01 X-2.24269 Y3.20985
G01 X-2.24468 Y3.20328
G01 X-2.24487 Y3.20232
G01 X-2.24555 Y3.19549
G01 X-2.24557 Y3.19500
G01 X-2.24557 Y2.90715
G01 X-2.24652 Y2.90424
G01 X-2.24665 Y2.90373
G01 X-2.24674 Y2.90322
G01 X-2.24754 Y2.89552
G01 X-2.24757 Y2.89500
G01 X-2.24754 Y2.89448
G01 X-2.24674 Y2.88678
G01 X-2.24665 Y2.88627
G01 X-2.24652 Y2.88576
G01 X-2.24413 Y2.87841
G01 X-2.24394 Y2.87792
G01 X-2.24370 Y2.87745
G01 X-2.23983 Y2.87075
G01 X-2.23955 Y2.87031
G01 X-2.23922 Y2.86991
G01 X-2.23404 Y2.86416
G01 X-2.23367 Y2.86379
G01 X-2.23327 Y2.86346
G01 X-2.22701 Y2.85891
G01 X-2.22657 Y2.85863
G01 X-2.22610 Y2.85839
G01 X-2.21904 Y2.85524
G01 X-2.21855 Y2.85506
G01 X-2.21804 Y2.85492
G01 X-2.21048 Y2.85331
G01 X-2.20996 Y2.85323
G01 X-2.20944 Y2.85320
G01 X-2.20170 Y2.85320
G01 X-2.20118 Y2.85323
G01 X-2.20066 Y2.85331
G01 X-2.19310 Y2.85492
G01 X-2.19259 Y2.85506
G01 X-2.19210 Y2.85524
G01 X-2.18504 Y2.85839
G01 X-2.18457 Y2.85863
G01 X-2.18413 Y2.85891
G01 X-2.17787 Y2.86346
G01 X-2.17747 Y2.86379
G01 X-2.17710 Y2.86416
G01 X-2.17192 Y2.86991
G01 X-2.17159 Y2.87031
G01 X-2.17131 Y2.87075
G01 X-2.16744 Y2.87745
G01 X-2.16720 Y2.87792
G01 X-2.16701 Y2.87841
G01 X-2.16462 Y2.88576
G01 X-2.16449 Y2.88627
G01 X-2.16441 Y2.88678
G01 X-2.16360 Y2.89448
G01 X-2.16357 Y2.89500
G04 P0 ( dwell for no time -- G64 should not smooth over this point )
G00 Z0.05000 ( retract )

G00 X-2.46357 Y2.89500 ( rapid move to begin. )
G01 F100.00000
( Mill infeed pass 1/1 )
G01 Z-0.05000
G04 P0 ( dwell for no time -- G64 should not smooth over this point )
G01 F1000.00000
G01 X-2.46357 Y2.89500
G01 X-2.46360 Y2.89552
G01 X-2.46441 Y2.90322
G01 X-2.46449 Y2.90373
G01 X-2.46462 Y2.90424
G01 X-2.46557 Y2.90715
G01 X-2.46557 Y3.19500
G01 X-2.46560 Y3.19549
G01 X-2.46627 Y3.20232
G01 X-2.46646 Y3.20328
G01 X-2.46845 Y3.20985
G01 X-2.46883 Y3.21075
G01 X-2.47206 Y3.21680
G01 X-2.47231 Y3.21722
G01 X-2.47260 Y3.21762
G01 X-2.47696 Y3.22292
G01 X-2.47765 Y3.22361
G01 X-2.48295 Y3.22797
G01 X-2.48335 Y3.22826
G01 X-2.48377 Y3.22851
G01 X-2.48982 Y3.23175
G01 X-2.49073 Y3.23212
G01 X-2.49729 Y3.23411
G01 X-2.49777 Y3.23423
G01 X-2.49825 Y3.23430
G01 X-2.50508 Y3.23498
G01 X-2.50606 Y3.23498
G01 X-2.51289 Y3.23430
G01 X-2.51337 Y3.23423
G01 X-2.51385 Y3.23411
G01 X-2.52042 Y3.23212
G01 X-2.52132 Y3.23175
G01 X-2.52737 Y3.22851
G01 X-2.52779 Y3.22826
G01 X-2.52819 Y3.22797
G01 X-2.53349 Y3.22361
G01 X-2.53418 Y3.22292
G01 X-2.53854 Y3.21762
G01 X-2.53883 Y3.21722
G01 X-2.53908 Y3.21680
G01 X-2.54232 Y3.21075
G01 X-2.54269 Y3.20985
G01 X-2.54468 Y3.20328
G01 X-2.54480 Y3.20280
G01 X-2.54487 Y3.20232
G01 X-2.54555 Y3.19549
G01 X-2.54557 Y3.19500
G01 X-2.54557 Y2.90715
G01 X-2.54652 Y2.90424
G01 X-2.54665 Y2.90373
G01 X-2.54674 Y2.90322
