( pcb2gcode 2.1.0 )
( Software-independent Gcode )

G94 ( Inches per minute feed rate. )
G20 ( Units == INCHES. )

G90 ( Absolute coordinates. )
G00 S30000 ( RPM spindle speed. )
G01 F10.00000 ( Feedrate. )


G00 Z2.00000 (Retract to tool change height)
G04 P0.00000 (Wait for spindle to stop)
(MSG, Change tool bit to mill diameter 0.01300in)
G04 P0.00000 (Wait for spindle to get up to speed)
G04 P0 ( dwell for no time -- G64 should not smooth over this point )
G00 Z0.05000 ( retract )

G00 X-0.95997 Y2.25329 ( rapid move to begin. )
G01 F5.00000
( Mill infeed pass 1/1 )
G01 Z-0.00400
G04 P0 ( dwell for no time -- G64 should not smooth over this point )
G01 F10.00000
G01 X-0.95997 Y2.25329
G01 X-0.95997 Y2.24562
G01 X-0.95997 Y2.23149
G01 X-0.95997 Y2.22347
G01 X-0.95997 Y2.21674
G01 X-0.95954 Y2.21563
G01 X-0.95747 Y2.21156
G01 X-0.95721 Y2.21162
G01 X-0.95747 Y2.21156
G01 X-0.95747 Y2.05838
G01 X-0.95726 Y2.05834
G01 X-0.95747 Y2.05838
G01 X-0.95954 Y2.05430
G01 X-0.96226 Y2.04722
G01 X-0.96247 Y2.04660
G01 X-0.96357 Y2.03962
G01 X-0.96513 Y2.02486
G01 X-0.96553 Y2.01723
G01 X-0.96553 Y2.00271
G01 X-0.96513 Y1.99508
G01 X-0.96357 Y1.98032
G01 X-0.96247 Y1.97334
G01 X-0.96226 Y1.97272
G01 X-0.96067 Y1.96858
G01 X-0.94731 Y1.96396
G01 X-0.94696 Y1.96385
G01 X-0.93727 Y1.96094
G01 X-0.93389 Y1.95997
G01 X-0.93252 Y1.95997
G01 X-0.92120 Y1.95997
G01 X-0.91937 Y1.95997
G01 X-0.90979 Y1.95997
G01 X-0.90515 Y1.95997
G01 X-0.90735 Y1.96217
G01 X-0.91246 Y1.96784
G01 X-0.91450 Y1.97035
G01 X-0.91626 Y1.97306
G01 X-0.92007 Y1.97967
G01 X-0.92154 Y1.98256
G01 X-0.92270 Y1.98557
G01 X-0.92506 Y1.99283
G01 X-0.92590 Y1.99596
G01 X-0.92640 Y1.99915
G01 X-0.92720 Y2.00674
G01 X-0.92737 Y2.00997
G01 X-0.92720 Y2.01320
G01 X-0.92640 Y2.02079
G01 X-0.92590 Y2.02398
G01 X-0.92506 Y2.02711
G01 X-0.92270 Y2.03436
G01 X-0.92154 Y2.03738
G01 X-0.92007 Y2.04027
G01 X-0.91626 Y2.04687
G01 X-0.91587 Y2.04747
G01 X-0.91553 Y2.04738
G01 X-0.91587 Y2.04747
G01 X-0.91587 Y2.22247
G01 X-0.91553 Y2.22255
G01 X-0.91587 Y2.22247
G01 X-0.91626 Y2.22306
G01 X-0.92007 Y2.22967
G01 X-0.92154 Y2.23255
G01 X-0.92270 Y2.23557
G01 X-0.92506 Y2.24283
G01 X-0.92590 Y2.24596
G01 X-0.92640 Y2.24915
G01 X-0.92720 Y2.25674
G01 X-0.92737 Y2.25997
G01 X-0.92720 Y2.26320
G01 X-0.92640 Y2.27079
G01 X-0.92590 Y2.27398
G01 X-0.92506 Y2.27711
G01 X-0.92270 Y2.28436
G01 X-0.92154 Y2.28738
G01 X-0.92007 Y2.29026
G01 X-0.91626 Y2.29687
G01 X-0.91587 Y2.29747
G01 X-0.91553 Y2.29738
G01 X-0.91587 Y2.29747
G01 X-0.91587 Y2.30407
G01 X-0.91282 Y2.30712
G01 X-0.91587 Y2.30407
G04 P0 ( dwell for no time -- G64 should not smooth over this point )
G00 Z0.05000 ( retract )

G00 X-0.96238 Y2.27287 ( rapid move to begin. )
G01 F5.00000
( Mill infeed pass 1/1 )
G01 Z-0.00400
G04 P0 ( dwell for no time -- G64 should not smooth over this point )
G01 F10.00000
G01 X-0.96238 Y2.27287
G01 X-0.95755 Y2.27287
G01 X-0.95394 Y2.27621
G01 X-0.95755 Y2.27287
G04 P0 ( dwell for no time -- G64 should not smooth over this point )
G00 Z0.05000 ( retract )

G00 X-0.96238 Y2.27287 ( rapid move to begin. )
G01 F5.00000
( Mill infeed pass 1/1 )
G01 Z-0.00400
G04 P0 ( dwell for no time -- G64 should not smooth over this point )
G01 F10.00000
G01 X-0.96238 Y2.27287
G01 X-0.95997 Y2.27070
G01 X-0.95997 Y2.26665
G01 X-0.95997 Y2.25329
G01 X-0.96137 Y2.25997
G01 X-0.97177 Y2.25997
G01 X-0.98217 Y2.25997
G01 X-0.99257 Y2.25997
G01 X-1.00297 Y2.25997
G01 X-1.00308 Y2.25783
G01 X-1.00388 Y2.25024
G01 X-1.00421 Y2.24812
G01 X-1.00477 Y2.24605
G01 X-1.00713 Y2.23879
G01 X-1.00790 Y2.23679
G01 X-1.00887 Y2.23487
G01 X-1.01269 Y2.22826
G01 X-1.01385 Y2.22647
G01 X-1.01447 Y2.22571
G01 X-1.01447 Y1.85997
G01 X-1.01456 Y1.85808
G01 X-1.01498 Y1.85349
G01 X-1.01567 Y1.84978
G01 X-1.01693 Y1.84535
G01 X-1.01829 Y1.84183
G01 X-1.02034 Y1.83770
G01 X-1.02233 Y1.83449
G01 X-1.02510 Y1.83081
G01 X-1.02764 Y1.82801
G01 X-1.03105 Y1.82491
G01 X-1.03406 Y1.82263
G01 X-1.03797 Y1.82020
G01 X-1.03962 Y1.81927
G01 X-1.10905 Y1.78456
G01 X-1.11269 Y1.77826
G01 X-1.11385 Y1.77647
G01 X-1.11520 Y1.77480
G01 X-1.12031 Y1.76913
G01 X-1.12183 Y1.76761
G01 X-1.12350 Y1.76626
G01 X-1.12967 Y1.76177
G01 X-1.13147 Y1.76061
G01 X-1.13338 Y1.75963
G01 X-1.14035 Y1.75653
G01 X-1.14235 Y1.75576
G01 X-1.14443 Y1.75520
G01 X-1.15189 Y1.75362
G01 X-1.15401 Y1.75328
G01 X-1.15615 Y1.75317
G01 X-1.16378 Y1.75317
G01 X-1.16593 Y1.75328
G01 X-1.16805 Y1.75362
G01 X-1.17551 Y1.75520
G01 X-1.17758 Y1.75576
G01 X-1.17959 Y1.75653
G01 X-1.18656 Y1.75963
G01 X-1.18847 Y1.76061
G01 X-1.19027 Y1.76177
G01 X-1.19644 Y1.76626
G01 X-1.19811 Y1.76761
G01 X-1.19963 Y1.76913
G01 X-1.20473 Y1.77480
G01 X-1.20608 Y1.77647
G01 X-1.20725 Y1.77826
G01 X-1.21107 Y1.78487
G01 X-1.21204 Y1.78679
G01 X-1.21281 Y1.78879
G01 X-1.21447 Y1.79389
G01 X-1.21447 Y1.79389
G01 X-1.21362 Y1.78853
G01 X-1.21364 Y1.78852
G01 X-1.21362 Y1.78853
G01 X-1.21447 Y1.79389
G01 X-1.21483 Y1.79616
G01 X-1.21526 Y1.80032
G01 X-1.21567 Y1.80795
G01 X-1.21571 Y1.80795
G01 X-1.21567 Y1.80795
G01 X-1.21574 Y1.80795
G01 X-1.21567 Y1.80795
G01 X-1.21567 Y1.81199
G01 X-1.21572 Y1.81199
G01 X-1.21567 Y1.81199
G01 X-1.21526 Y1.81962
G01 X-1.21483 Y1.82378
G01 X-1.21447 Y1.82604
G01 X-1.21281 Y1.83115
G01 X-1.21214 Y1.83290
G01 X-1.21214 Y1.83290
G01 X-1.21043 Y1.83469
G01 X-1.21214 Y1.83290
G01 X-1.21193 Y1.83312
G01 X-1.21043 Y1.83469
G01 X-1.21044 Y1.83471
G01 X-1.21043 Y1.83469
G01 X-1.21214 Y1.83290
G01 X-1.21357 Y1.83140
G01 X-1.21363 Y1.83133
G01 X-1.21416 Y1.83158
G01 X-1.21363 Y1.83133
G01 X-1.21425 Y1.83163
G01 X-1.21363 Y1.83133
G01 X-1.21447 Y1.82605
G01 X-1.21447 Y1.82604
G01 X-1.21447 Y1.82605
G01 X-1.21363 Y1.83133
G01 X-1.21428 Y1.83165
G01 X-1.21363 Y1.83133
G01 X-1.21447 Y1.82604
G01 X-1.21363 Y1.83133
G01 X-1.21357 Y1.83140
G01 X-1.21214 Y1.83290
G01 X-1.21043 Y1.83469
G01 X-1.20463 Y1.84016
G01 X-1.20464 Y1.84017
G01 X-1.20463 Y1.84016
G01 X-1.20183 Y1.84253
G01 X-1.20186 Y1.84256
G01 X-1.20183 Y1.84253
G01 X-1.19565 Y1.84723
G01 X-1.19568 Y1.84728
G01 X-1.19565 Y1.84723
G01 X-1.19305 Y1.84901
G01 X-1.19307 Y1.84904
G01 X-1.19305 Y1.84901
G01 X-1.18651 Y1.85299
G01 X-1.18392 Y1.85438
G01 X-1.18394 Y1.85442
G01 X-1.18392 Y1.85438
G01 X-1.17702 Y1.85764
G01 X-1.17703 Y1.85766
G01 X-1.17702 Y1.85764
G01 X-1.17424 Y1.85877
G01 X-1.17425 Y1.85880
G01 X-1.17424 Y1.85877
G01 X-1.17083 Y1.85997
G01 X-1.17085 Y1.86012
G01 X-1.17083 Y1.85997
G01 X-1.17087 Y1.86018
G01 X-1.17083 Y1.85997
G01 X-1.17086 Y1.86014
G01 X-1.17083 Y1.85997
G01 X-1.16670 Y1.85997
G01 X-1.16378 Y1.85997
G01 X-1.15615 Y1.85997
G01 X-1.15324 Y1.85997
G01 X-1.14911 Y1.85997
G01 X-1.14908 Y1.85980
G01 X-1.14911 Y1.85997
G01 X-1.14569 Y1.86116
G01 X-1.14292 Y1.86230
G01 X-1.14291 Y1.86227
G01 X-1.14292 Y1.86230
G01 X-1.13602 Y1.86556
G01 X-1.13343 Y1.86695
G01 X-1.12689 Y1.87093
G01 X-1.12428 Y1.87270
G01 X-1.12425 Y1.87266
G01 X-1.12428 Y1.87270
G01 X-1.11810 Y1.87741
G01 X-1.11531 Y1.87978
G01 X-1.10951 Y1.88524
G01 X-1.10800 Y1.88682
G01 X-1.10547 Y1.88809
G01 X-1.10547 Y1.89390
G01 X-1.10547 Y1.89390
G01 X-1.10511 Y1.89616
G01 X-1.10547 Y1.89390
G01 X-1.10511 Y1.89616
G01 X-1.10547 Y1.89390
G01 X-1.10713 Y1.88879
G01 X-1.10780 Y1.88703
G01 X-1.10800 Y1.88682
G01 X-1.10780 Y1.88703
G01 X-1.10636 Y1.88854
G01 X-1.10780 Y1.88703
G01 X-1.10800 Y1.88682
G01 X-1.10636 Y1.88854
G01 X-1.10630 Y1.88861
G01 X-1.10563 Y1.88826
G01 X-1.10630 Y1.88861
G01 X-1.10547 Y1.89390
G01 X-1.10511 Y1.89616
G01 X-1.10467 Y1.90032
G01 X-1.10427 Y1.90795
G01 X-1.10424 Y1.90795
G01 X-1.10427 Y1.90795
G01 X-1.10427 Y1.91199
G01 X-1.10467 Y1.91962
G01 X-1.10511 Y1.92378
G01 X-1.10508 Y1.92379
G01 X-1.10511 Y1.92378
G01 X-1.10547 Y1.92604
G01 X-1.10511 Y1.92378
G01 X-1.10547 Y1.92604
G01 X-1.10547 Y1.99388
G01 X-1.10632 Y1.98853
G01 X-1.10547 Y1.99389
G01 X-1.10547 Y1.99388
G01 X-1.10547 Y1.99389
G01 X-1.10547 Y1.99389
G01 X-1.10547 Y1.99389
G01 X-1.10547 Y1.99389
G01 X-1.10547 Y1.99390
G01 X-1.10511 Y1.99616
G01 X-1.10547 Y1.99390
G01 X-1.10547 Y1.99389
G01 X-1.10547 Y1.99389
G01 X-1.10547 Y1.99389
G01 X-1.10713 Y1.98879
G01 X-1.10790 Y1.98679
G01 X-1.10887 Y1.98487
G01 X-1.11269 Y1.97826
G01 X-1.11385 Y1.97647
G01 X-1.11520 Y1.97480
G01 X-1.12031 Y1.96913
G01 X-1.12183 Y1.96761
G01 X-1.12350 Y1.96626
G01 X-1.12967 Y1.96177
G01 X-1.13147 Y1.96061
G01 X-1.13272 Y1.95997
G01 X-1.13147 Y1.95933
G01 X-1.12967 Y1.95816
G01 X-1.12350 Y1.95368
G01 X-1.12183 Y1.95233
G01 X-1.12031 Y1.95081
G01 X-1.11520 Y1.94514
G01 X-1.11385 Y1.94347
G01 X-1.11269 Y1.94167
G01 X-1.10887 Y1.93506
G01 X-1.10790 Y1.93315
G01 X-1.10713 Y1.93115
G01 X-1.10547 Y1.92604
G01 X-1.10547 Y1.92604
G01 X-1.10511 Y1.92378
G01 X-1.10547 Y1.92604
G01 X-1.10632 Y1.93141
G01 X-1.10729 Y1.93597
G01 X-1.10933 Y1.94361
G01 X-1.10931 Y1.94361
G01 X-1.10933 Y1.94361
G01 X-1.11105 Y1.94888
G01 X-1.11398 Y1.95651
G01 X-1.11543 Y1.95997
G01 X-1.11398 Y1.96343
G01 X-1.11105 Y1.97106
G01 X-1.10933 Y1.97633
G01 X-1.10729 Y1.98396
G01 X-1.10724 Y1.98395
G01 X-1.10729 Y1.98396
G01 X-1.10632 Y1.98853
G01 X-1.10547 Y1.99389
G01 X-1.10547 Y1.99389
G01 X-1.10511 Y1.99616
G01 X-1.10467 Y2.00032
G01 X-1.10427 Y2.00795
G01 X-1.10423 Y2.00795
G01 X-1.10427 Y2.00795
G01 X-1.10427 Y2.01199
G01 X-1.10467 Y2.01962
G01 X-1.10511 Y2.02378
G01 X-1.10507 Y2.02379
G01 X-1.10511 Y2.02378
G01 X-1.10547 Y2.02604
G01 X-1.10547 Y2.02604
G01 X-1.10547 Y2.02606
G01 X-1.10547 Y2.22571
G01 X-1.10608 Y2.22647
G01 X-1.10725 Y2.22826
G01 X-1.10997 Y2.23297
G01 X-1.11269 Y2.22826
G01 X-1.11385 Y2.22647
G01 X-1.11447 Y2.22571
G01 X-1.11447 Y2.04423
G01 X-1.11385 Y2.04347
G01 X-1.11269 Y2.04167
G01 X-1.10887 Y2.03506
G01 X-1.10790 Y2.03315
G01 X-1.10713 Y2.03115
G01 X-1.10547 Y2.02605
G01 X-1.10547 Y2.02605
G01 X-1.10547 Y2.02605
G01 X-1.10547 Y2.02605
G01 X-1.10632 Y2.03141
G01 X-1.10547 Y2.02605
G01 X-1.10547 Y2.02605
G01 X-1.10547 Y2.02605
G01 X-1.10547 Y2.02605
G01 X-1.10547 Y2.02606
G01 X-1.10632 Y2.03141
G01 X-1.10547 Y2.02605
G01 X-1.10547 Y2.02605
G01 X-1.10547 Y2.02604
G01 X-1.10511 Y2.02378
G01 X-1.10547 Y2.02604
G01 X-1.10547 Y2.02606
G01 X-1.10632 Y2.03141
G01 X-1.10729 Y2.03598
G01 X-1.10933 Y2.04361
G01 X-1.10997 Y2.04577
G01 X-1.11003 Y2.04577
G01 X-1.10997 Y2.04577
G01 X-1.10997 Y2.22416
G01 X-1.10997 Y2.22670
G01 X-1.10997 Y2.23297
G01 X-1.10997 Y2.23551
G01 X-1.10997 Y2.23971
G01 X-1.10997 Y2.24774
G01 X-1.10997 Y2.25088
G01 X-1.10997 Y2.25855
G01 X-1.10997 Y2.26139
G01 X-1.10997 Y2.26906
G01 X-1.10997 Y2.27220
G01 X-1.10997 Y2.28023
G01 X-1.10997 Y2.28443
G01 X-1.10997 Y2.28696
G01 X-1.10725 Y2.29167
G01 X-1.10608 Y2.29347
G01 X-1.10473 Y2.29514
G01 X-1.09963 Y2.30081
G01 X-1.09811 Y2.30233
G01 X-1.09644 Y2.30368
G01 X-1.09027 Y2.30816
G01 X-1.08847 Y2.30933
G01 X-1.08656 Y2.31031
G01 X-1.07959 Y2.31341
G01 X-1.07758 Y2.31418
G01 X-1.07675 Y2.31440
G01 X-1.07675 Y2.31440
G01 X-1.07633 Y2.31447
G01 X-1.07675 Y2.31440
G01 X-1.07981 Y2.31392
G01 X-1.07982 Y2.31399
G01 X-1.07981 Y2.31392
G01 X-1.07982 Y2.31398
G01 X-1.07981 Y2.31392
G01 X-1.07675 Y2.31440
G01 X-1.07633 Y2.31447
G01 X-1.07675 Y2.31440
G01 X-1.07675 Y2.31440
G01 X-1.07633 Y2.31447
G01 X-1.07633 Y2.31447
G01 X-1.07633 Y2.31447
G01 X-1.07675 Y2.31440
G01 X-1.07675 Y2.31440
G01 X-1.07633 Y2.31447
G01 X-1.11447 Y2.31447
G01 X-1.11447 Y2.29423
G01 X-1.11385 Y2.29347
G01 X-1.11269 Y2.29167
G01 X-1.10997 Y2.28696
G01 X-1.10997 Y2.29324
G01 X-1.10997 Y2.29577
G01 X-1.11013 Y2.29580
G01 X-1.10997 Y2.29577
G01 X-1.10888 Y2.29888
G01 X-1.10611 Y2.30611
G01 X-1.10686 Y2.30688
G01 X-1.10611 Y2.30611
G01 X-1.10694 Y2.30700
G01 X-1.10611 Y2.30611
G01 X-1.10570 Y2.30629
G01 X-1.09995 Y2.30850
G01 X-1.09232 Y2.31098
G01 X-1.09232 Y2.31100
G01 X-1.09232 Y2.31098
G01 X-1.08744 Y2.31229
G01 X-1.07981 Y2.31392
G01 X-1.07675 Y2.31440
G01 X-1.07633 Y2.31447
G01 X-1.07633 Y2.31447
G01 X-1.07548 Y2.31460
G01 X-1.07549 Y2.31462
G01 X-1.07548 Y2.31460
G01 X-1.06785 Y2.31541
G01 X-1.06378 Y2.31562
G01 X-1.06378 Y2.31565
G01 X-1.06378 Y2.31562
G01 X-1.05615 Y2.31562
G01 X-1.05615 Y2.31568
G01 X-1.05615 Y2.31562
G01 X-1.05208 Y2.31541
G01 X-1.05208 Y2.31546
G01 X-1.05208 Y2.31541
G01 X-1.04445 Y2.31460
G01 X-1.04445 Y2.31464
G01 X-1.04445 Y2.31460
G01 X-1.04360 Y2.31447
G01 X-1.04360 Y2.31447
G01 X-1.04319 Y2.31440
G01 X-1.04360 Y2.31447
G01 X-1.04319 Y2.31440
G01 X-1.04012 Y2.31392
G01 X-1.03249 Y2.31229
G01 X-1.03248 Y2.31234
G01 X-1.03249 Y2.31229
G01 X-1.03249 Y2.31232
G01 X-1.03249 Y2.31229
G01 X-1.02762 Y2.31098
G01 X-1.02761 Y2.31101
G01 X-1.02762 Y2.31098
G01 X-1.01999 Y2.30851
G01 X-1.01998 Y2.30854
G01 X-1.01999 Y2.30851
G01 X-1.01423 Y2.30629
G01 X-1.00925 Y2.30407
G01 X-1.00925 Y2.30407
G01 X-1.01423 Y2.30629
G01 X-1.00925 Y2.30407
G01 X-1.00925 Y2.30407
G01 X-1.00748 Y2.30210
G01 X-1.00544 Y2.29959
G01 X-1.00368 Y2.29687
G01 X-0.99986 Y2.29026
G01 X-0.99840 Y2.28738
G01 X-0.99724 Y2.28436
G01 X-0.99488 Y2.27711
G01 X-0.99404 Y2.27398
G01 X-0.99353 Y2.27079
G01 X-0.99274 Y2.26320
G01 X-0.99257 Y2.25997
G01 X-0.99274 Y2.25674
G01 X-0.99353 Y2.24915
G01 X-0.99404 Y2.24596
G01 X-0.99488 Y2.24283
G01 X-0.99724 Y2.23557
G01 X-0.99840 Y2.23255
G01 X-0.99986 Y2.22967
G01 X-1.00368 Y2.22306
G01 X-1.00407 Y2.22247
G01 X-1.00441 Y2.22255
G01 X-1.00407 Y2.22247
G01 X-1.00407 Y1.89416
G01 X-1.00407 Y1.89416
G01 X-1.00407 Y1.89416
G01 X-1.00355 Y1.89570
G01 X-1.00122 Y1.90170
G01 X-0.99919 Y1.90631
G01 X-0.99575 Y1.91321
G01 X-0.99367 Y1.91696
G01 X-0.99294 Y1.91741
G01 X-0.98962 Y1.91927
G01 X-0.92577 Y1.95119
G01 X-0.92558 Y1.95096
G01 X-0.92577 Y1.95119
G01 X-0.92526 Y1.95207
G01 X-0.92291 Y1.95570
G01 X-0.92019 Y1.95906
G01 X-0.91937 Y1.95997
G01 X-0.90979 Y1.95997
G01 X-0.91937 Y1.95997
G01 X-0.92019 Y1.96088
G01 X-0.92291 Y1.96424
G01 X-0.92526 Y1.96787
G01 X-0.92908 Y1.97447
G01 X-0.93104 Y1.97832
G01 X-0.93259 Y1.98236
G01 X-0.93495 Y1.98962
G01 X-0.93607 Y1.99379
G01 X-0.93674 Y1.99806
G01 X-0.93754 Y2.00565
G01 X-0.93777 Y2.00997
G01 X-0.93754 Y2.01429
G01 X-0.93674 Y2.02188
G01 X-0.93607 Y2.02615
G01 X-0.93495 Y2.03032
G01 X-0.93259 Y2.03758
G01 X-0.93104 Y2.04161
G01 X-0.92908 Y2.04546
G01 X-0.92627 Y2.05033
G01 X-0.92605 Y2.05029
G01 X-0.92627 Y2.05033
G01 X-0.92627 Y2.21960
G01 X-0.92605 Y2.21965
G01 X-0.92627 Y2.21960
G01 X-0.92908 Y2.22447
G01 X-0.93104 Y2.22832
G01 X-0.93259 Y2.23236
G01 X-0.93495 Y2.23962
G01 X-0.93607 Y2.24379
G01 X-0.93674 Y2.24806
G01 X-0.93754 Y2.25565
G01 X-0.93777 Y2.25997
G01 X-0.93754 Y2.26429
G01 X-0.93674 Y2.27187
G01 X-0.93607 Y2.27614
G01 X-0.93495 Y2.28032
G01 X-0.93259 Y2.28758
G01 X-0.93104 Y2.29161
G01 X-0.92999 Y2.29367
G01 X-0.92386 Y2.29804
G01 X-0.92999 Y2.29367
G01 X-0.99005 Y2.29367
G01 X-0.99189 Y2.29486
G01 X-0.99952 Y2.29927
G01 X-1.00660 Y2.30289
G01 X-1.00658 Y2.30293
G01 X-1.00660 Y2.30289
G01 X-1.00925 Y2.30407
G01 X-1.01423 Y2.30629
G01 X-1.01999 Y2.30851
G01 X-1.02762 Y2.31098
G01 X-1.03249 Y2.31229
G01 X-1.04012 Y2.31392
G01 X-1.04319 Y2.31440
G01 X-1.04319 Y2.31440
G01 X-1.04360 Y2.31447
G01 X-1.04360 Y2.31447
G01 X-1.04319 Y2.31440
G01 X-1.04319 Y2.31440
G01 X-1.04319 Y2.31440
G01 X-1.04235 Y2.31418
G01 X-1.04035 Y2.31341
G01 X-1.03338 Y2.31031
G01 X-1.03147 Y2.30933
G01 X-1.02967 Y2.30816
G01 X-1.02350 Y2.30368
G01 X-1.02183 Y2.30233
G01 X-1.02031 Y2.30081
G01 X-1.01520 Y2.29514
G01 X-1.01385 Y2.29347
G01 X-1.01269 Y2.29167
G01 X-1.00887 Y2.28506
G01 X-1.00790 Y2.28315
G01 X-1.00713 Y2.28115
G01 X-1.00477 Y2.27389
G01 X-1.00421 Y2.27182
G01 X-1.00388 Y2.26970
G01 X-1.00308 Y2.26211
G01 X-1.00297 Y2.25997
G04 P0 ( dwell for no time -- G64 should not smooth over this point )
G00 Z0.05000 ( retract )

G00 X-1.00925 Y2.30407 ( rapid move to begin. )
G01 F5.00000
( Mill infeed pass 1/1 )
G01 Z-0.00400
G04 P0 ( dwell for no time -- G64 should not smooth over this point )
G01 F10.00000
G01 X-1.00925 Y2.30407
G01 X-0.91587 Y2.30407
G04 P0 ( dwell for no time -- G64 should not smooth over this point )
G00 Z0.05000 ( retract )

G00 X-1.00925 Y2.30407 ( rapid move to begin. )
G01 F5.00000
( Mill infeed pass 1/1 )
G01 Z-0.00400
G04 P0 ( dwell for no time -- G64 should not smooth over this point )
G01 F10.00000
G01 X-1.00925 Y2.30407
G01 X-1.00660 Y2.30289
G01 X-0.99952 Y2.29927
G01 X-0.99189 Y2.29486
G01 X-0.99005 Y2.29367
G01 X-0.98989 Y2.29356
G01 X-0.98988 Y2.29356
G01 X-0.98292 Y2.28902
G01 X-0.97529 Y2.28347
G01 X-0.97504 Y2.28327
G01 X-0.97502 Y2.28326
G01 X-0.96356 Y2.27393
G01 X-0.96238 Y2.27287
G01 X-0.96238 Y2.27287
G01 X-0.96171 Y2.26646
G01 X-0.96137 Y2.25997
G01 X-0.96171 Y2.25348
G01 X-0.96251 Y2.24589
G01 X-0.96352 Y2.23947
G01 X-0.96521 Y2.23319
G01 X-0.96756 Y2.22593
G01 X-0.96989 Y2.21986
G01 X-0.97284 Y2.21407
G01 X-0.97287 Y2.21403
G01 X-0.97303 Y2.21406
G01 X-0.97287 Y2.21403
G01 X-0.97287 Y1.95090
G01 X-0.94696 Y1.96385
G01 X-0.94709 Y1.96407
G01 X-0.95004 Y1.96986
G01 X-0.95237 Y1.97593
G01 X-0.95473 Y1.98319
G01 X-0.95641 Y1.98947
G01 X-0.95743 Y1.99589
G01 X-0.95823 Y2.00348
G01 X-0.95857 Y2.00997
G01 X-0.95823 Y2.01646
G01 X-0.95743 Y2.02405
G01 X-0.95641 Y2.03047
G01 X-0.95473 Y2.03675
G01 X-0.95237 Y2.04400
G01 X-0.95004 Y2.05007
G01 X-0.94709 Y2.05586
G01 X-0.94707 Y2.05591
G01 X-0.94691 Y2.05588
G01 X-0.94707 Y2.05591
G01 X-0.94707 Y2.21403
G01 X-0.94691 Y2.21406
G01 X-0.94707 Y2.21403
G01 X-0.94709 Y2.21407
G01 X-0.95004 Y2.21986
G01 X-0.95237 Y2.22593
G01 X-0.95473 Y2.23319
G01 X-0.95641 Y2.23947
G01 X-0.95743 Y2.24589
G01 X-0.95823 Y2.25348
G01 X-0.95857 Y2.25997
G01 X-0.95823 Y2.26646
G01 X-0.95755 Y2.27287
G04 P0 ( dwell for no time -- G64 should not smooth over this point )
G00 Z0.05000 ( retract )

G00 X-1.25721 Y2.05832 ( rapid move to begin. )
G01 F5.00000
( Mill infeed pass 1/1 )
G01 Z-0.00400
G04 P0 ( dwell for no time -- G64 should not smooth over this point )
G01 F10.00000
G01 X-1.25721 Y2.05832
G01 X-1.25747 Y2.05838
G01 X-1.25954 Y2.05430
G01 X-1.25997 Y2.05320
G01 X-1.25997 Y2.03968
G01 X-1.25997 Y2.05320
G01 X-1.26039 Y2.05430
G01 X-1.26247 Y2.05838
G01 X-1.26273 Y2.05832
G01 X-1.26247 Y2.05838
G01 X-1.26247 Y2.21156
G01 X-1.26273 Y2.21162
G01 X-1.26247 Y2.21156
G01 X-1.26039 Y2.21563
G01 X-1.25997 Y2.21674
G01 X-1.25997 Y2.23026
G01 X-1.25997 Y2.21674
G01 X-1.25954 Y2.21563
G01 X-1.25747 Y2.21156
G01 X-1.25721 Y2.21162
G01 X-1.25747 Y2.21156
G01 X-1.25747 Y2.05838
G01 X-1.25721 Y2.05832
G04 P0 ( dwell for no time -- G64 should not smooth over this point )
G00 Z0.05000 ( retract )

G00 X-1.50547 Y2.02604 ( rapid move to begin. )
G01 F5.00000
( Mill infeed pass 1/1 )
G01 Z-0.00400
G04 P0 ( dwell for no time -- G64 should not smooth over this point )
G01 F10.00000
G01 X-1.50547 Y2.02604
G01 X-1.50547 Y2.02604
G01 X-1.50511 Y2.02378
G01 X-1.50467 Y2.01962
G01 X-1.50427 Y2.01199
G01 X-1.50427 Y2.00795
G01 X-1.50467 Y2.00032
G01 X-1.50511 Y1.99616
G01 X-1.50507 Y1.99615
G01 X-1.50511 Y1.99616
G01 X-1.50547 Y1.99389
G01 X-1.50713 Y1.98879
G01 X-1.50790 Y1.98679
G01 X-1.50887 Y1.98487
G01 X-1.51269 Y1.97826
G01 X-1.51385 Y1.97647
G01 X-1.51447 Y1.97571
G01 X-1.51447 Y1.94423
G01 X-1.51385 Y1.94347
G01 X-1.51269 Y1.94167
G01 X-1.50887 Y1.93506
G01 X-1.50790 Y1.93315
G01 X-1.50713 Y1.93115
G01 X-1.50547 Y1.92604
G01 X-1.50632 Y1.93141
G01 X-1.50729 Y1.93597
G01 X-1.50933 Y1.94361
G01 X-1.50997 Y1.94577
G01 X-1.51005 Y1.94576
G01 X-1.50997 Y1.94577
G01 X-1.50997 Y1.97416
G01 X-1.51003 Y1.97417
G01 X-1.50997 Y1.97416
G01 X-1.50933 Y1.97633
G01 X-1.50729 Y1.98396
G01 X-1.50632 Y1.98853
G01 X-1.50547 Y1.99389
G01 X-1.50632 Y1.98853
G01 X-1.50729 Y1.98396
G01 X-1.50933 Y1.97633
G01 X-1.50997 Y1.97416
G01 X-1.50997 Y1.94577
G01 X-1.50933 Y1.94361
G01 X-1.50729 Y1.93597
G01 X-1.50632 Y1.93141
G01 X-1.50547 Y1.92604
G01 X-1.50547 Y1.99389
G01 X-1.50511 Y1.99616
G01 X-1.50547 Y1.99389
G01 X-1.50632 Y1.98853
G01 X-1.50547 Y1.99389
G01 X-1.50547 Y1.99389
G01 X-1.50511 Y1.99616
G01 X-1.50467 Y2.00032
G01 X-1.50427 Y2.00795
G01 X-1.50427 Y2.01199
G01 X-1.50424 Y2.01199
G01 X-1.50427 Y2.01199
G01 X-1.50467 Y2.01962
G01 X-1.50511 Y2.02378
G01 X-1.50547 Y2.02604
G01 X-1.50511 Y2.02378
G01 X-1.50467 Y2.01962
G01 X-1.50427 Y2.01199
G01 X-1.50427 Y2.00795
G01 X-1.50467 Y2.00032
G01 X-1.50511 Y1.99616
G01 X-1.50547 Y1.99389
G01 X-1.50632 Y1.98853
G01 X-1.50729 Y1.98396
G01 X-1.50933 Y1.97633
G01 X-1.50997 Y1.97416
G01 X-1.50997 Y1.94577
G01 X-1.50933 Y1.94361
G01 X-1.50729 Y1.93597
G01 X-1.50632 Y1.93141
G01 X-1.50547 Y1.92604
G01 X-1.50547 Y1.92604
G04 P0 ( dwell for no time -- G64 should not smooth over this point )
G00 Z0.05000 ( retract )

G00 X-1.50547 Y1.89389 ( rapid move to begin. )
G01 F5.00000
( Mill infeed pass 1/1 )
G01 Z-0.00400
G04 P0 ( dwell for no time -- G64 should not smooth over this point )
G01 F10.00000
G01 X-1.50547 Y1.89389
G01 X-1.50632 Y1.88853
G01 X-1.50729 Y1.88396
G01 X-1.50933 Y1.87633
G01 X-1.51105 Y1.87106
G01 X-1.51398 Y1.86343
G01 X-1.51543 Y1.85997
G01 X-1.51420 Y1.85726
G01 X-1.51390 Y1.85658
G01 X-1.51225 Y1.85282
G01 X-1.51057 Y1.84931
G01 X-1.50997 Y1.84816
G01 X-1.50815 Y1.84429
G01 X-1.50800 Y1.84393
G01 X-1.50596 Y1.83968
G01 X-1.50476 Y1.83744
G01 X-1.50382 Y1.83560
G01 X-1.50241 Y1.83268
G01 X-1.50174 Y1.83137
G01 X-1.49959 Y1.82722
G01 X-1.49883 Y1.82582
G01 X-1.49711 Y1.82274
G01 X-1.49594 Y1.82053
G01 X-1.49485 Y1.81838
G01 X-1.49294 Y1.81498
G01 X-1.49294 Y1.81498
G01 X-1.49292 Y1.81495
G01 X-1.49198 Y1.81328
G01 X-1.49183 Y1.81304
G01 X-1.48923 Y1.80850
G01 X-1.48804 Y1.80625
G01 X-1.48741 Y1.80508
G01 X-1.48359 Y1.79811
G01 X-1.48330 Y1.79751
G01 X-1.47852 Y1.78752
G01 X-1.47639 Y1.78243
G01 X-1.47639 Y1.78242
G01 X-1.47745 Y1.77915
G01 X-1.47939 Y1.77409
G01 X-1.48185 Y1.76927
G01 X-1.48327 Y1.76682
G01 X-1.48349 Y1.76686
G01 X-1.48327 Y1.76682
G01 X-1.48327 Y1.70411
G01 X-1.48358 Y1.70404
G01 X-1.48327 Y1.70411
G01 X-1.48139 Y1.70087
G01 X-1.47894 Y1.69605
G01 X-1.47700 Y1.69099
G01 X-1.47461 Y1.68364
G01 X-1.47321 Y1.67841
G01 X-1.47236 Y1.67307
G01 X-1.47155 Y1.66537
G01 X-1.47127 Y1.65997
G01 X-1.47155 Y1.65456
G01 X-1.47236 Y1.64687
G01 X-1.47315 Y1.64189
G01 X-1.47347 Y1.64163
G01 X-1.47848 Y1.63756
G01 X-1.48621 Y1.63194
G01 X-1.48619 Y1.63192
G01 X-1.48621 Y1.63194
G01 X-1.48730 Y1.63123
G01 X-1.49442 Y1.62659
G01 X-1.48730 Y1.63123
G01 X-1.49442 Y1.62659
G01 X-1.50215 Y1.62212
G01 X-1.50214 Y1.62210
G01 X-1.50215 Y1.62212
G01 X-1.50468 Y1.62083
G01 X-1.50853 Y1.61886
G01 X-1.51627 Y1.61542
G01 X-1.52139 Y1.61345
G01 X-1.52136 Y1.61336
G01 X-1.52139 Y1.61345
G01 X-1.52573 Y1.61204
G01 X-1.52571 Y1.61197
G01 X-1.52573 Y1.61204
G01 X-1.52571 Y1.61198
G01 X-1.52573 Y1.61204
G01 X-1.52890 Y1.61171
G01 X-1.52573 Y1.61204
G01 X-1.52139 Y1.61345
G01 X-1.51627 Y1.61542
G01 X-1.50853 Y1.61886
G01 X-1.50468 Y1.62083
G01 X-1.50215 Y1.62212
G01 X-1.49442 Y1.62659
G01 X-1.48730 Y1.63123
G01 X-1.48621 Y1.63194
G01 X-1.47848 Y1.63756
G01 X-1.47347 Y1.64163
G01 X-1.46764 Y1.64638
G01 X-1.46136 Y1.65203
G01 X-1.46136 Y1.65203
G01 X-1.45858 Y1.65203
G01 X-1.45229 Y1.64637
G01 X-1.44679 Y1.64190
G01 X-1.44646 Y1.64163
G01 X-1.44146 Y1.63756
G01 X-1.43372 Y1.63194
G01 X-1.43271 Y1.63128
G01 X-1.43271 Y1.63128
G04 P0 ( dwell for no time -- G64 should not smooth over this point )
G00 Z0.05000 ( retract )

G00 X-1.43271 Y1.63128 ( rapid move to begin. )
G01 F5.00000
( Mill infeed pass 1/1 )
G01 Z-0.00400
G04 P0 ( dwell for no time -- G64 should not smooth over this point )
G01 F10.00000
G01 X-1.43271 Y1.63128
G01 X-1.43264 Y1.63123
G01 X-1.43263 Y1.63123
G01 X-1.42552 Y1.62659
G01 X-1.41778 Y1.62212
G01 X-1.41548 Y1.62095
G01 X-1.41525 Y1.62083
G01 X-1.41140 Y1.61886
G01 X-1.40367 Y1.61542
G01 X-1.39855 Y1.61345
G01 X-1.39421 Y1.61204
G01 X-1.39102 Y1.61171
G01 X-1.39031 Y1.61163
G01 X-1.38600 Y1.61101
G01 X-1.38359 Y1.61058
G01 X-1.37823 Y1.60944
G01 X-1.37478 Y1.60889
G01 X-1.36704 Y1.60808
G01 X-1.36383 Y1.60791
G01 X-1.35610 Y1.60791
G01 X-1.35289 Y1.60808
G01 X-1.34516 Y1.60889
G01 X-1.34170 Y1.60944
G01 X-1.33634 Y1.61058
G01 X-1.33393 Y1.61101
G01 X-1.32963 Y1.61163
G01 X-1.32891 Y1.61171
G01 X-1.32890 Y1.61171
G01 X-1.32850 Y1.61159
G01 X-1.32634 Y1.61043
G01 X-1.19360 Y1.61043
G01 X-1.19144 Y1.61159
G01 X-1.19102 Y1.61171
G01 X-1.19678 Y1.61589
G01 X-1.19844 Y1.61724
G01 X-1.19996 Y1.61876
G01 X-1.20514 Y1.62450
G01 X-1.20649 Y1.62617
G01 X-1.20766 Y1.62797
G01 X-1.21152 Y1.63467
G01 X-1.21250 Y1.63658
G01 X-1.21327 Y1.63858
G01 X-1.21566 Y1.64594
G01 X-1.21621 Y1.64801
G01 X-1.21655 Y1.65013
G01 X-1.21679 Y1.65244
G01 X-1.29214 Y1.72780
G01 X-1.29349 Y1.72929
G01 X-1.29660 Y1.73307
G01 X-1.29780 Y1.73469
G01 X-1.29883 Y1.73642
G01 X-1.30114 Y1.74074
G01 X-1.30200 Y1.74256
G01 X-1.30268 Y1.74445
G01 X-1.30410 Y1.74914
G01 X-1.30489 Y1.75308
G01 X-1.30537 Y1.75796
G01 X-1.30547 Y1.75997
G01 X-1.30547 Y1.79389
G01 X-1.30713 Y1.78879
G01 X-1.30790 Y1.78679
G01 X-1.30887 Y1.78487
G01 X-1.31269 Y1.77826
G01 X-1.31385 Y1.77647
G01 X-1.31447 Y1.77571
G01 X-1.31447 Y1.69502
G01 X-1.31345 Y1.69377
G01 X-1.31228 Y1.69197
G01 X-1.30841 Y1.68527
G01 X-1.30744 Y1.68336
G01 X-1.30667 Y1.68135
G01 X-1.30428 Y1.67400
G01 X-1.30372 Y1.67192
G01 X-1.30339 Y1.66980
G01 X-1.30258 Y1.66211
G01 X-1.30247 Y1.65997
G01 X-1.30258 Y1.65783
G01 X-1.30339 Y1.65013
G01 X-1.30372 Y1.64801
G01 X-1.30428 Y1.64594
G01 X-1.30667 Y1.63858
G01 X-1.30744 Y1.63658
G01 X-1.30841 Y1.63467
G01 X-1.31228 Y1.62797
G01 X-1.31345 Y1.62617
G01 X-1.31480 Y1.62450
G01 X-1.31998 Y1.61876
G01 X-1.32149 Y1.61724
G01 X-1.32316 Y1.61589
G01 X-1.32891 Y1.61171
G01 X-1.32963 Y1.61163
G01 X-1.32890 Y1.61171
G01 X-1.32573 Y1.61204
G01 X-1.32139 Y1.61345
G01 X-1.31627 Y1.61542
G01 X-1.30853 Y1.61886
G01 X-1.30468 Y1.62083
G01 X-1.30215 Y1.62212
G01 X-1.29442 Y1.62659
G01 X-1.28730 Y1.63123
G01 X-1.28621 Y1.63194
G01 X-1.27848 Y1.63756
G01 X-1.27347 Y1.64163
G01 X-1.26764 Y1.64638
G01 X-1.26572 Y1.64810
G01 X-1.25010 Y1.64163
G01 X-1.24297 Y1.63868
G01 X-1.24295 Y1.63872
G01 X-1.24297 Y1.63868
G01 X-1.25010 Y1.64163
G01 X-1.26572 Y1.64810
G01 X-1.26788 Y1.65418
G01 X-1.27141 Y1.66275
G01 X-1.27141 Y1.66275
G01 X-1.27155 Y1.66308
G01 X-1.27155 Y1.66308
G01 X-1.27246 Y1.66527
G01 X-1.27599 Y1.67268
G01 X-1.27595 Y1.67270
G01 X-1.27599 Y1.67268
G01 X-1.28083 Y1.68161
G01 X-1.28081 Y1.68163
G01 X-1.28083 Y1.68161
G01 X-1.28498 Y1.68840
G01 X-1.29010 Y1.69584
G01 X-1.29172 Y1.69796
G01 X-1.29172 Y1.69796
G01 X-1.29173 Y1.69797
G01 X-1.29173 Y1.69797
G01 X-1.29420 Y1.70119
G01 X-1.29425 Y1.70116
G01 X-1.29420 Y1.70119
G01 X-1.29427 Y1.70115
G01 X-1.29420 Y1.70119
G01 X-1.30139 Y1.71855
G01 X-1.30264 Y1.72178
G01 X-1.30267 Y1.72177
G01 X-1.30264 Y1.72178
G01 X-1.30407 Y1.72578
G01 X-1.30407 Y1.72578
G01 X-1.30439 Y1.72668
G01 X-1.30616 Y1.73250
G01 X-1.30739 Y1.73740
G01 X-1.30744 Y1.73739
G01 X-1.30739 Y1.73740
G01 X-1.30844 Y1.74270
G01 X-1.30848 Y1.74270
G01 X-1.30844 Y1.74270
G01 X-1.30917 Y1.74760
G01 X-1.30923 Y1.74759
G01 X-1.30917 Y1.74760
G01 X-1.30967 Y1.75261
G01 X-1.30969 Y1.75261
G01 X-1.30967 Y1.75261
G01 X-1.30991 Y1.75751
G01 X-1.30992 Y1.75751
G01 X-1.30991 Y1.75751
G01 X-1.30997 Y1.75997
G01 X-1.30997 Y1.77416
G01 X-1.31002 Y1.77417
G01 X-1.31004 Y1.77417
G01 X-1.31002 Y1.77417
G01 X-1.30997 Y1.77416
G01 X-1.31005 Y1.77417
G01 X-1.30997 Y1.77416
G01 X-1.30933 Y1.77633
G01 X-1.30729 Y1.78396
G01 X-1.30632 Y1.78853
G01 X-1.30547 Y1.79389
G01 X-1.30632 Y1.78853
G01 X-1.30729 Y1.78396
G01 X-1.30933 Y1.77633
G01 X-1.30997 Y1.77416
G01 X-1.30997 Y1.75997
G01 X-1.30991 Y1.75751
G01 X-1.30967 Y1.75261
G01 X-1.30917 Y1.74760
G01 X-1.30844 Y1.74270
G01 X-1.30739 Y1.73740
G01 X-1.30616 Y1.73250
G01 X-1.30439 Y1.72668
G01 X-1.30407 Y1.72578
G01 X-1.30407 Y1.69839
G01 X-1.30437 Y1.69831
G01 X-1.30407 Y1.69839
G01 X-1.30327 Y1.69717
G01 X-1.29941 Y1.69047
G01 X-1.29794 Y1.68759
G01 X-1.29678 Y1.68457
G01 X-1.29439 Y1.67721
G01 X-1.29355 Y1.67409
G01 X-1.29305 Y1.67089
G01 X-1.29224 Y1.66320
G01 X-1.29207 Y1.65997
G01 X-1.29224 Y1.65674
G01 X-1.29305 Y1.64905
G01 X-1.29355 Y1.64585
G01 X-1.29439 Y1.64273
G01 X-1.29678 Y1.63537
G01 X-1.29794 Y1.63235
G01 X-1.29941 Y1.62947
G01 X-1.30327 Y1.62277
G01 X-1.30446 Y1.62094
G01 X-1.30468 Y1.62083
G01 X-1.21525 Y1.62083
G01 X-1.21548 Y1.62095
G01 X-1.21666 Y1.62277
G01 X-1.22053 Y1.62947
G01 X-1.22200 Y1.63235
G01 X-1.22316 Y1.63537
G01 X-1.22555 Y1.64273
G01 X-1.22638 Y1.64585
G01 X-1.22666 Y1.64761
G01 X-1.22639 Y1.64777
G01 X-1.22666 Y1.64761
G01 X-1.29950 Y1.72044
G01 X-1.30153 Y1.72269
G01 X-1.30407 Y1.72578
G01 X-1.30407 Y1.72578
G01 X-1.30407 Y1.72578
G01 X-1.30264 Y1.72178
G01 X-1.30139 Y1.71855
G01 X-1.29420 Y1.70119
G01 X-1.29173 Y1.69797
G01 X-1.29173 Y1.69797
G01 X-1.29040 Y1.69567
G01 X-1.28844 Y1.69182
G01 X-1.28689 Y1.68778
G01 X-1.28450 Y1.68042
G01 X-1.28338 Y1.67625
G01 X-1.28270 Y1.67198
G01 X-1.28189 Y1.66429
G01 X-1.28167 Y1.65997
G01 X-1.28189 Y1.65565
G01 X-1.28270 Y1.64796
G01 X-1.28338 Y1.64369
G01 X-1.28450 Y1.63951
G01 X-1.28689 Y1.63216
G01 X-1.28723 Y1.63128
G01 X-1.28730 Y1.63123
G01 X-1.23263 Y1.63123
G01 X-1.23271 Y1.63128
G01 X-1.23305 Y1.63216
G01 X-1.23544 Y1.63951
G01 X-1.23623 Y1.64247
G01 X-1.23597 Y1.64262
G01 X-1.23623 Y1.64247
G01 X-1.29172 Y1.69796
G01 X-1.29172 Y1.69796
G01 X-1.29173 Y1.69797
G01 X-1.29172 Y1.69796
G01 X-1.29172 Y1.69796
G01 X-1.29010 Y1.69584
G01 X-1.28498 Y1.68840
G01 X-1.28083 Y1.68161
G01 X-1.27599 Y1.67268
G01 X-1.27246 Y1.66527
G01 X-1.27155 Y1.66308
G01 X-1.27155 Y1.66308
G01 X-1.27141 Y1.66275
G01 X-1.27141 Y1.66275
G01 X-1.26788 Y1.65418
G01 X-1.26572 Y1.64810
G01 X-1.26764 Y1.64638
G01 X-1.27347 Y1.64163
G01 X-1.27848 Y1.63756
G01 X-1.27347 Y1.64163
G01 X-1.27347 Y1.64163
G01 X-1.25010 Y1.64163
G01 X-1.25010 Y1.64163
G01 X-1.24297 Y1.63868
G01 X-1.25010 Y1.64163
G01 X-1.27155 Y1.66308
G01 X-1.27141 Y1.66275
G01 X-1.27141 Y1.66275
G01 X-1.27127 Y1.65997
G01 X-1.28167 Y1.65997
G01 X-1.29207 Y1.65997
G01 X-1.30247 Y1.65997
G04 P0 ( dwell for no time -- G64 should not smooth over this point )
G00 Z0.05000 ( retract )

G00 X-1.27246 Y1.66527 ( rapid move to begin. )
G01 F5.00000
( Mill infeed pass 1/1 )
G01 Z-0.00400
G04 P0 ( dwell for no time -- G64 should not smooth over this point )
G01 F10.00000
G01 X-1.27246 Y1.66527
G01 X-1.27127 Y1.65997
G01 X-1.27155 Y1.65456
G01 X-1.27236 Y1.64687
G01 X-1.27315 Y1.64190
G01 X-1.27347 Y1.64163
G01 X-1.27848 Y1.63756
G01 X-1.27347 Y1.64163
G01 X-1.27848 Y1.63756
G01 X-1.28621 Y1.63194
G01 X-1.28730 Y1.63123
G01 X-1.29442 Y1.62659
G01 X-1.29439 Y1.62655
G01 X-1.29442 Y1.62659
G01 X-1.30215 Y1.62212
G01 X-1.30214 Y1.62211
G01 X-1.30215 Y1.62212
G01 X-1.30468 Y1.62083
G01 X-1.30853 Y1.61886
G01 X-1.31627 Y1.61542
G01 X-1.32139 Y1.61345
G01 X-1.32136 Y1.61336
G01 X-1.32135 Y1.61335
G01 X-1.32136 Y1.61336
G01 X-1.32139 Y1.61345
G01 X-1.32573 Y1.61204
G01 X-1.32571 Y1.61197
G01 X-1.32573 Y1.61204
G01 X-1.32890 Y1.61171
G01 X-1.32963 Y1.61163
G01 X-1.33393 Y1.61101
G01 X-1.33634 Y1.61058
G01 X-1.34170 Y1.60944
G01 X-1.34516 Y1.60889
G01 X-1.34515 Y1.60887
G01 X-1.34516 Y1.60889
G01 X-1.35289 Y1.60808
G01 X-1.35289 Y1.60802
G01 X-1.35289 Y1.60808
G01 X-1.35610 Y1.60791
G01 X-1.35610 Y1.60785
G01 X-1.35610 Y1.60791
G01 X-1.36383 Y1.60791
G01 X-1.36384 Y1.60786
G01 X-1.36383 Y1.60791
G01 X-1.36704 Y1.60808
G01 X-1.37478 Y1.60889
G01 X-1.37478 Y1.60887
G01 X-1.37478 Y1.60889
G01 X-1.37823 Y1.60944
G01 X-1.38359 Y1.61058
G01 X-1.38600 Y1.61101
G01 X-1.39031 Y1.61163
G01 X-1.39102 Y1.61171
G01 X-1.39421 Y1.61204
G01 X-1.39422 Y1.61198
G01 X-1.39421 Y1.61204
G01 X-1.39423 Y1.61196
G01 X-1.39421 Y1.61204
G01 X-1.39423 Y1.61195
G01 X-1.39421 Y1.61204
G01 X-1.39855 Y1.61345
G01 X-1.40367 Y1.61542
G01 X-1.40367 Y1.61540
G01 X-1.40367 Y1.61542
G01 X-1.41140 Y1.61886
G01 X-1.41141 Y1.61884
G01 X-1.41140 Y1.61886
G01 X-1.41525 Y1.62083
G01 X-1.41548 Y1.62095
G01 X-1.41666 Y1.62277
G01 X-1.42053 Y1.62947
G01 X-1.42200 Y1.63235
G01 X-1.42316 Y1.63537
G01 X-1.42555 Y1.64273
G01 X-1.42638 Y1.64585
G01 X-1.42689 Y1.64905
G01 X-1.42770 Y1.65674
G01 X-1.42787 Y1.65997
G01 X-1.42770 Y1.66320
G01 X-1.42689 Y1.67089
G01 X-1.42638 Y1.67409
G01 X-1.42555 Y1.67721
G01 X-1.42316 Y1.68457
G01 X-1.42200 Y1.68759
G01 X-1.42053 Y1.69047
G01 X-1.41666 Y1.69717
G01 X-1.41587 Y1.69839
G01 X-1.41552 Y1.69830
G01 X-1.41587 Y1.69839
G01 X-1.41587 Y1.77247
G01 X-1.41550 Y1.77256
G01 X-1.41587 Y1.77247
G01 X-1.41626 Y1.77306
G01 X-1.41833 Y1.77665
G01 X-1.41803 Y1.77696
G01 X-1.41833 Y1.77665
G01 X-1.48497 Y1.80997
G01 X-1.48745 Y1.81136
G01 X-1.49137 Y1.81379
G01 X-1.49294 Y1.81498
G01 X-1.49292 Y1.81495
G01 X-1.49274 Y1.81320
G01 X-1.49257 Y1.80997
G01 X-1.49274 Y1.80674
G01 X-1.49353 Y1.79915
G01 X-1.49404 Y1.79596
G01 X-1.49488 Y1.79283
G01 X-1.49724 Y1.78557
G01 X-1.49840 Y1.78255
G01 X-1.49986 Y1.77967
G01 X-1.50368 Y1.77306
G01 X-1.50407 Y1.77247
G01 X-1.50441 Y1.77255
G01 X-1.50407 Y1.77247
G01 X-1.50407 Y1.69839
G01 X-1.50441 Y1.69830
G01 X-1.50407 Y1.69839
G01 X-1.50327 Y1.69717
G01 X-1.49941 Y1.69047
G01 X-1.49794 Y1.68759
G01 X-1.49678 Y1.68457
G01 X-1.49439 Y1.67721
G01 X-1.49355 Y1.67409
G01 X-1.49305 Y1.67089
G01 X-1.49224 Y1.66320
G01 X-1.49207 Y1.65997
G01 X-1.49224 Y1.65674
G01 X-1.49305 Y1.64905
G01 X-1.49355 Y1.64585
G01 X-1.49439 Y1.64273
G01 X-1.49678 Y1.63537
G01 X-1.49794 Y1.63235
G01 X-1.49941 Y1.62947
G01 X-1.50327 Y1.62277
G01 X-1.50446 Y1.62094
G01 X-1.50468 Y1.62083
G01 X-1.50853 Y1.61886
G01 X-1.50852 Y1.61883
G01 X-1.50853 Y1.61886
G01 X-1.50468 Y1.62083
G01 X-1.50468 Y1.62083
G01 X-1.41525 Y1.62083
G01 X-1.41548 Y1.62095
G01 X-1.41778 Y1.62212
G01 X-1.41780 Y1.62209
G01 X-1.41778 Y1.62212
G01 X-1.42552 Y1.62659
G01 X-1.42553 Y1.62656
G01 X-1.42552 Y1.62659
G01 X-1.43263 Y1.63123
G01 X-1.42552 Y1.62659
G01 X-1.43264 Y1.63123
G01 X-1.43271 Y1.63128
G01 X-1.43372 Y1.63194
G01 X-1.44146 Y1.63756
G01 X-1.44147 Y1.63754
G01 X-1.44146 Y1.63756
G01 X-1.44646 Y1.64163
G01 X-1.44679 Y1.64190
G01 X-1.45229 Y1.64637
G01 X-1.45858 Y1.65203
G01 X-1.45858 Y1.65203
G01 X-1.45858 Y1.65203
G01 X-1.45997 Y1.65328
G01 X-1.45858 Y1.65203
G01 X-1.45229 Y1.64637
G01 X-1.45858 Y1.65203
G01 X-1.45858 Y1.65203
G01 X-1.45873 Y1.65348
G01 X-1.45907 Y1.65997
G01 X-1.45873 Y1.66646
G01 X-1.45792 Y1.67415
G01 X-1.45690 Y1.68057
G01 X-1.45522 Y1.68685
G01 X-1.45283 Y1.69421
G01 X-1.45050 Y1.70028
G01 X-1.44755 Y1.70607
G01 X-1.44707 Y1.70690
G01 X-1.44690 Y1.70687
G01 X-1.44707 Y1.70690
G01 X-1.44707 Y1.75614
G01 X-1.44551 Y1.75710
G01 X-1.44707 Y1.75614
G01 X-1.47098 Y1.76809
G01 X-1.47098 Y1.76810
G01 X-1.47463 Y1.77823
G01 X-1.47639 Y1.78242
G01 X-1.47639 Y1.78243
G01 X-1.47852 Y1.78752
G01 X-1.47851 Y1.78752
G01 X-1.47852 Y1.78752
G01 X-1.48330 Y1.79751
G01 X-1.48359 Y1.79811
G01 X-1.48741 Y1.80508
G01 X-1.48804 Y1.80625
G01 X-1.48923 Y1.80850
G01 X-1.49183 Y1.81304
G01 X-1.49198 Y1.81328
G01 X-1.49292 Y1.81495
G01 X-1.49294 Y1.81498
G01 X-1.49294 Y1.81498
G01 X-1.49485 Y1.81838
G01 X-1.49594 Y1.82053
G01 X-1.49711 Y1.82274
G01 X-1.49883 Y1.82582
G01 X-1.49959 Y1.82722
G01 X-1.50174 Y1.83137
G01 X-1.50241 Y1.83268
G01 X-1.50382 Y1.83560
G01 X-1.50476 Y1.83744
G01 X-1.50596 Y1.83968
G01 X-1.50800 Y1.84393
G01 X-1.50815 Y1.84429
G01 X-1.50997 Y1.84816
G01 X-1.51057 Y1.84931
G01 X-1.51225 Y1.85282
G01 X-1.51390 Y1.85658
G01 X-1.51420 Y1.85726
G01 X-1.51543 Y1.85997
G01 X-1.51398 Y1.86343
G01 X-1.51105 Y1.87106
G01 X-1.50933 Y1.87633
G01 X-1.50729 Y1.88396
G01 X-1.50724 Y1.88395
G01 X-1.50729 Y1.88396
G01 X-1.50632 Y1.88853
G01 X-1.50547 Y1.89389
G01 X-1.50547 Y1.89389
G01 X-1.50511 Y1.89616
G01 X-1.50467 Y1.90032
G01 X-1.50427 Y1.90795
G01 X-1.50423 Y1.90795
G01 X-1.50427 Y1.90795
G01 X-1.50427 Y1.91199
G01 X-1.50467 Y1.91962
G01 X-1.50511 Y1.92378
G01 X-1.50507 Y1.92379
G01 X-1.50511 Y1.92378
G01 X-1.50547 Y1.92604
G01 X-1.50511 Y1.92378
G01 X-1.50467 Y1.91962
G01 X-1.50427 Y1.91199
G01 X-1.50427 Y1.90795
G01 X-1.50467 Y1.90032
G01 X-1.50511 Y1.89616
G01 X-1.50547 Y1.89389
G04 P0 ( dwell for no time -- G64 should not smooth over this point )
G00 Z0.05000 ( retract )

G00 X-1.61214 Y1.88704 ( rapid move to begin. )
G01 F5.00000
( Mill infeed pass 1/1 )
G01 Z-0.00400
G04 P0 ( dwell for no time -- G64 should not smooth over this point )
G01 F10.00000
G01 X-1.61214 Y1.88704
G01 X-1.61357 Y1.88854
G01 X-1.61431 Y1.88816
G01 X-1.61357 Y1.88854
G01 X-1.61363 Y1.88861
G01 X-1.61426 Y1.88826
G01 X-1.61363 Y1.88861
G01 X-1.61447 Y1.89389
G01 X-1.61483 Y1.89616
G01 X-1.61447 Y1.89389
G01 X-1.61447 Y1.89390
G01 X-1.61447 Y1.88809
G01 X-1.61193 Y1.88682
G01 X-1.61214 Y1.88704
G01 X-1.61193 Y1.88682
G01 X-1.61193 Y1.88682
G04 P0 ( dwell for no time -- G64 should not smooth over this point )
G00 Z0.05000 ( retract )

G00 X-1.70547 Y1.99390 ( rapid move to begin. )
G01 F5.00000
( Mill infeed pass 1/1 )
G01 Z-0.00400
G04 P0 ( dwell for no time -- G64 should not smooth over this point )
G01 F10.00000
G01 X-1.70547 Y1.99390
G01 X-1.70632 Y1.98853
G01 X-1.70729 Y1.98396
G01 X-1.70933 Y1.97633
G01 X-1.70997 Y1.97416
G01 X-1.70997 Y1.94577
G01 X-1.70933 Y1.94361
G01 X-1.70729 Y1.93597
G01 X-1.70632 Y1.93141
G01 X-1.70547 Y1.92604
G01 X-1.70547 Y1.92604
G01 X-1.70511 Y1.92378
G01 X-1.70467 Y1.91962
G01 X-1.70427 Y1.91199
G01 X-1.70427 Y1.90795
G01 X-1.70467 Y1.90032
G01 X-1.70511 Y1.89616
G01 X-1.70547 Y1.89390
G01 X-1.70632 Y1.88853
G01 X-1.70729 Y1.88396
G01 X-1.70933 Y1.87633
G01 X-1.71105 Y1.87106
G01 X-1.71398 Y1.86343
G01 X-1.71543 Y1.85997
G01 X-1.71420 Y1.85726
G01 X-1.71390 Y1.85658
G01 X-1.71225 Y1.85282
G01 X-1.71057 Y1.84931
G01 X-1.70997 Y1.84816
G01 X-1.70815 Y1.84429
G01 X-1.70800 Y1.84393
G01 X-1.70596 Y1.83968
G01 X-1.70476 Y1.83744
G01 X-1.70382 Y1.83560
G01 X-1.70241 Y1.83268
G01 X-1.70174 Y1.83137
G01 X-1.69959 Y1.82722
G01 X-1.69883 Y1.82582
G01 X-1.69711 Y1.82274
G01 X-1.69594 Y1.82053
G01 X-1.69485 Y1.81838
G01 X-1.69294 Y1.81498
G01 X-1.69294 Y1.81498
G01 X-1.69292 Y1.81495
G01 X-1.69198 Y1.81328
G01 X-1.69183 Y1.81304
G01 X-1.68923 Y1.80850
G01 X-1.68804 Y1.80625
G01 X-1.68741 Y1.80508
G01 X-1.68359 Y1.79811
G01 X-1.68330 Y1.79751
G01 X-1.67852 Y1.78752
G01 X-1.67639 Y1.78243
G01 X-1.67639 Y1.78242
G01 X-1.67745 Y1.77915
G01 X-1.67939 Y1.77409
G01 X-1.68185 Y1.76927
G01 X-1.68327 Y1.76682
G01 X-1.68349 Y1.76686
G01 X-1.68327 Y1.76682
G01 X-1.68327 Y1.70411
G01 X-1.68358 Y1.70404
G01 X-1.68327 Y1.70411
G01 X-1.68139 Y1.70087
G01 X-1.67894 Y1.69605
G01 X-1.67700 Y1.69099
G01 X-1.67461 Y1.68364
G01 X-1.67321 Y1.67841
G01 X-1.67236 Y1.67307
G01 X-1.67155 Y1.66537
G01 X-1.67127 Y1.65997
G01 X-1.67155 Y1.65456
G01 X-1.67236 Y1.64687
G01 X-1.67315 Y1.64189
G01 X-1.67347 Y1.64163
G01 X-1.67848 Y1.63756
G01 X-1.68621 Y1.63194
G01 X-1.68619 Y1.63191
G01 X-1.68621 Y1.63194
G01 X-1.68730 Y1.63123
G01 X-1.69442 Y1.62659
G01 X-1.69440 Y1.62656
G01 X-1.69442 Y1.62659
G01 X-1.70215 Y1.62212
G01 X-1.70214 Y1.62210
G01 X-1.70215 Y1.62212
G01 X-1.70468 Y1.62083
G01 X-1.70853 Y1.61886
G01 X-1.71627 Y1.61542
G01 X-1.71626 Y1.61539
G01 X-1.71627 Y1.61542
G01 X-1.72139 Y1.61345
G01 X-1.72136 Y1.61336
G01 X-1.72139 Y1.61345
G01 X-1.72573 Y1.61204
G01 X-1.72571 Y1.61197
G01 X-1.72573 Y1.61204
G01 X-1.72572 Y1.61200
G01 X-1.72573 Y1.61204
G01 X-1.72890 Y1.61171
G01 X-1.72573 Y1.61204
G01 X-1.72139 Y1.61345
G01 X-1.71627 Y1.61542
G01 X-1.70853 Y1.61886
G01 X-1.70468 Y1.62083
G01 X-1.70215 Y1.62212
G01 X-1.69442 Y1.62659
G01 X-1.68730 Y1.63123
G01 X-1.68621 Y1.63194
G01 X-1.67848 Y1.63756
G01 X-1.67347 Y1.64163
G01 X-1.66764 Y1.64638
G01 X-1.66136 Y1.65203
G01 X-1.66136 Y1.65203
G01 X-1.65858 Y1.65203
G01 X-1.65229 Y1.64637
G01 X-1.64679 Y1.64190
G01 X-1.64646 Y1.64163
G01 X-1.64146 Y1.63756
G01 X-1.63372 Y1.63194
G01 X-1.63271 Y1.63128
G01 X-1.63271 Y1.63128
G04 P0 ( dwell for no time -- G64 should not smooth over this point )
G00 Z0.05000 ( retract )

G00 X-1.63271 Y1.63128 ( rapid move to begin. )
G01 F5.00000
( Mill infeed pass 1/1 )
G01 Z-0.00400
G04 P0 ( dwell for no time -- G64 should not smooth over this point )
G01 F10.00000
G01 X-1.63271 Y1.63128
G01 X-1.63264 Y1.63123
G01 X-1.63263 Y1.63123
G01 X-1.62552 Y1.62659
G01 X-1.62553 Y1.62656
G01 X-1.62552 Y1.62659
G01 X-1.63263 Y1.63123
G01 X-1.62552 Y1.62659
G01 X-1.61778 Y1.62212
G01 X-1.61548 Y1.62095
G01 X-1.61666 Y1.62277
G01 X-1.62053 Y1.62947
G01 X-1.62200 Y1.63235
G01 X-1.62316 Y1.63537
G01 X-1.62555 Y1.64273
G01 X-1.62638 Y1.64585
G01 X-1.62689 Y1.64905
G01 X-1.62770 Y1.65674
G01 X-1.62787 Y1.65997
G01 X-1.62770 Y1.66320
G01 X-1.62689 Y1.67089
G01 X-1.62638 Y1.67409
G01 X-1.62555 Y1.67721
G01 X-1.62316 Y1.68457
G01 X-1.62200 Y1.68759
G01 X-1.62053 Y1.69047
G01 X-1.61666 Y1.69717
G01 X-1.61587 Y1.69839
G01 X-1.61552 Y1.69830
G01 X-1.61587 Y1.69839
G01 X-1.61587 Y1.77247
G01 X-1.61550 Y1.77256
G01 X-1.61587 Y1.77247
G01 X-1.61626 Y1.77306
G01 X-1.61833 Y1.77665
G01 X-1.61803 Y1.77696
G01 X-1.61833 Y1.77665
G01 X-1.68497 Y1.80997
G01 X-1.68745 Y1.81136
G01 X-1.69137 Y1.81379
G01 X-1.69294 Y1.81498
G01 X-1.69292 Y1.81495
G01 X-1.69274 Y1.81320
G01 X-1.69257 Y1.80997
G01 X-1.69274 Y1.80674
G01 X-1.69353 Y1.79915
G01 X-1.69404 Y1.79596
G01 X-1.69488 Y1.79283
G01 X-1.69724 Y1.78557
G01 X-1.69840 Y1.78255
G01 X-1.69986 Y1.77967
G01 X-1.70368 Y1.77306
G01 X-1.70407 Y1.77247
G01 X-1.70441 Y1.77255
G01 X-1.70407 Y1.77247
G01 X-1.70407 Y1.69839
G01 X-1.70441 Y1.69830
G01 X-1.70407 Y1.69839
G01 X-1.70327 Y1.69717
G01 X-1.69941 Y1.69047
G01 X-1.69794 Y1.68759
G01 X-1.69678 Y1.68457
G01 X-1.69439 Y1.67721
G01 X-1.69355 Y1.67409
G01 X-1.69305 Y1.67089
G01 X-1.69224 Y1.66320
G01 X-1.69207 Y1.65997
G01 X-1.69224 Y1.65674
G01 X-1.69305 Y1.64905
G01 X-1.69355 Y1.64585
G01 X-1.69439 Y1.64273
G01 X-1.69678 Y1.63537
G01 X-1.69794 Y1.63235
G01 X-1.69941 Y1.62947
G01 X-1.70327 Y1.62277
G01 X-1.70446 Y1.62094
G01 X-1.70468 Y1.62083
G01 X-1.70853 Y1.61886
G01 X-1.70468 Y1.62083
G01 X-1.70468 Y1.62083
G01 X-1.61525 Y1.62083
G01 X-1.61548 Y1.62095
G01 X-1.61525 Y1.62083
G01 X-1.61140 Y1.61886
G01 X-1.61141 Y1.61884
G01 X-1.61140 Y1.61886
G01 X-1.60367 Y1.61542
G01 X-1.60367 Y1.61540
G01 X-1.60368 Y1.61539
G01 X-1.60367 Y1.61540
G01 X-1.60367 Y1.61542
G01 X-1.59855 Y1.61345
G01 X-1.59858 Y1.61335
G01 X-1.59855 Y1.61345
G01 X-1.59421 Y1.61204
G01 X-1.59422 Y1.61199
G01 X-1.59423 Y1.61195
G01 X-1.59422 Y1.61199
G01 X-1.59421 Y1.61204
G01 X-1.59422 Y1.61198
G01 X-1.59421 Y1.61204
G01 X-1.59102 Y1.61171
G01 X-1.59031 Y1.61163
G01 X-1.58600 Y1.61101
G01 X-1.58359 Y1.61058
G01 X-1.57823 Y1.60944
G01 X-1.57478 Y1.60889
G01 X-1.57478 Y1.60887
G01 X-1.57478 Y1.60889
G01 X-1.56704 Y1.60808
G01 X-1.56705 Y1.60802
G01 X-1.56704 Y1.60808
G01 X-1.56384 Y1.60791
G01 X-1.56384 Y1.60786
G01 X-1.56384 Y1.60791
G01 X-1.55610 Y1.60791
G01 X-1.55610 Y1.60785
G01 X-1.55610 Y1.60791
G01 X-1.55289 Y1.60808
G01 X-1.55289 Y1.60803
G01 X-1.55289 Y1.60808
G01 X-1.54516 Y1.60889
G01 X-1.54515 Y1.60887
G01 X-1.54516 Y1.60889
G01 X-1.54170 Y1.60944
G01 X-1.53634 Y1.61058
G01 X-1.53393 Y1.61101
G01 X-1.52963 Y1.61163
G01 X-1.52891 Y1.61171
G01 X-1.52963 Y1.61163
G01 X-1.53393 Y1.61101
G01 X-1.53634 Y1.61058
G01 X-1.54170 Y1.60944
G01 X-1.54516 Y1.60889
G01 X-1.55289 Y1.60808
G01 X-1.55610 Y1.60791
G01 X-1.56384 Y1.60791
G01 X-1.56704 Y1.60808
G01 X-1.57478 Y1.60889
G01 X-1.57823 Y1.60944
G01 X-1.58359 Y1.61058
G01 X-1.58600 Y1.61101
G01 X-1.59031 Y1.61163
G01 X-1.59102 Y1.61171
G01 X-1.59421 Y1.61204
G01 X-1.59855 Y1.61345
G01 X-1.60367 Y1.61542
G01 X-1.61140 Y1.61886
G01 X-1.61525 Y1.62083
G01 X-1.61548 Y1.62095
G01 X-1.61778 Y1.62212
G01 X-1.62552 Y1.62659
G01 X-1.63264 Y1.63123
G01 X-1.63271 Y1.63128
G01 X-1.63372 Y1.63194
G01 X-1.63375 Y1.63191
G01 X-1.63372 Y1.63194
G01 X-1.64146 Y1.63756
G01 X-1.64147 Y1.63755
G01 X-1.64146 Y1.63756
G01 X-1.64646 Y1.64163
G01 X-1.64679 Y1.64190
G01 X-1.65229 Y1.64637
G01 X-1.65858 Y1.65203
G01 X-1.65858 Y1.65203
G01 X-1.65858 Y1.65203
G01 X-1.65997 Y1.65328
G01 X-1.65858 Y1.65203
G01 X-1.65229 Y1.64637
G01 X-1.65858 Y1.65203
G01 X-1.65858 Y1.65203
G01 X-1.65873 Y1.65348
G01 X-1.65907 Y1.65997
G01 X-1.65873 Y1.66646
G01 X-1.65792 Y1.67415
G01 X-1.65690 Y1.68057
G01 X-1.65522 Y1.68685
G01 X-1.65283 Y1.69421
G01 X-1.65050 Y1.70028
G01 X-1.64755 Y1.70607
G01 X-1.64707 Y1.70690
G01 X-1.64690 Y1.70687
G01 X-1.64707 Y1.70690
G01 X-1.64707 Y1.75614
G01 X-1.64551 Y1.75710
G01 X-1.64707 Y1.75614
G01 X-1.67098 Y1.76809
G01 X-1.67098 Y1.76810
G01 X-1.67463 Y1.77823
G01 X-1.67639 Y1.78242
G01 X-1.67639 Y1.78243
G01 X-1.67852 Y1.78752
G01 X-1.67851 Y1.78752
G01 X-1.67852 Y1.78752
G01 X-1.68330 Y1.79751
G01 X-1.68359 Y1.79811
G01 X-1.68741 Y1.80508
G01 X-1.68804 Y1.80625
G01 X-1.68923 Y1.80850
G01 X-1.69183 Y1.81304
G01 X-1.69198 Y1.81328
G01 X-1.69292 Y1.81495
G01 X-1.69294 Y1.81498
G01 X-1.69294 Y1.81498
G01 X-1.69485 Y1.81838
G01 X-1.69594 Y1.82053
G01 X-1.69711 Y1.82274
G01 X-1.69883 Y1.82582
G01 X-1.69959 Y1.82722
G01 X-1.70174 Y1.83137
G01 X-1.70241 Y1.83268
G01 X-1.70382 Y1.83560
G01 X-1.70476 Y1.83744
G01 X-1.70596 Y1.83968
G01 X-1.70800 Y1.84393
G01 X-1.70815 Y1.84429
G01 X-1.70997 Y1.84816
G01 X-1.71057 Y1.84931
G01 X-1.71225 Y1.85282
G01 X-1.71390 Y1.85658
G01 X-1.71420 Y1.85726
G01 X-1.71543 Y1.85997
G01 X-1.71398 Y1.86343
G01 X-1.71105 Y1.87106
G01 X-1.70933 Y1.87633
G01 X-1.70729 Y1.88396
G01 X-1.70724 Y1.88395
G01 X-1.70729 Y1.88396
G01 X-1.70632 Y1.88853
G01 X-1.70547 Y1.89389
G01 X-1.70547 Y1.89390
G01 X-1.70632 Y1.88853
G01 X-1.70547 Y1.89390
G01 X-1.70511 Y1.89616
G01 X-1.70467 Y1.90032
G01 X-1.70427 Y1.90795
G01 X-1.70423 Y1.90795
G01 X-1.70427 Y1.90795
G01 X-1.70427 Y1.91199
G01 X-1.70467 Y1.91962
G01 X-1.70511 Y1.92378
G01 X-1.70507 Y1.92379
G01 X-1.70511 Y1.92378
G01 X-1.70547 Y1.92604
G01 X-1.70547 Y1.92604
G01 X-1.70632 Y1.93141
G01 X-1.70729 Y1.93597
G01 X-1.70933 Y1.94361
G01 X-1.70997 Y1.94577
G01 X-1.71005 Y1.94576
G01 X-1.70997 Y1.94577
G01 X-1.70997 Y1.97416
G01 X-1.71003 Y1.97417
G01 X-1.70997 Y1.97416
G01 X-1.70933 Y1.97633
G01 X-1.70729 Y1.98396
G01 X-1.70632 Y1.98853
G01 X-1.70547 Y1.99390
G01 X-1.70713 Y1.98879
G01 X-1.70790 Y1.98679
G01 X-1.70887 Y1.98487
G01 X-1.71269 Y1.97826
G01 X-1.71385 Y1.97647
G01 X-1.71447 Y1.97571
G01 X-1.71447 Y1.94423
G01 X-1.71385 Y1.94347
G01 X-1.71269 Y1.94167
G01 X-1.70887 Y1.93506
G01 X-1.70790 Y1.93315
G01 X-1.70713 Y1.93115
G01 X-1.70547 Y1.92604
G01 X-1.70547 Y1.99390
G01 X-1.70547 Y1.99390
G01 X-1.70511 Y1.99616
G01 X-1.70507 Y1.99615
G01 X-1.70511 Y1.99616
G01 X-1.70467 Y2.00032
G01 X-1.70427 Y2.00795
G01 X-1.70427 Y2.01199
G01 X-1.70424 Y2.01199
G01 X-1.70427 Y2.01199
G01 X-1.70467 Y2.01962
G01 X-1.70511 Y2.02378
G01 X-1.70547 Y2.02604
G01 X-1.70547 Y2.22571
G01 X-1.70608 Y2.22647
G01 X-1.70725 Y2.22826
G01 X-1.70997 Y2.23297
G01 X-1.71269 Y2.22826
G01 X-1.71385 Y2.22647
G01 X-1.71447 Y2.22571
G01 X-1.71447 Y2.04423
G01 X-1.71385 Y2.04347
G01 X-1.71269 Y2.04167
G01 X-1.70887 Y2.03506
G01 X-1.70790 Y2.03315
G01 X-1.70713 Y2.03115
G01 X-1.70547 Y2.02604
G01 X-1.70632 Y2.03141
G01 X-1.70629 Y2.03142
G01 X-1.70632 Y2.03141
G01 X-1.70729 Y2.03598
G01 X-1.70933 Y2.04361
G01 X-1.70997 Y2.04577
G01 X-1.71005 Y2.04576
G01 X-1.70997 Y2.04577
G01 X-1.70997 Y2.22416
G01 X-1.70997 Y2.22670
G01 X-1.70997 Y2.23297
G01 X-1.70997 Y2.23551
G01 X-1.70997 Y2.23971
G01 X-1.70997 Y2.24774
G01 X-1.70997 Y2.25088
G01 X-1.70997 Y2.25855
G01 X-1.70997 Y2.26139
G01 X-1.70997 Y2.26906
G01 X-1.70997 Y2.27220
G01 X-1.70997 Y2.28023
G01 X-1.70997 Y2.28443
G01 X-1.70997 Y2.28697
G01 X-1.70725 Y2.29167
G01 X-1.70608 Y2.29347
G01 X-1.70473 Y2.29514
G01 X-1.69963 Y2.30081
G01 X-1.69811 Y2.30233
G01 X-1.69644 Y2.30368
G01 X-1.69027 Y2.30816
G01 X-1.68847 Y2.30933
G01 X-1.68656 Y2.31031
G01 X-1.67959 Y2.31341
G01 X-1.67758 Y2.31418
G01 X-1.67676 Y2.31440
G01 X-1.67632 Y2.31447
G01 X-1.67676 Y2.31440
G01 X-1.67675 Y2.31440
G01 X-1.67633 Y2.31447
G01 X-1.67675 Y2.31440
G01 X-1.67981 Y2.31392
G01 X-1.67676 Y2.31440
G01 X-1.67675 Y2.31440
G01 X-1.67633 Y2.31447
G01 X-1.67633 Y2.31447
G01 X-1.67632 Y2.31447
G01 X-1.67676 Y2.31440
G01 X-1.67675 Y2.31440
G01 X-1.67633 Y2.31447
G01 X-1.71447 Y2.31447
G01 X-1.71447 Y2.29423
G01 X-1.71385 Y2.29347
G01 X-1.71269 Y2.29167
G01 X-1.70997 Y2.28697
G01 X-1.70997 Y2.29324
G01 X-1.70997 Y2.29577
G01 X-1.71013 Y2.29580
G01 X-1.70997 Y2.29577
G01 X-1.70888 Y2.29888
G01 X-1.70611 Y2.30611
G01 X-1.70686 Y2.30688
G01 X-1.70611 Y2.30611
G01 X-1.70570 Y2.30629
G01 X-1.69995 Y2.30850
G01 X-1.69232 Y2.31098
G01 X-1.69232 Y2.31100
G01 X-1.69232 Y2.31098
G01 X-1.68744 Y2.31229
G01 X-1.67981 Y2.31392
G01 X-1.67675 Y2.31440
G01 X-1.67633 Y2.31447
G01 X-1.67632 Y2.31447
G01 X-1.67548 Y2.31460
G01 X-1.67549 Y2.31464
G01 X-1.67548 Y2.31460
G01 X-1.66785 Y2.31541
G01 X-1.66378 Y2.31562
G01 X-1.65615 Y2.31562
G01 X-1.65208 Y2.31541
G01 X-1.65208 Y2.31546
G01 X-1.65208 Y2.31541
G01 X-1.64445 Y2.31460
G01 X-1.64361 Y2.31447
G01 X-1.64360 Y2.31447
G01 X-1.64318 Y2.31440
G01 X-1.64318 Y2.31440
G01 X-1.64235 Y2.31418
G01 X-1.64035 Y2.31341
G01 X-1.63338 Y2.31031
G01 X-1.63147 Y2.30933
G01 X-1.62967 Y2.30816
G01 X-1.62350 Y2.30368
G01 X-1.62183 Y2.30233
G01 X-1.62031 Y2.30081
G01 X-1.61520 Y2.29514
G01 X-1.61385 Y2.29347
G01 X-1.61269 Y2.29167
G01 X-1.60997 Y2.28697
G01 X-1.60725 Y2.29167
G01 X-1.60608 Y2.29347
G01 X-1.60547 Y2.29423
G01 X-1.60547 Y2.31447
G01 X-1.64360 Y2.31447
G01 X-1.64319 Y2.31440
G01 X-1.64318 Y2.31440
G01 X-1.64318 Y2.31440
G01 X-1.64361 Y2.31447
G01 X-1.64318 Y2.31440
G01 X-1.64012 Y2.31392
G01 X-1.63249 Y2.31229
G01 X-1.62762 Y2.31098
G01 X-1.62761 Y2.31102
G01 X-1.62762 Y2.31098
G01 X-1.61999 Y2.30850
G01 X-1.61423 Y2.30629
G01 X-1.61383 Y2.30611
G01 X-1.61307 Y2.30688
G01 X-1.61383 Y2.30611
G01 X-1.61105 Y2.29888
G01 X-1.60997 Y2.29577
G01 X-1.60980 Y2.29580
G01 X-1.60997 Y2.29577
G01 X-1.60997 Y2.29324
G01 X-1.60997 Y2.28697
G01 X-1.60997 Y2.28443
G01 X-1.60997 Y2.28023
G01 X-1.60997 Y2.27220
G01 X-1.60997 Y2.26906
G01 X-1.60997 Y2.26139
G01 X-1.60997 Y2.25855
G01 X-1.60997 Y2.25088
G01 X-1.60997 Y2.24774
G01 X-1.60997 Y2.23971
G01 X-1.60997 Y2.23551
G01 X-1.60997 Y2.23297
G01 X-1.61269 Y2.22826
G01 X-1.61385 Y2.22647
G01 X-1.61447 Y2.22571
G01 X-1.61447 Y2.02605
G01 X-1.61447 Y2.02605
G01 X-1.61362 Y2.03141
G01 X-1.61364 Y2.03142
G01 X-1.61362 Y2.03141
G01 X-1.61447 Y2.02605
G01 X-1.61447 Y2.02605
G01 X-1.61447 Y2.02605
G01 X-1.61281 Y2.03115
G01 X-1.61204 Y2.03315
G01 X-1.61107 Y2.03506
G01 X-1.60725 Y2.04167
G01 X-1.60608 Y2.04347
G01 X-1.60547 Y2.04423
G01 X-1.60547 Y2.22571
G01 X-1.60608 Y2.22647
G01 X-1.60725 Y2.22826
G01 X-1.60997 Y2.23297
G01 X-1.60997 Y2.22670
G01 X-1.60997 Y2.22416
G01 X-1.60997 Y2.04577
G01 X-1.60989 Y2.04576
G01 X-1.60997 Y2.04577
G01 X-1.61060 Y2.04361
G01 X-1.61264 Y2.03598
G01 X-1.61362 Y2.03141
G01 X-1.61447 Y2.02605
G01 X-1.61447 Y2.02605
G01 X-1.61483 Y2.02378
G01 X-1.61526 Y2.01962
G01 X-1.61566 Y2.01199
G01 X-1.61570 Y2.01199
G01 X-1.61566 Y2.01199
G01 X-1.61566 Y2.00795
G01 X-1.61526 Y2.00032
G01 X-1.61483 Y1.99616
G01 X-1.61486 Y1.99615
G01 X-1.61483 Y1.99616
G01 X-1.61447 Y1.99390
G01 X-1.61447 Y1.99389
G01 X-1.61447 Y1.92605
G01 X-1.61362 Y1.93141
G01 X-1.61364 Y1.93142
G01 X-1.61362 Y1.93141
G01 X-1.61447 Y1.92605
G01 X-1.61447 Y1.92605
G01 X-1.61447 Y1.92605
G01 X-1.61281 Y1.93115
G01 X-1.61204 Y1.93315
G01 X-1.61107 Y1.93506
G01 X-1.60725 Y1.94167
G01 X-1.60608 Y1.94347
G01 X-1.60547 Y1.94423
G01 X-1.60547 Y1.97571
G01 X-1.60608 Y1.97647
G01 X-1.60725 Y1.97826
G01 X-1.61107 Y1.98487
G01 X-1.61204 Y1.98679
G01 X-1.61281 Y1.98879
G01 X-1.61447 Y1.99389
G01 X-1.61447 Y1.99389
G01 X-1.61447 Y1.99390
G01 X-1.61483 Y1.99616
G01 X-1.61447 Y1.99390
G01 X-1.61447 Y1.99389
G01 X-1.61447 Y1.99389
G01 X-1.61362 Y1.98853
G01 X-1.61264 Y1.98396
G01 X-1.61060 Y1.97633
G01 X-1.60997 Y1.97416
G01 X-1.60991 Y1.97417
G01 X-1.60997 Y1.97416
G01 X-1.60997 Y1.94577
G01 X-1.60991 Y1.94577
G01 X-1.60997 Y1.94577
G01 X-1.61060 Y1.94361
G01 X-1.61264 Y1.93597
G01 X-1.61362 Y1.93141
G01 X-1.61447 Y1.92605
G01 X-1.61447 Y1.92605
G01 X-1.61483 Y1.92378
G01 X-1.61526 Y1.91962
G01 X-1.61532 Y1.91962
G01 X-1.61526 Y1.91962
G01 X-1.61566 Y1.91199
G01 X-1.61571 Y1.91199
G01 X-1.61566 Y1.91199
G01 X-1.61566 Y1.90795
G01 X-1.61526 Y1.90032
G01 X-1.61529 Y1.90032
G01 X-1.61526 Y1.90032
G01 X-1.61483 Y1.89616
G01 X-1.61447 Y1.89390
G01 X-1.61447 Y1.89389
G01 X-1.61363 Y1.88861
G01 X-1.61357 Y1.88854
G01 X-1.61214 Y1.88704
G01 X-1.61281 Y1.88879
G01 X-1.61447 Y1.89389
G01 X-1.61447 Y1.89390
G01 X-1.61483 Y1.89616
G01 X-1.61526 Y1.90032
G01 X-1.61566 Y1.90795
G01 X-1.61566 Y1.91199
G01 X-1.61526 Y1.91962
G01 X-1.61483 Y1.92378
G01 X-1.61447 Y1.92605
G01 X-1.61362 Y1.93141
G01 X-1.61264 Y1.93597
G01 X-1.61060 Y1.94361
G01 X-1.60997 Y1.94577
G01 X-1.60997 Y1.97416
G01 X-1.61060 Y1.97633
G01 X-1.61264 Y1.98396
G01 X-1.61362 Y1.98853
G01 X-1.61447 Y1.99389
G01 X-1.61447 Y1.99389
G01 X-1.61483 Y1.99616
G01 X-1.61526 Y2.00032
G01 X-1.61566 Y2.00795
G01 X-1.61566 Y2.01199
G01 X-1.61526 Y2.01962
G01 X-1.61483 Y2.02378
G01 X-1.61447 Y2.02605
G01 X-1.61362 Y2.03141
G01 X-1.61264 Y2.03598
G01 X-1.61060 Y2.04361
G01 X-1.60997 Y2.04577
G01 X-1.60997 Y2.22416
G01 X-1.60997 Y2.22670
G01 X-1.60997 Y2.23297
G01 X-1.60997 Y2.23551
G01 X-1.60997 Y2.23971
G01 X-1.60997 Y2.24774
G01 X-1.60997 Y2.25088
G01 X-1.60997 Y2.25855
G01 X-1.60997 Y2.26139
G01 X-1.60997 Y2.26906
G01 X-1.60997 Y2.27220
G01 X-1.60997 Y2.28023
G01 X-1.60997 Y2.28443
G01 X-1.60997 Y2.28697
G01 X-1.60997 Y2.29324
G01 X-1.60997 Y2.29577
G01 X-1.61105 Y2.29888
G01 X-1.61383 Y2.30611
G01 X-1.61423 Y2.30629
G01 X-1.61999 Y2.30850
G01 X-1.62762 Y2.31098
G01 X-1.63249 Y2.31229
G01 X-1.64012 Y2.31392
G01 X-1.64318 Y2.31440
G01 X-1.64360 Y2.31447
G01 X-1.64360 Y2.31447
G01 X-1.64319 Y2.31440
G01 X-1.64318 Y2.31440
G01 X-1.64012 Y2.31392
G01 X-1.64318 Y2.31440
G01 X-1.64361 Y2.31447
G01 X-1.64445 Y2.31460
G01 X-1.65208 Y2.31541
G01 X-1.65615 Y2.31562
G01 X-1.66378 Y2.31562
G01 X-1.66785 Y2.31541
G01 X-1.67548 Y2.31460
G01 X-1.67632 Y2.31447
G01 X-1.67676 Y2.31440
G01 X-1.67981 Y2.31392
G01 X-1.68744 Y2.31229
G01 X-1.69232 Y2.31098
G01 X-1.69995 Y2.30850
G01 X-1.70570 Y2.30629
G01 X-1.70611 Y2.30611
G01 X-1.70888 Y2.29888
G01 X-1.70997 Y2.29577
G01 X-1.70997 Y2.29324
G01 X-1.70997 Y2.28697
G01 X-1.70997 Y2.28443
G01 X-1.70997 Y2.28023
G01 X-1.70997 Y2.27220
G01 X-1.70997 Y2.26906
G01 X-1.70997 Y2.26139
G01 X-1.70997 Y2.25855
G01 X-1.70997 Y2.25088
G01 X-1.70997 Y2.24774
G01 X-1.70997 Y2.23971
G01 X-1.70997 Y2.23551
G01 X-1.70997 Y2.23297
G01 X-1.70997 Y2.22670
G01 X-1.70997 Y2.22416
G01 X-1.70997 Y2.04577
G01 X-1.70933 Y2.04361
G01 X-1.70729 Y2.03598
G01 X-1.70632 Y2.03141
G01 X-1.70547 Y2.02604
G01 X-1.70511 Y2.02378
G01 X-1.70467 Y2.01962
G01 X-1.70427 Y2.01199
G01 X-1.70427 Y2.00795
G01 X-1.70467 Y2.00032
G01 X-1.70511 Y1.99616
G01 X-1.70547 Y1.99390
G04 P0 ( dwell for no time -- G64 should not smooth over this point )
G00 Z0.05000 ( retract )

G00 X-1.90547 Y1.92604 ( rapid move to begin. )
G01 F5.00000
( Mill infeed pass 1/1 )
G01 Z-0.00400
G04 P0 ( dwell for no time -- G64 should not smooth over this point )
G01 F10.00000
G01 X-1.90547 Y1.92604
G01 X-1.90632 Y1.93141
G01 X-1.90729 Y1.93597
G01 X-1.90933 Y1.94361
G01 X-1.90997 Y1.94577
G01 X-1.91005 Y1.94576
G01 X-1.90997 Y1.94577
G01 X-1.90997 Y1.97416
G01 X-1.91003 Y1.97417
G01 X-1.90997 Y1.97416
G01 X-1.90933 Y1.97633
G01 X-1.90729 Y1.98396
G01 X-1.90632 Y1.98853
G01 X-1.90547 Y1.99389
G01 X-1.90713 Y1.98879
G01 X-1.90790 Y1.98679
G01 X-1.90887 Y1.98487
G01 X-1.91269 Y1.97826
G01 X-1.91385 Y1.97647
G01 X-1.91447 Y1.97571
G01 X-1.91447 Y1.94423
G01 X-1.91385 Y1.94347
G01 X-1.91269 Y1.94167
G01 X-1.90887 Y1.93506
G01 X-1.90790 Y1.93315
G01 X-1.90713 Y1.93115
G01 X-1.90547 Y1.92604
G01 X-1.90547 Y1.92604
G01 X-1.90511 Y1.92378
G01 X-1.90507 Y1.92379
G01 X-1.90511 Y1.92378
G01 X-1.90467 Y1.91962
G01 X-1.90427 Y1.91199
G01 X-1.90427 Y1.90795
G01 X-1.90423 Y1.90795
G01 X-1.90427 Y1.90795
G01 X-1.90467 Y1.90032
G01 X-1.90511 Y1.89616
G01 X-1.90547 Y1.89390
G01 X-1.90547 Y1.89389
G01 X-1.90632 Y1.88853
G01 X-1.90547 Y1.89389
G01 X-1.90547 Y1.89390
G01 X-1.90632 Y1.88853
G01 X-1.90729 Y1.88396
G01 X-1.90724 Y1.88395
G01 X-1.90729 Y1.88396
G01 X-1.90933 Y1.87633
G01 X-1.91105 Y1.87106
G01 X-1.91398 Y1.86343
G01 X-1.91543 Y1.85997
G01 X-1.91420 Y1.85726
G01 X-1.91390 Y1.85658
G01 X-1.91225 Y1.85282
G01 X-1.91057 Y1.84931
G01 X-1.90997 Y1.84816
G01 X-1.90815 Y1.84429
G01 X-1.90800 Y1.84393
G01 X-1.90596 Y1.83968
G01 X-1.90476 Y1.83744
G01 X-1.90382 Y1.83560
G01 X-1.90241 Y1.83268
G01 X-1.90174 Y1.83137
G01 X-1.89959 Y1.82722
G01 X-1.89883 Y1.82582
G01 X-1.89711 Y1.82274
G01 X-1.89594 Y1.82053
G01 X-1.89485 Y1.81838
G01 X-1.89294 Y1.81498
G01 X-1.89294 Y1.81498
G01 X-1.89292 Y1.81495
G01 X-1.89274 Y1.81320
G01 X-1.89257 Y1.80997
G01 X-1.89274 Y1.80674
G01 X-1.89353 Y1.79915
G01 X-1.89404 Y1.79596
G01 X-1.89488 Y1.79283
G01 X-1.89724 Y1.78557
G01 X-1.89840 Y1.78255
G01 X-1.89986 Y1.77967
G01 X-1.90368 Y1.77306
G01 X-1.90407 Y1.77247
G01 X-1.90441 Y1.77255
G01 X-1.90407 Y1.77247
G01 X-1.90407 Y1.69839
G01 X-1.90441 Y1.69830
G01 X-1.90407 Y1.69839
G01 X-1.90327 Y1.69717
G01 X-1.89941 Y1.69047
G01 X-1.89794 Y1.68759
G01 X-1.89678 Y1.68457
G01 X-1.89439 Y1.67721
G01 X-1.89355 Y1.67409
G01 X-1.89305 Y1.67089
G01 X-1.89224 Y1.66320
G01 X-1.89207 Y1.65997
G01 X-1.89224 Y1.65674
G01 X-1.89305 Y1.64905
G01 X-1.89355 Y1.64585
G01 X-1.89439 Y1.64273
G01 X-1.89678 Y1.63537
G01 X-1.89794 Y1.63235
G01 X-1.89941 Y1.62947
G01 X-1.90327 Y1.62277
G01 X-1.90446 Y1.62095
G01 X-1.90469 Y1.62083
G01 X-1.90854 Y1.61886
G01 X-1.90852 Y1.61883
G01 X-1.90854 Y1.61886
G01 X-1.91627 Y1.61542
G01 X-1.91626 Y1.61539
G01 X-1.91627 Y1.61542
G01 X-1.92139 Y1.61345
G01 X-1.92136 Y1.61336
G01 X-1.92139 Y1.61345
G01 X-1.92573 Y1.61204
G01 X-1.92571 Y1.61197
G01 X-1.92573 Y1.61204
G01 X-1.92572 Y1.61199
G01 X-1.92573 Y1.61204
G01 X-1.92890 Y1.61171
G01 X-1.92573 Y1.61204
G01 X-1.92139 Y1.61345
G01 X-1.91627 Y1.61542
G01 X-1.90854 Y1.61886
G01 X-1.90469 Y1.62083
G01 X-1.90215 Y1.62212
G01 X-1.90215 Y1.62211
G01 X-1.90215 Y1.62212
G01 X-1.89442 Y1.62659
G01 X-1.89440 Y1.62656
G01 X-1.89442 Y1.62659
G01 X-1.88730 Y1.63123
G01 X-1.83263 Y1.63123
G01 X-1.83271 Y1.63128
G01 X-1.83305 Y1.63216
G01 X-1.83544 Y1.63951
G01 X-1.83656 Y1.64369
G01 X-1.83723 Y1.64796
G01 X-1.83804 Y1.65565
G01 X-1.83827 Y1.65997
G01 X-1.83804 Y1.66429
G01 X-1.83723 Y1.67198
G01 X-1.83656 Y1.67625
G01 X-1.83544 Y1.68042
G01 X-1.83305 Y1.68778
G01 X-1.83150 Y1.69182
G01 X-1.82954 Y1.69567
G01 X-1.82627 Y1.70133
G01 X-1.82594 Y1.70124
G01 X-1.82627 Y1.70133
G01 X-1.82627 Y1.76899
G01 X-1.82471 Y1.76995
G01 X-1.82627 Y1.76899
G01 X-1.88330 Y1.79751
G01 X-1.88331 Y1.79751
G01 X-1.88359 Y1.79811
G01 X-1.88331 Y1.79751
G01 X-1.88329 Y1.79747
G01 X-1.88387 Y1.79379
G01 X-1.88499 Y1.78962
G01 X-1.88734 Y1.78236
G01 X-1.88889 Y1.77832
G01 X-1.89086 Y1.77447
G01 X-1.89367 Y1.76960
G01 X-1.89394 Y1.76967
G01 X-1.89367 Y1.76960
G01 X-1.89367 Y1.70133
G01 X-1.89399 Y1.70124
G01 X-1.89367 Y1.70133
G01 X-1.89040 Y1.69567
G01 X-1.88844 Y1.69182
G01 X-1.88689 Y1.68778
G01 X-1.88450 Y1.68042
G01 X-1.88338 Y1.67625
G01 X-1.88270 Y1.67198
G01 X-1.88189 Y1.66429
G01 X-1.88167 Y1.65997
G01 X-1.88189 Y1.65565
G01 X-1.88270 Y1.64796
G01 X-1.88338 Y1.64369
G01 X-1.88450 Y1.63951
G01 X-1.88689 Y1.63216
G01 X-1.88723 Y1.63128
G01 X-1.88730 Y1.63123
G01 X-1.88621 Y1.63194
G01 X-1.88620 Y1.63192
G01 X-1.88619 Y1.63191
G01 X-1.88620 Y1.63192
G01 X-1.88621 Y1.63194
G01 X-1.87848 Y1.63756
G01 X-1.87347 Y1.64163
G01 X-1.87848 Y1.63756
G01 X-1.87347 Y1.64163
G01 X-1.87347 Y1.64163
G01 X-1.87315 Y1.64190
G01 X-1.87347 Y1.64163
G01 X-1.87848 Y1.63756
G01 X-1.88621 Y1.63194
G01 X-1.88730 Y1.63123
G01 X-1.88621 Y1.63194
G01 X-1.87848 Y1.63756
G01 X-1.87347 Y1.64163
G01 X-1.87347 Y1.64163
G01 X-1.87315 Y1.64190
G01 X-1.87315 Y1.64190
G01 X-1.86764 Y1.64638
G01 X-1.86136 Y1.65203
G01 X-1.86764 Y1.64638
G01 X-1.87315 Y1.64190
G01 X-1.86764 Y1.64638
G01 X-1.86136 Y1.65203
G01 X-1.86136 Y1.65203
G01 X-1.85997 Y1.65328
G01 X-1.85858 Y1.65203
G01 X-1.85873 Y1.65348
G01 X-1.85907 Y1.65997
G01 X-1.85873 Y1.66646
G01 X-1.85792 Y1.67415
G01 X-1.85690 Y1.68057
G01 X-1.85522 Y1.68685
G01 X-1.85283 Y1.69421
G01 X-1.85050 Y1.70028
G01 X-1.84755 Y1.70607
G01 X-1.84707 Y1.70690
G01 X-1.84690 Y1.70687
G01 X-1.84707 Y1.70690
G01 X-1.84707 Y1.75614
G01 X-1.84551 Y1.75710
G01 X-1.84707 Y1.75614
G01 X-1.87098 Y1.76809
G01 X-1.87098 Y1.76810
G01 X-1.87463 Y1.77823
G01 X-1.87098 Y1.76810
G01 X-1.87098 Y1.76809
G01 X-1.87090 Y1.76788
G01 X-1.87090 Y1.76788
G01 X-1.87284 Y1.76407
G01 X-1.87287 Y1.76403
G01 X-1.87316 Y1.76410
G01 X-1.87287 Y1.76403
G01 X-1.87287 Y1.70690
G01 X-1.87303 Y1.70687
G01 X-1.87287 Y1.70690
G01 X-1.87239 Y1.70607
G01 X-1.86944 Y1.70028
G01 X-1.86711 Y1.69421
G01 X-1.86472 Y1.68685
G01 X-1.86303 Y1.68057
G01 X-1.86202 Y1.67415
G01 X-1.86121 Y1.66646
G01 X-1.86087 Y1.65997
G01 X-1.86121 Y1.65348
G01 X-1.86136 Y1.65203
G01 X-1.85997 Y1.65328
G01 X-1.85997 Y1.65334
G01 X-1.86087 Y1.65997
G01 X-1.87127 Y1.65997
G01 X-1.88167 Y1.65997
G01 X-1.88189 Y1.65565
G01 X-1.88270 Y1.64796
G01 X-1.88338 Y1.64369
G01 X-1.88450 Y1.63951
G01 X-1.88689 Y1.63216
G01 X-1.88723 Y1.63128
G01 X-1.88730 Y1.63123
G01 X-1.89442 Y1.62659
G01 X-1.90215 Y1.62212
G01 X-1.90469 Y1.62083
G01 X-1.81525 Y1.62083
G01 X-1.81548 Y1.62095
G01 X-1.81666 Y1.62277
G01 X-1.82053 Y1.62947
G01 X-1.82200 Y1.63235
G01 X-1.82316 Y1.63537
G01 X-1.82555 Y1.64273
G01 X-1.82638 Y1.64585
G01 X-1.82689 Y1.64905
G01 X-1.82770 Y1.65674
G01 X-1.82787 Y1.65997
G01 X-1.82770 Y1.66320
G01 X-1.82689 Y1.67089
G01 X-1.82638 Y1.67409
G01 X-1.82555 Y1.67721
G01 X-1.82316 Y1.68457
G01 X-1.82200 Y1.68759
G01 X-1.82053 Y1.69047
G01 X-1.81666 Y1.69717
G01 X-1.81587 Y1.69839
G01 X-1.81552 Y1.69830
G01 X-1.81587 Y1.69839
G01 X-1.81587 Y1.77247
G01 X-1.81550 Y1.77256
G01 X-1.81587 Y1.77247
G01 X-1.81626 Y1.77306
G01 X-1.81833 Y1.77665
G01 X-1.81803 Y1.77696
G01 X-1.81833 Y1.77665
G01 X-1.88497 Y1.80997
G01 X-1.88745 Y1.81136
G01 X-1.89137 Y1.81379
G01 X-1.89294 Y1.81498
G01 X-1.89292 Y1.81495
G01 X-1.89198 Y1.81328
G01 X-1.89183 Y1.81304
G01 X-1.88923 Y1.80850
G01 X-1.88804 Y1.80625
G01 X-1.88741 Y1.80508
G01 X-1.88359 Y1.79811
G01 X-1.88330 Y1.79751
G01 X-1.87852 Y1.78752
G01 X-1.87851 Y1.78752
G01 X-1.87852 Y1.78752
G01 X-1.87639 Y1.78243
G01 X-1.87639 Y1.78242
G01 X-1.87745 Y1.77915
G01 X-1.87939 Y1.77409
G01 X-1.88185 Y1.76927
G01 X-1.88327 Y1.76682
G01 X-1.88349 Y1.76686
G01 X-1.88327 Y1.76682
G01 X-1.88327 Y1.70412
G01 X-1.88358 Y1.70404
G01 X-1.88327 Y1.70412
G01 X-1.88139 Y1.70087
G01 X-1.87894 Y1.69605
G01 X-1.87700 Y1.69099
G01 X-1.87461 Y1.68364
G01 X-1.87321 Y1.67841
G01 X-1.87236 Y1.67307
G01 X-1.87155 Y1.66537
G01 X-1.87127 Y1.65997
G01 X-1.87155 Y1.65456
G01 X-1.87236 Y1.64687
G01 X-1.87315 Y1.64190
G01 X-1.86764 Y1.64638
G01 X-1.86136 Y1.65203
G01 X-1.86136 Y1.65203
G01 X-1.85858 Y1.65203
G01 X-1.85229 Y1.64637
G01 X-1.84679 Y1.64190
G01 X-1.84646 Y1.64163
G01 X-1.84646 Y1.64163
G01 X-1.84646 Y1.64163
G01 X-1.84146 Y1.63756
G01 X-1.84147 Y1.63754
G01 X-1.84146 Y1.63756
G01 X-1.83372 Y1.63194
G01 X-1.83374 Y1.63192
G01 X-1.83372 Y1.63194
G01 X-1.83271 Y1.63128
G01 X-1.83263 Y1.63123
G01 X-1.82552 Y1.62659
G01 X-1.82553 Y1.62656
G01 X-1.82552 Y1.62659
G01 X-1.81778 Y1.62212
G01 X-1.81780 Y1.62209
G01 X-1.81778 Y1.62212
G01 X-1.81548 Y1.62095
G01 X-1.81525 Y1.62083
G01 X-1.81140 Y1.61886
G01 X-1.81141 Y1.61884
G01 X-1.81140 Y1.61886
G01 X-1.80367 Y1.61542
G01 X-1.80367 Y1.61540
G01 X-1.80367 Y1.61542
G01 X-1.79855 Y1.61345
G01 X-1.79421 Y1.61204
G01 X-1.79422 Y1.61198
G01 X-1.79421 Y1.61204
G01 X-1.79423 Y1.61197
G01 X-1.79423 Y1.61195
G01 X-1.79423 Y1.61197
G01 X-1.79421 Y1.61204
G01 X-1.79102 Y1.61171
G01 X-1.79031 Y1.61163
G01 X-1.78600 Y1.61101
G01 X-1.78359 Y1.61058
G01 X-1.77823 Y1.60944
G01 X-1.77478 Y1.60889
G01 X-1.77478 Y1.60888
G01 X-1.77478 Y1.60889
G01 X-1.77478 Y1.60886
G01 X-1.77478 Y1.60889
G01 X-1.76704 Y1.60808
G01 X-1.76705 Y1.60803
G01 X-1.76704 Y1.60808
G01 X-1.76384 Y1.60791
G01 X-1.76384 Y1.60786
G01 X-1.76384 Y1.60791
G01 X-1.75610 Y1.60791
G01 X-1.75610 Y1.60785
G01 X-1.75610 Y1.60791
G01 X-1.75289 Y1.60808
G01 X-1.74516 Y1.60889
G01 X-1.74516 Y1.60887
G01 X-1.74515 Y1.60886
G01 X-1.74516 Y1.60887
G01 X-1.74516 Y1.60889
G01 X-1.74170 Y1.60944
G01 X-1.73634 Y1.61058
G01 X-1.73393 Y1.61101
G01 X-1.72963 Y1.61163
G01 X-1.72891 Y1.61171
G01 X-1.72890 Y1.61171
G01 X-1.72573 Y1.61204
G01 X-1.72139 Y1.61345
G01 X-1.71627 Y1.61542
G01 X-1.70853 Y1.61886
G01 X-1.70468 Y1.62083
G01 X-1.70215 Y1.62212
G01 X-1.69442 Y1.62659
G01 X-1.68730 Y1.63123
G01 X-1.63264 Y1.63123
G01 X-1.63271 Y1.63128
G01 X-1.63305 Y1.63216
G01 X-1.63544 Y1.63951
G01 X-1.63656 Y1.64369
G01 X-1.63723 Y1.64796
G01 X-1.63804 Y1.65565
G01 X-1.63827 Y1.65997
G01 X-1.63804 Y1.66429
G01 X-1.63723 Y1.67198
G01 X-1.63656 Y1.67625
G01 X-1.63544 Y1.68042
G01 X-1.63305 Y1.68778
G01 X-1.63150 Y1.69182
G01 X-1.62954 Y1.69567
G01 X-1.62627 Y1.70133
G01 X-1.62594 Y1.70124
G01 X-1.62627 Y1.70133
G01 X-1.62627 Y1.76899
G01 X-1.62471 Y1.76995
G01 X-1.62627 Y1.76899
G01 X-1.68330 Y1.79751
G01 X-1.68331 Y1.79751
G01 X-1.68359 Y1.79811
G01 X-1.68331 Y1.79751
G01 X-1.68329 Y1.79747
G01 X-1.68387 Y1.79379
G01 X-1.68499 Y1.78962
G01 X-1.68734 Y1.78236
G01 X-1.68889 Y1.77832
G01 X-1.69086 Y1.77447
G01 X-1.69367 Y1.76960
G01 X-1.69394 Y1.76967
G01 X-1.69367 Y1.76960
G01 X-1.69367 Y1.70133
G01 X-1.69389 Y1.70128
G01 X-1.69367 Y1.70133
G01 X-1.69040 Y1.69567
G01 X-1.68844 Y1.69182
G01 X-1.68689 Y1.68778
G01 X-1.68450 Y1.68042
G01 X-1.68338 Y1.67625
G01 X-1.68270 Y1.67198
G01 X-1.68189 Y1.66429
G01 X-1.68167 Y1.65997
G01 X-1.68189 Y1.65565
G01 X-1.68270 Y1.64796
G01 X-1.68338 Y1.64369
G01 X-1.68450 Y1.63951
G01 X-1.68689 Y1.63216
G01 X-1.68723 Y1.63128
G01 X-1.68730 Y1.63123
G01 X-1.63264 Y1.63123
G01 X-1.63271 Y1.63128
G04 P0 ( dwell for no time -- G64 should not smooth over this point )
G00 Z0.05000 ( retract )

G00 X-1.72891 Y1.61171 ( rapid move to begin. )
G01 F5.00000
( Mill infeed pass 1/1 )
G01 Z-0.00400
G04 P0 ( dwell for no time -- G64 should not smooth over this point )
G01 F10.00000
G01 X-1.72891 Y1.61171
G01 X-1.72850 Y1.61159
G01 X-1.72634 Y1.61043
G01 X-1.59360 Y1.61043
G01 X-1.59144 Y1.61159
G01 X-1.59102 Y1.61171
G01 X-1.59678 Y1.61589
G01 X-1.59844 Y1.61724
G01 X-1.59996 Y1.61876
G01 X-1.60514 Y1.62450
G01 X-1.60649 Y1.62617
G01 X-1.60766 Y1.62797
G01 X-1.61152 Y1.63467
G01 X-1.61250 Y1.63658
G01 X-1.61327 Y1.63858
G01 X-1.61566 Y1.64594
G01 X-1.61621 Y1.64801
G01 X-1.61655 Y1.65013
G01 X-1.61736 Y1.65783
G01 X-1.61747 Y1.65997
G01 X-1.61736 Y1.66211
G01 X-1.61655 Y1.66980
G01 X-1.61621 Y1.67192
G01 X-1.61566 Y1.67400
G01 X-1.61327 Y1.68135
G01 X-1.61250 Y1.68336
G01 X-1.61152 Y1.68527
G01 X-1.60766 Y1.69197
G01 X-1.60649 Y1.69377
G01 X-1.60547 Y1.69502
G01 X-1.60547 Y1.77571
G01 X-1.60608 Y1.77647
G01 X-1.60725 Y1.77826
G01 X-1.61088 Y1.78456
G01 X-1.68032 Y1.81927
G01 X-1.68197 Y1.82020
G01 X-1.68588 Y1.82263
G01 X-1.68889 Y1.82491
G01 X-1.69229 Y1.82801
G01 X-1.69483 Y1.83081
G01 X-1.69761 Y1.83449
G01 X-1.69959 Y1.83770
G01 X-1.70164 Y1.84183
G01 X-1.70300 Y1.84535
G01 X-1.70426 Y1.84978
G01 X-1.70496 Y1.85349
G01 X-1.70538 Y1.85808
G01 X-1.70547 Y1.85997
G01 X-1.70547 Y1.89390
G01 X-1.70547 Y1.89389
G01 X-1.70713 Y1.88879
G01 X-1.70790 Y1.88679
G01 X-1.70887 Y1.88487
G01 X-1.71269 Y1.87826
G01 X-1.71385 Y1.87647
G01 X-1.71520 Y1.87480
G01 X-1.72031 Y1.86913
G01 X-1.72183 Y1.86761
G01 X-1.72350 Y1.86626
G01 X-1.72967 Y1.86177
G01 X-1.73147 Y1.86061
G01 X-1.73272 Y1.85997
G01 X-1.73353 Y1.85997
G01 X-1.74188 Y1.85997
G01 X-1.74544 Y1.85997
G01 X-1.75324 Y1.85997
G01 X-1.75615 Y1.85997
G01 X-1.76378 Y1.85997
G01 X-1.76670 Y1.85997
G01 X-1.77083 Y1.85997
G01 X-1.77089 Y1.85970
G01 X-1.77083 Y1.85997
G01 X-1.77424 Y1.86116
G01 X-1.77702 Y1.86230
G01 X-1.78392 Y1.86556
G01 X-1.78651 Y1.86695
G01 X-1.79305 Y1.87093
G01 X-1.79309 Y1.87086
G01 X-1.79305 Y1.87093
G01 X-1.79565 Y1.87270
G01 X-1.80183 Y1.87741
G01 X-1.80463 Y1.87978
G01 X-1.81043 Y1.88524
G01 X-1.81193 Y1.88682
G01 X-1.81214 Y1.88704
G01 X-1.81281 Y1.88879
G01 X-1.81446 Y1.89388
G01 X-1.81363 Y1.88861
G01 X-1.81426 Y1.88826
G01 X-1.81363 Y1.88861
G01 X-1.81446 Y1.89388
G01 X-1.81447 Y1.89389
G01 X-1.81447 Y1.89390
G01 X-1.81447 Y1.89390
G01 X-1.81447 Y1.89389
G01 X-1.81447 Y1.89390
G01 X-1.81447 Y1.88809
G01 X-1.81193 Y1.88682
G01 X-1.81193 Y1.88682
G01 X-1.81043 Y1.88524
G01 X-1.80463 Y1.87978
G01 X-1.80183 Y1.87741
G01 X-1.79565 Y1.87270
G01 X-1.79305 Y1.87093
G01 X-1.78651 Y1.86695
G01 X-1.78392 Y1.86556
G01 X-1.77702 Y1.86230
G01 X-1.77424 Y1.86116
G01 X-1.77083 Y1.85997
G01 X-1.76670 Y1.85997
G01 X-1.76378 Y1.85997
G01 X-1.75615 Y1.85997
G01 X-1.75324 Y1.85997
G01 X-1.74544 Y1.85997
G01 X-1.74188 Y1.85997
G01 X-1.73353 Y1.85997
G01 X-1.73272 Y1.85997
G01 X-1.72836 Y1.85997
G01 X-1.71893 Y1.85997
G01 X-1.71543 Y1.85997
G01 X-1.71893 Y1.85997
G01 X-1.72836 Y1.85997
G01 X-1.73272 Y1.85997
G01 X-1.73147 Y1.85933
G01 X-1.72967 Y1.85816
G01 X-1.72350 Y1.85368
G01 X-1.72183 Y1.85233
G01 X-1.72031 Y1.85081
G01 X-1.71520 Y1.84514
G01 X-1.71385 Y1.84347
G01 X-1.71269 Y1.84167
G01 X-1.70887 Y1.83506
G01 X-1.70790 Y1.83315
G01 X-1.70713 Y1.83115
G01 X-1.70477 Y1.82389
G01 X-1.70421 Y1.82182
G01 X-1.70388 Y1.81970
G01 X-1.70308 Y1.81211
G01 X-1.70297 Y1.80997
G01 X-1.70308 Y1.80783
G01 X-1.70388 Y1.80024
G01 X-1.70421 Y1.79812
G01 X-1.70477 Y1.79605
G01 X-1.70713 Y1.78879
G01 X-1.70790 Y1.78679
G01 X-1.70887 Y1.78487
G01 X-1.71269 Y1.77826
G01 X-1.71385 Y1.77647
G01 X-1.71447 Y1.77571
G01 X-1.71447 Y1.69502
G01 X-1.71345 Y1.69377
G01 X-1.71228 Y1.69197
G01 X-1.70841 Y1.68527
G01 X-1.70744 Y1.68336
G01 X-1.70667 Y1.68135
G01 X-1.70428 Y1.67400
G01 X-1.70372 Y1.67192
G01 X-1.70339 Y1.66980
G01 X-1.70258 Y1.66211
G01 X-1.70247 Y1.65997
G01 X-1.70258 Y1.65783
G01 X-1.70339 Y1.65013
G01 X-1.70372 Y1.64801
G01 X-1.70428 Y1.64594
G01 X-1.70667 Y1.63858
G01 X-1.70744 Y1.63658
G01 X-1.70841 Y1.63467
G01 X-1.71228 Y1.62797
G01 X-1.71345 Y1.62617
G01 X-1.71480 Y1.62450
G01 X-1.71998 Y1.61876
G01 X-1.72149 Y1.61724
G01 X-1.72316 Y1.61589
G01 X-1.72890 Y1.61171
G01 X-1.72573 Y1.61204
G01 X-1.72139 Y1.61345
G01 X-1.71627 Y1.61542
G01 X-1.70853 Y1.61886
G01 X-1.70468 Y1.62083
G01 X-1.70215 Y1.62212
G01 X-1.69442 Y1.62659
G01 X-1.68730 Y1.63123
G01 X-1.68621 Y1.63194
G01 X-1.67848 Y1.63756
G01 X-1.67347 Y1.64163
G01 X-1.66764 Y1.64638
G01 X-1.66136 Y1.65203
G01 X-1.66764 Y1.64638
G01 X-1.67347 Y1.64163
G01 X-1.67848 Y1.63756
G01 X-1.67347 Y1.64163
G01 X-1.67347 Y1.64163
G01 X-1.64646 Y1.64163
G01 X-1.64679 Y1.64190
G01 X-1.64758 Y1.64687
G01 X-1.64838 Y1.65456
G01 X-1.64867 Y1.65997
G01 X-1.64838 Y1.66537
G01 X-1.64758 Y1.67307
G01 X-1.64673 Y1.67841
G01 X-1.64533 Y1.68364
G01 X-1.64294 Y1.69099
G01 X-1.64100 Y1.69605
G01 X-1.63854 Y1.70087
G01 X-1.63667 Y1.70412
G01 X-1.63635 Y1.70404
G01 X-1.63667 Y1.70412
G01 X-1.63667 Y1.76257
G01 X-1.63511 Y1.76353
G01 X-1.63667 Y1.76257
G01 X-1.67639 Y1.78243
G01 X-1.67639 Y1.78242
G01 X-1.67463 Y1.77823
G01 X-1.67098 Y1.76809
G01 X-1.67090 Y1.76788
G01 X-1.66917 Y1.76306
G01 X-1.66920 Y1.76304
G01 X-1.66917 Y1.76306
G01 X-1.66247 Y1.75221
G01 X-1.65747 Y1.74971
G01 X-1.65591 Y1.75067
G01 X-1.65747 Y1.74971
G01 X-1.65747 Y1.70948
G01 X-1.65718 Y1.70941
G01 X-1.65747 Y1.70948
G01 X-1.65997 Y1.70457
G01 X-1.65997 Y1.69652
G01 X-1.65997 Y1.68839
G01 X-1.65997 Y1.67437
G01 X-1.65997 Y1.66659
G01 X-1.65997 Y1.65334
G01 X-1.65997 Y1.65328
G01 X-1.66136 Y1.65203
G01 X-1.65997 Y1.65328
G01 X-1.65997 Y1.65334
G01 X-1.65997 Y1.66659
G01 X-1.65997 Y1.67437
G01 X-1.65997 Y1.68839
G01 X-1.65997 Y1.69652
G01 X-1.65997 Y1.70457
G01 X-1.66247 Y1.70948
G01 X-1.66276 Y1.70941
G01 X-1.66247 Y1.70948
G01 X-1.66247 Y1.75221
G01 X-1.66917 Y1.76306
G01 X-1.67090 Y1.76788
G01 X-1.67098 Y1.76809
G01 X-1.67463 Y1.77823
G01 X-1.67098 Y1.76809
G01 X-1.67090 Y1.76788
G01 X-1.67284 Y1.76407
G01 X-1.67287 Y1.76403
G01 X-1.67316 Y1.76410
G01 X-1.67287 Y1.76403
G01 X-1.67287 Y1.70690
G01 X-1.67303 Y1.70687
G01 X-1.67287 Y1.70690
G01 X-1.67239 Y1.70607
G01 X-1.66944 Y1.70028
G01 X-1.66711 Y1.69421
G01 X-1.66472 Y1.68685
G01 X-1.66303 Y1.68057
G01 X-1.66202 Y1.67415
G01 X-1.66121 Y1.66646
G01 X-1.66087 Y1.65997
G01 X-1.66121 Y1.65348
G01 X-1.66136 Y1.65203
G01 X-1.65997 Y1.65328
G01 X-1.65997 Y1.65334
G01 X-1.66087 Y1.65997
G01 X-1.67127 Y1.65997
G01 X-1.68167 Y1.65997
G01 X-1.69207 Y1.65997
G01 X-1.70247 Y1.65997
G04 P0 ( dwell for no time -- G64 should not smooth over this point )
G00 Z0.05000 ( retract )

G00 X-1.80696 Y1.50823 ( rapid move to begin. )
G01 F5.00000
( Mill infeed pass 1/1 )
G01 Z-0.00400
G04 P0 ( dwell for no time -- G64 should not smooth over this point )
G01 F10.00000
G01 X-1.80696 Y1.50823
G01 X-1.80696 Y1.50823
G01 X-1.80696 Y1.50823
G04 P0 ( dwell for no time -- G64 should not smooth over this point )
G00 Z0.05000 ( retract )

G00 X-1.86965 Y1.48743 ( rapid move to begin. )
G01 F5.00000
( Mill infeed pass 1/1 )
G01 Z-0.00400
G04 P0 ( dwell for no time -- G64 should not smooth over this point )
G01 F10.00000
G01 X-1.86965 Y1.48743
G01 X-1.88448 Y1.49679
G01 X-1.87897 Y1.48649
G01 X-1.87544 Y1.47484
G01 X-1.87425 Y1.46272
G01 X-1.87425 Y1.42729
G01 X-1.87544 Y1.41518
G01 X-1.87620 Y1.41267
G01 X-1.87673 Y1.41257
G01 X-1.87620 Y1.41267
G01 X-1.87239 Y1.40607
G01 X-1.86944 Y1.40028
G01 X-1.86711 Y1.39421
G01 X-1.86472 Y1.38685
G01 X-1.86303 Y1.38057
G01 X-1.86323 Y1.37988
G01 X-1.86502 Y1.37383
G01 X-1.86323 Y1.37988
G01 X-1.86323 Y1.37988
G01 X-1.85472 Y1.38840
G01 X-1.85450 Y1.38826
G01 X-1.85472 Y1.38840
G01 X-1.85283 Y1.39421
G01 X-1.85050 Y1.40028
G01 X-1.84755 Y1.40607
G01 X-1.84374 Y1.41267
G01 X-1.84320 Y1.41257
G01 X-1.84374 Y1.41267
G01 X-1.84450 Y1.41518
G01 X-1.84569 Y1.42729
G01 X-1.84569 Y1.46272
G01 X-1.84450 Y1.47484
G01 X-1.84096 Y1.48649
G01 X-1.83546 Y1.49679
G01 X-1.83381 Y1.49783
G01 X-1.88613 Y1.49783
G01 X-1.89003 Y1.50029
G01 X-1.89001 Y1.50033
G01 X-1.89003 Y1.50029
G01 X-1.90506 Y1.50629
G01 X-1.90505 Y1.50633
G01 X-1.90506 Y1.50629
G01 X-1.90506 Y1.50632
G01 X-1.90506 Y1.50629
G01 X-1.91179 Y1.50794
G01 X-1.91179 Y1.50794
G01 X-1.92010 Y1.50997
G01 X-1.92009 Y1.51004
G01 X-1.92010 Y1.50997
G01 X-1.91179 Y1.50794
G01 X-1.91179 Y1.50794
G01 X-1.90506 Y1.50629
G01 X-1.89003 Y1.50029
G01 X-1.88613 Y1.49783
G01 X-1.88448 Y1.49679
G01 X-1.88448 Y1.49679
G01 X-1.88448 Y1.49679
G01 X-1.88613 Y1.49783
G01 X-1.88448 Y1.49679
G01 X-1.88448 Y1.49679
G01 X-1.86965 Y1.48743
G01 X-1.86964 Y1.48743
G01 X-1.85029 Y1.48743
G01 X-1.83546 Y1.49679
G01 X-1.83381 Y1.49783
G01 X-1.82990 Y1.50029
G01 X-1.82992 Y1.50033
G01 X-1.82990 Y1.50029
G01 X-1.81487 Y1.50629
G01 X-1.81488 Y1.50632
G01 X-1.81489 Y1.50633
G01 X-1.81488 Y1.50632
G01 X-1.81487 Y1.50629
G01 X-1.80815 Y1.50794
G01 X-1.80696 Y1.50823
G01 X-1.91298 Y1.50823
G01 X-1.92010 Y1.50997
G01 X-1.93635 Y1.50997
G01 X-1.98359 Y1.50997
G01 X-1.99984 Y1.50997
G01 X-2.00658 Y1.50823
G01 X-2.21346 Y1.50823
G01 X-2.22009 Y1.50997
G01 X-2.23635 Y1.50997
G01 X-2.28359 Y1.50997
G01 X-2.29984 Y1.50997
G01 X-2.29985 Y1.51004
G01 X-2.29984 Y1.50997
G01 X-2.30696 Y1.50823
G01 X-2.30696 Y1.50823
G01 X-2.30815 Y1.50794
G01 X-2.31487 Y1.50629
G01 X-2.31488 Y1.50632
G01 X-2.31489 Y1.50633
G01 X-2.31488 Y1.50632
G01 X-2.31487 Y1.50629
G01 X-2.32990 Y1.50029
G01 X-2.32992 Y1.50033
G01 X-2.32990 Y1.50029
G01 X-2.33381 Y1.49783
G01 X-2.33381 Y1.49783
G01 X-2.33546 Y1.49679
G01 X-2.35029 Y1.48743
G01 X-2.33546 Y1.49679
G01 X-2.33546 Y1.49679
G01 X-2.33381 Y1.49783
G01 X-2.38612 Y1.49783
G01 X-2.38448 Y1.49679
G01 X-2.38448 Y1.49679
G01 X-2.36965 Y1.48743
G01 X-2.38448 Y1.49679
G01 X-2.38448 Y1.49679
G01 X-2.38612 Y1.49783
G01 X-2.38448 Y1.49679
G01 X-2.38448 Y1.49679
G01 X-2.37897 Y1.48649
G01 X-2.37544 Y1.47484
G01 X-2.37425 Y1.46272
G01 X-2.37425 Y1.42729
G01 X-2.37544 Y1.41518
G01 X-2.37620 Y1.41267
G01 X-2.37673 Y1.41257
G01 X-2.37620 Y1.41267
G01 X-2.37239 Y1.40607
G01 X-2.36944 Y1.40028
G01 X-2.36711 Y1.39421
G01 X-2.36472 Y1.38685
G01 X-2.36303 Y1.38056
G01 X-2.36323 Y1.37988
G01 X-2.36502 Y1.37383
G01 X-2.36323 Y1.37988
G01 X-2.36502 Y1.37383
G01 X-2.36323 Y1.37988
G01 X-2.36323 Y1.37988
G01 X-2.35472 Y1.38840
G01 X-2.35450 Y1.38826
G01 X-2.35472 Y1.38840
G01 X-2.35283 Y1.39421
G01 X-2.35050 Y1.40028
G01 X-2.34755 Y1.40607
G01 X-2.34374 Y1.41267
G01 X-2.34320 Y1.41257
G01 X-2.34374 Y1.41267
G01 X-2.34450 Y1.41518
G01 X-2.34569 Y1.42729
G01 X-2.34569 Y1.46272
G01 X-2.34450 Y1.47484
G01 X-2.34096 Y1.48649
G01 X-2.33546 Y1.49679
G01 X-2.33546 Y1.49679
G01 X-2.33381 Y1.49783
G01 X-2.33381 Y1.49783
G01 X-2.33381 Y1.49783
G01 X-2.38612 Y1.49783
G01 X-2.38612 Y1.49783
G01 X-2.38613 Y1.49783
G01 X-2.39003 Y1.50029
G01 X-2.39001 Y1.50033
G01 X-2.39003 Y1.50029
G01 X-2.40506 Y1.50629
G01 X-2.40505 Y1.50633
G01 X-2.40506 Y1.50629
G01 X-2.40505 Y1.50632
G01 X-2.40506 Y1.50629
G01 X-2.41179 Y1.50794
G01 X-2.41179 Y1.50794
G01 X-2.41298 Y1.50823
G01 X-2.41179 Y1.50794
G01 X-2.41179 Y1.50794
G01 X-2.40506 Y1.50629
G01 X-2.39003 Y1.50029
G01 X-2.38613 Y1.49783
G01 X-2.38612 Y1.49783
G01 X-2.38612 Y1.49783
G01 X-2.38448 Y1.49679
G01 X-2.38448 Y1.49679
G01 X-2.36965 Y1.48743
G01 X-2.36964 Y1.48743
G01 X-2.35029 Y1.48743
G01 X-2.35178 Y1.48649
G01 X-2.35470 Y1.47687
G01 X-2.35609 Y1.46272
G01 X-2.35609 Y1.42729
G01 X-2.35481 Y1.41429
G01 X-2.35447 Y1.41421
G01 X-2.35481 Y1.41429
G01 X-2.35656 Y1.41127
G01 X-2.35997 Y1.40457
G01 X-2.35997 Y1.39652
G01 X-2.35997 Y1.39161
G01 X-2.36081 Y1.38812
G01 X-2.36070 Y1.38810
G01 X-2.36081 Y1.38812
G01 X-2.36323 Y1.37988
G01 X-2.36502 Y1.37383
G01 X-2.36788 Y1.36576
G01 X-2.37141 Y1.35719
G01 X-2.37141 Y1.35719
G01 X-2.37155 Y1.35686
G01 X-2.34553 Y1.38287
G01 X-2.34530 Y1.38273
G01 X-2.34553 Y1.38287
G01 X-2.34533 Y1.38364
G01 X-2.34294 Y1.39099
G01 X-2.34100 Y1.39605
G01 X-2.33854 Y1.40087
G01 X-2.33468 Y1.40757
G01 X-2.33242 Y1.41103
G01 X-2.33177 Y1.41092
G01 X-2.33242 Y1.41103
G01 X-2.33430 Y1.41721
G01 X-2.33529 Y1.42729
G01 X-2.33529 Y1.46272
G01 X-2.33430 Y1.47281
G01 X-2.33135 Y1.48251
G01 X-2.32658 Y1.49145
G01 X-2.32015 Y1.49928
G01 X-2.31231 Y1.50571
G01 X-2.30815 Y1.50794
G01 X-2.30696 Y1.50823
G01 X-2.30696 Y1.50823
G01 X-2.30696 Y1.50823
G01 X-2.41298 Y1.50823
G01 X-2.41298 Y1.50823
G01 X-2.42009 Y1.50997
G01 X-2.42008 Y1.51004
G01 X-2.42009 Y1.50997
G01 X-2.43635 Y1.50997
G01 X-2.48359 Y1.50997
G01 X-2.49984 Y1.50997
G01 X-2.49985 Y1.51004
G01 X-2.49984 Y1.50997
G01 X-2.50696 Y1.50823
G01 X-2.50696 Y1.50823
G01 X-2.50815 Y1.50794
G01 X-2.51487 Y1.50629
G01 X-2.51488 Y1.50632
G01 X-2.51489 Y1.50633
G01 X-2.51488 Y1.50632
G01 X-2.51487 Y1.50629
G01 X-2.52990 Y1.50029
G01 X-2.52992 Y1.50033
G01 X-2.52990 Y1.50029
G01 X-2.53381 Y1.49783
G01 X-2.53381 Y1.49783
G01 X-2.53546 Y1.49679
G01 X-2.55029 Y1.48743
G01 X-2.55178 Y1.48649
G01 X-2.55470 Y1.47687
G01 X-2.55609 Y1.46272
G01 X-2.55609 Y1.42729
G01 X-2.55481 Y1.41429
G01 X-2.55447 Y1.41421
G01 X-2.55481 Y1.41429
G01 X-2.55656 Y1.41127
G01 X-2.55997 Y1.40457
G01 X-2.55997 Y1.39652
G01 X-2.55997 Y1.39161
G01 X-2.55913 Y1.38812
G01 X-2.55921 Y1.38810
G01 X-2.55913 Y1.38812
G01 X-2.55670 Y1.37988
G01 X-2.55492 Y1.37384
G01 X-2.55690 Y1.38057
G01 X-2.55522 Y1.38685
G01 X-2.55283 Y1.39421
G01 X-2.55050 Y1.40028
G01 X-2.54755 Y1.40607
G01 X-2.54374 Y1.41267
G01 X-2.54320 Y1.41257
G01 X-2.54374 Y1.41267
G01 X-2.54450 Y1.41518
G01 X-2.54569 Y1.42729
G01 X-2.54569 Y1.46272
G01 X-2.54450 Y1.47484
G01 X-2.54096 Y1.48649
G01 X-2.53546 Y1.49679
G01 X-2.53546 Y1.49679
G01 X-2.53381 Y1.49783
G01 X-2.58612 Y1.49783
G01 X-2.58612 Y1.49783
G01 X-2.58613 Y1.49783
G01 X-2.59003 Y1.50029
G01 X-2.59001 Y1.50033
G01 X-2.59003 Y1.50029
G01 X-2.60506 Y1.50629
G01 X-2.60505 Y1.50633
G01 X-2.60506 Y1.50629
G01 X-2.60505 Y1.50632
G01 X-2.60506 Y1.50629
G01 X-2.61179 Y1.50794
G01 X-2.61179 Y1.50794
G01 X-2.61298 Y1.50823
G01 X-2.61179 Y1.50794
G01 X-2.61179 Y1.50794
G01 X-2.60506 Y1.50629
G01 X-2.59003 Y1.50029
G01 X-2.58613 Y1.49783
G01 X-2.58612 Y1.49783
G01 X-2.58612 Y1.49783
G01 X-2.58448 Y1.49679
G01 X-2.58448 Y1.49679
G01 X-2.56965 Y1.48743
G01 X-2.56964 Y1.48743
G01 X-2.55029 Y1.48743
G01 X-2.53546 Y1.49679
G01 X-2.53381 Y1.49783
G01 X-2.58612 Y1.49783
G01 X-2.58448 Y1.49679
G01 X-2.58448 Y1.49679
G01 X-2.56965 Y1.48743
G01 X-2.58448 Y1.49679
G01 X-2.58448 Y1.49679
G01 X-2.58612 Y1.49783
G01 X-2.58448 Y1.49679
G01 X-2.58448 Y1.49679
G01 X-2.57897 Y1.48649
G01 X-2.57544 Y1.47484
G01 X-2.57425 Y1.46272
G01 X-2.57425 Y1.42729
G01 X-2.57544 Y1.41518
G01 X-2.57620 Y1.41267
G01 X-2.57673 Y1.41257
G01 X-2.57620 Y1.41267
G01 X-2.57239 Y1.40607
G01 X-2.56944 Y1.40028
G01 X-2.56711 Y1.39421
G01 X-2.56522 Y1.38840
G01 X-2.56544 Y1.38826
G01 X-2.56522 Y1.38840
G01 X-2.55670 Y1.37988
G01 X-2.55492 Y1.37384
G01 X-2.55206 Y1.36576
G01 X-2.55208 Y1.36576
G01 X-2.55206 Y1.36576
G01 X-2.54852 Y1.35719
G01 X-2.54838 Y1.35685
G01 X-2.54852 Y1.35719
G01 X-2.54867 Y1.35997
G01 X-2.54838 Y1.36537
G01 X-2.54758 Y1.37307
G01 X-2.54673 Y1.37841
G01 X-2.54533 Y1.38364
G01 X-2.54294 Y1.39099
G01 X-2.54100 Y1.39605
G01 X-2.53854 Y1.40087
G01 X-2.53468 Y1.40757
G01 X-2.53242 Y1.41103
G01 X-2.53184 Y1.41094
G01 X-2.53242 Y1.41103
G01 X-2.53430 Y1.41721
G01 X-2.53529 Y1.42729
G01 X-2.53529 Y1.46272
G01 X-2.53430 Y1.47281
G01 X-2.53135 Y1.48251
G01 X-2.52658 Y1.49145
G01 X-2.52015 Y1.49928
G01 X-2.51231 Y1.50571
G01 X-2.50815 Y1.50794
G01 X-2.50696 Y1.50823
G01 X-2.50696 Y1.50823
G01 X-2.50696 Y1.50823
G01 X-2.61298 Y1.50823
G01 X-2.61298 Y1.50823
G01 X-2.62009 Y1.50997
G01 X-2.62008 Y1.51004
G01 X-2.62009 Y1.50997
G01 X-2.63635 Y1.50997
G01 X-2.68359 Y1.50997
G01 X-2.69984 Y1.50997
G01 X-2.69985 Y1.51004
G01 X-2.69984 Y1.50997
G01 X-2.70696 Y1.50823
G01 X-2.70696 Y1.50823
G01 X-2.70815 Y1.50794
G01 X-2.71487 Y1.50629
G01 X-2.71488 Y1.50632
G01 X-2.71489 Y1.50633
G01 X-2.71488 Y1.50632
G01 X-2.71487 Y1.50629
G01 X-2.72990 Y1.50029
G01 X-2.72992 Y1.50033
G01 X-2.72990 Y1.50029
G01 X-2.73381 Y1.49783
G01 X-2.73381 Y1.49783
G01 X-2.73546 Y1.49679
G01 X-2.75029 Y1.48743
G01 X-2.73546 Y1.49679
G01 X-2.73546 Y1.49679
G01 X-2.73381 Y1.49783
G01 X-2.78612 Y1.49783
G01 X-2.78448 Y1.49679
G01 X-2.78448 Y1.49679
G01 X-2.76965 Y1.48743
G01 X-2.78448 Y1.49679
G01 X-2.78448 Y1.49679
G01 X-2.78612 Y1.49783
G01 X-2.78448 Y1.49679
G01 X-2.78448 Y1.49679
G01 X-2.77897 Y1.48649
G01 X-2.77544 Y1.47484
G01 X-2.77425 Y1.46272
G01 X-2.77425 Y1.42729
G01 X-2.77544 Y1.41518
G01 X-2.77620 Y1.41267
G01 X-2.77673 Y1.41257
G01 X-2.77620 Y1.41267
G01 X-2.77239 Y1.40607
G01 X-2.76944 Y1.40028
G01 X-2.76711 Y1.39421
G01 X-2.76522 Y1.38840
G01 X-2.76544 Y1.38826
G01 X-2.76522 Y1.38840
G01 X-2.75670 Y1.37988
G01 X-2.75492 Y1.37384
G01 X-2.75493 Y1.37384
G01 X-2.75492 Y1.37384
G01 X-2.75690 Y1.38057
G01 X-2.75522 Y1.38685
G01 X-2.75283 Y1.39421
G01 X-2.75050 Y1.40028
G01 X-2.74755 Y1.40607
G01 X-2.74374 Y1.41267
G01 X-2.74320 Y1.41257
G01 X-2.74374 Y1.41267
G01 X-2.74450 Y1.41518
G01 X-2.74569 Y1.42729
G01 X-2.74569 Y1.46272
G01 X-2.74450 Y1.47484
G01 X-2.74096 Y1.48649
G01 X-2.73546 Y1.49679
G01 X-2.73546 Y1.49679
G01 X-2.73381 Y1.49783
G01 X-2.73381 Y1.49783
G01 X-2.73381 Y1.49783
G01 X-2.78612 Y1.49783
G01 X-2.78612 Y1.49783
G01 X-2.78613 Y1.49783
G01 X-2.79003 Y1.50029
G01 X-2.79001 Y1.50033
G01 X-2.79003 Y1.50029
G01 X-2.80506 Y1.50629
G01 X-2.80505 Y1.50633
G01 X-2.80506 Y1.50629
G01 X-2.80505 Y1.50632
G01 X-2.80506 Y1.50629
G01 X-2.81179 Y1.50794
G01 X-2.81179 Y1.50794
G01 X-2.81298 Y1.50823
G01 X-2.81179 Y1.50794
G01 X-2.81179 Y1.50794
G01 X-2.80506 Y1.50629
G01 X-2.79003 Y1.50029
G01 X-2.78613 Y1.49783
G01 X-2.78612 Y1.49783
G01 X-2.78612 Y1.49783
G01 X-2.78448 Y1.49679
G01 X-2.78448 Y1.49679
G01 X-2.76965 Y1.48743
G01 X-2.76964 Y1.48743
G01 X-2.75029 Y1.48743
G01 X-2.75178 Y1.48649
G01 X-2.75470 Y1.47687
G01 X-2.75609 Y1.46272
G01 X-2.75609 Y1.42729
G01 X-2.75481 Y1.41429
G01 X-2.75447 Y1.41421
G01 X-2.75481 Y1.41429
G01 X-2.75656 Y1.41127
G01 X-2.75997 Y1.40457
G01 X-2.75997 Y1.39652
G01 X-2.75997 Y1.39161
G01 X-2.76007 Y1.39160
G01 X-2.75997 Y1.39161
G01 X-2.75913 Y1.38812
G01 X-2.75670 Y1.37988
G01 X-2.75492 Y1.37384
G01 X-2.75206 Y1.36576
G01 X-2.74852 Y1.35719
G01 X-2.74838 Y1.35686
G01 X-2.74852 Y1.35719
G01 X-2.74867 Y1.35997
G01 X-2.74838 Y1.36537
G01 X-2.74758 Y1.37307
G01 X-2.74673 Y1.37841
G01 X-2.74533 Y1.38364
G01 X-2.74294 Y1.39099
G01 X-2.74100 Y1.39605
G01 X-2.73854 Y1.40087
G01 X-2.73468 Y1.40757
G01 X-2.73242 Y1.41103
G01 X-2.73177 Y1.41092
G01 X-2.73242 Y1.41103
G01 X-2.73430 Y1.41721
G01 X-2.73529 Y1.42729
G01 X-2.73529 Y1.46272
G01 X-2.73430 Y1.47281
G01 X-2.73135 Y1.48251
G01 X-2.72658 Y1.49145
G01 X-2.72015 Y1.49928
G01 X-2.71231 Y1.50571
G01 X-2.70815 Y1.50794
G01 X-2.70696 Y1.50823
G01 X-2.70696 Y1.50823
G01 X-2.70696 Y1.50823
G01 X-2.81298 Y1.50823
G01 X-2.81298 Y1.50823
G01 X-2.82009 Y1.50997
G01 X-2.82008 Y1.51004
G01 X-2.82009 Y1.50997
G01 X-2.83635 Y1.50997
G01 X-2.88359 Y1.50997
G01 X-2.89984 Y1.50997
G01 X-2.90625 Y1.50823
G01 X-3.11368 Y1.50823
G01 X-3.12009 Y1.50997
G01 X-3.13635 Y1.50997
G01 X-3.18359 Y1.50997
G01 X-3.19984 Y1.50997
G01 X-3.19985 Y1.51004
G01 X-3.19984 Y1.50997
G01 X-3.20696 Y1.50823
G01 X-3.20696 Y1.50823
G01 X-3.20815 Y1.50794
G01 X-3.21487 Y1.50629
G01 X-3.21488 Y1.50632
G01 X-3.21489 Y1.50633
G01 X-3.21488 Y1.50632
G01 X-3.21487 Y1.50629
G01 X-3.22990 Y1.50029
G01 X-3.22992 Y1.50033
G01 X-3.22990 Y1.50029
G01 X-3.23381 Y1.49783
G01 X-3.23381 Y1.49783
G01 X-3.23546 Y1.49679
G01 X-3.25029 Y1.48743
G01 X-3.23546 Y1.49679
G01 X-3.23546 Y1.49679
G01 X-3.23381 Y1.49783
G01 X-3.28612 Y1.49783
G01 X-3.28448 Y1.49679
G01 X-3.28448 Y1.49679
G01 X-3.26964 Y1.48743
G01 X-3.25029 Y1.48743
G01 X-3.25178 Y1.48649
G01 X-3.25470 Y1.47687
G01 X-3.25609 Y1.46272
G01 X-3.25609 Y1.44082
G01 X-3.25609 Y1.44082
G01 X-3.25241 Y1.43396
G01 X-3.25010 Y1.42906
G01 X-3.24928 Y1.42729
G01 X-3.24720 Y1.42274
G01 X-3.24478 Y1.41802
G01 X-3.24471 Y1.41789
G01 X-3.24176 Y1.41212
G01 X-3.24166 Y1.41216
G01 X-3.24176 Y1.41212
G01 X-3.24169 Y1.41162
G01 X-3.24042 Y1.40195
G01 X-3.23977 Y1.39845
G01 X-3.23812 Y1.38943
G01 X-3.23813 Y1.38942
G01 X-3.23812 Y1.38943
G01 X-3.23977 Y1.39845
G01 X-3.24042 Y1.40195
G01 X-3.24169 Y1.41162
G01 X-3.24176 Y1.41212
G01 X-3.24471 Y1.41789
G01 X-3.24478 Y1.41802
G01 X-3.24720 Y1.42274
G01 X-3.24928 Y1.42729
G01 X-3.25010 Y1.42906
G01 X-3.25241 Y1.43396
G01 X-3.25609 Y1.44082
G01 X-3.25640 Y1.44140
G01 X-3.26190 Y1.44470
G01 X-3.26385 Y1.44573
G01 X-3.26508 Y1.44499
G01 X-3.26385 Y1.44573
G01 X-3.26385 Y1.46272
G01 X-3.26524 Y1.47687
G01 X-3.26816 Y1.48649
G01 X-3.26964 Y1.48743
G01 X-3.28448 Y1.49679
G01 X-3.28448 Y1.49679
G01 X-3.28612 Y1.49783
G01 X-3.28612 Y1.49783
G01 X-3.28448 Y1.49679
G01 X-3.28448 Y1.49679
G01 X-3.27897 Y1.48649
G01 X-3.27544 Y1.47484
G01 X-3.27425 Y1.46272
G01 X-3.27425 Y1.43931
G01 X-3.27559 Y1.43848
G01 X-3.27425 Y1.43931
G01 X-3.27113 Y1.43783
G01 X-3.26681 Y1.43552
G01 X-3.26158 Y1.43239
G01 X-3.25668 Y1.42876
G01 X-3.25289 Y1.42565
G01 X-3.24838 Y1.42156
G01 X-3.24471 Y1.41789
G01 X-3.24478 Y1.41802
G01 X-3.24569 Y1.42729
G01 X-3.24569 Y1.46272
G01 X-3.24450 Y1.47484
G01 X-3.24096 Y1.48649
G01 X-3.23546 Y1.49679
G01 X-3.23546 Y1.49679
G01 X-3.23381 Y1.49783
G01 X-3.23381 Y1.49783
G01 X-3.23381 Y1.49783
G01 X-3.28612 Y1.49783
G01 X-3.28612 Y1.49783
G01 X-3.28613 Y1.49783
G01 X-3.29003 Y1.50029
G01 X-3.29001 Y1.50033
G01 X-3.29003 Y1.50029
G01 X-3.30506 Y1.50629
G01 X-3.30505 Y1.50633
G01 X-3.30506 Y1.50629
G01 X-3.30505 Y1.50632
G01 X-3.30506 Y1.50629
G01 X-3.31179 Y1.50794
G01 X-3.31179 Y1.50794
G01 X-3.31298 Y1.50823
G01 X-3.31179 Y1.50794
G01 X-3.31179 Y1.50794
G01 X-3.30506 Y1.50629
G01 X-3.29003 Y1.50029
G01 X-3.28613 Y1.49783
G01 X-3.28612 Y1.49783
G01 X-3.28612 Y1.49783
G01 X-3.28448 Y1.49679
G01 X-3.28448 Y1.49679
G01 X-3.26964 Y1.48743
G01 X-3.25029 Y1.48743
G01 X-3.25029 Y1.48743
G01 X-3.23546 Y1.49679
G01 X-3.23381 Y1.49783
G01 X-3.22990 Y1.50029
G01 X-3.21487 Y1.50629
G01 X-3.20815 Y1.50794
G01 X-3.20696 Y1.50823
G01 X-3.20696 Y1.50823
G01 X-3.31298 Y1.50823
G01 X-3.31298 Y1.50823
G01 X-3.32009 Y1.50997
G01 X-3.32008 Y1.51004
G01 X-3.32009 Y1.50997
G01 X-3.33635 Y1.50997
G01 X-3.38359 Y1.50997
G01 X-3.39984 Y1.50997
G01 X-3.39985 Y1.51004
G01 X-3.39984 Y1.50997
G01 X-3.40696 Y1.50823
G01 X-3.40696 Y1.50823
G01 X-3.40815 Y1.50794
G01 X-3.41487 Y1.50629
G01 X-3.41488 Y1.50632
G01 X-3.41489 Y1.50633
G01 X-3.41488 Y1.50632
G01 X-3.41487 Y1.50629
G01 X-3.42990 Y1.50029
G01 X-3.42992 Y1.50033
G01 X-3.42990 Y1.50029
G01 X-3.43381 Y1.49783
G01 X-3.43381 Y1.49783
G01 X-3.43546 Y1.49679
G01 X-3.45029 Y1.48743
G01 X-3.43546 Y1.49679
G01 X-3.43546 Y1.49679
G01 X-3.43381 Y1.49783
G01 X-3.48612 Y1.49783
G01 X-3.48448 Y1.49679
G01 X-3.48448 Y1.49679
G01 X-3.46965 Y1.48743
G01 X-3.48448 Y1.49679
G01 X-3.48448 Y1.49679
G01 X-3.48612 Y1.49783
G01 X-3.48448 Y1.49679
G01 X-3.48448 Y1.49679
G01 X-3.47897 Y1.48649
G01 X-3.47544 Y1.47484
G01 X-3.47425 Y1.46272
G01 X-3.47425 Y1.44474
G01 X-3.47614 Y1.44326
G01 X-3.47425 Y1.44474
G01 X-3.47011 Y1.44391
G01 X-3.46542 Y1.44249
G01 X-3.45969 Y1.44044
G01 X-3.45418 Y1.43783
G01 X-3.44986 Y1.43552
G01 X-3.44587 Y1.43313
G01 X-3.44852 Y1.43802
G01 X-3.45146 Y1.44292
G01 X-3.45609 Y1.44990
G01 X-3.45634 Y1.45027
G01 X-3.46241 Y1.45244
G01 X-3.46385 Y1.45288
G01 X-3.46553 Y1.45161
G01 X-3.46385 Y1.45288
G01 X-3.46385 Y1.46272
G01 X-3.46524 Y1.47687
G01 X-3.46816 Y1.48649
G01 X-3.46964 Y1.48743
G01 X-3.45029 Y1.48743
G01 X-3.45178 Y1.48649
G01 X-3.45470 Y1.47687
G01 X-3.45609 Y1.46272
G01 X-3.45609 Y1.44990
G01 X-3.45609 Y1.44990
G01 X-3.45146 Y1.44292
G01 X-3.44852 Y1.43802
G01 X-3.44587 Y1.43313
G01 X-3.44569 Y1.43281
G01 X-3.44587 Y1.43313
G01 X-3.44569 Y1.43281
G01 X-3.44569 Y1.43281
G01 X-3.44269 Y1.42729
G01 X-3.44204 Y1.42595
G01 X-3.43960 Y1.42120
G01 X-3.43686 Y1.41613
G01 X-3.43393 Y1.41104
G01 X-3.43378 Y1.41109
G01 X-3.43393 Y1.41104
G01 X-3.43370 Y1.40907
G01 X-3.43344 Y1.40686
G01 X-3.43370 Y1.40907
G01 X-3.43393 Y1.41104
G01 X-3.43686 Y1.41613
G01 X-3.43960 Y1.42120
G01 X-3.44204 Y1.42595
G01 X-3.44269 Y1.42729
G01 X-3.44569 Y1.43281
G01 X-3.44569 Y1.43281
G01 X-3.44569 Y1.46272
G01 X-3.44450 Y1.47484
G01 X-3.44096 Y1.48649
G01 X-3.43546 Y1.49679
G01 X-3.43546 Y1.49679
G01 X-3.43381 Y1.49783
G01 X-3.43381 Y1.49783
G01 X-3.43381 Y1.49783
G01 X-3.48612 Y1.49783
G01 X-3.48612 Y1.49783
G01 X-3.48613 Y1.49783
G01 X-3.49003 Y1.50029
G01 X-3.49001 Y1.50033
G01 X-3.49003 Y1.50029
G01 X-3.50506 Y1.50629
G01 X-3.50505 Y1.50633
G01 X-3.50506 Y1.50629
G01 X-3.50505 Y1.50632
G01 X-3.50506 Y1.50629
G01 X-3.51179 Y1.50794
G01 X-3.51179 Y1.50794
G01 X-3.51298 Y1.50823
G01 X-3.51179 Y1.50794
G01 X-3.51179 Y1.50794
G01 X-3.50506 Y1.50629
G01 X-3.49003 Y1.50029
G01 X-3.48613 Y1.49783
G01 X-3.48612 Y1.49783
G01 X-3.48612 Y1.49783
G01 X-3.48448 Y1.49679
G01 X-3.48448 Y1.49679
G01 X-3.46965 Y1.48743
G01 X-3.46964 Y1.48743
G01 X-3.45029 Y1.48743
G01 X-3.45029 Y1.48743
G01 X-3.43546 Y1.49679
G01 X-3.43381 Y1.49783
G01 X-3.42990 Y1.50029
G01 X-3.41487 Y1.50629
G01 X-3.40815 Y1.50794
G01 X-3.40696 Y1.50823
G01 X-3.40696 Y1.50823
G01 X-3.51298 Y1.50823
G01 X-3.51298 Y1.50823
G01 X-3.52009 Y1.50997
G01 X-3.52008 Y1.51004
G01 X-3.52009 Y1.50997
G01 X-3.53634 Y1.50997
G01 X-3.58359 Y1.50997
G01 X-3.59984 Y1.50997
G01 X-3.59985 Y1.51004
G01 X-3.59984 Y1.50997
G01 X-3.60696 Y1.50823
G01 X-3.60696 Y1.50823
G01 X-3.60815 Y1.50794
G01 X-3.61487 Y1.50629
G01 X-3.61488 Y1.50632
G01 X-3.61489 Y1.50633
G01 X-3.61488 Y1.50632
G01 X-3.61487 Y1.50629
G01 X-3.62990 Y1.50029
G01 X-3.62992 Y1.50033
G01 X-3.62990 Y1.50029
G01 X-3.63381 Y1.49783
G01 X-3.63381 Y1.49783
G01 X-3.63546 Y1.49679
G01 X-3.65029 Y1.48743
G01 X-3.63546 Y1.49679
G01 X-3.63546 Y1.49679
G01 X-3.63381 Y1.49783
G01 X-3.68612 Y1.49783
G01 X-3.68448 Y1.49679
G01 X-3.68448 Y1.49679
G01 X-3.66965 Y1.48743
G01 X-3.68448 Y1.49679
G01 X-3.68448 Y1.49679
G01 X-3.68612 Y1.49783
G01 X-3.68448 Y1.49679
G01 X-3.68448 Y1.49679
G01 X-3.67897 Y1.48649
G01 X-3.67544 Y1.47484
G01 X-3.67425 Y1.46272
G01 X-3.67425 Y1.42729
G01 X-3.67544 Y1.41518
G01 X-3.67620 Y1.41267
G01 X-3.67673 Y1.41257
G01 X-3.67620 Y1.41267
G01 X-3.67239 Y1.40607
G01 X-3.66944 Y1.40028
G01 X-3.66711 Y1.39421
G01 X-3.66522 Y1.38840
G01 X-3.66544 Y1.38826
G01 X-3.66522 Y1.38840
G01 X-3.65670 Y1.37988
G01 X-3.65492 Y1.37384
G01 X-3.65494 Y1.37384
G01 X-3.65492 Y1.37384
G01 X-3.65690 Y1.38057
G01 X-3.65522 Y1.38685
G01 X-3.65283 Y1.39421
G01 X-3.65050 Y1.40028
G01 X-3.64755 Y1.40607
G01 X-3.64374 Y1.41267
G01 X-3.64320 Y1.41257
G01 X-3.64374 Y1.41267
G01 X-3.64450 Y1.41518
G01 X-3.64569 Y1.42729
G01 X-3.64569 Y1.46272
G01 X-3.64450 Y1.47484
G01 X-3.64096 Y1.48649
G01 X-3.63546 Y1.49679
G01 X-3.63546 Y1.49679
G01 X-3.63381 Y1.49783
G01 X-3.63381 Y1.49783
G01 X-3.63381 Y1.49783
G01 X-3.68612 Y1.49783
G01 X-3.68612 Y1.49783
G01 X-3.68613 Y1.49783
G01 X-3.69003 Y1.50029
G01 X-3.69001 Y1.50033
G01 X-3.69003 Y1.50029
G01 X-3.70506 Y1.50629
G01 X-3.70505 Y1.50633
G01 X-3.70506 Y1.50629
G01 X-3.70505 Y1.50632
G01 X-3.70506 Y1.50629
G01 X-3.71179 Y1.50794
G01 X-3.71179 Y1.50794
G01 X-3.71298 Y1.50823
G01 X-3.71179 Y1.50794
G01 X-3.71179 Y1.50794
G01 X-3.70506 Y1.50629
G01 X-3.69003 Y1.50029
G01 X-3.68613 Y1.49783
G01 X-3.68612 Y1.49783
G01 X-3.68612 Y1.49783
G01 X-3.68448 Y1.49679
G01 X-3.68448 Y1.49679
G01 X-3.66965 Y1.48743
G01 X-3.66964 Y1.48743
G01 X-3.65029 Y1.48743
G01 X-3.65178 Y1.48649
G01 X-3.65470 Y1.47687
G01 X-3.65609 Y1.46272
G01 X-3.65609 Y1.42729
G01 X-3.65481 Y1.41429
G01 X-3.65447 Y1.41421
G01 X-3.65481 Y1.41429
G01 X-3.65656 Y1.41127
G01 X-3.65997 Y1.40457
G01 X-3.65997 Y1.39652
G01 X-3.65997 Y1.39161
G01 X-3.66007 Y1.39160
G01 X-3.65997 Y1.39161
G01 X-3.65913 Y1.38812
G01 X-3.65670 Y1.37988
G01 X-3.65492 Y1.37384
G01 X-3.65206 Y1.36576
G01 X-3.64852 Y1.35719
G01 X-3.64838 Y1.35686
G01 X-3.64748 Y1.35466
G01 X-3.64749 Y1.35465
G01 X-3.64748 Y1.35466
G01 X-3.64852 Y1.35719
G01 X-3.64867 Y1.35997
G01 X-3.64838 Y1.36537
G01 X-3.64758 Y1.37307
G01 X-3.64673 Y1.37841
G01 X-3.64533 Y1.38364
G01 X-3.64294 Y1.39099
G01 X-3.64100 Y1.39605
G01 X-3.63854 Y1.40087
G01 X-3.63468 Y1.40757
G01 X-3.63242 Y1.41103
G01 X-3.63177 Y1.41092
G01 X-3.63242 Y1.41103
G01 X-3.63430 Y1.41721
G01 X-3.63529 Y1.42729
G01 X-3.63529 Y1.46272
G01 X-3.63430 Y1.47281
G01 X-3.63135 Y1.48251
G01 X-3.62658 Y1.49145
G01 X-3.62015 Y1.49928
G01 X-3.61231 Y1.50571
G01 X-3.60815 Y1.50794
G01 X-3.60696 Y1.50823
G01 X-3.60696 Y1.50823
G01 X-3.60696 Y1.50823
G01 X-3.71298 Y1.50823
G01 X-3.71298 Y1.50823
G01 X-3.72009 Y1.50997
G01 X-3.72008 Y1.51004
G01 X-3.72009 Y1.50997
G01 X-3.73635 Y1.50997
G01 X-3.78359 Y1.50997
G01 X-3.79984 Y1.50997
G01 X-3.79985 Y1.51006
G01 X-3.79984 Y1.50997
G01 X-3.80899 Y1.50749
G01 X-3.82008 Y1.50448
G01 X-3.82010 Y1.50452
G01 X-3.82008 Y1.50448
G01 X-3.83523 Y1.49721
G01 X-3.84032 Y1.49477
G01 X-3.84033 Y1.49480
G01 X-3.84032 Y1.49477
G01 X-3.85162 Y1.48700
G01 X-3.85470 Y1.47687
G01 X-3.85609 Y1.46272
G01 X-3.85609 Y1.42729
G01 X-3.85481 Y1.41429
G01 X-3.85457 Y1.41425
G01 X-3.85481 Y1.41429
G01 X-3.85656 Y1.41127
G01 X-3.86000 Y1.40451
G01 X-3.86272 Y1.39742
G01 X-3.86511 Y1.39007
G01 X-3.86708 Y1.38274
G01 X-3.86826 Y1.37524
G01 X-3.86907 Y1.36755
G01 X-3.86947 Y1.35997
G01 X-3.86907 Y1.35239
G01 X-3.86826 Y1.34470
G01 X-3.86708 Y1.33720
G01 X-3.86511 Y1.32987
G01 X-3.86272 Y1.32252
G01 X-3.86247 Y1.32185
G01 X-3.86176 Y1.31830
G01 X-3.86091 Y1.31548
G01 X-3.85547 Y1.30235
G01 X-3.85408 Y1.29976
G01 X-3.85042 Y1.29366
G01 X-3.84618 Y1.28794
G01 X-3.84432 Y1.28567
G01 X-3.83427 Y1.27562
G01 X-3.83200 Y1.27375
G01 X-3.82628 Y1.26951
G01 X-3.82018 Y1.26586
G01 X-3.81759 Y1.26447
G01 X-3.80445 Y1.25903
G01 X-3.80164 Y1.25818
G01 X-3.79808 Y1.25747
G01 X-3.79761 Y1.25729
G01 X-3.79683 Y1.25719
G01 X-3.79319 Y1.25657
G01 X-3.79317 Y1.25661
G01 X-3.79319 Y1.25657
G01 X-3.77025 Y1.24707
G01 X-3.77024 Y1.24707
G01 X-3.74514 Y1.23667
G01 X-3.77025 Y1.24707
G01 X-3.79319 Y1.25657
G01 X-3.79683 Y1.25719
G01 X-3.79761 Y1.25729
G01 X-3.79898 Y1.25747
G01 X-3.81958 Y1.25747
G01 X-3.81989 Y1.25675
G01 X-3.81958 Y1.25747
G01 X-3.95610 Y1.39399
G01 X-3.95625 Y1.39388
G01 X-3.95610 Y1.39399
G01 X-3.95722 Y1.39742
G01 X-3.95993 Y1.40451
G01 X-3.96338 Y1.41127
G01 X-3.96513 Y1.41429
G01 X-3.96538 Y1.41424
G01 X-3.96513 Y1.41429
G01 X-3.96385 Y1.42729
G01 X-3.96385 Y1.46272
G01 X-3.96524 Y1.47687
G01 X-3.96831 Y1.48700
G01 X-3.97962 Y1.49477
G01 X-3.97960 Y1.49480
G01 X-3.97962 Y1.49477
G01 X-3.98471 Y1.49721
G01 X-3.98471 Y1.49722
G01 X-3.98599 Y1.49783
G01 X-3.98471 Y1.49722
G01 X-3.98471 Y1.49721
G01 X-3.97962 Y1.49477
G01 X-3.96893 Y1.48743
G01 X-3.85100 Y1.48743
G01 X-3.84032 Y1.49477
G01 X-3.83523 Y1.49721
G01 X-3.82008 Y1.50448
G01 X-3.83395 Y1.49783
G01 X-3.98599 Y1.49783
G01 X-3.99985 Y1.50448
G01 X-3.99984 Y1.50452
G01 X-3.99985 Y1.50448
G01 X-4.01095 Y1.50749
G01 X-4.02009 Y1.50997
G01 X-4.02008 Y1.51006
G01 X-4.02009 Y1.50997
G01 X-4.01095 Y1.50749
G01 X-4.00762 Y1.50571
G01 X-3.99979 Y1.49928
G01 X-3.99336 Y1.49145
G01 X-3.98858 Y1.48251
G01 X-3.98564 Y1.47281
G01 X-3.98465 Y1.46272
G01 X-3.98465 Y1.42729
G01 X-3.98564 Y1.41721
G01 X-3.98751 Y1.41103
G01 X-3.98816 Y1.41092
G01 X-3.98751 Y1.41103
G01 X-3.98526 Y1.40757
G01 X-3.98139 Y1.40087
G01 X-3.97894 Y1.39605
G01 X-3.97700 Y1.39099
G01 X-3.97461 Y1.38364
G01 X-3.97440 Y1.38287
G01 X-3.97463 Y1.38273
G01 X-3.97440 Y1.38287
G01 X-3.82820 Y1.23667
G01 X-3.82853 Y1.23588
G01 X-3.82820 Y1.23667
G01 X-3.74514 Y1.23667
G01 X-3.78287 Y1.27440
G01 X-3.78273 Y1.27462
G01 X-3.78287 Y1.27440
G01 X-3.78738 Y1.27561
G01 X-3.79056 Y1.27683
G01 X-3.79068 Y1.27685
G01 X-3.79560 Y1.27808
G01 X-3.79842 Y1.27894
G01 X-3.80778 Y1.28281
G01 X-3.81037 Y1.28420
G01 X-3.81473 Y1.28681
G01 X-3.81880 Y1.28983
G01 X-3.82107 Y1.29170
G01 X-3.82824 Y1.29886
G01 X-3.83011 Y1.30114
G01 X-3.83313 Y1.30521
G01 X-3.83574 Y1.30956
G01 X-3.83712 Y1.31216
G01 X-3.84100 Y1.32152
G01 X-3.84185 Y1.32433
G01 X-3.84309 Y1.32926
G01 X-3.84313 Y1.32952
G01 X-3.84533 Y1.33630
G01 X-3.84673 Y1.34153
G01 X-3.84758 Y1.34687
G01 X-3.84838 Y1.35456
G01 X-3.84867 Y1.35997
G01 X-3.84838 Y1.36537
G01 X-3.84758 Y1.37307
G01 X-3.84673 Y1.37841
G01 X-3.84533 Y1.38364
G01 X-3.84294 Y1.39099
G01 X-3.84100 Y1.39605
G01 X-3.83854 Y1.40087
G01 X-3.83468 Y1.40757
G01 X-3.83242 Y1.41103
G01 X-3.83177 Y1.41092
G01 X-3.83242 Y1.41103
G01 X-3.83430 Y1.41721
G01 X-3.83529 Y1.42729
G01 X-3.83529 Y1.46272
G01 X-3.83430 Y1.47281
G01 X-3.83135 Y1.48251
G01 X-3.82658 Y1.49145
G01 X-3.82015 Y1.49928
G01 X-3.81231 Y1.50571
G01 X-3.80899 Y1.50749
G01 X-3.80899 Y1.50749
G01 X-3.79984 Y1.50997
G01 X-3.80625 Y1.50823
G01 X-4.01368 Y1.50823
G01 X-4.02009 Y1.50997
G01 X-4.03634 Y1.50997
G01 X-4.08359 Y1.50997
G01 X-4.09984 Y1.50997
G01 X-4.09985 Y1.51004
G01 X-4.09984 Y1.50997
G01 X-4.10696 Y1.50823
G01 X-4.10696 Y1.50823
G01 X-4.10815 Y1.50794
G01 X-4.11487 Y1.50629
G01 X-4.11488 Y1.50632
G01 X-4.11489 Y1.50633
G01 X-4.11488 Y1.50632
G01 X-4.11487 Y1.50629
G01 X-4.12990 Y1.50029
G01 X-4.12992 Y1.50033
G01 X-4.12990 Y1.50029
G01 X-4.13381 Y1.49783
G01 X-4.13381 Y1.49783
G01 X-4.13546 Y1.49679
G01 X-4.15029 Y1.48743
G01 X-4.13546 Y1.49679
G01 X-4.13546 Y1.49679
G01 X-4.13381 Y1.49783
G01 X-4.18612 Y1.49783
G01 X-4.18448 Y1.49679
G01 X-4.18448 Y1.49679
G01 X-4.16965 Y1.48743
G01 X-4.18448 Y1.49679
G01 X-4.18448 Y1.49679
G01 X-4.18612 Y1.49783
G01 X-4.18448 Y1.49679
G01 X-4.18448 Y1.49679
G01 X-4.17897 Y1.48649
G01 X-4.17544 Y1.47484
G01 X-4.17425 Y1.46272
G01 X-4.17425 Y1.42729
G01 X-4.17544 Y1.41518
G01 X-4.17620 Y1.41267
G01 X-4.17673 Y1.41257
G01 X-4.17620 Y1.41267
G01 X-4.17239 Y1.40607
G01 X-4.16944 Y1.40028
G01 X-4.16711 Y1.39421
G01 X-4.16522 Y1.38840
G01 X-4.16544 Y1.38826
G01 X-4.16522 Y1.38840
G01 X-4.15670 Y1.37988
G01 X-4.15492 Y1.37384
G01 X-4.15690 Y1.38057
G01 X-4.15522 Y1.38685
G01 X-4.15283 Y1.39421
G01 X-4.15050 Y1.40028
G01 X-4.14755 Y1.40607
G01 X-4.14374 Y1.41267
G01 X-4.14320 Y1.41257
G01 X-4.14374 Y1.41267
G01 X-4.14450 Y1.41518
G01 X-4.14569 Y1.42729
G01 X-4.14569 Y1.46272
G01 X-4.14450 Y1.47484
G01 X-4.14096 Y1.48649
G01 X-4.13546 Y1.49679
G01 X-4.13546 Y1.49679
G01 X-4.13381 Y1.49783
G01 X-4.13381 Y1.49783
G01 X-4.13381 Y1.49783
G01 X-4.18612 Y1.49783
G01 X-4.18612 Y1.49783
G01 X-4.18613 Y1.49783
G01 X-4.19003 Y1.50029
G01 X-4.19001 Y1.50033
G01 X-4.19003 Y1.50029
G01 X-4.20506 Y1.50629
G01 X-4.20505 Y1.50633
G01 X-4.20506 Y1.50629
G01 X-4.20505 Y1.50632
G01 X-4.20506 Y1.50629
G01 X-4.21179 Y1.50794
G01 X-4.21179 Y1.50794
G01 X-4.21298 Y1.50823
G01 X-4.21179 Y1.50794
G01 X-4.21179 Y1.50794
G01 X-4.20506 Y1.50629
G01 X-4.19003 Y1.50029
G01 X-4.18613 Y1.49783
G01 X-4.18612 Y1.49783
G01 X-4.18612 Y1.49783
G01 X-4.18448 Y1.49679
G01 X-4.18448 Y1.49679
G01 X-4.16965 Y1.48743
