( pcb2gcode 2.1.0 )
( Software-independent Gcode )

G94 ( Inches per minute feed rate. )
G20 ( Units == INCHES. )

G90 ( Absolute coordinates. )
G00 S30000 ( RPM spindle speed. )
G01 F100.00000 ( Feedrate. )


G00 Z0.05000 (Retract to tool change height)
G04 P0.00000 (Wait for spindle to stop)
(MSG, Change tool bit to mill diameter 0.02600in)
G04 P0.00000 (Wait for spindle to get up to speed)
G04 P0 ( dwell for no time -- G64 should not smooth over this point )
G00 Z0.05000 ( retract )

G00 X-1.48312 Y1.58393 ( rapid move to begin. )
G01 F100.00000
( Mill infeed pass 1/1 )
G01 Z-0.00500
G04 P0 ( dwell for no time -- G64 should not smooth over this point )
G01 F100.00000
G01 X-1.48312 Y1.58393
G01 X-1.47654 Y1.58686
G01 X-1.47652 Y1.58683
G01 X-1.47654 Y1.58686
G01 X-1.47015 Y1.59011
G01 X-1.46241 Y1.59458
G01 X-1.45881 Y1.59693
G01 X-1.45421 Y1.59993
G01 X-1.44648 Y1.60556
G01 X-1.44111 Y1.60993
G01 X-1.43564 Y1.61438
G01 X-1.42797 Y1.62128
G01 X-1.42797 Y1.62134
G01 X-1.43897 Y1.62797
G01 X-1.45197 Y1.62797
G01 X-1.46497 Y1.62797
G01 X-1.47797 Y1.62797
G01 X-1.47804 Y1.62661
G01 X-1.47885 Y1.61892
G01 X-1.47906 Y1.61757
G01 X-1.47941 Y1.61626
G01 X-1.48180 Y1.60890
G01 X-1.48229 Y1.60763
G01 X-1.48291 Y1.60642
G01 X-1.48678 Y1.59972
G01 X-1.48752 Y1.59858
G01 X-1.48837 Y1.59752
G01 X-1.49355 Y1.59177
G01 X-1.49451 Y1.59081
G01 X-1.49557 Y1.58996
G01 X-1.50183 Y1.58541
G01 X-1.50297 Y1.58467
G01 X-1.50418 Y1.58405
G01 X-1.51125 Y1.58090
G01 X-1.51252 Y1.58042
G01 X-1.51383 Y1.58006
G01 X-1.52140 Y1.57846
G01 X-1.52274 Y1.57824
G01 X-1.52410 Y1.57817
G01 X-1.53184 Y1.57817
G01 X-1.53319 Y1.57824
G01 X-1.53454 Y1.57846
G01 X-1.54210 Y1.58006
G01 X-1.54342 Y1.58042
G01 X-1.54469 Y1.58090
G01 X-1.55176 Y1.58405
G01 X-1.55297 Y1.58467
G01 X-1.55411 Y1.58541
G01 X-1.56037 Y1.58996
G01 X-1.56142 Y1.59081
G01 X-1.56239 Y1.59177
G01 X-1.56756 Y1.59752
G01 X-1.56842 Y1.59858
G01 X-1.56916 Y1.59972
G01 X-1.57303 Y1.60642
G01 X-1.57365 Y1.60763
G01 X-1.57413 Y1.60890
G01 X-1.57652 Y1.61626
G01 X-1.57688 Y1.61757
G01 X-1.57709 Y1.61892
G01 X-1.57790 Y1.62661
G01 X-1.57797 Y1.62797
G01 X-1.57790 Y1.62933
G01 X-1.57709 Y1.63702
G01 X-1.57688 Y1.63836
G01 X-1.57652 Y1.63968
G01 X-1.57413 Y1.64704
G01 X-1.57365 Y1.64831
G01 X-1.57303 Y1.64952
G01 X-1.56916 Y1.65622
G01 X-1.56842 Y1.65736
G01 X-1.56756 Y1.65842
G01 X-1.56597 Y1.66019
G01 X-1.56597 Y1.69575
G01 X-1.56756 Y1.69752
G01 X-1.56842 Y1.69858
G01 X-1.56916 Y1.69972
G01 X-1.57303 Y1.70642
G01 X-1.57365 Y1.70763
G01 X-1.57413 Y1.70890
G01 X-1.57652 Y1.71626
G01 X-1.57688 Y1.71757
G01 X-1.57709 Y1.71892
G01 X-1.57761 Y1.72387
G01 X-1.65484 Y1.80110
G01 X-1.65569 Y1.80204
G01 X-1.65880 Y1.80583
G01 X-1.65956 Y1.80686
G01 X-1.66022 Y1.80795
G01 X-1.66253 Y1.81227
G01 X-1.66308 Y1.81343
G01 X-1.66351 Y1.81463
G01 X-1.66493 Y1.81932
G01 X-1.66543 Y1.82182
G01 X-1.66591 Y1.82669
G01 X-1.66597 Y1.82797
G01 X-1.66597 Y2.59575
G01 X-1.66756 Y2.59752
G01 X-1.66842 Y2.59858
G01 X-1.66916 Y2.59972
G01 X-1.67303 Y2.60642
G01 X-1.67365 Y2.60763
G01 X-1.67413 Y2.60890
G01 X-1.67652 Y2.61626
G01 X-1.67688 Y2.61757
G01 X-1.67709 Y2.61892
G01 X-1.67790 Y2.62661
G01 X-1.67797 Y2.62797
G01 X-1.67804 Y2.62933
G01 X-1.67885 Y2.63702
G01 X-1.67906 Y2.63836
G01 X-1.67941 Y2.63968
G01 X-1.68180 Y2.64704
G01 X-1.68229 Y2.64831
G01 X-1.68291 Y2.64952
G01 X-1.68678 Y2.65622
G01 X-1.68752 Y2.65736
G01 X-1.68837 Y2.65842
G01 X-1.68997 Y2.66019
G01 X-1.68997 Y2.68997
G01 X-1.56597 Y2.68997
G01 X-1.56597 Y2.66019
G01 X-1.56756 Y2.65842
G01 X-1.56842 Y2.65736
G01 X-1.56916 Y2.65622
G01 X-1.57303 Y2.64952
G01 X-1.57365 Y2.64831
G01 X-1.57413 Y2.64704
G01 X-1.57652 Y2.63968
G01 X-1.57688 Y2.63836
G01 X-1.57709 Y2.63702
G01 X-1.57790 Y2.62933
G01 X-1.57797 Y2.62797
G01 X-1.57804 Y2.62661
G01 X-1.57885 Y2.61892
G01 X-1.57906 Y2.61757
G01 X-1.57941 Y2.61626
G01 X-1.58180 Y2.60890
G01 X-1.58229 Y2.60763
G01 X-1.58291 Y2.60642
G01 X-1.58678 Y2.59972
G01 X-1.58752 Y2.59858
G01 X-1.58837 Y2.59752
G01 X-1.58997 Y2.59575
G01 X-1.58997 Y1.84371
G01 X-1.52402 Y1.77776
G01 X-1.52274 Y1.77770
G01 X-1.52140 Y1.77748
G01 X-1.51383 Y1.77587
G01 X-1.51252 Y1.77552
G01 X-1.51125 Y1.77503
G01 X-1.50418 Y1.77189
G01 X-1.50297 Y1.77127
G01 X-1.50183 Y1.77053
G01 X-1.49557 Y1.76598
G01 X-1.49451 Y1.76513
G01 X-1.49355 Y1.76416
G01 X-1.48837 Y1.75842
G01 X-1.48752 Y1.75736
G01 X-1.48678 Y1.75622
G01 X-1.48291 Y1.74952
G01 X-1.48229 Y1.74831
G01 X-1.48180 Y1.74704
G01 X-1.47941 Y1.73968
G01 X-1.47906 Y1.73836
G01 X-1.47885 Y1.73702
G01 X-1.47804 Y1.72933
G01 X-1.47797 Y1.72797
G01 X-1.47804 Y1.72661
G01 X-1.47885 Y1.71892
G01 X-1.47906 Y1.71757
G01 X-1.47941 Y1.71626
G01 X-1.48180 Y1.70890
G01 X-1.48229 Y1.70763
G01 X-1.48291 Y1.70642
G01 X-1.48678 Y1.69972
G01 X-1.48752 Y1.69858
G01 X-1.48837 Y1.69752
G01 X-1.48997 Y1.69575
G01 X-1.48997 Y1.66019
G01 X-1.48837 Y1.65842
G01 X-1.48752 Y1.65736
G01 X-1.48678 Y1.65622
G01 X-1.48291 Y1.64952
G01 X-1.48229 Y1.64831
G01 X-1.48180 Y1.64704
G01 X-1.47941 Y1.63968
G01 X-1.47906 Y1.63836
G01 X-1.47885 Y1.63702
G01 X-1.47804 Y1.62933
G01 X-1.47797 Y1.62797
G01 X-1.46497 Y1.62797
G01 X-1.46511 Y1.63069
G01 X-1.46592 Y1.63838
G01 X-1.46634 Y1.64107
G01 X-1.46705 Y1.64370
G01 X-1.46944 Y1.65105
G01 X-1.47041 Y1.65359
G01 X-1.47165 Y1.65602
G01 X-1.47552 Y1.66272
G01 X-1.47697 Y1.66495
G01 X-1.47741 Y1.66483
G01 X-1.47697 Y1.66495
G01 X-1.47697 Y1.69099
G01 X-1.47741 Y1.69111
G01 X-1.47697 Y1.69099
G01 X-1.47552 Y1.69322
G01 X-1.47165 Y1.69992
G01 X-1.47041 Y1.70234
G01 X-1.46944 Y1.70489
G01 X-1.46705 Y1.71224
G01 X-1.46634 Y1.71487
G01 X-1.46592 Y1.71756
G01 X-1.46511 Y1.72525
G01 X-1.46497 Y1.72797
G01 X-1.46511 Y1.73069
G01 X-1.46592 Y1.73838
G01 X-1.46634 Y1.74107
G01 X-1.46705 Y1.74370
G01 X-1.46944 Y1.75105
G01 X-1.47041 Y1.75359
G01 X-1.47165 Y1.75602
G01 X-1.47552 Y1.76272
G01 X-1.47700 Y1.76500
G01 X-1.47871 Y1.76711
G01 X-1.48389 Y1.77286
G01 X-1.48581 Y1.77479
G01 X-1.48793 Y1.77650
G01 X-1.49419 Y1.78105
G01 X-1.49647 Y1.78253
G01 X-1.49889 Y1.78376
G01 X-1.50596 Y1.78691
G01 X-1.50850 Y1.78789
G01 X-1.51113 Y1.78859
G01 X-1.51790 Y1.79003
G01 X-1.51816 Y1.78957
G01 X-1.51790 Y1.79003
G01 X-1.57697 Y1.84909
G01 X-1.57796 Y1.84868
G01 X-1.57697 Y1.84909
G01 X-1.57697 Y1.98854
G01 X-1.57697 Y1.98854
G01 X-1.57205 Y1.98308
G01 X-1.57012 Y1.98115
G01 X-1.56801 Y1.97944
G01 X-1.56175 Y1.97489
G01 X-1.55947 Y1.97341
G01 X-1.55704 Y1.97217
G01 X-1.54998 Y1.96903
G01 X-1.54744 Y1.96805
G01 X-1.54481 Y1.96735
G01 X-1.53724 Y1.96574
G01 X-1.53455 Y1.96531
G01 X-1.53184 Y1.96517
G01 X-1.52410 Y1.96517
G01 X-1.52138 Y1.96531
G01 X-1.51869 Y1.96574
G01 X-1.51113 Y1.96735
G01 X-1.50850 Y1.96805
G01 X-1.50596 Y1.96903
G01 X-1.49889 Y1.97217
G01 X-1.49647 Y1.97341
G01 X-1.49419 Y1.97489
G01 X-1.48793 Y1.97944
G01 X-1.48581 Y1.98115
G01 X-1.48389 Y1.98308
G01 X-1.47897 Y1.98854
G01 X-1.47897 Y1.82797
G01 X-1.47884 Y1.82542
G01 X-1.47836 Y1.82054
G01 X-1.47737 Y1.81554
G01 X-1.47595 Y1.81085
G01 X-1.47509 Y1.80845
G01 X-1.47399 Y1.80615
G01 X-1.47168 Y1.80182
G01 X-1.47037 Y1.79963
G01 X-1.46885 Y1.79759
G01 X-1.46574 Y1.79380
G01 X-1.46403 Y1.79191
G01 X-1.39006 Y1.71793
G01 X-1.38955 Y1.71820
G01 X-1.39006 Y1.71793
G01 X-1.39002 Y1.71756
G01 X-1.38959 Y1.71487
G01 X-1.38889 Y1.71224
G01 X-1.38650 Y1.70489
G01 X-1.38552 Y1.70234
G01 X-1.38429 Y1.69992
G01 X-1.38042 Y1.69322
G01 X-1.37897 Y1.69099
G01 X-1.37853 Y1.69111
G01 X-1.37897 Y1.69099
G01 X-1.37897 Y1.66495
G01 X-1.37853 Y1.66483
G01 X-1.37897 Y1.66495
G01 X-1.38042 Y1.66272
G01 X-1.38429 Y1.65602
G01 X-1.38552 Y1.65359
G01 X-1.38650 Y1.65105
G01 X-1.38889 Y1.64370
G01 X-1.38959 Y1.64107
G01 X-1.39002 Y1.63838
G01 X-1.39083 Y1.63069
G01 X-1.39097 Y1.62797
G01 X-1.39083 Y1.62525
G01 X-1.39002 Y1.61756
G01 X-1.38959 Y1.61487
G01 X-1.38889 Y1.61224
G01 X-1.38650 Y1.60489
G01 X-1.38552 Y1.60234
G01 X-1.38429 Y1.59992
G01 X-1.38042 Y1.59322
G01 X-1.37894 Y1.59094
G01 X-1.37722 Y1.58882
G01 X-1.37281 Y1.58393
G01 X-1.37166 Y1.58342
G01 X-1.36655 Y1.58145
G01 X-1.36221 Y1.58004
G01 X-1.35831 Y1.57963
G01 X-1.35400 Y1.57901
G01 X-1.35159 Y1.57858
G01 X-1.34623 Y1.57744
G01 X-1.34278 Y1.57689
G01 X-1.33504 Y1.57608
G01 X-1.33183 Y1.57591
G01 X-1.32410 Y1.57591
G01 X-1.32089 Y1.57608
G01 X-1.31316 Y1.57688
G01 X-1.30970 Y1.57744
G01 X-1.30434 Y1.57858
G01 X-1.30193 Y1.57901
G01 X-1.29763 Y1.57963
G01 X-1.29373 Y1.58004
G01 X-1.28939 Y1.58145
G01 X-1.28427 Y1.58342
G01 X-1.28312 Y1.58393
G01 X-1.28312 Y1.58393
G01 X-1.17282 Y1.58393
G01 X-1.17282 Y1.58393
G01 X-1.17167 Y1.58342
G01 X-1.16655 Y1.58145
G01 X-1.16221 Y1.58004
G01 X-1.15831 Y1.57963
G01 X-1.15400 Y1.57901
G01 X-1.15159 Y1.57858
G01 X-1.14623 Y1.57744
G01 X-1.14278 Y1.57689
G01 X-1.13504 Y1.57608
G01 X-1.13184 Y1.57591
G01 X-1.12410 Y1.57591
G01 X-1.12089 Y1.57608
G01 X-1.11316 Y1.57688
G01 X-1.10970 Y1.57744
G01 X-1.10435 Y1.57858
G01 X-1.10193 Y1.57901
G01 X-1.09763 Y1.57963
G01 X-1.09373 Y1.58004
G01 X-1.08939 Y1.58145
G01 X-1.08427 Y1.58342
G01 X-1.08312 Y1.58393
G01 X-1.07282 Y1.58393
G01 X-1.07282 Y1.58393
G01 X-1.07167 Y1.58342
G01 X-1.06655 Y1.58145
G01 X-1.05881 Y1.57893
G01 X-1.05455 Y1.57779
G01 X-1.04681 Y1.57614
G01 X-1.04306 Y1.57555
G01 X-1.03533 Y1.57473
G01 X-1.03184 Y1.57455
G01 X-1.02410 Y1.57455
G01 X-1.02061 Y1.57473
G01 X-1.01287 Y1.57555
G01 X-1.00912 Y1.57614
G01 X-1.00139 Y1.57779
G01 X-0.99712 Y1.57893
G01 X-0.98939 Y1.58145
G01 X-0.98427 Y1.58342
G01 X-0.98312 Y1.58393
G01 X-0.97653 Y1.58686
G01 X-0.97652 Y1.58684
G01 X-0.97653 Y1.58686
G01 X-0.97015 Y1.59012
G01 X-0.96241 Y1.59458
G01 X-0.95881 Y1.59693
G01 X-0.95420 Y1.59993
G01 X-0.94648 Y1.60556
G01 X-0.94110 Y1.60993
G01 X-0.93563 Y1.61437
G01 X-0.92790 Y1.62134
G01 X-0.92780 Y1.62143
G01 X-0.92790 Y1.62134
G01 X-0.93897 Y1.62797
G01 X-0.95197 Y1.62797
G01 X-0.96497 Y1.62797
G01 X-0.97797 Y1.62797
G01 X-0.96497 Y1.62797
G01 X-0.96511 Y1.63069
G01 X-0.96592 Y1.63838
G01 X-0.96634 Y1.64107
G01 X-0.96705 Y1.64370
G01 X-0.96944 Y1.65105
G01 X-0.97041 Y1.65359
G01 X-0.97165 Y1.65602
G01 X-0.97552 Y1.66272
G01 X-0.97697 Y1.66495
G01 X-0.97741 Y1.66483
G01 X-0.97697 Y1.66495
G01 X-0.97697 Y2.59099
G01 X-0.97741 Y2.59111
G01 X-0.97697 Y2.59099
G01 X-0.97552 Y2.59322
G01 X-0.97165 Y2.59992
G01 X-0.97041 Y2.60234
G01 X-0.96944 Y2.60489
G01 X-0.96705 Y2.61224
G01 X-0.96634 Y2.61487
G01 X-0.96592 Y2.61756
G01 X-0.96511 Y2.62525
G01 X-0.96497 Y2.62797
G01 X-0.96511 Y2.63069
G01 X-0.96592 Y2.63838
G01 X-0.96634 Y2.64107
G01 X-0.96705 Y2.64370
G01 X-0.96944 Y2.65105
G01 X-0.97041 Y2.65359
G01 X-0.97165 Y2.65602
G01 X-0.97552 Y2.66272
G01 X-0.97700 Y2.66500
G01 X-0.97871 Y2.66711
G01 X-0.98389 Y2.67286
G01 X-0.98581 Y2.67479
G01 X-0.98793 Y2.67650
G01 X-0.98857 Y2.67697
G01 X-0.98857 Y2.67697
G01 X-0.99551 Y2.67922
G01 X-0.99551 Y2.67925
G01 X-0.99551 Y2.67922
G01 X-0.98857 Y2.67697
G01 X-0.87897 Y2.67697
G01 X-0.87516 Y2.68078
G01 X-0.87897 Y2.67697
G01 X-0.87897 Y2.66495
G01 X-0.87853 Y2.66483
G01 X-0.87897 Y2.66495
G01 X-0.88042 Y2.66272
G01 X-0.88429 Y2.65602
G01 X-0.88552 Y2.65359
G01 X-0.88650 Y2.65105
G01 X-0.88889 Y2.64370
G01 X-0.88959 Y2.64107
G01 X-0.89002 Y2.63838
G01 X-0.89083 Y2.63069
G01 X-0.89097 Y2.62797
G01 X-0.89083 Y2.62525
G01 X-0.89002 Y2.61756
G01 X-0.88959 Y2.61487
G01 X-0.88889 Y2.61224
G01 X-0.88650 Y2.60489
G01 X-0.88552 Y2.60234
G01 X-0.88429 Y2.59992
G01 X-0.88042 Y2.59322
G01 X-0.87897 Y2.59099
G01 X-0.87853 Y2.59111
G01 X-0.87897 Y2.59099
G01 X-0.87897 Y2.41495
G01 X-0.87853 Y2.41483
G01 X-0.87897 Y2.41495
G01 X-0.88042 Y2.41272
G01 X-0.88429 Y2.40602
G01 X-0.88552 Y2.40359
G01 X-0.88650 Y2.40105
G01 X-0.88889 Y2.39370
G01 X-0.88959 Y2.39107
G01 X-0.89002 Y2.38838
G01 X-0.89083 Y2.38069
G01 X-0.89097 Y2.37797
G01 X-0.89083 Y2.37525
G01 X-0.89002 Y2.36756
G01 X-0.88959 Y2.36487
G01 X-0.88889 Y2.36224
G01 X-0.88650 Y2.35489
G01 X-0.88552 Y2.35234
G01 X-0.88429 Y2.34992
G01 X-0.88042 Y2.34322
G01 X-0.87897 Y2.34099
G01 X-0.87853 Y2.34111
G01 X-0.87897 Y2.34099
G01 X-0.87897 Y2.31495
G01 X-0.87853 Y2.31483
G01 X-0.87897 Y2.31495
G01 X-0.88042 Y2.31272
G01 X-0.88429 Y2.30602
G01 X-0.88552 Y2.30359
G01 X-0.88650 Y2.30105
G01 X-0.88889 Y2.29370
G01 X-0.88959 Y2.29107
G01 X-0.89002 Y2.28838
G01 X-0.89083 Y2.28069
G01 X-0.89097 Y2.27797
G01 X-0.89083 Y2.27525
G01 X-0.89002 Y2.26756
G01 X-0.88959 Y2.26487
G01 X-0.88889 Y2.26224
G01 X-0.88650 Y2.25489
G01 X-0.88552 Y2.25234
G01 X-0.88429 Y2.24992
G01 X-0.88042 Y2.24322
G01 X-0.87894 Y2.24094
G01 X-0.87722 Y2.23882
G01 X-0.87205 Y2.23308
G01 X-0.87012 Y2.23115
G01 X-0.86801 Y2.22944
G01 X-0.86599 Y2.22797
G01 X-0.85951 Y2.22797
G01 X-0.85446 Y2.22797
G01 X-0.84600 Y2.22797
G01 X-0.84255 Y2.22797
G01 X-0.83464 Y2.22797
G01 X-0.83183 Y2.22797
G01 X-0.82410 Y2.22797
G01 X-0.82129 Y2.22797
G01 X-0.81339 Y2.22797
G01 X-0.80994 Y2.22797
G01 X-0.80147 Y2.22797
G01 X-0.79642 Y2.22797
G01 X-0.78995 Y2.22797
G01 X-0.78686 Y2.22797
G01 X-0.78313 Y2.22797
G01 X-0.78686 Y2.22797
G01 X-0.78995 Y2.22797
G01 X-0.79642 Y2.22797
G01 X-0.80147 Y2.22797
G01 X-0.80994 Y2.22797
G01 X-0.81339 Y2.22797
G01 X-0.82129 Y2.22797
G01 X-0.82410 Y2.22797
G01 X-0.83183 Y2.22797
G01 X-0.83464 Y2.22797
G01 X-0.84255 Y2.22797
G01 X-0.84600 Y2.22797
G01 X-0.85446 Y2.22797
G01 X-0.85951 Y2.22797
G01 X-0.86599 Y2.22797
G01 X-0.86907 Y2.22797
G01 X-0.87772 Y2.22797
G01 X-0.88494 Y2.22797
G01 X-0.88927 Y2.22797
G01 X-0.90147 Y2.22797
G01 X-0.90683 Y2.22797
G01 X-0.91665 Y2.22797
G01 X-0.92230 Y2.22797
G01 X-0.92804 Y2.22797
G01 X-0.92230 Y2.22797
G01 X-0.91665 Y2.22797
G01 X-0.90683 Y2.22797
G01 X-0.90147 Y2.22797
G01 X-0.88927 Y2.22797
G01 X-0.88494 Y2.22797
G01 X-0.87772 Y2.22797
G01 X-0.86907 Y2.22797
G01 X-0.86599 Y2.22797
G01 X-0.86801 Y2.22650
G01 X-0.87012 Y2.22479
G01 X-0.87205 Y2.22286
G01 X-0.87722 Y2.21711
G01 X-0.87894 Y2.21500
G01 X-0.88042 Y2.21272
G01 X-0.88429 Y2.20602
G01 X-0.88552 Y2.20359
G01 X-0.88650 Y2.20105
G01 X-0.88889 Y2.19370
G01 X-0.88959 Y2.19107
G01 X-0.89002 Y2.18838
G01 X-0.89083 Y2.18069
G01 X-0.89097 Y2.17797
G01 X-0.89083 Y2.17525
G01 X-0.89002 Y2.16756
G01 X-0.88959 Y2.16487
G01 X-0.88889 Y2.16224
G01 X-0.88650 Y2.15489
G01 X-0.88552 Y2.15234
G01 X-0.88429 Y2.14992
G01 X-0.88042 Y2.14322
G01 X-0.87897 Y2.14099
G01 X-0.87853 Y2.14111
G01 X-0.87897 Y2.14099
G01 X-0.87897 Y1.66444
G01 X-0.87853 Y1.66432
G01 X-0.87897 Y1.66444
G01 X-0.88009 Y1.66272
G01 X-0.88395 Y1.65602
G01 X-0.88519 Y1.65359
G01 X-0.88616 Y1.65105
G01 X-0.88856 Y1.64370
G01 X-0.88926 Y1.64107
G01 X-0.88969 Y1.63838
G01 X-0.89049 Y1.63069
G01 X-0.89064 Y1.62797
G01 X-0.89049 Y1.62525
G01 X-0.88969 Y1.61756
G01 X-0.88926 Y1.61487
G01 X-0.88856 Y1.61224
G01 X-0.88616 Y1.60489
G01 X-0.88519 Y1.60234
G01 X-0.88395 Y1.59992
G01 X-0.88009 Y1.59322
G01 X-0.87860 Y1.59094
G01 X-0.87689 Y1.58882
G01 X-0.87248 Y1.58393
G01 X-0.87134 Y1.58342
G01 X-0.86622 Y1.58145
G01 X-0.86224 Y1.58015
G01 X-0.85793 Y1.57969
G01 X-0.85366 Y1.57903
G01 X-0.85159 Y1.57865
G01 X-0.84590 Y1.57744
G01 X-0.84245 Y1.57689
G01 X-0.83471 Y1.57608
G01 X-0.83150 Y1.57591
G01 X-0.82377 Y1.57591
G01 X-0.82056 Y1.57608
G01 X-0.81282 Y1.57688
G01 X-0.80937 Y1.57744
G01 X-0.80435 Y1.57851
G01 X-0.80159 Y1.57899
G01 X-0.79726 Y1.57957
G01 X-0.79376 Y1.57992
G01 X-0.78906 Y1.58145
G01 X-0.78394 Y1.58342
G01 X-0.78278 Y1.58393
G01 X-0.77282 Y1.58393
G01 X-0.77282 Y1.58393
G01 X-0.77167 Y1.58342
G01 X-0.76655 Y1.58145
G01 X-0.75881 Y1.57893
G01 X-0.75455 Y1.57779
G01 X-0.74681 Y1.57614
G01 X-0.74306 Y1.57555
G01 X-0.73533 Y1.57473
G01 X-0.73184 Y1.57455
G01 X-0.72410 Y1.57455
G01 X-0.72061 Y1.57473
G01 X-0.71287 Y1.57555
G01 X-0.70912 Y1.57614
G01 X-0.70139 Y1.57779
G01 X-0.69712 Y1.57893
G01 X-0.68939 Y1.58145
G01 X-0.68427 Y1.58342
G01 X-0.68312 Y1.58393
G01 X-0.67653 Y1.58686
G01 X-0.67015 Y1.59012
G01 X-0.66241 Y1.59458
G01 X-0.65881 Y1.59693
G01 X-0.59711 Y1.59693
G01 X-0.59352 Y1.59459
G01 X-0.59060 Y1.59291
G01 X-0.58798 Y1.59133
G01 X-0.58593 Y1.59003
G01 X-0.58573 Y1.58991
G01 X-0.58121 Y1.58707
G01 X-0.57999 Y1.58633
G01 X-0.57909 Y1.58580
G01 X-0.57517 Y1.58326
G01 X-0.57331 Y1.58194
G01 X-0.57321 Y1.58186
G01 X-0.56965 Y1.57937
G01 X-0.56859 Y1.57864
G01 X-0.56770 Y1.57804
G01 X-0.56428 Y1.57556
G01 X-0.56243 Y1.57410
G01 X-0.56237 Y1.57405
G01 X-0.56076 Y1.57277
G01 X-0.55776 Y1.57057
G01 X-0.55128 Y1.56611
G01 X-0.54578 Y1.56275
G01 X-0.53869 Y1.55890
G01 X-0.53183 Y1.55563
G01 X-0.52410 Y1.55243
G01 X-0.52353 Y1.55223
G01 X-0.51520 Y1.54929
G01 X-0.51520 Y1.54928
G01 X-0.51520 Y1.54929
G01 X-0.50676 Y1.54679
G01 X-0.50676 Y1.54678
G01 X-0.50676 Y1.54679
G01 X-0.49751 Y1.54459
G01 X-0.49730 Y1.54454
G01 X-0.49730 Y1.54454
G01 X-0.49478 Y1.54394
G01 X-0.49478 Y1.54393
G01 X-0.49478 Y1.54394
G01 X-0.48555 Y1.54223
G01 X-0.48088 Y1.54144
G01 X-0.48086 Y1.54151
G01 X-0.48088 Y1.54144
G01 X-0.47559 Y1.53925
G01 X-0.47555 Y1.53931
G01 X-0.47559 Y1.53925
G01 X-0.47556 Y1.53930
G01 X-0.47559 Y1.53925
G01 X-0.47264 Y1.53716
G01 X-0.46961 Y1.53508
G01 X-0.46961 Y1.53508
G01 X-0.37140 Y1.43686
G01 X-0.36712 Y1.43214
G01 X-0.36525 Y1.42986
G01 X-0.35817 Y1.41927
G01 X-0.35678 Y1.41668
G01 X-0.35191 Y1.40490
G01 X-0.35106 Y1.40209
G01 X-0.34915 Y1.39249
G01 X-0.34939 Y1.39238
G01 X-0.34915 Y1.39249
G01 X-0.34545 Y1.38792
G01 X-0.34174 Y1.38222
G01 X-0.33788 Y1.37552
G01 X-0.33479 Y1.36946
G01 X-0.33235 Y1.36310
G01 X-0.32996 Y1.35575
G01 X-0.32820 Y1.34918
G01 X-0.32713 Y1.34246
G01 X-0.32632 Y1.33476
G01 X-0.32597 Y1.32797
G01 X-0.32632 Y1.32117
G01 X-0.32713 Y1.31348
G01 X-0.32820 Y1.30676
G01 X-0.32996 Y1.30019
G01 X-0.33235 Y1.29283
G01 X-0.33479 Y1.28648
G01 X-0.33788 Y1.28042
G01 X-0.33797 Y1.28026
G01 X-0.33825 Y1.28032
G01 X-0.33797 Y1.28026
G01 X-0.33797 Y1.06360
G01 X-0.33828 Y1.05723
G01 X-0.33876 Y1.05235
G01 X-0.34125 Y1.03985
G01 X-0.34267 Y1.03516
G01 X-0.34755 Y1.02339
G01 X-0.34986 Y1.01907
G01 X-0.35694 Y1.00847
G01 X-0.36004 Y1.00469
G01 X-0.36433 Y0.99996
G01 X-0.99996 Y0.36433
G01 X-1.00371 Y0.36086
G01 X-1.00669 Y0.35832
G01 X-1.01494 Y0.35232
G01 X-1.01828 Y0.35027
G01 X-1.02737 Y0.34564
G01 X-1.03100 Y0.34414
G01 X-1.04070 Y0.34099
G01 X-1.04451 Y0.34007
G01 X-1.05459 Y0.33848
G01 X-1.05850 Y0.33817
G01 X-1.06360 Y0.33797
G01 X-1.35358 Y0.33797
G01 X-1.35369 Y0.33840
G01 X-1.35358 Y0.33797
G01 X-1.35486 Y0.33692
G01 X-1.36609 Y0.33092
G01 X-1.37829 Y0.32722
G01 X-1.39097 Y0.32597
G01 X-1.46497 Y0.32597
G01 X-1.47765 Y0.32722
G01 X-1.48984 Y0.33092
G01 X-1.49284 Y0.33252
G01 X-1.49261 Y0.33905
G01 X-1.49206 Y0.34675
G01 X-1.49206 Y0.34675
G01 X-1.49206 Y0.34677
G01 X-1.49206 Y0.34677
G01 X-1.48487 Y0.34293
G01 X-1.47511 Y0.33997
G01 X-1.46497 Y0.33897
G01 X-1.39097 Y0.33897
G01 X-1.38082 Y0.33997
G01 X-1.37107 Y0.34293
G01 X-1.36208 Y0.34773
G01 X-1.35813 Y0.35097
G01 X-1.35841 Y0.35173
G01 X-1.35813 Y0.35097
G01 X-1.06360 Y0.35097
G01 X-1.05952 Y0.35113
G01 X-1.05561 Y0.35144
G01 X-1.04755 Y0.35271
G01 X-1.04373 Y0.35363
G01 X-1.03597 Y0.35615
G01 X-1.03235 Y0.35765
G01 X-1.02508 Y0.36136
G01 X-1.02173 Y0.36341
G01 X-1.01513 Y0.36820
G01 X-1.01215 Y0.37075
G01 X-1.00915 Y0.37352
G01 X-0.37352 Y1.00915
G01 X-0.37009 Y1.01293
G01 X-0.36698 Y1.01672
G01 X-0.36132 Y1.02520
G01 X-0.35901 Y1.02952
G01 X-0.35511 Y1.03894
G01 X-0.35369 Y1.04363
G01 X-0.35170 Y1.05362
G01 X-0.35122 Y1.05850
G01 X-0.35097 Y1.06360
G01 X-0.35097 Y1.28374
G01 X-0.35136 Y1.28384
G01 X-0.35097 Y1.28374
G01 X-0.34913 Y1.28692
G01 X-0.34666 Y1.29177
G01 X-0.34471 Y1.29685
G01 X-0.34232 Y1.30421
G01 X-0.34091 Y1.30946
G01 X-0.34006 Y1.31484
G01 X-0.33925 Y1.32253
G01 X-0.33897 Y1.32797
G01 X-0.33925 Y1.33340
G01 X-0.34006 Y1.34110
G01 X-0.34091 Y1.34647
G01 X-0.34232 Y1.35173
G01 X-0.34471 Y1.35909
G01 X-0.34666 Y1.36417
G01 X-0.34913 Y1.36902
G01 X-0.35300 Y1.37572
G01 X-0.35597 Y1.38028
G01 X-0.35939 Y1.38451
G01 X-0.36135 Y1.38668
G01 X-0.36175 Y1.38649
G01 X-0.36135 Y1.38668
G01 X-0.36151 Y1.38832
G01 X-0.36350 Y1.39832
G01 X-0.36435 Y1.40113
G01 X-0.36825 Y1.41055
G01 X-0.36964 Y1.41314
G01 X-0.37530 Y1.42162
G01 X-0.37716 Y1.42389
G01 X-0.38059 Y1.42767
G01 X-0.49751 Y1.54459
G01 X-0.50676 Y1.54679
G01 X-0.51520 Y1.54929
G01 X-0.52353 Y1.55223
G01 X-0.52410 Y1.55243
G01 X-0.52346 Y1.55221
G01 X-0.52002 Y1.55239
G01 X-0.51599 Y1.55302
G01 X-0.50843 Y1.55463
G01 X-0.50448 Y1.55569
G01 X-0.50067 Y1.55715
G01 X-0.49361 Y1.56030
G01 X-0.48997 Y1.56215
G01 X-0.48717 Y1.56397
G01 X-0.48728 Y1.56440
G01 X-0.48717 Y1.56397
G01 X-0.46877 Y1.56397
G01 X-0.46865 Y1.56440
G01 X-0.46877 Y1.56397
G01 X-0.46597 Y1.56215
G01 X-0.46233 Y1.56030
G01 X-0.45526 Y1.55715
G01 X-0.45145 Y1.55569
G01 X-0.44751 Y1.55463
G01 X-0.43994 Y1.55302
G01 X-0.43591 Y1.55239
G01 X-0.43184 Y1.55217
G01 X-0.42410 Y1.55217
G01 X-0.42002 Y1.55239
G01 X-0.41599 Y1.55302
G01 X-0.40843 Y1.55463
G01 X-0.40448 Y1.55569
G01 X-0.40067 Y1.55715
G01 X-0.39361 Y1.56030
G01 X-0.38997 Y1.56215
G01 X-0.38654 Y1.56437
G01 X-0.38029 Y1.56892
G01 X-0.37711 Y1.57149
G01 X-0.37423 Y1.57438
G01 X-0.36905 Y1.58012
G01 X-0.36648 Y1.58330
G01 X-0.36426 Y1.58672
G01 X-0.36039 Y1.59342
G01 X-0.35854 Y1.59706
G01 X-0.35708 Y1.60087
G01 X-0.35469 Y1.60822
G01 X-0.35363 Y1.61217
G01 X-0.35299 Y1.61620
G01 X-0.35218 Y1.62389
G01 X-0.35197 Y1.62797
G01 X-0.35218 Y1.63205
G01 X-0.35299 Y1.63974
G01 X-0.35363 Y1.64377
G01 X-0.35469 Y1.64771
G01 X-0.35708 Y1.65507
G01 X-0.35854 Y1.65888
G01 X-0.36039 Y1.66252
G01 X-0.36426 Y1.66922
G01 X-0.36648 Y1.67264
G01 X-0.36905 Y1.67581
G01 X-0.37423 Y1.68156
G01 X-0.37711 Y1.68445
G01 X-0.38029 Y1.68702
G01 X-0.38654 Y1.69156
G01 X-0.38997 Y1.69379
G01 X-0.39361 Y1.69564
G01 X-0.40067 Y1.69879
G01 X-0.40448 Y1.70025
G01 X-0.40843 Y1.70131
G01 X-0.41599 Y1.70291
G01 X-0.42002 Y1.70355
G01 X-0.42410 Y1.70377
G01 X-0.43184 Y1.70377
G01 X-0.43591 Y1.70355
G01 X-0.43994 Y1.70291
G01 X-0.44751 Y1.70131
G01 X-0.45145 Y1.70025
G01 X-0.45526 Y1.69879
G01 X-0.46233 Y1.69564
G01 X-0.46397 Y1.69481
G01 X-0.46984 Y1.68585
G01 X-0.46397 Y1.69481
G01 X-0.46397 Y2.55821
G01 X-0.46416 Y2.56203
G01 X-0.46464 Y2.56691
G01 X-0.46520 Y2.57070
G01 X-0.46613 Y2.57441
G01 X-0.46755 Y2.57910
G01 X-0.46884 Y2.58270
G01 X-0.47048 Y2.58616
G01 X-0.47279 Y2.59048
G01 X-0.47703 Y2.59684
G01 X-0.48014 Y2.60063
G01 X-0.48271 Y2.60346
G01 X-0.65247 Y2.77322
G01 X-0.65531 Y2.77579
G01 X-0.65910 Y2.77890
G01 X-0.66217 Y2.78118
G01 X-0.66545 Y2.78315
G01 X-0.66978 Y2.78546
G01 X-0.67684 Y2.78839
G01 X-0.68153 Y2.78981
G01 X-0.68524 Y2.79074
G01 X-0.68903 Y2.79130
G01 X-0.69390 Y2.79178
G01 X-0.69773 Y2.79197
G01 X-4.62797 Y2.79197
G01 X-4.63179 Y2.79178
G01 X-4.63667 Y2.79130
G01 X-4.64045 Y2.79074
G01 X-4.64417 Y2.78981
G01 X-4.64886 Y2.78839
G01 X-4.65246 Y2.78710
G01 X-4.65592 Y2.78546
G01 X-4.66024 Y2.78315
G01 X-4.66660 Y2.77890
G01 X-4.67039 Y2.77579
G01 X-4.67322 Y2.77322
G01 X-4.67579 Y2.77039
G01 X-4.67890 Y2.76660
G01 X-4.68118 Y2.76353
G01 X-4.68315 Y2.76024
G01 X-4.68546 Y2.75592
G01 X-4.68839 Y2.74886
G01 X-4.68981 Y2.74417
G01 X-4.69074 Y2.74045
G01 X-4.69130 Y2.73667
G01 X-4.69178 Y2.73179
G01 X-4.69197 Y2.72797
G01 X-4.69197 Y2.69472
G01 X-4.69197 Y2.69470
G01 X-4.68855 Y2.68880
G01 X-4.68461 Y2.68107
G01 X-4.68179 Y2.67475
G01 X-4.67897 Y2.66740
G01 X-4.67882 Y2.66702
G01 X-4.67797 Y2.66463
G01 X-4.67797 Y2.66130
G01 X-4.67797 Y2.65237
G01 X-4.67797 Y2.64828
G01 X-4.67797 Y2.64015
G01 X-4.67797 Y2.63711
G01 X-4.67797 Y2.62934
G01 X-4.67797 Y2.62799
G01 X-4.67797 Y2.62796
G01 X-4.67804 Y2.62933
G01 X-4.67885 Y2.63702
G01 X-4.67906 Y2.63836
G01 X-4.67941 Y2.63968
G01 X-4.68180 Y2.64704
G01 X-4.68229 Y2.64831
G01 X-4.68291 Y2.64952
G01 X-4.68678 Y2.65622
G01 X-4.68752 Y2.65736
G01 X-4.68837 Y2.65842
G01 X-4.69355 Y2.66416
G01 X-4.69451 Y2.66513
G01 X-4.69557 Y2.66598
G01 X-4.70183 Y2.67053
G01 X-4.70297 Y2.67127
G01 X-4.70418 Y2.67189
G01 X-4.71125 Y2.67503
G01 X-4.71252 Y2.67552
G01 X-4.71383 Y2.67587
G01 X-4.72140 Y2.67748
G01 X-4.72274 Y2.67770
G01 X-4.72410 Y2.67777
G01 X-4.73184 Y2.67777
G01 X-4.73319 Y2.67770
G01 X-4.73454 Y2.67748
G01 X-4.74210 Y2.67587
G01 X-4.74342 Y2.67552
G01 X-4.74469 Y2.67503
G01 X-4.75176 Y2.67189
G01 X-4.75297 Y2.67127
G01 X-4.75411 Y2.67053
G01 X-4.76037 Y2.66598
G01 X-4.76142 Y2.66513
G01 X-4.76239 Y2.66416
G01 X-4.76756 Y2.65842
G01 X-4.76842 Y2.65736
G01 X-4.76916 Y2.65622
G01 X-4.77303 Y2.64952
G01 X-4.77365 Y2.64831
G01 X-4.77413 Y2.64704
G01 X-4.77652 Y2.63968
G01 X-4.77688 Y2.63836
G01 X-4.77709 Y2.63702
G01 X-4.77790 Y2.62933
G01 X-4.77797 Y2.62797
G01 X-4.77790 Y2.62661
G01 X-4.77709 Y2.61892
G01 X-4.77688 Y2.61757
G01 X-4.77652 Y2.61626
G01 X-4.77413 Y2.60890
G01 X-4.77365 Y2.60763
G01 X-4.77303 Y2.60642
G01 X-4.76916 Y2.59972
G01 X-4.76842 Y2.59858
G01 X-4.76756 Y2.59752
G01 X-4.76597 Y2.59575
G01 X-4.76597 Y1.82797
G01 X-4.76590 Y1.82669
G01 X-4.76542 Y1.82182
G01 X-4.76493 Y1.81932
G01 X-4.76350 Y1.81463
G01 X-4.76253 Y1.81227
G01 X-4.76022 Y1.80795
G01 X-4.75880 Y1.80583
G01 X-4.75569 Y1.80204
G01 X-4.75484 Y1.80110
G01 X-4.67761 Y1.72387
G01 X-4.67709 Y1.71892
G01 X-4.67687 Y1.71757
G01 X-4.67652 Y1.71626
G01 X-4.67413 Y1.70890
G01 X-4.67364 Y1.70763
G01 X-4.67303 Y1.70642
G01 X-4.66916 Y1.69972
G01 X-4.66842 Y1.69858
G01 X-4.66756 Y1.69752
G01 X-4.66597 Y1.69575
G01 X-4.66597 Y1.66019
G01 X-4.66756 Y1.65842
G01 X-4.66842 Y1.65736
G01 X-4.66916 Y1.65622
G01 X-4.67303 Y1.64952
G01 X-4.67364 Y1.64831
G01 X-4.67413 Y1.64704
G01 X-4.67652 Y1.63968
G01 X-4.67687 Y1.63836
G01 X-4.67709 Y1.63702
G01 X-4.67790 Y1.62933
G01 X-4.67797 Y1.62797
G01 X-4.67790 Y1.62661
G01 X-4.67709 Y1.61892
G01 X-4.67687 Y1.61757
G01 X-4.67652 Y1.61626
G01 X-4.67413 Y1.60890
G01 X-4.67364 Y1.60763
G01 X-4.67303 Y1.60642
G01 X-4.66916 Y1.59972
G01 X-4.66842 Y1.59858
G01 X-4.66756 Y1.59752
G01 X-4.66239 Y1.59177
G01 X-4.66142 Y1.59081
G01 X-4.66037 Y1.58996
G01 X-4.65411 Y1.58541
G01 X-4.65297 Y1.58467
G01 X-4.65176 Y1.58405
G01 X-4.64469 Y1.58090
G01 X-4.64342 Y1.58042
G01 X-4.64210 Y1.58006
G01 X-4.63454 Y1.57846
G01 X-4.63319 Y1.57824
G01 X-4.63183 Y1.57817
G01 X-4.62410 Y1.57817
G01 X-4.62274 Y1.57824
G01 X-4.62140 Y1.57846
G01 X-4.61383 Y1.58006
G01 X-4.61252 Y1.58042
G01 X-4.61125 Y1.58090
G01 X-4.60418 Y1.58405
G01 X-4.60297 Y1.58467
G01 X-4.60183 Y1.58541
G01 X-4.59557 Y1.58996
G01 X-4.59451 Y1.59081
G01 X-4.59355 Y1.59177
G01 X-4.58837 Y1.59752
G01 X-4.58752 Y1.59858
G01 X-4.58678 Y1.59972
G01 X-4.58291 Y1.60642
G01 X-4.58229 Y1.60763
G01 X-4.58180 Y1.60890
G01 X-4.57941 Y1.61626
G01 X-4.57906 Y1.61757
G01 X-4.57885 Y1.61892
G01 X-4.57804 Y1.62661
G01 X-4.57797 Y1.62797
G01 X-4.57804 Y1.62933
G01 X-4.57885 Y1.63702
G01 X-4.57906 Y1.63836
G01 X-4.57941 Y1.63968
G01 X-4.58180 Y1.64704
G01 X-4.58229 Y1.64831
G01 X-4.58291 Y1.64952
G01 X-4.58678 Y1.65622
G01 X-4.58752 Y1.65736
G01 X-4.58837 Y1.65842
G01 X-4.58997 Y1.66019
G01 X-4.58997 Y1.69575
G01 X-4.58837 Y1.69752
G01 X-4.58752 Y1.69858
G01 X-4.58678 Y1.69972
G01 X-4.58291 Y1.70642
G01 X-4.58229 Y1.70763
G01 X-4.58180 Y1.70890
G01 X-4.57941 Y1.71626
G01 X-4.57906 Y1.71757
G01 X-4.57885 Y1.71892
G01 X-4.57804 Y1.72661
G01 X-4.57797 Y1.72797
G01 X-4.57804 Y1.72933
G01 X-4.57885 Y1.73702
G01 X-4.57906 Y1.73836
G01 X-4.57941 Y1.73968
G01 X-4.58180 Y1.74704
G01 X-4.58229 Y1.74831
G01 X-4.58291 Y1.74952
G01 X-4.58678 Y1.75622
G01 X-4.58752 Y1.75736
G01 X-4.58837 Y1.75842
G01 X-4.59355 Y1.76416
G01 X-4.59451 Y1.76513
G01 X-4.59557 Y1.76598
G01 X-4.60183 Y1.77053
G01 X-4.60297 Y1.77127
G01 X-4.60418 Y1.77189
G01 X-4.61125 Y1.77503
G01 X-4.61252 Y1.77552
G01 X-4.61383 Y1.77587
G01 X-4.62140 Y1.77748
G01 X-4.62274 Y1.77770
G01 X-4.62402 Y1.77776
G01 X-4.68997 Y1.84371
G01 X-4.68997 Y2.59575
G01 X-4.68837 Y2.59752
G01 X-4.68752 Y2.59858
G01 X-4.68678 Y2.59972
G01 X-4.68291 Y2.60642
G01 X-4.68229 Y2.60763
G01 X-4.68180 Y2.60890
G01 X-4.67941 Y2.61626
G01 X-4.67906 Y2.61757
G01 X-4.67885 Y2.61892
G01 X-4.67804 Y2.62661
G01 X-4.67797 Y2.62795
G01 X-4.67790 Y2.62661
G01 X-4.67709 Y2.61892
G01 X-4.67687 Y2.61757
G01 X-4.67652 Y2.61626
G01 X-4.67413 Y2.60890
G01 X-4.67364 Y2.60763
G01 X-4.67303 Y2.60642
G01 X-4.66916 Y2.59972
G01 X-4.66842 Y2.59858
G01 X-4.66756 Y2.59752
G01 X-4.66597 Y2.59575
G01 X-4.66597 Y2.41019
G01 X-4.66756 Y2.40842
G01 X-4.66842 Y2.40736
G01 X-4.66916 Y2.40622
G01 X-4.67303 Y2.39952
G01 X-4.67364 Y2.39831
G01 X-4.67413 Y2.39704
G01 X-4.67652 Y2.38968
G01 X-4.67687 Y2.38836
G01 X-4.67709 Y2.38702
G01 X-4.67790 Y2.37933
G01 X-4.67797 Y2.37797
G01 X-4.67790 Y2.37661
G01 X-4.67709 Y2.36892
G01 X-4.67687 Y2.36757
G01 X-4.67652 Y2.36626
G01 X-4.67413 Y2.35890
G01 X-4.67364 Y2.35763
G01 X-4.67303 Y2.35642
G01 X-4.66916 Y2.34972
G01 X-4.66842 Y2.34858
G01 X-4.66756 Y2.34752
G01 X-4.66597 Y2.34575
G01 X-4.66597 Y2.31019
G01 X-4.66756 Y2.30842
G01 X-4.66842 Y2.30736
G01 X-4.66916 Y2.30622
G01 X-4.67303 Y2.29952
G01 X-4.67364 Y2.29831
G01 X-4.67413 Y2.29704
G01 X-4.67652 Y2.28968
G01 X-4.67687 Y2.28836
G01 X-4.67709 Y2.28702
G01 X-4.67790 Y2.27933
G01 X-4.67797 Y2.27797
G01 X-4.67790 Y2.27661
G01 X-4.67709 Y2.26892
G01 X-4.67687 Y2.26757
G01 X-4.67652 Y2.26626
G01 X-4.67413 Y2.25890
G01 X-4.67364 Y2.25763
G01 X-4.67303 Y2.25642
G01 X-4.66916 Y2.24972
G01 X-4.66842 Y2.24858
G01 X-4.66756 Y2.24752
G01 X-4.66239 Y2.24177
G01 X-4.66142 Y2.24081
G01 X-4.66037 Y2.23996
G01 X-4.65411 Y2.23541
G01 X-4.65297 Y2.23467
G01 X-4.65176 Y2.23405
G01 X-4.64469 Y2.23090
G01 X-4.64342 Y2.23042
G01 X-4.64210 Y2.23006
G01 X-4.63454 Y2.22846
G01 X-4.63319 Y2.22824
G01 X-4.63183 Y2.22817
G01 X-4.62410 Y2.22817
G01 X-4.62274 Y2.22824
G01 X-4.62140 Y2.22846
G01 X-4.61383 Y2.23006
G01 X-4.61252 Y2.23042
G01 X-4.61125 Y2.23090
G01 X-4.60418 Y2.23405
G01 X-4.60297 Y2.23467
G01 X-4.60183 Y2.23541
G01 X-4.59557 Y2.23996
G01 X-4.59451 Y2.24081
G01 X-4.59355 Y2.24177
G01 X-4.58837 Y2.24752
G01 X-4.58752 Y2.24858
G01 X-4.58678 Y2.24972
G01 X-4.58291 Y2.25642
G01 X-4.58229 Y2.25763
G01 X-4.58180 Y2.25890
G01 X-4.57941 Y2.26626
G01 X-4.57906 Y2.26757
G01 X-4.57885 Y2.26892
G01 X-4.57804 Y2.27661
G01 X-4.57797 Y2.27797
G01 X-4.57804 Y2.27933
G01 X-4.57885 Y2.28702
G01 X-4.57906 Y2.28836
G01 X-4.57941 Y2.28968
G01 X-4.58180 Y2.29704
G01 X-4.58229 Y2.29831
G01 X-4.58291 Y2.29952
G01 X-4.58678 Y2.30622
G01 X-4.58752 Y2.30736
G01 X-4.58837 Y2.30842
G01 X-4.58997 Y2.31019
G01 X-4.58997 Y2.34575
G01 X-4.58837 Y2.34752
G01 X-4.58752 Y2.34858
G01 X-4.58678 Y2.34972
G01 X-4.58291 Y2.35642
G01 X-4.58229 Y2.35763
G01 X-4.58180 Y2.35890
G01 X-4.57941 Y2.36626
G01 X-4.57906 Y2.36757
G01 X-4.57885 Y2.36892
G01 X-4.57804 Y2.37661
G01 X-4.57797 Y2.37797
G01 X-4.57804 Y2.37933
G01 X-4.57885 Y2.38702
G01 X-4.57906 Y2.38836
G01 X-4.57941 Y2.38968
G01 X-4.58180 Y2.39704
G01 X-4.58229 Y2.39831
G01 X-4.58291 Y2.39952
G01 X-4.58678 Y2.40622
G01 X-4.58752 Y2.40736
G01 X-4.58837 Y2.40842
G01 X-4.58997 Y2.41019
G01 X-4.58997 Y2.59575
G01 X-4.58837 Y2.59752
G01 X-4.58752 Y2.59858
G01 X-4.58678 Y2.59972
G01 X-4.58291 Y2.60642
G01 X-4.58229 Y2.60763
G01 X-4.58180 Y2.60890
G01 X-4.57941 Y2.61626
G01 X-4.57906 Y2.61757
G01 X-4.57885 Y2.61892
G01 X-4.57804 Y2.62661
G01 X-4.57797 Y2.62796
G01 X-4.57797 Y2.62660
G01 X-4.57797 Y2.61882
G01 X-4.57797 Y2.61579
G01 X-4.57797 Y2.60766
G01 X-4.57797 Y2.60357
G01 X-4.57797 Y2.59463
G01 X-4.57797 Y2.59131
G01 X-4.57797 Y2.41463
G01 X-4.57807 Y2.41462
G01 X-4.57797 Y2.41463
G01 X-4.57809 Y2.41461
G01 X-4.57797 Y2.41463
G01 X-4.57712 Y2.41179
G01 X-4.57505 Y2.40406
G01 X-4.57408 Y2.39954
G01 X-4.57407 Y2.39955
G01 X-4.57408 Y2.39954
G01 X-4.57286 Y2.39181
G01 X-4.57285 Y2.39181
G01 X-4.57286 Y2.39181
G01 X-4.57242 Y2.38770
G01 X-4.57202 Y2.37996
G01 X-4.57199 Y2.37996
G01 X-4.57202 Y2.37996
G01 X-4.57202 Y2.37598
G01 X-4.57242 Y2.36824
G01 X-4.57286 Y2.36413
G01 X-4.57283 Y2.36413
G01 X-4.57286 Y2.36413
G01 X-4.57408 Y2.35640
G01 X-4.57505 Y2.35188
G01 X-4.57503 Y2.35188
G01 X-4.57505 Y2.35188
G01 X-4.57712 Y2.34414
G01 X-4.57797 Y2.34131
G01 X-4.57807 Y2.34132
G01 X-4.57809 Y2.34133
G01 X-4.57807 Y2.34132
G01 X-4.57797 Y2.34131
G01 X-4.57797 Y2.31463
G01 X-4.57807 Y2.31462
G01 X-4.57797 Y2.31463
G01 X-4.57809 Y2.31461
G01 X-4.57797 Y2.31463
G01 X-4.57712 Y2.31179
G01 X-4.57505 Y2.30406
G01 X-4.57503 Y2.30406
G01 X-4.57505 Y2.30406
G01 X-4.57408 Y2.29954
G01 X-4.57286 Y2.29181
G01 X-4.57283 Y2.29181
G01 X-4.57286 Y2.29181
G01 X-4.57242 Y2.28770
G01 X-4.57202 Y2.27996
G01 X-4.57202 Y2.27598
G01 X-4.57199 Y2.27598
G01 X-4.57202 Y2.27598
G01 X-4.57242 Y2.26824
G01 X-4.57286 Y2.26413
G01 X-4.57284 Y2.26413
G01 X-4.57286 Y2.26413
G01 X-4.57408 Y2.25640
G01 X-4.57406 Y2.25639
G01 X-4.57408 Y2.25640
G01 X-4.57505 Y2.25188
G01 X-4.57503 Y2.25188
G01 X-4.57505 Y2.25188
G01 X-4.57712 Y2.24414
G01 X-4.57882 Y2.23892
G01 X-4.57881 Y2.23892
G01 X-4.57882 Y2.23892
G01 X-4.57897 Y2.23854
G01 X-4.57897 Y2.23854
G01 X-4.57897 Y2.21740
G01 X-4.57882 Y2.21702
G01 X-4.57712 Y2.21179
G01 X-4.57505 Y2.20406
G01 X-4.57408 Y2.19954
G01 X-4.57286 Y2.19181
G01 X-4.57242 Y2.18770
G01 X-4.57202 Y2.17996
G01 X-4.57202 Y2.17598
G01 X-4.57242 Y2.16824
G01 X-4.57286 Y2.16413
G01 X-4.57408 Y2.15640
G01 X-4.57505 Y2.15188
G01 X-4.57712 Y2.14414
G01 X-4.57797 Y2.14131
G01 X-4.57797 Y2.06463
G01 X-4.57712 Y2.06179
G01 X-4.57505 Y2.05406
G01 X-4.57408 Y2.04954
G01 X-4.57286 Y2.04181
G01 X-4.57242 Y2.03770
G01 X-4.57202 Y2.02996
G01 X-4.57202 Y2.02598
G01 X-4.57242 Y2.01824
G01 X-4.57286 Y2.01413
G01 X-4.57408 Y2.00640
G01 X-4.57505 Y2.00188
G01 X-4.57712 Y1.99415
G01 X-4.57882 Y1.98892
G01 X-4.57897 Y1.98854
G01 X-4.57897 Y1.98854
G01 X-4.58179 Y1.98119
G01 X-4.58178 Y1.98118
G01 X-4.58179 Y1.98119
G01 X-4.58461 Y1.97487
G01 X-4.58459 Y1.97486
G01 X-4.58461 Y1.97487
G01 X-4.58854 Y1.96713
G01 X-4.59134 Y1.96231
G01 X-4.59197 Y1.96124
G01 X-4.59313 Y1.95924
G01 X-4.59815 Y1.95151
G01 X-4.59814 Y1.95150
G01 X-4.59815 Y1.95151
G01 X-4.60497 Y1.94216
G01 X-4.60497 Y1.94216
G01 X-4.60497 Y1.94215
G01 X-4.60497 Y1.94214
G01 X-4.60497 Y1.82797
G01 X-4.60472 Y1.82287
G01 X-4.60424 Y1.81799
G01 X-4.60357 Y1.81349
G01 X-4.60351 Y1.81343
G01 X-4.59927 Y1.80890
G01 X-4.60351 Y1.81343
G01 X-4.60351 Y1.81343
G01 X-4.60491 Y1.81380
G01 X-4.60514 Y1.81341
G01 X-4.60491 Y1.81380
G01 X-4.65097 Y1.85986
G01 X-4.65196 Y1.85945
G01 X-4.65097 Y1.85986
G01 X-4.65097 Y1.94216
G01 X-4.65097 Y1.94216
G01 X-4.65097 Y1.94216
G01 X-4.65093 Y1.94211
G01 X-4.65021 Y1.94192
G01 X-4.64265 Y1.94031
G01 X-4.63727 Y1.93946
G01 X-4.63183 Y1.93917
G01 X-4.62410 Y1.93917
G01 X-4.61866 Y1.93946
G01 X-4.61329 Y1.94031
G01 X-4.60572 Y1.94192
G01 X-4.60501 Y1.94211
G01 X-4.60497 Y1.94216
G01 X-4.59815 Y1.95151
G01 X-4.60497 Y1.94215
G01 X-4.60559 Y1.94130
G01 X-4.61185 Y1.93356
G01 X-4.61797 Y1.92681
G01 X-4.61797 Y1.92681
G01 X-4.61797 Y1.84525
G01 X-4.61797 Y1.84525
G01 X-4.61081 Y1.82797
G01 X-4.61797 Y1.84525
G01 X-4.63797 Y1.86525
G01 X-4.63896 Y1.86484
G01 X-4.63797 Y1.86525
G01 X-4.63797 Y1.92682
G01 X-4.63766 Y1.92648
G01 X-4.63766 Y1.92648
G01 X-4.63183 Y1.92617
G01 X-4.62410 Y1.92617
G01 X-4.61827 Y1.92648
G01 X-4.61797 Y1.92681
G01 X-4.61797 Y1.92682
G01 X-4.61185 Y1.93356
G01 X-4.61797 Y1.92681
G01 X-4.62410 Y1.92004
G01 X-4.62797 Y1.91617
G01 X-4.62797 Y1.86939
G01 X-4.62822 Y1.86934
G01 X-4.62797 Y1.86939
G01 X-4.61797 Y1.84525
G01 X-4.61081 Y1.82797
G01 X-4.60839 Y1.82250
G01 X-4.60616 Y1.81780
G01 X-4.60457 Y1.81456
G01 X-4.60470 Y1.81447
G01 X-4.60457 Y1.81456
G01 X-4.60473 Y1.81445
G01 X-4.60457 Y1.81456
G01 X-4.60357 Y1.81349
G01 X-4.60351 Y1.81343
G01 X-4.59927 Y1.80890
G01 X-4.59718 Y1.80660
G01 X-4.59565 Y1.80487
G01 X-4.59147 Y1.80042
G01 X-4.58912 Y1.79806
G01 X-4.58563 Y1.79437
G01 X-4.58501 Y1.79367
G01 X-4.57996 Y1.78847
G01 X-4.57953 Y1.78807
G01 X-4.57645 Y1.78501
G01 X-4.57376 Y1.78218
G01 X-4.57366 Y1.78207
G01 X-4.56833 Y1.77647
G01 X-4.56285 Y1.77003
G01 X-4.55810 Y1.76384
G01 X-4.55808 Y1.76386
G01 X-4.55810 Y1.76384
G01 X-4.55298 Y1.75640
G01 X-4.55810 Y1.76384
G01 X-4.56285 Y1.77003
G01 X-4.56284 Y1.77004
G01 X-4.56285 Y1.77003
G01 X-4.55808 Y1.76386
G01 X-4.55298 Y1.75640
G01 X-4.54882 Y1.74962
G01 X-4.54881 Y1.74962
G01 X-4.54882 Y1.74962
G01 X-4.54399 Y1.74069
G01 X-4.54046 Y1.73328
G01 X-4.53925 Y1.73036
G01 X-4.53907 Y1.72992
G01 X-4.53907 Y1.72992
G01 X-4.53587 Y1.72217
G01 X-4.53301 Y1.71410
G01 X-4.52881 Y1.69982
G01 X-4.52797 Y1.69633
G01 X-4.52784 Y1.69634
G01 X-4.52797 Y1.69633
G01 X-4.52797 Y1.69141
G01 X-4.52797 Y1.67797
G01 X-4.52797 Y1.66452
G01 X-4.52797 Y1.65639
G01 X-4.52797 Y1.64773
G01 X-4.52820 Y1.64918
G01 X-4.52996 Y1.65575
G01 X-4.53235 Y1.66310
G01 X-4.53479 Y1.66946
G01 X-4.53788 Y1.67552
G01 X-4.53797 Y1.67568
G01 X-4.53825 Y1.67562
G01 X-4.53797 Y1.67568
G01 X-4.53797 Y1.68026
G01 X-4.53833 Y1.68035
G01 X-4.53797 Y1.68026
G01 X-4.53788 Y1.68042
G01 X-4.53479 Y1.68648
G01 X-4.53235 Y1.69283
G01 X-4.52996 Y1.70019
G01 X-4.52946 Y1.70204
G01 X-4.53301 Y1.71410
G01 X-4.53300 Y1.71410
G01 X-4.53301 Y1.71410
G01 X-4.52952 Y1.70224
G01 X-4.52526 Y1.69798
G01 X-4.52499 Y1.69816
G01 X-4.52526 Y1.69798
G01 X-4.52359 Y1.69283
G01 X-4.52115 Y1.68648
G01 X-4.51806 Y1.68042
G01 X-4.51797 Y1.68026
G01 X-4.51761 Y1.68035
G01 X-4.51797 Y1.68026
G01 X-4.51797 Y1.67568
G01 X-4.51768 Y1.67562
G01 X-4.51797 Y1.67568
G01 X-4.51806 Y1.67552
G01 X-4.52115 Y1.66946
G01 X-4.52359 Y1.66310
G01 X-4.52598 Y1.65575
G01 X-4.52774 Y1.64918
G01 X-4.52797 Y1.64773
G01 X-4.52797 Y1.64237
G01 X-4.52797 Y1.63459
G01 X-4.52797 Y1.62134
G01 X-4.52797 Y1.62128
G01 X-4.52029 Y1.61437
G01 X-4.51514 Y1.61018
G01 X-4.51483 Y1.60993
G01 X-4.50946 Y1.60556
G01 X-4.50172 Y1.59994
G01 X-4.49743 Y1.59714
G01 X-4.49711 Y1.59693
G01 X-4.49352 Y1.59459
G01 X-4.48578 Y1.59012
G01 X-4.48579 Y1.59011
G01 X-4.48578 Y1.59012
G01 X-4.47940 Y1.58686
G01 X-4.47941 Y1.58684
G01 X-4.47940 Y1.58686
G01 X-4.47281 Y1.58393
G01 X-4.47722 Y1.58882
G01 X-4.47894 Y1.59094
G01 X-4.48042 Y1.59322
G01 X-4.48429 Y1.59992
G01 X-4.48552 Y1.60234
G01 X-4.48650 Y1.60489
G01 X-4.48889 Y1.61224
G01 X-4.48959 Y1.61487
G01 X-4.49002 Y1.61756
G01 X-4.49083 Y1.62525
G01 X-4.49097 Y1.62797
G01 X-4.49083 Y1.63069
G01 X-4.49002 Y1.63838
G01 X-4.48959 Y1.64107
G01 X-4.48889 Y1.64370
G01 X-4.48650 Y1.65105
G01 X-4.48552 Y1.65359
G01 X-4.48429 Y1.65602
G01 X-4.48042 Y1.66272
G01 X-4.47897 Y1.66495
G01 X-4.47853 Y1.66483
G01 X-4.47897 Y1.66495
G01 X-4.47897 Y1.69099
G01 X-4.47853 Y1.69111
G01 X-4.47897 Y1.69099
G01 X-4.48042 Y1.69322
G01 X-4.48429 Y1.69992
G01 X-4.48552 Y1.70234
G01 X-4.48650 Y1.70489
G01 X-4.48889 Y1.71224
G01 X-4.48959 Y1.71487
G01 X-4.49002 Y1.71756
G01 X-4.49006 Y1.71793
G01 X-4.48955 Y1.71820
G01 X-4.49006 Y1.71793
G01 X-4.56403 Y1.79191
G01 X-4.56574 Y1.79380
G01 X-4.56885 Y1.79759
G01 X-4.57037 Y1.79963
G01 X-4.57168 Y1.80182
G01 X-4.57399 Y1.80615
G01 X-4.57594 Y1.81085
G01 X-4.57737 Y1.81554
G01 X-4.57799 Y1.81802
G01 X-4.57836 Y1.82054
G01 X-4.57884 Y1.82542
G01 X-4.57897 Y1.82797
G01 X-4.57897 Y1.98854
G01 X-4.57897 Y1.98854
G01 X-4.58179 Y1.98119
G01 X-4.58461 Y1.97487
G01 X-4.58855 Y1.96714
G01 X-4.59134 Y1.96231
G01 X-4.59197 Y1.96123
G01 X-4.59312 Y1.95924
G01 X-4.59814 Y1.95150
G01 X-4.60497 Y1.94214
G01 X-4.60559 Y1.94130
G01 X-4.61185 Y1.93356
G01 X-4.61797 Y1.92681
G01 X-4.62410 Y1.92004
G01 X-4.62797 Y1.91617
G01 X-4.63183 Y1.92004
G01 X-4.63766 Y1.92648
G01 X-4.63766 Y1.92648
G01 X-4.63797 Y1.92682
G01 X-4.64408 Y1.93357
G01 X-4.65034 Y1.94130
G01 X-4.65093 Y1.94211
G01 X-4.65097 Y1.94216
G01 X-4.65097 Y1.94216
G01 X-4.65778 Y1.95151
G01 X-4.66280 Y1.95924
G01 X-4.66281 Y1.95924
G01 X-4.66280 Y1.95924
G01 X-4.66387 Y1.96109
G01 X-4.66738 Y1.96714
G01 X-4.67132 Y1.97487
G01 X-4.67134 Y1.97486
G01 X-4.67132 Y1.97487
G01 X-4.67414 Y1.98119
G01 X-4.67416 Y1.98118
G01 X-4.67414 Y1.98119
G01 X-4.67696 Y1.98854
G01 X-4.67697 Y1.98854
G01 X-4.67697 Y1.84909
G01 X-4.67796 Y1.84868
G01 X-4.67697 Y1.84909
G01 X-4.61790 Y1.79003
G01 X-4.61816 Y1.78957
G01 X-4.61790 Y1.79003
G01 X-4.61113 Y1.78859
G01 X-4.60850 Y1.78789
G01 X-4.60596 Y1.78691
G01 X-4.59889 Y1.78376
G01 X-4.59647 Y1.78253
G01 X-4.59419 Y1.78105
G01 X-4.58793 Y1.77650
G01 X-4.58581 Y1.77479
G01 X-4.58389 Y1.77286
G01 X-4.57871 Y1.76711
G01 X-4.57700 Y1.76500
G01 X-4.57552 Y1.76272
G01 X-4.57165 Y1.75602
G01 X-4.57041 Y1.75359
G01 X-4.56944 Y1.75105
G01 X-4.56705 Y1.74370
G01 X-4.56634 Y1.74107
G01 X-4.56592 Y1.73838
G01 X-4.56511 Y1.73069
G01 X-4.56497 Y1.72797
G01 X-4.56511 Y1.72525
G01 X-4.56592 Y1.71756
G01 X-4.56634 Y1.71487
G01 X-4.56705 Y1.71224
G01 X-4.56944 Y1.70489
G01 X-4.57041 Y1.70234
G01 X-4.57165 Y1.69992
G01 X-4.57552 Y1.69322
G01 X-4.57697 Y1.69099
G01 X-4.57741 Y1.69111
G01 X-4.57697 Y1.69099
G01 X-4.57697 Y1.66495
G01 X-4.57741 Y1.66483
G01 X-4.57697 Y1.66495
G01 X-4.57552 Y1.66272
G01 X-4.57165 Y1.65602
G01 X-4.57041 Y1.65359
G01 X-4.56944 Y1.65105
G01 X-4.56705 Y1.64370
G01 X-4.56634 Y1.64107
G01 X-4.56592 Y1.63838
G01 X-4.56511 Y1.63069
G01 X-4.56497 Y1.62797
G01 X-4.56511 Y1.62525
G01 X-4.56592 Y1.61756
G01 X-4.56634 Y1.61487
G01 X-4.56705 Y1.61224
G01 X-4.56944 Y1.60489
G01 X-4.57041 Y1.60234
G01 X-4.57165 Y1.59992
G01 X-4.57552 Y1.59322
G01 X-4.57700 Y1.59094
G01 X-4.57871 Y1.58882
G01 X-4.58312 Y1.58393
G01 X-4.58312 Y1.58393
G01 X-4.58427 Y1.58342
G01 X-4.58939 Y1.58145
G01 X-4.59373 Y1.58004
G01 X-4.59763 Y1.57963
G01 X-4.60193 Y1.57901
G01 X-4.60434 Y1.57858
G01 X-4.60970 Y1.57744
G01 X-4.61316 Y1.57688
G01 X-4.62089 Y1.57608
G01 X-4.62410 Y1.57591
G01 X-4.63183 Y1.57591
G01 X-4.63504 Y1.57608
G01 X-4.64278 Y1.57689
G01 X-4.64623 Y1.57744
G01 X-4.65159 Y1.57858
G01 X-4.65400 Y1.57901
G01 X-4.65830 Y1.57963
G01 X-4.66751 Y1.58012
G01 X-4.66869 Y1.58009
G01 X-4.66869 Y1.58009
G01 X-4.66997 Y1.57903
G01 X-4.67321 Y1.57509
G01 X-4.67561 Y1.57060
G01 X-4.67709 Y1.56572
G01 X-4.67759 Y1.56065
G01 X-4.67759 Y1.52521
G01 X-4.67709 Y1.52014
G01 X-4.67561 Y1.51526
G01 X-4.67321 Y1.51077
G01 X-4.66997 Y1.50683
G01 X-4.66603 Y1.50359
G01 X-4.66154 Y1.50119
G01 X-4.65666 Y1.49971
G01 X-4.65159 Y1.49921
G01 X-4.60435 Y1.49921
G01 X-4.59983 Y1.49961
G01 X-4.59545 Y1.50078
G01 X-4.59299 Y1.50193
G01 X-4.59302 Y1.50210
G01 X-4.59299 Y1.50193
G01 X-4.46292 Y1.50193
G01 X-4.46289 Y1.50212
G01 X-4.46292 Y1.50193
G01 X-4.46154 Y1.50119
G01 X-4.45666 Y1.49971
G01 X-4.45159 Y1.49921
G01 X-4.40435 Y1.49921
G01 X-4.39927 Y1.49971
G01 X-4.39440 Y1.50119
G01 X-4.39302 Y1.50193
G01 X-4.39305 Y1.50212
G01 X-4.39302 Y1.50193
G01 X-4.26292 Y1.50193
G01 X-4.26289 Y1.50212
G01 X-4.26292 Y1.50193
G01 X-4.26154 Y1.50119
G01 X-4.25666 Y1.49971
G01 X-4.25159 Y1.49921
G01 X-4.20435 Y1.49921
G01 X-4.19927 Y1.49971
G01 X-4.19440 Y1.50119
G01 X-4.19302 Y1.50193
G01 X-4.19305 Y1.50212
G01 X-4.19302 Y1.50193
G01 X-4.06292 Y1.50193
G01 X-4.06289 Y1.50212
G01 X-4.06292 Y1.50193
G01 X-4.06154 Y1.50119
G01 X-4.05666 Y1.49971
G01 X-4.05159 Y1.49921
G01 X-4.00435 Y1.49921
G01 X-3.99927 Y1.49971
G01 X-3.99440 Y1.50119
G01 X-3.99302 Y1.50193
G01 X-3.99305 Y1.50212
G01 X-3.99302 Y1.50193
G01 X-3.76292 Y1.50193
G01 X-3.76289 Y1.50212
G01 X-3.76292 Y1.50193
G01 X-3.76154 Y1.50119
G01 X-3.75666 Y1.49971
G01 X-3.75159 Y1.49921
G01 X-3.70435 Y1.49921
G01 X-3.69927 Y1.49971
G01 X-3.69440 Y1.50119
G01 X-3.69302 Y1.50193
G01 X-3.69305 Y1.50212
G01 X-3.69302 Y1.50193
G01 X-3.56292 Y1.50193
G01 X-3.56289 Y1.50212
G01 X-3.56292 Y1.50193
G01 X-3.56154 Y1.50119
G01 X-3.55666 Y1.49971
G01 X-3.55159 Y1.49921
G01 X-3.50435 Y1.49921
G01 X-3.49927 Y1.49971
G01 X-3.49440 Y1.50119
G01 X-3.49302 Y1.50193
G01 X-3.49305 Y1.50212
G01 X-3.49302 Y1.50193
G01 X-3.36292 Y1.50193
G01 X-3.36289 Y1.50212
G01 X-3.36292 Y1.50193
G01 X-3.36154 Y1.50119
G01 X-3.35666 Y1.49971
G01 X-3.35159 Y1.49921
G01 X-3.30435 Y1.49921
G01 X-3.29927 Y1.49971
G01 X-3.29440 Y1.50119
G01 X-3.29302 Y1.50193
G01 X-3.29305 Y1.50212
G01 X-3.29302 Y1.50193
G01 X-3.16292 Y1.50193
G01 X-3.16289 Y1.50212
G01 X-3.16292 Y1.50193
G01 X-3.16154 Y1.50119
G01 X-3.15666 Y1.49971
G01 X-3.15159 Y1.49921
G01 X-3.10435 Y1.49921
G01 X-3.09927 Y1.49971
G01 X-3.09440 Y1.50119
G01 X-3.09302 Y1.50193
G01 X-3.09305 Y1.50212
G01 X-3.09302 Y1.50193
G01 X-2.86292 Y1.50193
G01 X-2.86289 Y1.50212
G01 X-2.86292 Y1.50193
G01 X-2.86154 Y1.50119
G01 X-2.85666 Y1.49971
G01 X-2.85159 Y1.49921
G01 X-2.80435 Y1.49921
G01 X-2.79927 Y1.49971
G01 X-2.79440 Y1.50119
G01 X-2.79302 Y1.50193
G01 X-2.79305 Y1.50212
G01 X-2.79302 Y1.50193
G01 X-2.66292 Y1.50193
G01 X-2.66289 Y1.50212
G01 X-2.66292 Y1.50193
G01 X-2.66154 Y1.50119
G01 X-2.65666 Y1.49971
G01 X-2.65159 Y1.49921
G01 X-2.60435 Y1.49921
G01 X-2.59927 Y1.49971
G01 X-2.59440 Y1.50119
G01 X-2.59302 Y1.50193
G01 X-2.59305 Y1.50212
G01 X-2.59302 Y1.50193
G01 X-2.46292 Y1.50193
G01 X-2.46289 Y1.50212
G01 X-2.46292 Y1.50193
G01 X-2.46154 Y1.50119
G01 X-2.45666 Y1.49971
G01 X-2.45159 Y1.49921
G01 X-2.40435 Y1.49921
G01 X-2.39927 Y1.49971
G01 X-2.39440 Y1.50119
G01 X-2.39302 Y1.50193
G01 X-2.39305 Y1.50212
G01 X-2.39302 Y1.50193
G01 X-2.26292 Y1.50193
G01 X-2.26289 Y1.50212
G01 X-2.26292 Y1.50193
G01 X-2.26154 Y1.50119
G01 X-2.25666 Y1.49971
G01 X-2.25159 Y1.49921
G01 X-2.20435 Y1.49921
G01 X-2.19927 Y1.49971
G01 X-2.19440 Y1.50119
G01 X-2.19302 Y1.50193
G01 X-2.19305 Y1.50212
G01 X-2.19302 Y1.50193
G01 X-1.96292 Y1.50193
G01 X-1.96289 Y1.50212
G01 X-1.96292 Y1.50193
G01 X-1.96154 Y1.50119
G01 X-1.95666 Y1.49971
G01 X-1.95159 Y1.49921
G01 X-1.90435 Y1.49921
G01 X-1.89927 Y1.49971
G01 X-1.89440 Y1.50119
G01 X-1.89302 Y1.50193
G01 X-1.89305 Y1.50212
G01 X-1.89302 Y1.50193
G01 X-1.76292 Y1.50193
G01 X-1.76289 Y1.50212
G01 X-1.76292 Y1.50193
G01 X-1.76154 Y1.50119
G01 X-1.75666 Y1.49971
G01 X-1.75159 Y1.49921
G01 X-1.70435 Y1.49921
G01 X-1.69927 Y1.49971
G01 X-1.69440 Y1.50119
G01 X-1.69302 Y1.50193
G01 X-1.69305 Y1.50212
G01 X-1.69302 Y1.50193
G01 X-1.56292 Y1.50193
G01 X-1.56289 Y1.50212
G01 X-1.56292 Y1.50193
G01 X-1.56154 Y1.50119
G01 X-1.55666 Y1.49971
G01 X-1.55159 Y1.49921
G01 X-1.50435 Y1.49921
G01 X-1.49927 Y1.49971
G01 X-1.49440 Y1.50119
G01 X-1.49302 Y1.50193
G01 X-1.49305 Y1.50212
G01 X-1.49302 Y1.50193
G01 X-1.36292 Y1.50193
G01 X-1.36289 Y1.50212
G01 X-1.36292 Y1.50193
G01 X-1.36154 Y1.50119
G01 X-1.35666 Y1.49971
G01 X-1.35159 Y1.49921
G01 X-1.30435 Y1.49921
G01 X-1.29927 Y1.49971
G01 X-1.29440 Y1.50119
G01 X-1.29302 Y1.50193
G01 X-1.29305 Y1.50212
G01 X-1.29302 Y1.50193
G01 X-1.16292 Y1.50193
G01 X-1.16289 Y1.50212
G01 X-1.16292 Y1.50193
G01 X-1.16154 Y1.50119
G01 X-1.15666 Y1.49971
G01 X-1.15159 Y1.49921
G01 X-1.10435 Y1.49921
G01 X-1.09927 Y1.49971
G01 X-1.09440 Y1.50119
G01 X-1.09302 Y1.50193
G01 X-1.09305 Y1.50212
G01 X-1.09302 Y1.50193
G01 X-0.86292 Y1.50193
G01 X-0.86289 Y1.50212
G01 X-0.86292 Y1.50193
G01 X-0.86154 Y1.50119
G01 X-0.85666 Y1.49971
G01 X-0.85159 Y1.49921
G01 X-0.80435 Y1.49921
G01 X-0.79927 Y1.49971
G01 X-0.79440 Y1.50119
G01 X-0.79302 Y1.50193
G01 X-0.79305 Y1.50212
G01 X-0.79302 Y1.50193
G01 X-0.60758 Y1.50193
G01 X-0.60718 Y1.50292
G01 X-0.60758 Y1.50193
G01 X-0.47511 Y1.36946
G01 X-0.47031 Y1.36962
G01 X-0.47511 Y1.36946
G01 X-0.47722 Y1.36711
G01 X-0.47797 Y1.36619
G01 X-0.47797 Y1.36130
G01 X-0.47797 Y1.35237
G01 X-0.47797 Y1.34828
G01 X-0.47797 Y1.34015
G01 X-0.47797 Y1.33711
G01 X-0.47797 Y1.32934
G01 X-0.47797 Y1.32797
G01 X-0.47797 Y1.32660
G01 X-0.47797 Y1.31882
G01 X-0.47797 Y1.31579
G01 X-0.47797 Y1.30766
G01 X-0.47797 Y1.30357
G01 X-0.47797 Y1.29463
G01 X-0.47797 Y1.29131
G01 X-0.47796 Y1.12797
G01 X-0.47802 Y1.12551
G01 X-0.47827 Y1.12061
G01 X-0.47876 Y1.11560
G01 X-0.47874 Y1.11560
G01 X-0.47876 Y1.11560
G01 X-0.47897 Y1.11423
G01 X-0.47897 Y1.11423
G01 X-0.47949 Y1.11070
G01 X-0.48055 Y1.10540
G01 X-0.48052 Y1.10540
G01 X-0.48055 Y1.10540
G01 X-0.48178 Y1.10050
G01 X-0.48355 Y1.09468
G01 X-0.48530 Y1.08978
G01 X-0.48609 Y1.08767
G01 X-0.48576 Y1.08747
G01 X-0.48609 Y1.08767
G01 X-0.48688 Y1.08688
G01 X-1.08687 Y0.48688
G01 X-1.08767 Y0.48609
G01 X-1.08747 Y0.48576
G01 X-1.08767 Y0.48609
G01 X-1.08978 Y0.48530
G01 X-1.09468 Y0.48355
G01 X-1.10050 Y0.48178
G01 X-1.10540 Y0.48055
G01 X-1.10539 Y0.48052
G01 X-1.10540 Y0.48055
G01 X-1.11070 Y0.47949
G01 X-1.11422 Y0.47897
G01 X-1.11422 Y0.47897
G01 X-1.11560 Y0.47877
G01 X-1.11560 Y0.47875
G01 X-1.11560 Y0.47877
G01 X-1.11422 Y0.47897
G01 X-1.11085 Y0.47999
G01 X-1.10845 Y0.48085
G01 X-1.10614 Y0.48194
G01 X-1.10182 Y0.48425
G01 X-1.09963 Y0.48556
G01 X-1.09758 Y0.48708
G01 X-1.09380 Y0.49019
G01 X-1.09191 Y0.49191
G01 X-0.49191 Y1.09191
G01 X-0.49019 Y1.09380
G01 X-0.48708 Y1.09759
G01 X-0.48556 Y1.09963
G01 X-0.48425 Y1.10182
G01 X-0.48194 Y1.10615
G01 X-0.47999 Y1.11085
G01 X-0.47897 Y1.11423
G01 X-0.47897 Y1.08472
G01 X-0.47798 Y1.08431
G01 X-0.47897 Y1.08472
G01 X-1.08472 Y0.47897
G01 X-1.08431 Y0.47798
G01 X-1.08472 Y0.47897
G01 X-1.11422 Y0.47897
G01 X-1.11560 Y0.47877
G01 X-1.12061 Y0.47827
G01 X-1.12551 Y0.47803
G01 X-1.12797 Y0.47796
G01 X-1.36961 Y0.47797
G01 X-1.36967 Y0.47771
G01 X-1.36961 Y0.47797
G01 X-1.38029 Y0.48247
G01 X-1.38026 Y0.48258
G01 X-1.38029 Y0.48247
G01 X-1.39097 Y0.48397
G01 X-1.39097 Y0.48400
G01 X-1.39097 Y0.48397
G01 X-1.46497 Y0.48397
G01 X-1.47078 Y0.48352
G01 X-1.47079 Y0.48356
G01 X-1.47078 Y0.48352
G01 X-1.47659 Y0.48219
G01 X-1.47660 Y0.48222
G01 X-1.47661 Y0.48224
G01 X-1.47660 Y0.48222
G01 X-1.47659 Y0.48219
G01 X-1.48241 Y0.47997
G01 X-1.48785 Y0.47705
G01 X-1.48785 Y0.47705
G01 X-1.48814 Y0.47651
G01 X-1.48808 Y0.47629
G01 X-1.48814 Y0.47651
G01 X-1.48814 Y0.47651
G01 X-1.48822 Y0.47685
G01 X-1.48857 Y0.47697
G01 X-1.48857 Y0.47697
G01 X-1.49551 Y0.47922
G01 X-1.50033 Y0.48052
G01 X-1.50807 Y0.48216
G01 X-1.51235 Y0.48284
G01 X-1.52009 Y0.48366
G01 X-1.52410 Y0.48387
G01 X-1.53184 Y0.48387
G01 X-1.53585 Y0.48366
G01 X-1.54358 Y0.48284
G01 X-1.54786 Y0.48216
G01 X-1.55560 Y0.48052
G01 X-1.56043 Y0.47922
G01 X-1.56736 Y0.47697
G01 X-1.56736 Y0.47697
G01 X-1.56801 Y0.47650
G01 X-1.57012 Y0.47479
G01 X-1.57205 Y0.47286
G01 X-1.57722 Y0.46711
G01 X-1.57797 Y0.46619
G01 X-1.57797 Y0.46130
G01 X-1.57797 Y0.45237
G01 X-1.57797 Y0.44828
G01 X-1.57797 Y0.44015
G01 X-1.57797 Y0.43711
G01 X-1.57797 Y0.42934
G01 X-1.57797 Y0.42797
G01 X-1.57797 Y0.42660
G01 X-1.57797 Y0.41882
G01 X-1.57797 Y0.41579
G01 X-1.57797 Y0.40766
G01 X-1.57797 Y0.40357
G01 X-1.57797 Y0.39463
G01 X-1.57797 Y0.38974
G01 X-1.57797 Y0.38815
G01 X-1.57797 Y0.37774
G01 X-1.57797 Y0.37080
G01 X-1.57797 Y0.36573
G01 X-1.57797 Y0.35454
G01 X-1.57797 Y0.35257
G01 X-1.57797 Y0.33912
G01 X-1.57797 Y0.32519
G01 X-1.57797 Y0.32457
G01 X-1.57797 Y0.31034
G01 X-1.57797 Y0.30617
G01 X-1.57797 Y0.29634
G01 X-1.57797 Y0.28243
G01 X-1.57556 Y0.28151
G01 X-1.56373 Y0.27834
G01 X-1.55616 Y0.27673
G01 X-1.54407 Y0.27481
G01 X-1.53184 Y0.27417
G01 X-1.52410 Y0.27417
G01 X-1.51187 Y0.27481
G01 X-1.49977 Y0.27673
G01 X-1.49458 Y0.27783
G01 X-1.49438 Y0.28854
G01 X-1.49427 Y0.29170
G01 X-1.49381 Y0.30479
G01 X-1.49381 Y0.30479
G01 X-1.49333 Y0.31835
G01 X-1.50032 Y0.31648
G01 X-1.50788 Y0.31488
G01 X-1.51595 Y0.31360
G01 X-1.52410 Y0.31317
G01 X-1.53184 Y0.31317
G01 X-1.53999 Y0.31360
G01 X-1.54805 Y0.31488
G01 X-1.55562 Y0.31648
G01 X-1.56350 Y0.31860
G01 X-1.57113 Y0.32152
G01 X-1.57797 Y0.32457
G01 X-1.58481 Y0.32152
G01 X-1.59243 Y0.31860
G01 X-1.60032 Y0.31648
G01 X-1.60788 Y0.31488
G01 X-1.61595 Y0.31360
G01 X-1.62410 Y0.31317
G01 X-1.63184 Y0.31317
G01 X-1.63999 Y0.31360
G01 X-1.64805 Y0.31488
G01 X-1.65562 Y0.31648
G01 X-1.66350 Y0.31860
G01 X-1.67113 Y0.32152
G01 X-1.67797 Y0.32457
G01 X-1.68481 Y0.32152
G01 X-1.69243 Y0.31860
G01 X-1.70032 Y0.31648
G01 X-1.70788 Y0.31488
G01 X-1.71595 Y0.31360
G01 X-1.72410 Y0.31317
G01 X-1.73184 Y0.31317
G01 X-1.73999 Y0.31360
G01 X-1.74805 Y0.31488
G01 X-1.75562 Y0.31648
G01 X-1.76350 Y0.31860
G01 X-1.77113 Y0.32152
G01 X-1.77797 Y0.32457
G01 X-1.78481 Y0.32152
G01 X-1.79243 Y0.31860
G01 X-1.80032 Y0.31648
G01 X-1.80788 Y0.31488
G01 X-1.81595 Y0.31360
G01 X-1.82410 Y0.31317
G01 X-1.83184 Y0.31317
G01 X-1.83999 Y0.31360
G01 X-1.84805 Y0.31488
G01 X-1.85562 Y0.31648
G01 X-1.86350 Y0.31860
G01 X-1.87113 Y0.32152
G01 X-1.87797 Y0.32457
G01 X-1.88481 Y0.32152
G01 X-1.89243 Y0.31860
G01 X-1.90032 Y0.31648
G01 X-1.90788 Y0.31488
G01 X-1.91595 Y0.31360
G01 X-1.92410 Y0.31317
G01 X-1.93184 Y0.31317
G01 X-1.93999 Y0.31360
G01 X-1.94805 Y0.31488
G01 X-1.95562 Y0.31648
G01 X-1.96350 Y0.31860
G01 X-1.97113 Y0.32152
G01 X-1.97797 Y0.32457
G01 X-1.98481 Y0.32152
G01 X-1.99243 Y0.31860
G01 X-2.00032 Y0.31648
G01 X-2.00788 Y0.31488
G01 X-2.01595 Y0.31360
G01 X-2.02410 Y0.31317
G01 X-2.03184 Y0.31317
G01 X-2.03999 Y0.31360
G01 X-2.04805 Y0.31488
G01 X-2.05562 Y0.31648
G01 X-2.06350 Y0.31860
G01 X-2.07113 Y0.32152
G01 X-2.07797 Y0.32457
G01 X-2.08481 Y0.32152
G01 X-2.09243 Y0.31860
G01 X-2.10032 Y0.31648
G01 X-2.10788 Y0.31488
G01 X-2.11595 Y0.31360
G01 X-2.12410 Y0.31317
G01 X-2.13184 Y0.31317
G01 X-2.13999 Y0.31360
G01 X-2.14805 Y0.31488
G01 X-2.15562 Y0.31648
G01 X-2.16350 Y0.31860
G01 X-2.17113 Y0.32152
G01 X-2.17797 Y0.32457
G01 X-2.18481 Y0.32152
G01 X-2.19243 Y0.31860
G01 X-2.20032 Y0.31648
G01 X-2.20788 Y0.31488
G01 X-2.21595 Y0.31360
G01 X-2.22410 Y0.31317
G01 X-2.23184 Y0.31317
G01 X-2.23999 Y0.31360
G01 X-2.24805 Y0.31488
G01 X-2.25562 Y0.31648
G01 X-2.26350 Y0.31860
G01 X-2.27113 Y0.32152
G01 X-2.27797 Y0.32457
G01 X-2.28481 Y0.32152
G01 X-2.29243 Y0.31860
G01 X-2.30032 Y0.31648
G01 X-2.30788 Y0.31488
G01 X-2.31595 Y0.31360
G01 X-2.32410 Y0.31317
G01 X-2.33184 Y0.31317
G01 X-2.33999 Y0.31360
G01 X-2.34805 Y0.31488
G01 X-2.35562 Y0.31648
G01 X-2.36350 Y0.31860
G01 X-2.37113 Y0.32152
G01 X-2.37797 Y0.32457
G01 X-2.38481 Y0.32152
G01 X-2.39243 Y0.31860
G01 X-2.40032 Y0.31648
G01 X-2.40788 Y0.31488
G01 X-2.41595 Y0.31360
G01 X-2.42410 Y0.31317
G01 X-2.43184 Y0.31317
G01 X-2.43999 Y0.31360
G01 X-2.44805 Y0.31488
G01 X-2.45562 Y0.31648
G01 X-2.46350 Y0.31860
G01 X-2.47113 Y0.32152
G01 X-2.47797 Y0.32457
G01 X-2.48481 Y0.32152
G01 X-2.49243 Y0.31860
G01 X-2.50032 Y0.31648
G01 X-2.50788 Y0.31488
G01 X-2.51595 Y0.31360
G01 X-2.52410 Y0.31317
G01 X-2.53184 Y0.31317
G01 X-2.53999 Y0.31360
G01 X-2.54805 Y0.31488
G01 X-2.55562 Y0.31648
G01 X-2.56350 Y0.31860
G01 X-2.57113 Y0.32152
G01 X-2.57797 Y0.32457
G01 X-2.58481 Y0.32152
G01 X-2.59243 Y0.31860
G01 X-2.60032 Y0.31648
G01 X-2.60788 Y0.31488
G01 X-2.61595 Y0.31360
G01 X-2.62410 Y0.31317
G01 X-2.63184 Y0.31317
G01 X-2.63999 Y0.31360
G01 X-2.64805 Y0.31488
G01 X-2.65562 Y0.31648
G01 X-2.66350 Y0.31860
G01 X-2.67113 Y0.32152
G01 X-2.67797 Y0.32457
G01 X-2.68481 Y0.32152
G01 X-2.69243 Y0.31860
G01 X-2.70032 Y0.31648
G01 X-2.70788 Y0.31488
G01 X-2.71595 Y0.31360
G01 X-2.72410 Y0.31317
G01 X-2.73184 Y0.31317
G01 X-2.73999 Y0.31360
G01 X-2.74805 Y0.31488
G01 X-2.75562 Y0.31648
G01 X-2.76350 Y0.31860
G01 X-2.77113 Y0.32152
G01 X-2.77797 Y0.32457
G01 X-2.78481 Y0.32152
G01 X-2.79243 Y0.31860
G01 X-2.80032 Y0.31648
G01 X-2.80788 Y0.31488
G01 X-2.81595 Y0.31360
G01 X-2.82410 Y0.31317
G01 X-2.83184 Y0.31317
G01 X-2.83999 Y0.31360
G01 X-2.84805 Y0.31488
G01 X-2.85562 Y0.31648
G01 X-2.86350 Y0.31860
G01 X-2.87113 Y0.32152
G01 X-2.87797 Y0.32457
G01 X-2.88481 Y0.32152
G01 X-2.89243 Y0.31860
G01 X-2.90032 Y0.31648
G01 X-2.90788 Y0.31488
G01 X-2.91595 Y0.31360
G01 X-2.92410 Y0.31317
G01 X-2.93184 Y0.31317
G01 X-2.93999 Y0.31360
G01 X-2.94805 Y0.31488
G01 X-2.95562 Y0.31648
G01 X-2.96350 Y0.31860
G01 X-2.97113 Y0.32152
G01 X-2.97797 Y0.32457
G01 X-2.98481 Y0.32152
G01 X-2.99243 Y0.31860
G01 X-3.00032 Y0.31648
G01 X-3.00788 Y0.31488
G01 X-3.01595 Y0.31360
G01 X-3.02410 Y0.31317
G01 X-3.03184 Y0.31317
G01 X-3.03999 Y0.31360
G01 X-3.04805 Y0.31488
G01 X-3.05562 Y0.31648
G01 X-3.06350 Y0.31860
G01 X-3.07113 Y0.32152
G01 X-3.07797 Y0.32457
G01 X-3.08481 Y0.32152
G01 X-3.09243 Y0.31860
G01 X-3.10032 Y0.31648
G01 X-3.10788 Y0.31488
G01 X-3.11595 Y0.31360
G01 X-3.12410 Y0.31317
G01 X-3.13184 Y0.31317
G01 X-3.13999 Y0.31360
G01 X-3.14805 Y0.31488
G01 X-3.15562 Y0.31648
G01 X-3.16350 Y0.31860
G01 X-3.17113 Y0.32152
G01 X-3.17797 Y0.32457
G01 X-3.18481 Y0.32152
G01 X-3.19243 Y0.31860
G01 X-3.20032 Y0.31648
G01 X-3.20788 Y0.31488
G01 X-3.21595 Y0.31360
G01 X-3.22410 Y0.31317
G01 X-3.23184 Y0.31317
G01 X-3.23999 Y0.31360
G01 X-3.24805 Y0.31488
G01 X-3.25562 Y0.31648
G01 X-3.26350 Y0.31860
G01 X-3.27113 Y0.32152
G01 X-3.27797 Y0.32457
G01 X-3.28481 Y0.32152
G01 X-3.29243 Y0.31860
G01 X-3.30032 Y0.31648
G01 X-3.30788 Y0.31488
G01 X-3.31595 Y0.31360
G01 X-3.32410 Y0.31317
G01 X-3.33184 Y0.31317
G01 X-3.33999 Y0.31360
G01 X-3.34805 Y0.31488
G01 X-3.35562 Y0.31648
G01 X-3.36350 Y0.31860
G01 X-3.37113 Y0.32152
G01 X-3.37797 Y0.32457
G01 X-3.38481 Y0.32152
G01 X-3.39243 Y0.31860
G01 X-3.40032 Y0.31648
G01 X-3.40788 Y0.31488
G01 X-3.41595 Y0.31360
G01 X-3.42410 Y0.31317
G01 X-3.43184 Y0.31317
G01 X-3.43999 Y0.31360
G01 X-3.44805 Y0.31488
G01 X-3.45562 Y0.31648
G01 X-3.46350 Y0.31860
G01 X-3.47113 Y0.32152
G01 X-3.47797 Y0.32457
G01 X-3.48481 Y0.32152
G01 X-3.49243 Y0.31860
G01 X-3.50032 Y0.31648
G01 X-3.50788 Y0.31488
G01 X-3.51595 Y0.31360
G01 X-3.52410 Y0.31317
G01 X-3.53184 Y0.31317
G01 X-3.53999 Y0.31360
G01 X-3.54529 Y0.31444
G01 X-3.54714 Y0.31917
G01 X-3.55122 Y0.32884
G01 X-3.55122 Y0.32884
G01 X-3.55128 Y0.32898
G01 X-3.55240 Y0.33162
G01 X-3.55291 Y0.33274
G01 X-3.55604 Y0.33998
G01 X-3.55777 Y0.34421
G01 X-3.55933 Y0.34803
G01 X-3.56143 Y0.35291
G01 X-3.56356 Y0.35755
G01 X-3.56414 Y0.35885
G01 X-3.56549 Y0.36191
G01 X-3.56559 Y0.36214
G01 X-3.56764 Y0.36678
G01 X-3.56785 Y0.36726
G01 X-3.57017 Y0.37241
G01 X-3.57133 Y0.37487
G01 X-3.57171 Y0.37565
G01 X-3.57414 Y0.38119
G01 X-3.57697 Y0.38854
G01 X-3.57697 Y0.38854
G01 X-3.57711 Y0.38892
G01 X-3.57797 Y0.39131
G01 X-3.57816 Y0.39128
G01 X-3.57797 Y0.39131
G01 X-3.57818 Y0.39127
G01 X-3.57797 Y0.39131
G01 X-3.57797 Y0.39463
G01 X-3.57797 Y0.40357
G01 X-3.57797 Y0.40766
G01 X-3.57797 Y0.41579
G01 X-3.57797 Y0.41882
G01 X-3.57797 Y0.42660
G01 X-3.57797 Y0.42797
G01 X-3.57797 Y0.42934
G01 X-3.57797 Y0.43711
G01 X-3.57797 Y0.44015
G01 X-3.57797 Y0.44828
G01 X-3.57797 Y0.45237
G01 X-3.57797 Y0.46130
G01 X-3.57797 Y0.46619
G01 X-3.57797 Y0.46779
G01 X-3.57797 Y0.47820
G01 X-3.57797 Y0.47971
G01 X-3.57828 Y0.47978
G01 X-3.57797 Y0.47971
G01 X-3.57830 Y0.47979
G01 X-3.57797 Y0.47971
G01 X-3.57503 Y0.48616
G01 X-3.57397 Y0.48824
G01 X-3.57397 Y0.52113
G01 X-3.57473 Y0.52140
G01 X-3.57397 Y0.52113
G01 X-3.57192 Y0.52362
G01 X-3.56831 Y0.53037
G01 X-3.56610 Y0.53768
G01 X-3.56535 Y0.54529
G01 X-3.56535 Y0.58072
G01 X-3.56610 Y0.58833
G01 X-3.56831 Y0.59565
G01 X-3.57192 Y0.60239
G01 X-3.57677 Y0.60830
G01 X-3.58268 Y0.61315
G01 X-3.58942 Y0.61676
G01 X-3.59674 Y0.61898
G01 X-3.60435 Y0.61972
G01 X-3.65159 Y0.61972
G01 X-3.65920 Y0.61898
G01 X-3.66651 Y0.61676
G01 X-3.67326 Y0.61315
G01 X-3.67797 Y0.60929
G01 X-3.67797 Y0.58072
G01 X-3.67797 Y0.54529
G01 X-3.67797 Y0.52229
G01 X-3.67797 Y0.47971
G01 X-3.67797 Y0.47820
G01 X-3.67797 Y0.46779
G01 X-3.67797 Y0.46619
G01 X-3.67797 Y0.46130
G01 X-3.67797 Y0.45237
G01 X-3.67797 Y0.44828
G01 X-3.67797 Y0.44015
G01 X-3.67797 Y0.43711
G01 X-3.67797 Y0.42934
G01 X-3.67797 Y0.42797
G01 X-3.67797 Y0.42660
G01 X-3.67797 Y0.41882
G01 X-3.67797 Y0.41579
G01 X-3.67797 Y0.40766
G01 X-3.67797 Y0.40357
G01 X-3.67797 Y0.39463
G01 X-3.67797 Y0.39413
G01 X-3.67708 Y0.39379
G01 X-3.67797 Y0.39413
G01 X-3.67715 Y0.39383
G01 X-3.67797 Y0.39413
G01 X-3.68086 Y0.39076
G01 X-3.68620 Y0.38515
G01 X-3.68618 Y0.38514
G01 X-3.68620 Y0.38515
G01 X-3.68968 Y0.38185
G01 X-3.68967 Y0.38184
G01 X-3.68968 Y0.38185
G01 X-3.69558 Y0.37681
G01 X-3.69580 Y0.37662
G01 X-3.69559 Y0.37623
G01 X-3.69580 Y0.37662
G01 X-3.69561 Y0.37626
G01 X-3.69580 Y0.37662
G01 X-3.70033 Y0.37542
G01 X-3.70807 Y0.37377
G01 X-3.71235 Y0.37309
G01 X-3.71235 Y0.37307
G01 X-3.71235 Y0.37309
G01 X-3.72009 Y0.37228
G01 X-3.72410 Y0.37207
G01 X-3.72410 Y0.37205
G01 X-3.72410 Y0.37207
G01 X-3.73184 Y0.37207
G01 X-3.73184 Y0.37206
G01 X-3.73184 Y0.37207
G01 X-3.73585 Y0.37228
G01 X-3.73585 Y0.37226
G01 X-3.73585 Y0.37228
G01 X-3.74358 Y0.37309
G01 X-3.74359 Y0.37308
G01 X-3.74358 Y0.37309
G01 X-3.74786 Y0.37377
G01 X-3.74787 Y0.37376
G01 X-3.74786 Y0.37377
G01 X-3.75560 Y0.37542
G01 X-3.75560 Y0.37541
G01 X-3.75560 Y0.37542
G01 X-3.75561 Y0.37540
G01 X-3.75560 Y0.37542
G01 X-3.76043 Y0.37672
G01 X-3.76736 Y0.37897
G01 X-3.77196 Y0.37897
G01 X-3.77237 Y0.37798
G01 X-3.77196 Y0.37897
G01 X-4.57697 Y1.18397
G01 X-4.57796 Y1.18356
G01 X-4.57697 Y1.18397
G01 X-4.57697 Y1.29099
G01 X-4.57741 Y1.29111
G01 X-4.57697 Y1.29099
G01 X-4.57552 Y1.29322
G01 X-4.57165 Y1.29992
G01 X-4.57041 Y1.30234
G01 X-4.56944 Y1.30489
G01 X-4.56705 Y1.31224
G01 X-4.56634 Y1.31487
G01 X-4.56592 Y1.31756
G01 X-4.56511 Y1.32525
G01 X-4.56497 Y1.32797
G01 X-4.56511 Y1.33069
G01 X-4.56592 Y1.33838
G01 X-4.56634 Y1.34107
G01 X-4.56705 Y1.34370
G01 X-4.56944 Y1.35105
G01 X-4.57041 Y1.35359
G01 X-4.57165 Y1.35602
G01 X-4.57552 Y1.36272
G01 X-4.57700 Y1.36500
G01 X-4.57871 Y1.36711
G01 X-4.58389 Y1.37286
G01 X-4.58581 Y1.37479
G01 X-4.58697 Y1.37572
G01 X-4.59126 Y1.37560
G01 X-4.58697 Y1.37572
G01 X-4.58697 Y1.37608
G01 X-4.58596 Y1.37691
G01 X-4.58273 Y1.38085
G01 X-4.58033 Y1.38534
G01 X-4.57885 Y1.39022
G01 X-4.57834 Y1.39529
G01 X-4.57834 Y1.43072
G01 X-4.57885 Y1.43580
G01 X-4.58033 Y1.44067
G01 X-4.58273 Y1.44517
G01 X-4.58596 Y1.44911
G01 X-4.58990 Y1.45234
G01 X-4.59440 Y1.45475
G01 X-4.59927 Y1.45623
G01 X-4.60435 Y1.45672
G01 X-4.65159 Y1.45672
G01 X-4.65666 Y1.45623
G01 X-4.66154 Y1.45475
G01 X-4.66603 Y1.45234
G01 X-4.66997 Y1.44911
G01 X-4.67321 Y1.44517
G01 X-4.67561 Y1.44067
G01 X-4.67709 Y1.43580
G01 X-4.67759 Y1.43072
G01 X-4.67759 Y1.39529
G01 X-4.67709 Y1.39022
G01 X-4.67561 Y1.38534
G01 X-4.67321 Y1.38085
G01 X-4.66997 Y1.37691
G01 X-4.66897 Y1.37608
G01 X-4.66897 Y1.37572
G01 X-4.66467 Y1.37560
G01 X-4.66897 Y1.37572
G01 X-4.67012 Y1.37479
G01 X-4.67205 Y1.37286
G01 X-4.67722 Y1.36711
G01 X-4.67894 Y1.36500
G01 X-4.68042 Y1.36272
G01 X-4.68429 Y1.35602
G01 X-4.68552 Y1.35359
G01 X-4.68650 Y1.35105
G01 X-4.68889 Y1.34370
G01 X-4.68959 Y1.34107
G01 X-4.69002 Y1.33838
G01 X-4.69083 Y1.33069
G01 X-4.69097 Y1.32797
G01 X-4.69083 Y1.32525
G01 X-4.69002 Y1.31756
G01 X-4.68959 Y1.31487
G01 X-4.68889 Y1.31224
G01 X-4.68650 Y1.30489
G01 X-4.68552 Y1.30234
G01 X-4.68429 Y1.29992
G01 X-4.68042 Y1.29322
G01 X-4.67897 Y1.29099
G01 X-4.67852 Y1.29111
G01 X-4.67897 Y1.29099
G01 X-4.67897 Y1.16285
G01 X-4.67884 Y1.16030
G01 X-4.67836 Y1.15542
G01 X-4.67799 Y1.15290
G01 X-4.67737 Y1.15042
G01 X-4.67594 Y1.14573
G01 X-4.67399 Y1.14103
G01 X-4.67168 Y1.13670
G01 X-4.67037 Y1.13451
G01 X-4.66885 Y1.13247
G01 X-4.66574 Y1.12868
G01 X-4.66403 Y1.12679
G01 X-3.82915 Y0.29191
G01 X-3.82726 Y0.29019
G01 X-3.82347 Y0.28708
G01 X-3.82142 Y0.28556
G01 X-3.81923 Y0.28425
G01 X-3.81491 Y0.28194
G01 X-3.81260 Y0.28085
G01 X-3.81020 Y0.27999
G01 X-3.80551 Y0.27857
G01 X-3.80051 Y0.27757
G01 X-3.79564 Y0.27709
G01 X-3.79309 Y0.27697
G01 X-3.67564 Y0.27697
G01 X-3.67360 Y0.27705
G01 X-3.66969 Y0.27736
G01 X-3.66566 Y0.27800
G01 X-3.66185 Y0.27891
G01 X-3.65797 Y0.28017
G01 X-3.65434 Y0.28167
G01 X-3.65071 Y0.28353
G01 X-3.64736 Y0.28558
G01 X-3.64406 Y0.28797
G01 X-3.64108 Y0.29052
G01 X-3.63958 Y0.29191
G01 X-3.59191 Y0.33958
G01 X-3.59019 Y0.34147
G01 X-3.58708 Y0.34526
G01 X-3.58425 Y0.34950
G01 X-3.58194 Y0.35382
G01 X-3.57999 Y0.35853
G01 X-3.57857 Y0.36322
G01 X-3.57757 Y0.36822
G01 X-3.57709 Y0.37310
G01 X-3.57697 Y0.37564
G01 X-3.57697 Y0.38854
G01 X-3.57697 Y0.38854
G01 X-3.57205 Y0.38308
G01 X-3.57012 Y0.38115
G01 X-3.56801 Y0.37944
G01 X-3.56175 Y0.37489
G01 X-3.55947 Y0.37341
G01 X-3.55704 Y0.37217
G01 X-3.54998 Y0.36903
G01 X-3.54744 Y0.36805
G01 X-3.54481 Y0.36735
G01 X-3.53724 Y0.36574
G01 X-3.53455 Y0.36531
G01 X-3.53184 Y0.36517
G01 X-3.52410 Y0.36517
G01 X-3.52138 Y0.36531
G01 X-3.51869 Y0.36574
G01 X-3.51113 Y0.36735
G01 X-3.50850 Y0.36805
G01 X-3.50596 Y0.36903
G01 X-3.49889 Y0.37217
G01 X-3.49647 Y0.37341
G01 X-3.49419 Y0.37489
G01 X-3.48793 Y0.37944
G01 X-3.48581 Y0.38115
G01 X-3.48389 Y0.38308
G01 X-3.47871 Y0.38882
G01 X-3.47797 Y0.38974
G01 X-3.47797 Y0.39463
G01 X-3.47797 Y0.40357
G01 X-3.47797 Y0.40766
G01 X-3.47797 Y0.41579
G01 X-3.47797 Y0.41882
G01 X-3.47797 Y0.42660
G01 X-3.47797 Y0.42797
G01 X-3.47797 Y0.42934
G01 X-3.47797 Y0.43711
G01 X-3.47797 Y0.44015
G01 X-3.47797 Y0.44828
G01 X-3.47797 Y0.45237
G01 X-3.47797 Y0.46130
G01 X-3.47797 Y0.46619
G01 X-3.47797 Y0.46779
G01 X-3.47797 Y0.47820
G01 X-3.47797 Y0.48514
G01 X-3.47797 Y0.49021
G01 X-3.47797 Y0.50140
G01 X-3.47703 Y0.50208
G01 X-3.47247 Y0.50505
G01 X-3.46762 Y0.50752
G01 X-3.46055 Y0.51066
G01 X-3.45547 Y0.51261
G01 X-3.45021 Y0.51402
G01 X-3.44265 Y0.51563
G01 X-3.43727 Y0.51648
G01 X-3.43184 Y0.51677
G01 X-3.42410 Y0.51677
G01 X-3.41866 Y0.51648
G01 X-3.41329 Y0.51563
G01 X-3.40572 Y0.51402
G01 X-3.40047 Y0.51261
G01 X-3.39538 Y0.51066
G01 X-3.38832 Y0.50752
G01 X-3.38347 Y0.50505
G01 X-3.37890 Y0.50208
G01 X-3.37797 Y0.50140
G01 X-3.37703 Y0.50208
G01 X-3.37247 Y0.50505
G01 X-3.36762 Y0.50752
G01 X-3.36055 Y0.51066
G01 X-3.35547 Y0.51261
G01 X-3.35021 Y0.51402
G01 X-3.34265 Y0.51563
G01 X-3.33727 Y0.51648
G01 X-3.33184 Y0.51677
G01 X-3.32410 Y0.51677
G01 X-3.31866 Y0.51648
G01 X-3.31329 Y0.51563
G01 X-3.30572 Y0.51402
G01 X-3.30047 Y0.51261
G01 X-3.29538 Y0.51066
G01 X-3.28832 Y0.50752
G01 X-3.28347 Y0.50505
G01 X-3.27890 Y0.50208
G01 X-3.27797 Y0.50140
G01 X-3.27703 Y0.50208
G01 X-3.27247 Y0.50505
G01 X-3.26762 Y0.50752
G01 X-3.26055 Y0.51066
G01 X-3.25547 Y0.51261
G01 X-3.25021 Y0.51402
G01 X-3.24265 Y0.51563
G01 X-3.23727 Y0.51648
G01 X-3.23184 Y0.51677
G01 X-3.22410 Y0.51677
G01 X-3.21866 Y0.51648
G01 X-3.21329 Y0.51563
G01 X-3.20572 Y0.51402
G01 X-3.20047 Y0.51261
G01 X-3.19538 Y0.51066
G01 X-3.18832 Y0.50752
G01 X-3.18347 Y0.50505
G01 X-3.17890 Y0.50208
G01 X-3.17797 Y0.50140
G01 X-3.17703 Y0.50208
G01 X-3.17247 Y0.50505
G01 X-3.16762 Y0.50752
G01 X-3.16055 Y0.51066
G01 X-3.15547 Y0.51261
G01 X-3.15021 Y0.51402
G01 X-3.14265 Y0.51563
G01 X-3.13727 Y0.51648
G01 X-3.13184 Y0.51677
G01 X-3.12410 Y0.51677
G01 X-3.11866 Y0.51648
G01 X-3.11329 Y0.51563
G01 X-3.10572 Y0.51402
G01 X-3.10047 Y0.51261
G01 X-3.09538 Y0.51066
G01 X-3.08832 Y0.50752
G01 X-3.08347 Y0.50505
G01 X-3.07890 Y0.50208
G01 X-3.07797 Y0.50140
G01 X-3.07703 Y0.50208
G01 X-3.07247 Y0.50505
G01 X-3.06762 Y0.50752
G01 X-3.06055 Y0.51066
G01 X-3.05547 Y0.51261
G01 X-3.05021 Y0.51402
G01 X-3.04265 Y0.51563
G01 X-3.03727 Y0.51648
G01 X-3.03184 Y0.51677
G01 X-3.02410 Y0.51677
G01 X-3.01866 Y0.51648
G01 X-3.01329 Y0.51563
G01 X-3.00572 Y0.51402
G01 X-3.00047 Y0.51261
G01 X-2.99538 Y0.51066
G01 X-2.98832 Y0.50752
G01 X-2.98347 Y0.50505
G01 X-2.97890 Y0.50208
G01 X-2.97797 Y0.50140
G01 X-2.97797 Y0.49021
G01 X-2.97797 Y0.50140
G01 X-2.97797 Y0.50140
G01 X-2.97703 Y0.50208
G01 X-2.97247 Y0.50505
G01 X-2.96762 Y0.50752
G01 X-2.96055 Y0.51066
G01 X-2.95547 Y0.51261
G01 X-2.95021 Y0.51402
G01 X-2.94265 Y0.51563
G01 X-2.93727 Y0.51648
G01 X-2.93184 Y0.51677
G01 X-2.92410 Y0.51677
G01 X-2.91866 Y0.51648
G01 X-2.91329 Y0.51563
G01 X-2.90572 Y0.51402
G01 X-2.90501 Y0.51383
G01 X-2.90497 Y0.51378
G01 X-2.90497 Y0.51378
G01 X-2.90497 Y0.56722
G01 X-2.90424 Y0.56747
G01 X-2.90497 Y0.56722
G01 X-2.96750 Y0.64601
G01 X-2.96687 Y0.64730
G01 X-2.96750 Y0.64601
G01 X-3.08854 Y0.64601
G01 X-3.08856 Y0.64615
G01 X-3.08854 Y0.64601
G01 X-3.09420 Y0.64429
G01 X-3.10435 Y0.64329
G01 X-3.15159 Y0.64329
G01 X-3.16173 Y0.64429
G01 X-3.16740 Y0.64601
G01 X-3.16738 Y0.64615
G01 X-3.16740 Y0.64601
G01 X-3.18854 Y0.64601
G01 X-3.18856 Y0.64615
G01 X-3.18854 Y0.64601
G01 X-3.19420 Y0.64429
G01 X-3.20435 Y0.64329
G01 X-3.25159 Y0.64329
G01 X-3.26173 Y0.64429
G01 X-3.26740 Y0.64601
G01 X-3.26738 Y0.64615
G01 X-3.26740 Y0.64601
G01 X-3.28854 Y0.64601
G01 X-3.28856 Y0.64615
G01 X-3.28854 Y0.64601
G01 X-3.29420 Y0.64429
G01 X-3.30435 Y0.64329
G01 X-3.35159 Y0.64329
G01 X-3.36173 Y0.64429
G01 X-3.36740 Y0.64601
G01 X-3.36738 Y0.64615
G01 X-3.36740 Y0.64601
G01 X-3.38854 Y0.64601
G01 X-3.38856 Y0.64615
G01 X-3.38854 Y0.64601
G01 X-3.39420 Y0.64429
G01 X-3.40435 Y0.64329
G01 X-3.45159 Y0.64329
G01 X-3.46173 Y0.64429
G01 X-3.46740 Y0.64601
G01 X-3.46738 Y0.64615
G01 X-3.46740 Y0.64601
G01 X-3.48812 Y0.64601
G01 X-3.48814 Y0.64612
G01 X-3.48812 Y0.64601
G01 X-3.49532 Y0.64408
G01 X-3.50299 Y0.64341
G01 X-3.50318 Y0.64391
G01 X-3.50299 Y0.64341
G01 X-3.50367 Y0.64278
G01 X-3.50546 Y0.64125
G01 X-3.51206 Y0.63646
G01 X-3.51407 Y0.63523
G01 X-3.52134 Y0.63152
G01 X-3.52351 Y0.63062
G01 X-3.53127 Y0.62810
G01 X-3.53356 Y0.62755
G01 X-3.54162 Y0.62627
G01 X-3.54397 Y0.62609
G01 X-3.54805 Y0.62593
G01 X-3.57876 Y0.62593
G01 X-3.57877 Y0.62593
G01 X-3.57940 Y0.62607
G01 X-3.57877 Y0.62593
G01 X-3.57876 Y0.62593
G01 X-3.57808 Y0.62578
G01 X-3.57808 Y0.62579
G01 X-3.57808 Y0.62578
G01 X-3.56807 Y0.62256
G01 X-3.56807 Y0.62257
G01 X-3.56807 Y0.62256
G01 X-3.55806 Y0.61831
G01 X-3.55805 Y0.61832
G01 X-3.55805 Y0.61833
G01 X-3.55805 Y0.61832
G01 X-3.55806 Y0.61831
G01 X-3.54835 Y0.61318
G01 X-3.54835 Y0.61318
G01 X-3.54804 Y0.61302
G01 X-3.54271 Y0.60994
G01 X-3.54024 Y0.60848
G01 X-3.52973 Y0.60214
G01 X-3.52784 Y0.59594
G01 X-3.52635 Y0.58072
G01 X-3.52635 Y0.54529
G01 X-3.52661 Y0.54263
G01 X-3.52661 Y0.54263
G01 X-3.53183 Y0.53767
G01 X-3.52647 Y0.54277
G01 X-3.52410 Y0.54501
G01 X-3.52382 Y0.54529
G01 X-3.51335 Y0.55465
G01 X-3.51335 Y0.58072
G01 X-3.51453 Y0.59277
G01 X-3.51453 Y0.59277
G01 X-3.51453 Y0.59277
G01 X-3.50550 Y0.58715
G01 X-3.50205 Y0.58498
G01 X-3.50068 Y0.58410
G01 X-3.49539 Y0.58072
G01 X-3.48788 Y0.57604
G01 X-3.48684 Y0.57616
G01 X-3.48038 Y0.57443
G01 X-3.47797 Y0.57351
G01 X-3.47556 Y0.57443
G01 X-3.46373 Y0.57760
G01 X-3.45907 Y0.57859
G01 X-3.45607 Y0.57880
G01 X-3.45646 Y0.57877
G01 X-3.47442 Y0.58054
G01 X-3.47596 Y0.58101
G01 X-3.47814 Y0.58101
G01 X-3.47824 Y0.58155
G01 X-3.47814 Y0.58101
G01 X-3.48010 Y0.57981
G01 X-3.48738 Y0.57610
G01 X-3.48788 Y0.57604
G01 X-3.49349 Y0.57159
G01 X-3.50035 Y0.56604
G01 X-3.50035 Y0.58072
G01 X-3.50068 Y0.58410
G01 X-3.50205 Y0.58498
G01 X-3.50047 Y0.58397
G01 X-3.48689 Y0.59089
G01 X-3.48489 Y0.59212
G01 X-3.48243 Y0.59390
G01 X-3.48204 Y0.59401
G01 X-3.48220 Y0.59454
G01 X-3.48204 Y0.59401
G01 X-3.47425 Y0.59401
G01 X-3.47423 Y0.59415
G01 X-3.47425 Y0.59401
G01 X-3.47188 Y0.59329
G01 X-3.45159 Y0.59129
G01 X-3.40435 Y0.59129
G01 X-3.38406 Y0.59329
G01 X-3.38169 Y0.59401
G01 X-3.38171 Y0.59415
G01 X-3.38169 Y0.59401
G01 X-3.37425 Y0.59401
G01 X-3.37423 Y0.59415
G01 X-3.37425 Y0.59401
G01 X-3.37188 Y0.59329
G01 X-3.35159 Y0.59129
G01 X-3.30435 Y0.59129
G01 X-3.28406 Y0.59329
G01 X-3.28169 Y0.59401
G01 X-3.28171 Y0.59415
G01 X-3.28169 Y0.59401
G01 X-3.27425 Y0.59401
G01 X-3.27423 Y0.59415
G01 X-3.27425 Y0.59401
G01 X-3.27188 Y0.59329
G01 X-3.25159 Y0.59129
G01 X-3.20435 Y0.59129
G01 X-3.18406 Y0.59329
G01 X-3.18169 Y0.59401
G01 X-3.18171 Y0.59415
G01 X-3.18169 Y0.59401
G01 X-3.17425 Y0.59401
G01 X-3.17423 Y0.59415
G01 X-3.17425 Y0.59401
G01 X-3.17188 Y0.59329
G01 X-3.15159 Y0.59129
G01 X-3.10435 Y0.59129
G01 X-3.08406 Y0.59329
G01 X-3.08169 Y0.59401
G01 X-3.08171 Y0.59415
G01 X-3.08169 Y0.59401
G01 X-2.99261 Y0.59401
G01 X-2.99199 Y0.59530
G01 X-2.99261 Y0.59401
G01 X-2.96791 Y0.56288
G01 X-2.96791 Y0.56288
G01 X-2.96006 Y0.56039
G01 X-2.96791 Y0.56288
G01 X-2.96819 Y0.56297
G01 X-2.97154 Y0.56207
G01 X-2.97797 Y0.55960
G01 X-2.98440 Y0.56207
G01 X-2.99491 Y0.56489
G01 X-3.00248 Y0.56649
G01 X-3.01323 Y0.56820
G01 X-3.02410 Y0.56877
G01 X-3.03184 Y0.56877
G01 X-3.04271 Y0.56820
G01 X-3.05346 Y0.56649
G01 X-3.06102 Y0.56489
G01 X-3.07154 Y0.56207
G01 X-3.07797 Y0.55960
G01 X-3.08440 Y0.56207
G01 X-3.09491 Y0.56489
G01 X-3.10248 Y0.56649
G01 X-3.11323 Y0.56820
G01 X-3.12410 Y0.56877
G01 X-3.13184 Y0.56877
G01 X-3.14271 Y0.56820
G01 X-3.15346 Y0.56649
G01 X-3.16102 Y0.56489
G01 X-3.17154 Y0.56207
G01 X-3.17797 Y0.55960
G01 X-3.18440 Y0.56207
G01 X-3.19491 Y0.56489
G01 X-3.20248 Y0.56649
G01 X-3.21323 Y0.56820
G01 X-3.22410 Y0.56877
G01 X-3.23184 Y0.56877
G01 X-3.24271 Y0.56820
G01 X-3.25346 Y0.56649
G01 X-3.26102 Y0.56489
G01 X-3.27154 Y0.56207
G01 X-3.27797 Y0.55960
G01 X-3.28440 Y0.56207
G01 X-3.29491 Y0.56489
G01 X-3.30248 Y0.56649
G01 X-3.31323 Y0.56820
G01 X-3.32410 Y0.56877
G01 X-3.33184 Y0.56877
G01 X-3.34271 Y0.56820
G01 X-3.35346 Y0.56649
G01 X-3.36102 Y0.56489
G01 X-3.37154 Y0.56207
G01 X-3.37797 Y0.55960
G01 X-3.38440 Y0.56207
G01 X-3.39491 Y0.56489
G01 X-3.40248 Y0.56649
G01 X-3.41323 Y0.56820
G01 X-3.42410 Y0.56877
G01 X-3.43184 Y0.56877
G01 X-3.44271 Y0.56820
G01 X-3.45346 Y0.56649
G01 X-3.46102 Y0.56489
G01 X-3.47154 Y0.56207
G01 X-3.47797 Y0.55960
G01 X-3.48440 Y0.56207
G01 X-3.49491 Y0.56489
G01 X-3.50035 Y0.56604
G01 X-3.50304 Y0.56386
G01 X-3.51295 Y0.55501
G01 X-3.52382 Y0.54529
G01 X-3.52410 Y0.54501
G01 X-3.52647 Y0.54277
G01 X-3.52647 Y0.54277
G01 X-3.52661 Y0.54263
G01 X-3.52647 Y0.54277
G01 X-3.52647 Y0.54277
G01 X-3.52410 Y0.54277
G01 X-3.51595 Y0.54234
G01 X-3.50788 Y0.54106
G01 X-3.50032 Y0.53945
G01 X-3.49243 Y0.53734
G01 X-3.48481 Y0.53441
G01 X-3.47797 Y0.53137
G01 X-3.47113 Y0.53441
G01 X-3.46350 Y0.53734
G01 X-3.45562 Y0.53945
G01 X-3.44805 Y0.54106
G01 X-3.43999 Y0.54234
G01 X-3.43184 Y0.54277
G01 X-3.42410 Y0.54277
G01 X-3.41595 Y0.54234
G01 X-3.40788 Y0.54106
G01 X-3.40032 Y0.53945
G01 X-3.39243 Y0.53734
G01 X-3.38481 Y0.53441
G01 X-3.37797 Y0.53137
G01 X-3.37113 Y0.53441
G01 X-3.36350 Y0.53734
G01 X-3.35562 Y0.53945
G01 X-3.34805 Y0.54106
G01 X-3.33999 Y0.54234
G01 X-3.33184 Y0.54277
G01 X-3.32410 Y0.54277
G01 X-3.31595 Y0.54234
G01 X-3.30788 Y0.54106
G01 X-3.30032 Y0.53945
G01 X-3.29243 Y0.53734
G01 X-3.28481 Y0.53441
G01 X-3.27797 Y0.53137
G01 X-3.27113 Y0.53441
G01 X-3.26350 Y0.53734
G01 X-3.25562 Y0.53945
G01 X-3.24805 Y0.54106
G01 X-3.23999 Y0.54234
G01 X-3.23184 Y0.54277
G01 X-3.22410 Y0.54277
G01 X-3.21595 Y0.54234
G01 X-3.20788 Y0.54106
G01 X-3.20032 Y0.53945
G01 X-3.19243 Y0.53734
G01 X-3.18481 Y0.53441
G01 X-3.17797 Y0.53137
G01 X-3.17113 Y0.53441
G01 X-3.16350 Y0.53734
G01 X-3.15562 Y0.53945
G01 X-3.14805 Y0.54106
G01 X-3.13999 Y0.54234
G01 X-3.13184 Y0.54277
G01 X-3.12410 Y0.54277
G01 X-3.11595 Y0.54234
G01 X-3.10788 Y0.54106
G01 X-3.10032 Y0.53945
G01 X-3.09243 Y0.53734
G01 X-3.08481 Y0.53441
G01 X-3.07797 Y0.53137
G01 X-3.07113 Y0.53441
G01 X-3.06350 Y0.53734
G01 X-3.05562 Y0.53945
G01 X-3.04805 Y0.54106
G01 X-3.03999 Y0.54234
G01 X-3.03184 Y0.54277
G01 X-3.02410 Y0.54277
G01 X-3.01595 Y0.54234
G01 X-3.00788 Y0.54106
G01 X-3.00032 Y0.53945
G01 X-2.99243 Y0.53734
G01 X-2.98481 Y0.53441
G01 X-2.97797 Y0.53137
G01 X-2.97113 Y0.53441
G01 X-2.96350 Y0.53734
G01 X-2.95562 Y0.53945
G01 X-2.94805 Y0.54106
G01 X-2.93999 Y0.54234
G01 X-2.93184 Y0.54277
G01 X-2.93097 Y0.54277
G01 X-2.93097 Y0.54277
G01 X-2.93097 Y0.54277
G01 X-2.93097 Y0.55815
G01 X-2.93024 Y0.55841
G01 X-2.93097 Y0.55815
G01 X-2.98005 Y0.62001
G01 X-2.97943 Y0.62130
G01 X-2.98005 Y0.62001
G01 X-3.08511 Y0.62001
G01 X-3.08514 Y0.62015
G01 X-3.08511 Y0.62001
G01 X-3.08913 Y0.61879
G01 X-3.10435 Y0.61729
G01 X-3.15159 Y0.61729
G01 X-3.16681 Y0.61879
G01 X-3.17082 Y0.62001
G01 X-3.17080 Y0.62015
G01 X-3.17082 Y0.62001
G01 X-3.18511 Y0.62001
G01 X-3.18513 Y0.62015
G01 X-3.18511 Y0.62001
G01 X-3.18913 Y0.61879
G01 X-3.20435 Y0.61729
G01 X-3.25159 Y0.61729
G01 X-3.26681 Y0.61879
G01 X-3.27082 Y0.62001
G01 X-3.27080 Y0.62015
G01 X-3.27082 Y0.62001
G01 X-3.28511 Y0.62001
G01 X-3.28513 Y0.62015
G01 X-3.28511 Y0.62001
G01 X-3.28913 Y0.61879
G01 X-3.30435 Y0.61729
G01 X-3.35159 Y0.61729
G01 X-3.36681 Y0.61879
G01 X-3.37082 Y0.62001
G01 X-3.37080 Y0.62015
G01 X-3.37082 Y0.62001
G01 X-3.38511 Y0.62001
G01 X-3.38513 Y0.62015
G01 X-3.38511 Y0.62001
G01 X-3.38913 Y0.61879
G01 X-3.40435 Y0.61729
G01 X-3.45159 Y0.61729
G01 X-3.46681 Y0.61879
G01 X-3.47082 Y0.62001
G01 X-3.47080 Y0.62015
G01 X-3.47082 Y0.62001
G01 X-3.48508 Y0.62001
G01 X-3.48509 Y0.62008
G01 X-3.48508 Y0.62001
G01 X-3.49080 Y0.61848
G01 X-3.49297 Y0.61829
G01 X-3.49307 Y0.61852
G01 X-3.49297 Y0.61829
G01 X-3.49847 Y0.61429
G01 X-3.50048 Y0.61306
G01 X-3.51139 Y0.60750
G01 X-3.51356 Y0.60660
G01 X-3.52520 Y0.60282
G01 X-3.52749 Y0.60227
G01 X-3.52942 Y0.60196
G01 X-3.52943 Y0.60196
G01 X-3.52973 Y0.60214
G01 X-3.54024 Y0.60848
G01 X-3.52942 Y0.60196
G01 X-3.52706 Y0.60054
G01 X-3.52422 Y0.59880
G01 X-3.51453 Y0.59277
G01 X-3.51441 Y0.59270
G01 X-3.50859 Y0.59459
G01 X-3.50641 Y0.59549
G01 X-3.49369 Y0.60198
G01 X-3.49168 Y0.60321
G01 X-3.48813 Y0.60579
G01 X-3.48821 Y0.60596
G01 X-3.48813 Y0.60579
G01 X-3.48356 Y0.60701
G01 X-3.48358 Y0.60712
G01 X-3.48356 Y0.60701
G01 X-3.47254 Y0.60701
G01 X-3.47251 Y0.60715
G01 X-3.47254 Y0.60701
G01 X-3.46934 Y0.60604
G01 X-3.45159 Y0.60429
G01 X-3.40435 Y0.60429
G01 X-3.38659 Y0.60604
G01 X-3.38340 Y0.60701
G01 X-3.38342 Y0.60715
G01 X-3.38340 Y0.60701
G01 X-3.37254 Y0.60701
G01 X-3.37251 Y0.60715
G01 X-3.37254 Y0.60701
G01 X-3.36934 Y0.60604
G01 X-3.35159 Y0.60429
G01 X-3.30435 Y0.60429
G01 X-3.28659 Y0.60604
G01 X-3.28340 Y0.60701
G01 X-3.28342 Y0.60715
G01 X-3.28340 Y0.60701
G01 X-3.27254 Y0.60701
G01 X-3.27251 Y0.60715
G01 X-3.27254 Y0.60701
G01 X-3.26934 Y0.60604
G01 X-3.25159 Y0.60429
G01 X-3.20435 Y0.60429
G01 X-3.18659 Y0.60604
G01 X-3.18340 Y0.60701
G01 X-3.18342 Y0.60715
G01 X-3.18340 Y0.60701
G01 X-3.17254 Y0.60701
G01 X-3.17251 Y0.60715
G01 X-3.17254 Y0.60701
G01 X-3.16934 Y0.60604
G01 X-3.15159 Y0.60429
G01 X-3.10435 Y0.60429
G01 X-3.08659 Y0.60604
G01 X-3.08340 Y0.60701
G01 X-3.08342 Y0.60715
G01 X-3.08340 Y0.60701
G01 X-2.98633 Y0.60701
G01 X-2.98571 Y0.60830
G01 X-2.98633 Y0.60701
G01 X-2.94488 Y0.55477
G01 X-2.94477 Y0.55473
G01 X-2.95076 Y0.55378
G01 X-2.95832 Y0.55217
G01 X-2.96752 Y0.54970
G01 X-2.97641 Y0.54629
G01 X-2.97797 Y0.54560
G01 X-2.97952 Y0.54629
G01 X-2.98841 Y0.54970
G01 X-2.99761 Y0.55217
G01 X-3.00518 Y0.55378
G01 X-3.01459 Y0.55527
G01 X-3.02410 Y0.55577
G01 X-3.03184 Y0.55577
G01 X-3.04135 Y0.55527
G01 X-3.05076 Y0.55378
G01 X-3.05832 Y0.55217
G01 X-3.06752 Y0.54970
G01 X-3.07641 Y0.54629
G01 X-3.07797 Y0.54560
G01 X-3.07952 Y0.54629
G01 X-3.08841 Y0.54970
G01 X-3.09761 Y0.55217
G01 X-3.10518 Y0.55378
G01 X-3.11459 Y0.55527
G01 X-3.12410 Y0.55577
G01 X-3.13184 Y0.55577
G01 X-3.14135 Y0.55527
G01 X-3.15076 Y0.55378
G01 X-3.15832 Y0.55217
G01 X-3.16752 Y0.54970
G01 X-3.17641 Y0.54629
G01 X-3.17797 Y0.54560
G01 X-3.17952 Y0.54629
G01 X-3.18841 Y0.54970
G01 X-3.19761 Y0.55217
G01 X-3.20518 Y0.55378
G01 X-3.21459 Y0.55527
G01 X-3.22410 Y0.55577
G01 X-3.23184 Y0.55577
G01 X-3.24135 Y0.55527
G01 X-3.25076 Y0.55378
G01 X-3.25832 Y0.55217
G01 X-3.26752 Y0.54970
G01 X-3.27641 Y0.54629
G01 X-3.27797 Y0.54560
G01 X-3.27952 Y0.54629
G01 X-3.28841 Y0.54970
G01 X-3.29761 Y0.55217
G01 X-3.30518 Y0.55378
G01 X-3.31459 Y0.55527
G01 X-3.32410 Y0.55577
G01 X-3.33184 Y0.55577
G01 X-3.34135 Y0.55527
G01 X-3.35076 Y0.55378
G01 X-3.35832 Y0.55217
G01 X-3.36752 Y0.54970
G01 X-3.37641 Y0.54629
G01 X-3.37797 Y0.54560
G01 X-3.37952 Y0.54629
G01 X-3.38841 Y0.54970
G01 X-3.39761 Y0.55217
G01 X-3.40518 Y0.55378
G01 X-3.41459 Y0.55527
G01 X-3.42410 Y0.55577
G01 X-3.43184 Y0.55577
G01 X-3.44135 Y0.55527
G01 X-3.45076 Y0.55378
G01 X-3.45832 Y0.55217
G01 X-3.46752 Y0.54970
G01 X-3.47641 Y0.54629
G01 X-3.47797 Y0.54560
G01 X-3.47952 Y0.54629
G01 X-3.48841 Y0.54970
G01 X-3.49761 Y0.55217
G01 X-3.50518 Y0.55378
G01 X-3.51295 Y0.55501
G01 X-3.51335 Y0.55465
G01 X-3.52382 Y0.54529
G01 X-3.52410 Y0.54501
G01 X-3.52647 Y0.54277
G01 X-3.53183 Y0.53767
G01 X-3.54151 Y0.52895
G01 X-3.54484 Y0.52596
G01 X-3.54152 Y0.52895
G01 X-3.54151 Y0.52895
G01 X-3.53863 Y0.52941
G01 X-3.53184 Y0.52977
G01 X-3.52410 Y0.52977
G01 X-3.51731 Y0.52941
G01 X-3.51059 Y0.52835
G01 X-3.50302 Y0.52674
G01 X-3.49645 Y0.52498
G01 X-3.49010 Y0.52254
G01 X-3.48303 Y0.51939
G01 X-3.47797 Y0.51681
G01 X-3.47797 Y0.50337
G01 X-3.47797 Y0.51681
G01 X-3.47797 Y0.51681
G01 X-3.47291 Y0.51939
G01 X-3.46584 Y0.52254
G01 X-3.45949 Y0.52498
G01 X-3.45292 Y0.52674
G01 X-3.44535 Y0.52835
G01 X-3.43863 Y0.52941
G01 X-3.43184 Y0.52977
G01 X-3.42410 Y0.52977
G01 X-3.41731 Y0.52941
G01 X-3.41059 Y0.52835
G01 X-3.40302 Y0.52674
G01 X-3.39645 Y0.52498
G01 X-3.39010 Y0.52254
G01 X-3.38303 Y0.51939
G01 X-3.37797 Y0.51681
G01 X-3.37797 Y0.50337
G01 X-3.37797 Y0.51681
G01 X-3.37797 Y0.51681
G01 X-3.37291 Y0.51939
G01 X-3.36584 Y0.52254
G01 X-3.35949 Y0.52498
G01 X-3.35292 Y0.52674
G01 X-3.34535 Y0.52835
G01 X-3.33863 Y0.52941
G01 X-3.33184 Y0.52977
G01 X-3.32410 Y0.52977
G01 X-3.31731 Y0.52941
G01 X-3.31059 Y0.52835
G01 X-3.30302 Y0.52674
G01 X-3.29645 Y0.52498
G01 X-3.29010 Y0.52254
G01 X-3.28303 Y0.51939
G01 X-3.27797 Y0.51681
G01 X-3.27291 Y0.51939
G01 X-3.26584 Y0.52254
G01 X-3.25949 Y0.52498
G01 X-3.25292 Y0.52674
G01 X-3.24535 Y0.52835
G01 X-3.23863 Y0.52941
G01 X-3.23184 Y0.52977
G01 X-3.22410 Y0.52977
G01 X-3.21731 Y0.52941
G01 X-3.21059 Y0.52835
G01 X-3.20302 Y0.52674
G01 X-3.19645 Y0.52498
G01 X-3.19010 Y0.52254
G01 X-3.18303 Y0.51939
G01 X-3.17797 Y0.51681
G01 X-3.17797 Y0.50337
G01 X-3.17797 Y0.51681
G01 X-3.17797 Y0.51681
G01 X-3.17291 Y0.51939
G01 X-3.16584 Y0.52254
G01 X-3.15949 Y0.52498
G01 X-3.15292 Y0.52674
G01 X-3.14535 Y0.52835
G01 X-3.13863 Y0.52941
G01 X-3.13184 Y0.52977
G01 X-3.12410 Y0.52977
G01 X-3.11731 Y0.52941
G01 X-3.11059 Y0.52835
G01 X-3.10302 Y0.52674
G01 X-3.09645 Y0.52498
G01 X-3.09010 Y0.52254
G01 X-3.08303 Y0.51939
G01 X-3.07797 Y0.51681
G01 X-3.07291 Y0.51939
G01 X-3.06584 Y0.52254
G01 X-3.05949 Y0.52498
G01 X-3.05292 Y0.52674
G01 X-3.04535 Y0.52835
G01 X-3.03863 Y0.52941
G01 X-3.03184 Y0.52977
G01 X-3.02410 Y0.52977
G01 X-3.01731 Y0.52941
G01 X-3.01059 Y0.52835
G01 X-3.00302 Y0.52674
G01 X-2.99645 Y0.52498
G01 X-2.99010 Y0.52254
G01 X-2.98303 Y0.51939
G01 X-2.97797 Y0.51681
G01 X-2.97291 Y0.51939
G01 X-2.96584 Y0.52254
G01 X-2.95949 Y0.52498
G01 X-2.95292 Y0.52674
G01 X-2.94535 Y0.52835
G01 X-2.93863 Y0.52941
G01 X-2.93184 Y0.52977
G01 X-2.92410 Y0.52977
G01 X-2.91827 Y0.52946
G01 X-2.91797 Y0.52912
G01 X-2.91797 Y0.52913
G01 X-2.91797 Y0.56268
G01 X-2.91724 Y0.56294
G01 X-2.91797 Y0.56268
G01 X-2.97377 Y0.63301
G01 X-2.97315 Y0.63430
G01 X-2.97377 Y0.63301
G01 X-3.08683 Y0.63301
G01 X-3.08685 Y0.63315
G01 X-3.08683 Y0.63301
G01 X-3.09167 Y0.63154
G01 X-3.10435 Y0.63029
G01 X-3.15159 Y0.63029
G01 X-3.16427 Y0.63154
G01 X-3.16911 Y0.63301
G01 X-3.16909 Y0.63315
G01 X-3.16911 Y0.63301
G01 X-3.18683 Y0.63301
G01 X-3.18685 Y0.63315
G01 X-3.18683 Y0.63301
G01 X-3.19167 Y0.63154
G01 X-3.20435 Y0.63029
G01 X-3.25159 Y0.63029
G01 X-3.26427 Y0.63154
G01 X-3.26911 Y0.63301
G01 X-3.26909 Y0.63315
G01 X-3.26911 Y0.63301
G01 X-3.28683 Y0.63301
G01 X-3.28685 Y0.63315
G01 X-3.28683 Y0.63301
G01 X-3.29167 Y0.63154
G01 X-3.30435 Y0.63029
G01 X-3.35159 Y0.63029
G01 X-3.36427 Y0.63154
G01 X-3.36911 Y0.63301
G01 X-3.36909 Y0.63315
G01 X-3.36911 Y0.63301
G01 X-3.38683 Y0.63301
G01 X-3.38685 Y0.63315
G01 X-3.38683 Y0.63301
G01 X-3.39167 Y0.63154
G01 X-3.40435 Y0.63029
G01 X-3.45159 Y0.63029
G01 X-3.46427 Y0.63154
G01 X-3.46911 Y0.63301
G01 X-3.46909 Y0.63315
G01 X-3.46911 Y0.63301
G01 X-3.48660 Y0.63301
G01 X-3.48662 Y0.63312
G01 X-3.48660 Y0.63301
G01 X-3.49306 Y0.63128
G01 X-3.49770 Y0.63087
G01 X-3.49785 Y0.63131
G01 X-3.49770 Y0.63087
G01 X-3.50527 Y0.62537
G01 X-3.50727 Y0.62414
G01 X-3.51636 Y0.61951
G01 X-3.51854 Y0.61861
G01 X-3.52824 Y0.61546
G01 X-3.53052 Y0.61491
G01 X-3.54060 Y0.61332
G01 X-3.54295 Y0.61313
G01 X-3.54789 Y0.61294
G01 X-3.54804 Y0.61302
G01 X-3.54835 Y0.61318
G01 X-3.54429 Y0.60560
G01 X-3.54059 Y0.59341
G01 X-3.53935 Y0.58072
G01 X-3.53935 Y0.54529
G01 X-3.54059 Y0.53261
G01 X-3.54177 Y0.52873
G01 X-3.54484 Y0.52596
G01 X-3.55154 Y0.52030
G01 X-3.55750 Y0.51559
G01 X-3.55762 Y0.51570
G01 X-3.55750 Y0.51559
G01 X-3.56067 Y0.51093
G01 X-3.56097 Y0.51048
G01 X-3.56097 Y0.51048
G01 X-3.56055 Y0.51066
G01 X-3.55547 Y0.51261
G01 X-3.55021 Y0.51402
G01 X-3.54265 Y0.51563
G01 X-3.53727 Y0.51648
G01 X-3.53184 Y0.51677
G01 X-3.52410 Y0.51677
G01 X-3.51866 Y0.51648
G01 X-3.51329 Y0.51563
G01 X-3.50572 Y0.51402
G01 X-3.50047 Y0.51261
G01 X-3.49538 Y0.51066
G01 X-3.48832 Y0.50752
G01 X-3.48347 Y0.50505
G01 X-3.47890 Y0.50208
G01 X-3.47797 Y0.50140
G01 X-3.47797 Y0.50337
G01 X-3.47797 Y0.51681
G01 X-3.47797 Y0.53074
G01 X-3.47797 Y0.53137
G01 X-3.47797 Y0.54560
G01 X-3.47797 Y0.54975
G01 X-3.47797 Y0.54977
G01 X-3.47797 Y0.55960
G01 X-3.47797 Y0.57351
G01 X-3.47556 Y0.57443
G01 X-3.46373 Y0.57760
G01 X-3.45907 Y0.57859
G01 X-3.45607 Y0.57880
G01 X-3.45159 Y0.57918
G01 X-3.43184 Y0.58003
G01 X-3.43184 Y0.58004
G01 X-3.43184 Y0.58003
G01 X-3.42410 Y0.58003
G01 X-3.40435 Y0.57918
G01 X-3.39986 Y0.57880
G01 X-3.39687 Y0.57859
G01 X-3.39221 Y0.57760
G01 X-3.38038 Y0.57443
G01 X-3.37797 Y0.57351
G01 X-3.37556 Y0.57443
G01 X-3.36373 Y0.57760
G01 X-3.35907 Y0.57859
G01 X-3.35607 Y0.57880
G01 X-3.35159 Y0.57918
G01 X-3.33183 Y0.58003
G01 X-3.33184 Y0.58004
G01 X-3.33183 Y0.58003
G01 X-3.32410 Y0.58003
G01 X-3.30435 Y0.57918
G01 X-3.29986 Y0.57880
G01 X-3.29947 Y0.57877
G01 X-3.28152 Y0.58054
G01 X-3.27998 Y0.58101
G01 X-3.27998 Y0.58108
G01 X-3.27998 Y0.58101
G01 X-3.27596 Y0.58101
G01 X-3.27442 Y0.58054
G01 X-3.25647 Y0.57877
G01 X-3.25607 Y0.57880
G01 X-3.25647 Y0.57877
G01 X-3.27442 Y0.58054
G01 X-3.27596 Y0.58101
G01 X-3.27998 Y0.58101
G01 X-3.28152 Y0.58054
G01 X-3.29947 Y0.57877
G01 X-3.29986 Y0.57880
G01 X-3.29687 Y0.57859
G01 X-3.29221 Y0.57760
G01 X-3.28038 Y0.57443
G01 X-3.27797 Y0.57351
G01 X-3.27556 Y0.57443
G01 X-3.26373 Y0.57760
G01 X-3.25907 Y0.57859
G01 X-3.25607 Y0.57880
G01 X-3.25159 Y0.57918
G01 X-3.23184 Y0.58003
G01 X-3.23184 Y0.58004
G01 X-3.23184 Y0.58003
G01 X-3.22410 Y0.58003
G01 X-3.20435 Y0.57918
G01 X-3.19986 Y0.57880
G01 X-3.19687 Y0.57859
G01 X-3.19221 Y0.57760
G01 X-3.18038 Y0.57443
G01 X-3.17797 Y0.57351
G01 X-3.17556 Y0.57443
G01 X-3.16373 Y0.57760
G01 X-3.15907 Y0.57859
G01 X-3.15607 Y0.57880
G01 X-3.15159 Y0.57918
G01 X-3.13183 Y0.58003
G01 X-3.13184 Y0.58004
G01 X-3.13183 Y0.58003
G01 X-3.12410 Y0.58003
G01 X-3.10435 Y0.57918
G01 X-3.09986 Y0.57880
G01 X-3.09687 Y0.57859
G01 X-3.09221 Y0.57760
G01 X-3.08038 Y0.57443
G01 X-3.07797 Y0.57351
G01 X-3.07556 Y0.57443
G01 X-3.06373 Y0.57760
G01 X-3.05616 Y0.57921
G01 X-3.04766 Y0.58056
G01 X-3.03905 Y0.58101
G01 X-3.03184 Y0.58139
G01 X-3.02410 Y0.58139
G01 X-3.01688 Y0.58101
G01 X-3.01688 Y0.58101
G01 X-3.00828 Y0.58056
G01 X-2.99977 Y0.57921
G01 X-2.99699 Y0.57862
G01 X-2.99977 Y0.57921
G01 X-3.00828 Y0.58056
G01 X-3.01688 Y0.58101
G01 X-2.99889 Y0.58101
G01 X-2.99827 Y0.58230
G01 X-2.99889 Y0.58101
G01 X-2.99699 Y0.57862
G01 X-2.99258 Y0.57588
G01 X-2.97797 Y0.56607
G01 X-2.96791 Y0.56288
G01 X-2.96006 Y0.56039
G01 X-2.95150 Y0.55731
G01 X-2.94488 Y0.55477
G01 X-2.94477 Y0.55473
G01 X-2.94288 Y0.55400
G01 X-2.94273 Y0.55426
G01 X-2.94288 Y0.55400
G01 X-2.94274 Y0.55422
G01 X-2.94273 Y0.55424
G01 X-2.94274 Y0.55422
G01 X-2.94288 Y0.55400
G01 X-2.93184 Y0.54363
G01 X-2.93097 Y0.54277
G01 X-2.92409 Y0.53591
G01 X-2.91797 Y0.52913
G01 X-2.91186 Y0.52237
G01 X-2.91185 Y0.52238
G01 X-2.91186 Y0.52237
G01 X-2.90559 Y0.51464
G01 X-2.90558 Y0.51465
G01 X-2.90559 Y0.51464
G01 X-2.90497 Y0.51378
G01 X-2.89814 Y0.50444
G01 X-2.89815 Y0.50443
G01 X-2.89814 Y0.50444
G01 X-2.89311 Y0.49671
G01 X-2.89313 Y0.49670
G01 X-2.89311 Y0.49671
G01 X-2.89197 Y0.49473
G01 X-2.88855 Y0.48880
G01 X-2.88461 Y0.48107
G01 X-2.88459 Y0.48108
G01 X-2.88461 Y0.48107
G01 X-2.88179 Y0.47475
G01 X-2.88178 Y0.47476
G01 X-2.88179 Y0.47475
G01 X-2.87897 Y0.46740
G01 X-2.87882 Y0.46702
G01 X-2.87797 Y0.46463
G01 X-2.87773 Y0.46468
G01 X-2.87797 Y0.46463
G01 X-2.87777 Y0.46466
G01 X-2.87797 Y0.46463
G01 X-2.87776 Y0.46467
G01 X-2.87797 Y0.46463
G01 X-2.87797 Y0.46130
G01 X-2.87797 Y0.45237
G01 X-2.87797 Y0.44828
G01 X-2.87797 Y0.44015
G01 X-2.87797 Y0.43711
G01 X-2.87797 Y0.42934
G01 X-2.87797 Y0.42797
G01 X-2.87797 Y0.42660
G01 X-2.87797 Y0.41882
G01 X-2.87797 Y0.41579
G01 X-2.87797 Y0.40766
G01 X-2.87797 Y0.40357
G01 X-2.87797 Y0.39463
G01 X-2.87797 Y0.38974
G01 X-2.87797 Y0.38815
G01 X-2.87797 Y0.37774
G01 X-2.87797 Y0.37080
G01 X-2.87797 Y0.36573
G01 X-2.87797 Y0.35454
G01 X-2.87797 Y0.35257
G01 X-2.87797 Y0.33912
G01 X-2.87797 Y0.33912
G01 X-2.87797 Y0.32520
G01 X-2.87797 Y0.32519
G01 X-2.87797 Y0.32457
G01 X-2.87797 Y0.31034
G01 X-2.87797 Y0.30619
G01 X-2.87797 Y0.30617
G01 X-2.87797 Y0.29634
G01 X-2.87797 Y0.28243
G01 X-2.87556 Y0.28151
G01 X-2.86373 Y0.27834
G01 X-2.85616 Y0.27673
G01 X-2.84407 Y0.27481
G01 X-2.83184 Y0.27417
G01 X-2.82410 Y0.27417
G01 X-2.81187 Y0.27481
G01 X-2.79977 Y0.27673
G01 X-2.79221 Y0.27834
G01 X-2.78038 Y0.28151
G01 X-2.77797 Y0.28243
G01 X-2.77556 Y0.28151
G01 X-2.76373 Y0.27834
G01 X-2.75616 Y0.27673
G01 X-2.74407 Y0.27481
G01 X-2.73184 Y0.27417
G01 X-2.72410 Y0.27417
G01 X-2.71187 Y0.27481
G01 X-2.69977 Y0.27673
G01 X-2.69221 Y0.27834
G01 X-2.68038 Y0.28151
G01 X-2.67797 Y0.28243
G01 X-2.67556 Y0.28151
G01 X-2.66373 Y0.27834
G01 X-2.65616 Y0.27673
G01 X-2.64407 Y0.27481
G01 X-2.63184 Y0.27417
G01 X-2.62410 Y0.27417
G01 X-2.61187 Y0.27481
G01 X-2.59977 Y0.27673
G01 X-2.59221 Y0.27834
G01 X-2.58038 Y0.28151
G01 X-2.57797 Y0.28243
G01 X-2.57797 Y0.29634
G01 X-2.57797 Y0.30617
G01 X-2.57797 Y0.31034
G01 X-2.57797 Y0.32457
G01 X-2.57797 Y0.32519
G01 X-2.57797 Y0.33912
G01 X-2.57797 Y0.35257
G01 X-2.57797 Y0.35454
G01 X-2.57797 Y0.36573
G01 X-2.57797 Y0.37080
G01 X-2.57797 Y0.37774
G01 X-2.57797 Y0.38815
G01 X-2.57797 Y0.38974
G01 X-2.57797 Y0.39463
G01 X-2.57797 Y0.40357
G01 X-2.57797 Y0.40766
G01 X-2.57797 Y0.41579
G01 X-2.57797 Y0.41882
G01 X-2.57797 Y0.42660
G01 X-2.57797 Y0.42797
G01 X-2.57797 Y0.42934
G01 X-2.57797 Y0.43711
G01 X-2.57797 Y0.44015
G01 X-2.57797 Y0.44828
G01 X-2.57797 Y0.45237
G01 X-2.57797 Y0.46130
G01 X-2.57797 Y0.46619
G01 X-2.57797 Y0.46779
G01 X-2.57797 Y0.47820
G01 X-2.57797 Y0.48514
G01 X-2.57797 Y0.49021
G01 X-2.57797 Y0.50140
G01 X-2.57797 Y0.50337
G01 X-2.57797 Y0.51681
G01 X-2.57797 Y0.51751
G01 X-2.58034 Y0.51806
G01 X-2.58034 Y0.51806
G01 X-2.58048 Y0.51809
G01 X-2.58048 Y0.51809
G01 X-2.58331 Y0.51876
G01 X-2.58417 Y0.51894
G01 X-2.59145 Y0.51950
G01 X-2.60428 Y0.52084
G01 X-2.60434 Y0.52085
G01 X-2.61201 Y0.52165
G01 X-2.62410 Y0.52229
G01 X-2.63184 Y0.52229
G01 X-2.64392 Y0.52165
G01 X-2.65159 Y0.52085
G01 X-2.65166 Y0.52084
G01 X-2.66449 Y0.51950
G01 X-2.66958 Y0.51907
G01 X-2.67249 Y0.51844
G01 X-2.67675 Y0.51744
G01 X-2.67693 Y0.51739
G01 X-2.67693 Y0.51739
G01 X-2.67797 Y0.51715
G01 X-2.67797 Y0.51681
G01 X-2.67797 Y0.50337
G01 X-2.67797 Y0.50140
G01 X-2.67797 Y0.49021
G01 X-2.67797 Y0.48514
G01 X-2.67797 Y0.47820
G01 X-2.67797 Y0.46779
G01 X-2.67797 Y0.46619
G01 X-2.67797 Y0.46130
G01 X-2.67797 Y0.45237
G01 X-2.67797 Y0.44828
G01 X-2.67797 Y0.44015
G01 X-2.67797 Y0.43711
G01 X-2.67797 Y0.42934
G01 X-2.67797 Y0.42797
G01 X-2.67797 Y0.42660
G01 X-2.67797 Y0.41882
G01 X-2.67797 Y0.41579
G01 X-2.67797 Y0.40766
G01 X-2.67797 Y0.40357
G01 X-2.67797 Y0.39463
G01 X-2.67797 Y0.38974
G01 X-2.67797 Y0.38815
G01 X-2.67797 Y0.37774
G01 X-2.67797 Y0.37080
G01 X-2.67797 Y0.36573
G01 X-2.67797 Y0.35454
G01 X-2.67797 Y0.35257
G01 X-2.67797 Y0.33912
G01 X-2.67797 Y0.32520
G01 X-2.67797 Y0.32519
G01 X-2.67797 Y0.32457
G01 X-2.67797 Y0.31034
G01 X-2.67797 Y0.30619
G01 X-2.67797 Y0.30617
G01 X-2.67797 Y0.29634
G01 X-2.67797 Y0.28243
G01 X-2.68038 Y0.28151
G01 X-2.69221 Y0.27834
G01 X-2.69977 Y0.27673
G01 X-2.71187 Y0.27481
G01 X-2.72410 Y0.27417
G01 X-2.73184 Y0.27417
G01 X-2.74407 Y0.27481
G01 X-2.75616 Y0.27673
G01 X-2.76373 Y0.27834
G01 X-2.77556 Y0.28151
G01 X-2.77797 Y0.28243
G01 X-2.78038 Y0.28151
G01 X-2.79221 Y0.27834
G01 X-2.79977 Y0.27673
G01 X-2.81187 Y0.27481
G01 X-2.82410 Y0.27417
G01 X-2.83184 Y0.27417
G01 X-2.84407 Y0.27481
G01 X-2.85616 Y0.27673
G01 X-2.86373 Y0.27834
G01 X-2.87556 Y0.28151
G01 X-2.87797 Y0.28243
G01 X-2.88038 Y0.28151
G01 X-2.89221 Y0.27834
G01 X-2.89977 Y0.27673
G01 X-2.91187 Y0.27481
G01 X-2.92410 Y0.27417
G01 X-2.93184 Y0.27417
G01 X-2.94407 Y0.27481
G01 X-2.95616 Y0.27673
G01 X-2.96373 Y0.27834
G01 X-2.97556 Y0.28151
G01 X-2.97797 Y0.28243
G01 X-2.98038 Y0.28151
G01 X-2.99221 Y0.27834
G01 X-2.99977 Y0.27673
G01 X-3.01187 Y0.27481
G01 X-3.02410 Y0.27417
G01 X-3.03184 Y0.27417
G01 X-3.04407 Y0.27481
G01 X-3.05616 Y0.27673
G01 X-3.06373 Y0.27834
G01 X-3.07556 Y0.28151
G01 X-3.07797 Y0.28243
G01 X-3.08038 Y0.28151
G01 X-3.09221 Y0.27834
G01 X-3.09977 Y0.27673
G01 X-3.11187 Y0.27481
G01 X-3.12410 Y0.27417
G01 X-3.13184 Y0.27417
G01 X-3.14407 Y0.27481
G01 X-3.15616 Y0.27673
G01 X-3.16373 Y0.27834
G01 X-3.17556 Y0.28151
G01 X-3.17797 Y0.28243
G01 X-3.18038 Y0.28151
G01 X-3.19221 Y0.27834
G01 X-3.19977 Y0.27673
G01 X-3.21187 Y0.27481
G01 X-3.22410 Y0.27417
G01 X-3.23184 Y0.27417
G01 X-3.24407 Y0.27481
G01 X-3.25616 Y0.27673
G01 X-3.26373 Y0.27834
G01 X-3.27556 Y0.28151
G01 X-3.27797 Y0.28243
G01 X-3.28038 Y0.28151
G01 X-3.29221 Y0.27834
G01 X-3.29977 Y0.27673
G01 X-3.31187 Y0.27481
G01 X-3.32410 Y0.27417
G01 X-3.33184 Y0.27417
G01 X-3.34407 Y0.27481
G01 X-3.35616 Y0.27673
G01 X-3.36373 Y0.27834
G01 X-3.37556 Y0.28151
G01 X-3.37797 Y0.28243
G01 X-3.38038 Y0.28151
G01 X-3.39221 Y0.27834
G01 X-3.39977 Y0.27673
G01 X-3.41187 Y0.27481
G01 X-3.42410 Y0.27417
G01 X-3.43184 Y0.27417
G01 X-3.44407 Y0.27481
G01 X-3.45616 Y0.27673
G01 X-3.46373 Y0.27834
G01 X-3.47556 Y0.28151
G01 X-3.47797 Y0.28243
G01 X-3.48038 Y0.28151
G01 X-3.49221 Y0.27834
G01 X-3.49977 Y0.27673
G01 X-3.51187 Y0.27481
G01 X-3.52410 Y0.27417
G01 X-3.52862 Y0.27417
G01 X-3.57523 Y0.22756
G01 X-3.58198 Y0.22132
G01 X-3.58496 Y0.21878
G01 X-3.59981 Y0.20799
G01 X-3.60316 Y0.20594
G01 X-3.61952 Y0.19760
G01 X-3.62314 Y0.19610
G01 X-3.64060 Y0.19043
G01 X-3.64442 Y0.18951
G01 X-3.66255 Y0.18664
G01 X-3.66646 Y0.18633
G01 X-3.67564 Y0.18597
G01 X-3.79309 Y0.18597
G01 X-3.80456 Y0.18653
G01 X-3.80943 Y0.18701
G01 X-3.83193 Y0.19149
G01 X-3.83662 Y0.19291
G01 X-3.84743 Y0.19678
G01 X-3.85781 Y0.20169
G01 X-3.86213 Y0.20400
G01 X-3.87198 Y0.20990
G01 X-3.88120 Y0.21674
G01 X-3.88499 Y0.21985
G01 X-3.89350 Y0.22756
G01 X-4.72838 Y1.06244
G01 X-4.73609 Y1.07095
G01 X-4.73920 Y1.07474
G01 X-4.75194 Y1.09381
G01 X-4.75425 Y1.09813
G01 X-4.76303 Y1.11932
G01 X-4.76445 Y1.12401
G01 X-4.76724 Y1.13515
G01 X-4.76892 Y1.14650
G01 X-4.76940 Y1.15138
G01 X-4.76997 Y1.16285
G01 X-4.76997 Y1.26875
G01 X-4.76978 Y1.26879
G01 X-4.76997 Y1.26875
G01 X-4.77304 Y1.27676
G01 X-4.77543 Y1.28412
G01 X-4.77860 Y1.29595
G01 X-4.78052 Y1.30805
G01 X-4.78133 Y1.31574
G01 X-4.78197 Y1.32797
G01 X-4.78133 Y1.34020
G01 X-4.78052 Y1.34789
G01 X-4.77860 Y1.35999
G01 X-4.77543 Y1.37182
G01 X-4.77304 Y1.37917
G01 X-4.76865 Y1.39061
G01 X-4.76821 Y1.39147
G01 X-4.76797 Y1.39143
G01 X-4.76821 Y1.39147
G01 X-4.76859 Y1.39529
G01 X-4.76859 Y1.43072
G01 X-4.76634 Y1.45355
G01 X-4.75968 Y1.47550
G01 X-4.75836 Y1.47797
G01 X-4.75968 Y1.48044
G01 X-4.76634 Y1.50239
G01 X-4.76859 Y1.52521
G01 X-4.76859 Y1.56065
G01 X-4.76815 Y1.56508
G01 X-4.75490 Y1.56766
G01 X-4.74165 Y1.57024
G01 X-4.73266 Y1.57199
G01 X-4.72840 Y1.57270
G01 X-4.71483 Y1.57499
G01 X-4.71081 Y1.57567
G01 X-4.70069 Y1.57707
G01 X-4.70069 Y1.57707
G01 X-4.68838 Y1.57878
G01 X-4.68579 Y1.57900
G01 X-4.68579 Y1.57900
G01 X-4.67558 Y1.57989
G01 X-4.66869 Y1.58009
G01 X-4.66751 Y1.58012
G01 X-4.66751 Y1.58014
G01 X-4.66751 Y1.58012
G01 X-4.66869 Y1.58009
G01 X-4.66881 Y1.58009
G01 X-4.67012 Y1.58115
G01 X-4.67205 Y1.58308
G01 X-4.67722 Y1.58882
G01 X-4.67894 Y1.59094
G01 X-4.68042 Y1.59322
G01 X-4.68429 Y1.59992
G01 X-4.68552 Y1.60234
G01 X-4.68650 Y1.60489
G01 X-4.68889 Y1.61224
G01 X-4.68959 Y1.61487
G01 X-4.69002 Y1.61756
G01 X-4.69083 Y1.62525
G01 X-4.69097 Y1.62797
G01 X-4.69083 Y1.63069
G01 X-4.69002 Y1.63838
G01 X-4.68959 Y1.64107
G01 X-4.68889 Y1.64370
G01 X-4.68650 Y1.65105
G01 X-4.68552 Y1.65359
G01 X-4.68429 Y1.65602
G01 X-4.68042 Y1.66272
G01 X-4.67897 Y1.66495
G01 X-4.67852 Y1.66483
G01 X-4.67897 Y1.66495
G01 X-4.67897 Y1.69099
G01 X-4.67852 Y1.69111
G01 X-4.67897 Y1.69099
G01 X-4.68042 Y1.69322
G01 X-4.68429 Y1.69992
G01 X-4.68552 Y1.70234
G01 X-4.68650 Y1.70489
G01 X-4.68889 Y1.71224
G01 X-4.68959 Y1.71487
G01 X-4.69002 Y1.71756
G01 X-4.69006 Y1.71793
G01 X-4.68955 Y1.71820
G01 X-4.69006 Y1.71793
G01 X-4.76403 Y1.79191
G01 X-4.76574 Y1.79380
G01 X-4.76885 Y1.79759
G01 X-4.77168 Y1.80182
G01 X-4.77399 Y1.80615
G01 X-4.77594 Y1.81085
G01 X-4.77737 Y1.81554
G01 X-4.77836 Y1.82054
G01 X-4.77884 Y1.82542
G01 X-4.77897 Y1.82797
G01 X-4.77897 Y2.59099
G01 X-4.77852 Y2.59111
G01 X-4.77897 Y2.59099
G01 X-4.78042 Y2.59322
G01 X-4.78428 Y2.59992
G01 X-4.78552 Y2.60234
G01 X-4.78650 Y2.60489
G01 X-4.78889 Y2.61224
G01 X-4.78959 Y2.61487
G01 X-4.79002 Y2.61756
G01 X-4.79083 Y2.62525
G01 X-4.79097 Y2.62797
G01 X-4.79083 Y2.63069
G01 X-4.79002 Y2.63838
G01 X-4.78959 Y2.64107
G01 X-4.78889 Y2.64370
G01 X-4.78650 Y2.65105
G01 X-4.78552 Y2.65359
G01 X-4.78428 Y2.65602
G01 X-4.78042 Y2.66272
G01 X-4.77894 Y2.66500
G01 X-4.77722 Y2.66711
G01 X-4.77205 Y2.67286
G01 X-4.77012 Y2.67479
G01 X-4.76801 Y2.67650
G01 X-4.76175 Y2.68105
G01 X-4.75947 Y2.68253
G01 X-4.75704 Y2.68376
G01 X-4.74998 Y2.68691
G01 X-4.74744 Y2.68789
G01 X-4.74481 Y2.68859
G01 X-4.73724 Y2.69020
G01 X-4.73455 Y2.69062
G01 X-4.73184 Y2.69077
G01 X-4.72410 Y2.69077
G01 X-4.72138 Y2.69062
G01 X-4.71869 Y2.69020
G01 X-4.71113 Y2.68859
G01 X-4.70850 Y2.68789
G01 X-4.70596 Y2.68691
G01 X-4.69889 Y2.68376
G01 X-4.69647 Y2.68253
G01 X-4.69419 Y2.68105
G01 X-4.68793 Y2.67650
G01 X-4.68581 Y2.67479
G01 X-4.68389 Y2.67286
G01 X-4.67897 Y2.66740
G01 X-4.67882 Y2.66702
G01 X-4.67897 Y2.66740
G01 X-4.67897 Y2.66740
G01 X-4.67897 Y2.72797
G01 X-4.67884 Y2.73052
G01 X-4.67836 Y2.73539
G01 X-4.67799 Y2.73792
G01 X-4.67737 Y2.74039
G01 X-4.67594 Y2.74508
G01 X-4.67399 Y2.74979
G01 X-4.67168 Y2.75411
G01 X-4.67037 Y2.75630
G01 X-4.66885 Y2.75835
G01 X-4.66574 Y2.76214
G01 X-4.66403 Y2.76403
G01 X-4.66214 Y2.76574
G01 X-4.65835 Y2.76885
G01 X-4.65411 Y2.77169
G01 X-4.64979 Y2.77400
G01 X-4.64748 Y2.77509
G01 X-4.64508 Y2.77595
G01 X-4.64039 Y2.77737
G01 X-4.63792 Y2.77799
G01 X-4.63539 Y2.77836
G01 X-4.63052 Y2.77884
G01 X-4.62797 Y2.77897
G01 X-0.69773 Y2.77897
G01 X-0.69518 Y2.77884
G01 X-0.69030 Y2.77836
G01 X-0.68778 Y2.77799
G01 X-0.68530 Y2.77737
G01 X-0.68061 Y2.77595
G01 X-0.67590 Y2.77400
G01 X-0.67158 Y2.77169
G01 X-0.66939 Y2.77037
G01 X-0.66734 Y2.76885
G01 X-0.66356 Y2.76574
G01 X-0.66166 Y2.76403
G01 X-0.49191 Y2.59427
G01 X-0.49019 Y2.59238
G01 X-0.48708 Y2.58859
G01 X-0.48425 Y2.58436
G01 X-0.48194 Y2.58003
G01 X-0.48085 Y2.57773
G01 X-0.47999 Y2.57532
G01 X-0.47857 Y2.57063
G01 X-0.47795 Y2.56816
G01 X-0.47757 Y2.56564
G01 X-0.47709 Y2.56076
G01 X-0.47697 Y2.55821
G01 X-0.47697 Y1.67897
G01 X-0.48078 Y1.67516
G01 X-0.47697 Y1.67897
G01 X-0.46461 Y1.67897
G01 X-0.46443 Y1.67838
G01 X-0.46461 Y1.67897
G01 X-0.46175 Y1.68105
G01 X-0.45947 Y1.68253
G01 X-0.45704 Y1.68376
G01 X-0.44998 Y1.68691
G01 X-0.44744 Y1.68789
G01 X-0.44481 Y1.68859
G01 X-0.43724 Y1.69020
G01 X-0.43455 Y1.69062
G01 X-0.43184 Y1.69077
G01 X-0.42410 Y1.69077
G01 X-0.42138 Y1.69062
G01 X-0.41869 Y1.69020
G01 X-0.41113 Y1.68859
G01 X-0.40850 Y1.68789
G01 X-0.40596 Y1.68691
G01 X-0.39889 Y1.68376
G01 X-0.39647 Y1.68253
G01 X-0.39419 Y1.68105
G01 X-0.38793 Y1.67650
G01 X-0.38581 Y1.67479
G01 X-0.38389 Y1.67286
G01 X-0.37871 Y1.66711
G01 X-0.37700 Y1.66500
G01 X-0.37552 Y1.66272
G01 X-0.37165 Y1.65602
G01 X-0.37041 Y1.65359
G01 X-0.36944 Y1.65105
G01 X-0.36705 Y1.64370
G01 X-0.36634 Y1.64107
G01 X-0.36592 Y1.63838
G01 X-0.36511 Y1.63069
G01 X-0.36497 Y1.62797
G01 X-0.36511 Y1.62525
G01 X-0.36592 Y1.61756
G01 X-0.36634 Y1.61487
G01 X-0.36705 Y1.61224
G01 X-0.36944 Y1.60489
G01 X-0.37041 Y1.60234
G01 X-0.37165 Y1.59992
G01 X-0.37552 Y1.59322
G01 X-0.37700 Y1.59094
G01 X-0.37871 Y1.58882
G01 X-0.38389 Y1.58308
G01 X-0.38581 Y1.58115
G01 X-0.38793 Y1.57944
G01 X-0.39419 Y1.57489
G01 X-0.39647 Y1.57341
G01 X-0.39889 Y1.57217
G01 X-0.40596 Y1.56903
G01 X-0.40850 Y1.56805
G01 X-0.41113 Y1.56735
G01 X-0.41869 Y1.56574
G01 X-0.42138 Y1.56531
G01 X-0.42410 Y1.56517
G01 X-0.43184 Y1.56517
G01 X-0.43455 Y1.56531
G01 X-0.43724 Y1.56574
G01 X-0.44481 Y1.56735
G01 X-0.44744 Y1.56805
G01 X-0.44998 Y1.56903
G01 X-0.45704 Y1.57217
G01 X-0.45947 Y1.57341
G01 X-0.46175 Y1.57489
G01 X-0.46461 Y1.57697
G01 X-0.46442 Y1.57756
G01 X-0.46461 Y1.57697
G01 X-0.49133 Y1.57697
G01 X-0.49151 Y1.57756
G01 X-0.49133 Y1.57697
G01 X-0.49419 Y1.57489
G01 X-0.49647 Y1.57341
G01 X-0.49889 Y1.57217
G01 X-0.50596 Y1.56903
G01 X-0.50850 Y1.56805
G01 X-0.51113 Y1.56735
G01 X-0.51869 Y1.56574
G01 X-0.52138 Y1.56531
G01 X-0.52410 Y1.56517
G01 X-0.53183 Y1.56517
G01 X-0.53455 Y1.56531
G01 X-0.53724 Y1.56574
G01 X-0.54481 Y1.56735
G01 X-0.54744 Y1.56805
G01 X-0.54998 Y1.56903
