( pcb2gcode 2.1.0 )
( Software-independent Gcode )

G94 ( Inches per minute feed rate. )
G20 ( Units == INCHES. )

G90 ( Absolute coordinates. )
G00 S30000 ( RPM spindle speed. )
G01 F25.00000 ( Feedrate. )


G00 Z2.00000 (Retract to tool change height)
G04 P0.00000 (Wait for spindle to stop)
(MSG, Change tool bit to mill diameter 0.02700in)
G04 P0.00000 (Wait for spindle to get up to speed)
G04 P0 ( dwell for no time -- G64 should not smooth over this point )
G00 Z0.05000 ( retract )

G00 X-0.70427 Y2.25795 ( rapid move to begin. )
G01 F5.00000
( Mill infeed pass 1/1 )
G01 Z-0.00400
G04 P0 ( dwell for no time -- G64 should not smooth over this point )
G01 F25.00000
G01 X-0.70427 Y2.25795
G01 X-0.70997 Y2.25997
G01 X-0.71004 Y2.25856
G01 X-0.71084 Y2.25097
G01 X-0.71106 Y2.24957
G01 X-0.71143 Y2.24821
G01 X-0.71378 Y2.24095
G01 X-0.71429 Y2.23963
G01 X-0.71493 Y2.23837
G01 X-0.71875 Y2.23176
G01 X-0.71952 Y2.23058
G01 X-0.72041 Y2.22948
G01 X-0.72147 Y2.22830
G01 X-0.72147 Y1.85997
G01 X-0.72153 Y1.85873
G01 X-0.72195 Y1.85414
G01 X-0.72241 Y1.85169
G01 X-0.72367 Y1.84726
G01 X-0.72456 Y1.84494
G01 X-0.72661 Y1.84082
G01 X-0.72792 Y1.83870
G01 X-0.73069 Y1.83502
G01 X-0.73237 Y1.83318
G01 X-0.73577 Y1.83007
G01 X-0.73775 Y1.82857
G01 X-0.74166 Y1.82614
G01 X-0.74275 Y1.82553
G01 X-0.81423 Y1.78979
G01 X-0.81429 Y1.78963
G01 X-0.81493 Y1.78837
G01 X-0.81875 Y1.78176
G01 X-0.81952 Y1.78058
G01 X-0.82041 Y1.77948
G01 X-0.82551 Y1.77381
G01 X-0.82651 Y1.77281
G01 X-0.82761 Y1.77192
G01 X-0.83378 Y1.76744
G01 X-0.83497 Y1.76667
G01 X-0.83623 Y1.76603
G01 X-0.84320 Y1.76292
G01 X-0.84452 Y1.76242
G01 X-0.84588 Y1.76205
G01 X-0.85335 Y1.76046
G01 X-0.85474 Y1.76024
G01 X-0.85615 Y1.76017
G01 X-0.86378 Y1.76017
G01 X-0.86519 Y1.76024
G01 X-0.86659 Y1.76046
G01 X-0.87405 Y1.76205
G01 X-0.87542 Y1.76242
G01 X-0.87674 Y1.76292
G01 X-0.88371 Y1.76603
G01 X-0.88497 Y1.76667
G01 X-0.88615 Y1.76744
G01 X-0.89233 Y1.77192
G01 X-0.89342 Y1.77281
G01 X-0.89442 Y1.77381
G01 X-0.89953 Y1.77948
G01 X-0.90042 Y1.78058
G01 X-0.90119 Y1.78176
G01 X-0.90500 Y1.78837
G01 X-0.90565 Y1.78963
G01 X-0.90615 Y1.79095
G01 X-0.90851 Y1.79821
G01 X-0.90888 Y1.79957
G01 X-0.90910 Y1.80097
G01 X-0.90989 Y1.80856
G01 X-0.90997 Y1.80997
G01 X-0.90989 Y1.81138
G01 X-0.90910 Y1.81897
G01 X-0.90888 Y1.82036
G01 X-0.90851 Y1.82173
G01 X-0.90615 Y1.82899
G01 X-0.90565 Y1.83031
G01 X-0.90500 Y1.83156
G01 X-0.90119 Y1.83817
G01 X-0.90042 Y1.83936
G01 X-0.89953 Y1.84046
G01 X-0.89442 Y1.84613
G01 X-0.89342 Y1.84713
G01 X-0.89233 Y1.84802
G01 X-0.88615 Y1.85250
G01 X-0.88497 Y1.85327
G01 X-0.88371 Y1.85391
G01 X-0.87674 Y1.85702
G01 X-0.87542 Y1.85752
G01 X-0.87405 Y1.85789
G01 X-0.86659 Y1.85947
G01 X-0.86519 Y1.85970
G01 X-0.86378 Y1.85977
G01 X-0.85615 Y1.85977
G01 X-0.85474 Y1.85970
G01 X-0.85335 Y1.85947
G01 X-0.84893 Y1.85853
G01 X-0.79847 Y1.88376
G01 X-0.79847 Y2.22830
G01 X-0.79953 Y2.22948
G01 X-0.80042 Y2.23058
G01 X-0.80119 Y2.23176
G01 X-0.80500 Y2.23837
G01 X-0.80565 Y2.23963
G01 X-0.80615 Y2.24095
G01 X-0.80851 Y2.24821
G01 X-0.80888 Y2.24957
G01 X-0.80910 Y2.25097
G01 X-0.80989 Y2.25856
G01 X-0.80997 Y2.25997
G01 X-0.80989 Y2.26138
G01 X-0.80910 Y2.26897
G01 X-0.80888 Y2.27036
G01 X-0.80851 Y2.27173
G01 X-0.80615 Y2.27899
G01 X-0.80565 Y2.28031
G01 X-0.80500 Y2.28156
G01 X-0.80119 Y2.28817
G01 X-0.80042 Y2.28936
G01 X-0.79953 Y2.29046
G01 X-0.79442 Y2.29613
G01 X-0.79342 Y2.29713
G01 X-0.79233 Y2.29802
G01 X-0.78615 Y2.30250
G01 X-0.78497 Y2.30327
G01 X-0.78371 Y2.30391
G01 X-0.77674 Y2.30702
G01 X-0.77542 Y2.30752
G01 X-0.77405 Y2.30789
G01 X-0.76659 Y2.30947
G01 X-0.76519 Y2.30970
G01 X-0.76378 Y2.30977
G01 X-0.75615 Y2.30977
G01 X-0.75474 Y2.30970
G01 X-0.75335 Y2.30947
G01 X-0.74588 Y2.30789
G01 X-0.74452 Y2.30752
G01 X-0.74320 Y2.30702
G01 X-0.73623 Y2.30391
G01 X-0.73497 Y2.30327
G01 X-0.73378 Y2.30250
G01 X-0.72761 Y2.29802
G01 X-0.72651 Y2.29713
G01 X-0.72551 Y2.29613
G01 X-0.72041 Y2.29046
G01 X-0.71952 Y2.28936
G01 X-0.71875 Y2.28817
G01 X-0.71493 Y2.28156
G01 X-0.71429 Y2.28031
G01 X-0.71378 Y2.27899
G01 X-0.71143 Y2.27173
G01 X-0.71106 Y2.27036
G01 X-0.71084 Y2.26897
G01 X-0.71004 Y2.26138
G01 X-0.70997 Y2.25997
G04 P0 ( dwell for no time -- G64 should not smooth over this point )
G00 Z0.05000 ( retract )

G00 X-0.96238 Y2.27287 ( rapid move to begin. )
G01 F5.00000
( Mill infeed pass 1/1 )
G01 Z-0.00400
G04 P0 ( dwell for no time -- G64 should not smooth over this point )
G01 F25.00000
G01 X-0.96238 Y2.27287
G01 X-0.95755 Y2.27287
G01 X-0.94911 Y2.28067
G01 X-0.95755 Y2.27287
G04 P0 ( dwell for no time -- G64 should not smooth over this point )
G00 Z0.05000 ( retract )

G00 X-0.96238 Y2.27287 ( rapid move to begin. )
G01 F5.00000
( Mill infeed pass 1/1 )
G01 Z-0.00400
G04 P0 ( dwell for no time -- G64 should not smooth over this point )
G01 F25.00000
G01 X-0.96238 Y2.27287
G01 X-0.95997 Y2.27070
G01 X-0.95997 Y2.26665
G01 X-0.95997 Y2.25329
G01 X-0.95997 Y2.24562
G01 X-0.95997 Y2.23149
G01 X-0.95997 Y2.22347
G01 X-0.95997 Y2.21074
G01 X-0.95997 Y2.05919
G01 X-0.96236 Y2.04725
G01 X-0.96357 Y2.03962
G01 X-0.96513 Y2.02486
G01 X-0.96553 Y2.01723
G01 X-0.96553 Y2.00271
G01 X-0.96513 Y1.99508
G01 X-0.96357 Y1.98032
G01 X-0.96236 Y1.97269
G01 X-0.96172 Y1.96894
G01 X-0.97287 Y1.95090
G01 X-0.97287 Y1.95090
G01 X-0.99087 Y1.92177
G01 X-0.99319 Y1.91781
G01 X-0.99575 Y1.91321
G01 X-0.99717 Y1.91037
G01 X-0.99501 Y1.91201
G01 X-0.99110 Y1.91444
G01 X-0.98805 Y1.91614
G01 X-0.92327 Y1.94853
G01 X-0.92263 Y1.94783
G01 X-0.92327 Y1.94853
G01 X-0.92223 Y1.95032
G01 X-0.92008 Y1.95364
G01 X-0.91759 Y1.95672
G01 X-0.91466 Y1.95997
G01 X-0.91759 Y1.96322
G01 X-0.92008 Y1.96630
G01 X-0.92223 Y1.96961
G01 X-0.92605 Y1.97622
G01 X-0.92784 Y1.97975
G01 X-0.92926 Y1.98344
G01 X-0.93162 Y1.99070
G01 X-0.93264 Y1.99452
G01 X-0.93326 Y1.99843
G01 X-0.93406 Y2.00602
G01 X-0.93427 Y2.00997
G01 X-0.93406 Y2.01392
G01 X-0.93326 Y2.02151
G01 X-0.93264 Y2.02542
G01 X-0.93162 Y2.02924
G01 X-0.92926 Y2.03650
G01 X-0.92784 Y2.04019
G01 X-0.92605 Y2.04372
G01 X-0.92277 Y2.04940
G01 X-0.92200 Y2.04920
G01 X-0.92277 Y2.04940
G01 X-0.92277 Y2.22054
G01 X-0.92200 Y2.22074
G01 X-0.92277 Y2.22054
G01 X-0.92605 Y2.22622
G01 X-0.92784 Y2.22975
G01 X-0.92926 Y2.23344
G01 X-0.93162 Y2.24070
G01 X-0.93264 Y2.24452
G01 X-0.93326 Y2.24843
G01 X-0.93406 Y2.25602
G01 X-0.93427 Y2.25997
G01 X-0.93406 Y2.26392
G01 X-0.93326 Y2.27151
G01 X-0.93264 Y2.27542
G01 X-0.93162 Y2.27924
G01 X-0.92926 Y2.28650
G01 X-0.92784 Y2.29019
G01 X-0.92605 Y2.29371
G01 X-0.92405 Y2.29717
G01 X-0.90409 Y2.30905
G01 X-0.92405 Y2.29717
G01 X-0.99588 Y2.29717
G01 X-0.99588 Y2.29717
G01 X-0.99588 Y2.29717
G01 X-0.99189 Y2.29486
G01 X-0.98292 Y2.28902
G01 X-0.97529 Y2.28347
G01 X-0.96356 Y2.27393
G01 X-0.96238 Y2.27287
G01 X-0.96238 Y2.27287
G01 X-0.96171 Y2.26646
G01 X-0.96137 Y2.25997
G01 X-0.96171 Y2.25348
G01 X-0.96251 Y2.24589
G01 X-0.96352 Y2.23947
G01 X-0.96521 Y2.23319
G01 X-0.96756 Y2.22593
G01 X-0.96989 Y2.21986
G01 X-0.97284 Y2.21407
G01 X-0.97287 Y2.21403
G01 X-0.97340 Y2.21414
G01 X-0.97287 Y2.21403
G01 X-0.97287 Y1.95090
G01 X-0.97287 Y1.95090
G01 X-0.97287 Y1.95090
G01 X-0.96172 Y1.96894
G01 X-0.94731 Y1.96396
G01 X-0.94696 Y1.96385
G01 X-0.94709 Y1.96407
G01 X-0.95004 Y1.96986
G01 X-0.95237 Y1.97593
G01 X-0.95473 Y1.98319
G01 X-0.95641 Y1.98947
G01 X-0.95743 Y1.99589
G01 X-0.95823 Y2.00348
G01 X-0.95857 Y2.00997
G01 X-0.95823 Y2.01646
G01 X-0.95743 Y2.02405
G01 X-0.95641 Y2.03047
G01 X-0.95473 Y2.03675
G01 X-0.95237 Y2.04400
G01 X-0.95004 Y2.05007
G01 X-0.94709 Y2.05586
G01 X-0.94707 Y2.05591
G01 X-0.94654 Y2.05579
G01 X-0.94707 Y2.05591
G01 X-0.94707 Y2.21403
G01 X-0.94654 Y2.21414
G01 X-0.94707 Y2.21403
G01 X-0.94709 Y2.21407
G01 X-0.95004 Y2.21986
G01 X-0.95237 Y2.22593
G01 X-0.95473 Y2.23319
G01 X-0.95641 Y2.23947
G01 X-0.95743 Y2.24589
G01 X-0.95823 Y2.25348
G01 X-0.95857 Y2.25997
G01 X-0.95823 Y2.26646
G01 X-0.95755 Y2.27287
G04 P0 ( dwell for no time -- G64 should not smooth over this point )
G00 Z0.05000 ( retract )

G00 X-0.84795 Y1.73677 ( rapid move to begin. )
G01 F5.00000
( Mill infeed pass 1/1 )
G01 Z-0.00400
G04 P0 ( dwell for no time -- G64 should not smooth over this point )
G01 F25.00000
G01 X-0.84795 Y1.73677
G01 X-0.84403 Y1.73285
G01 X-0.84449 Y1.73202
G01 X-0.84403 Y1.73285
G01 X-0.84068 Y1.73213
G01 X-0.83685 Y1.73111
G01 X-0.83316 Y1.72969
G01 X-0.82609 Y1.72654
G01 X-0.82257 Y1.72475
G01 X-0.81925 Y1.72259
G01 X-0.81299 Y1.71805
G01 X-0.80992 Y1.71556
G01 X-0.80712 Y1.71276
G01 X-0.80194 Y1.70701
G01 X-0.79945 Y1.70394
G01 X-0.79730 Y1.70062
G01 X-0.79343 Y1.69392
G01 X-0.79163 Y1.69039
G01 X-0.79022 Y1.68670
G01 X-0.78783 Y1.67934
G01 X-0.78680 Y1.67552
G01 X-0.78618 Y1.67161
G01 X-0.78538 Y1.66392
G01 X-0.78517 Y1.65997
G01 X-0.78538 Y1.65602
G01 X-0.78618 Y1.64833
G01 X-0.78680 Y1.64442
G01 X-0.78783 Y1.64060
G01 X-0.79022 Y1.63324
G01 X-0.79163 Y1.62955
G01 X-0.79250 Y1.62784
G01 X-0.79267 Y1.62773
G01 X-0.79442 Y1.62659
G01 X-0.79441 Y1.62657
G01 X-0.79442 Y1.62659
G01 X-0.79267 Y1.62773
G01 X-0.79267 Y1.62773
G01 X-0.79267 Y1.62773
G01 X-0.75997 Y1.62773
G01 X-0.75675 Y1.62759
G01 X-0.75420 Y1.62737
G01 X-0.74785 Y1.62628
G01 X-0.74537 Y1.62563
G01 X-0.73930 Y1.62348
G01 X-0.73697 Y1.62242
G01 X-0.73136 Y1.61926
G01 X-0.72924 Y1.61782
G01 X-0.72666 Y1.61590
G01 X-0.52666 Y1.45326
G01 X-0.52415 Y1.45103
G01 X-0.52224 Y1.44917
G01 X-0.51787 Y1.44409
G01 X-0.51632 Y1.44193
G01 X-0.51291 Y1.43615
G01 X-0.51177 Y1.43375
G01 X-0.50944 Y1.42746
G01 X-0.50874 Y1.42490
G01 X-0.50755 Y1.41830
G01 X-0.50732 Y1.41565
G01 X-0.50717 Y1.41230
G01 X-0.50717 Y1.41147
G01 X-0.50844 Y1.41095
G01 X-0.50717 Y1.41147
G01 X-0.50289 Y1.40672
G01 X-0.50040 Y1.40364
G01 X-0.49825 Y1.40032
G01 X-0.49443 Y1.39371
G01 X-0.49263 Y1.39019
G01 X-0.49122 Y1.38650
G01 X-0.48886 Y1.37924
G01 X-0.48784 Y1.37542
G01 X-0.48722 Y1.37151
G01 X-0.48642 Y1.36392
G01 X-0.48621 Y1.35997
G01 X-0.48642 Y1.35602
G01 X-0.48722 Y1.34843
G01 X-0.48784 Y1.34452
G01 X-0.48886 Y1.34070
G01 X-0.49122 Y1.33344
G01 X-0.49263 Y1.32975
G01 X-0.49443 Y1.32622
G01 X-0.49717 Y1.32148
G01 X-0.49793 Y1.32168
G01 X-0.49717 Y1.32148
G01 X-0.49717 Y1.00997
G01 X-0.49735 Y1.00626
G01 X-0.49783 Y1.00139
G01 X-0.49837 Y0.99772
G01 X-0.49928 Y0.99412
G01 X-0.50070 Y0.98943
G01 X-0.50353 Y0.98258
G01 X-0.50584 Y0.97826
G01 X-0.50775 Y0.97508
G01 X-0.50996 Y0.97210
G01 X-0.51307 Y0.96831
G01 X-0.51556 Y0.96556
G01 X-1.06556 Y0.41556
G01 X-1.06831 Y0.41307
G01 X-1.07210 Y0.40996
G01 X-1.07508 Y0.40775
G01 X-1.07826 Y0.40585
G01 X-1.08258 Y0.40354
G01 X-1.08594 Y0.40195
G01 X-1.08943 Y0.40070
G01 X-1.09412 Y0.39928
G01 X-1.10139 Y0.39783
G01 X-1.10626 Y0.39735
G01 X-1.10997 Y0.39717
G01 X-1.42044 Y0.39717
G01 X-1.42059 Y0.39782
G01 X-1.42044 Y0.39717
G01 X-1.42282 Y0.39562
G01 X-1.42634 Y0.39383
G01 X-1.43331 Y0.39072
G01 X-1.43701 Y0.38931
G01 X-1.44083 Y0.38828
G01 X-1.44829 Y0.38669
G01 X-1.45220 Y0.38608
G01 X-1.45615 Y0.38587
G01 X-1.46378 Y0.38587
G01 X-1.46773 Y0.38608
G01 X-1.47164 Y0.38669
G01 X-1.47911 Y0.38828
G01 X-1.48293 Y0.38931
G01 X-1.48662 Y0.39072
G01 X-1.49359 Y0.39383
G01 X-1.49712 Y0.39562
G01 X-1.50044 Y0.39778
G01 X-1.50661 Y0.40226
G01 X-1.50968 Y0.40475
G01 X-1.50997 Y0.40504
G01 X-1.50997 Y0.40981
G01 X-1.50997 Y0.42008
G01 X-1.50997 Y0.42670
G01 X-1.50997 Y0.43551
G01 X-1.50997 Y0.43971
G01 X-1.50997 Y0.44774
G01 X-1.50997 Y0.45088
G01 X-1.50997 Y0.45855
G01 X-1.50997 Y0.45997
G01 X-1.51004 Y0.45856
G01 X-1.51084 Y0.45097
G01 X-1.51106 Y0.44957
G01 X-1.51143 Y0.44821
G01 X-1.51378 Y0.44095
G01 X-1.51429 Y0.43963
G01 X-1.51493 Y0.43837
G01 X-1.51875 Y0.43176
G01 X-1.51952 Y0.43058
G01 X-1.52041 Y0.42948
G01 X-1.52551 Y0.42381
G01 X-1.52651 Y0.42281
G01 X-1.52761 Y0.42192
G01 X-1.53378 Y0.41744
G01 X-1.53497 Y0.41667
G01 X-1.53623 Y0.41603
G01 X-1.54320 Y0.41292
G01 X-1.54452 Y0.41242
G01 X-1.54588 Y0.41205
G01 X-1.55335 Y0.41046
G01 X-1.55474 Y0.41024
G01 X-1.55615 Y0.41017
G01 X-1.56378 Y0.41017
G01 X-1.56519 Y0.41024
G01 X-1.56659 Y0.41046
G01 X-1.57405 Y0.41205
G01 X-1.57542 Y0.41242
G01 X-1.57674 Y0.41292
G01 X-1.58371 Y0.41603
G01 X-1.58497 Y0.41667
G01 X-1.58615 Y0.41744
G01 X-1.59233 Y0.42192
G01 X-1.59342 Y0.42281
G01 X-1.59442 Y0.42381
G01 X-1.59953 Y0.42948
G01 X-1.60042 Y0.43058
G01 X-1.60119 Y0.43176
G01 X-1.60500 Y0.43837
G01 X-1.60565 Y0.43963
G01 X-1.60615 Y0.44095
G01 X-1.60851 Y0.44821
G01 X-1.60888 Y0.44957
G01 X-1.60910 Y0.45097
G01 X-1.60989 Y0.45856
G01 X-1.60997 Y0.45996
G01 X-1.61004 Y0.45856
G01 X-1.61084 Y0.45097
G01 X-1.61106 Y0.44957
G01 X-1.61143 Y0.44821
G01 X-1.61378 Y0.44095
G01 X-1.61429 Y0.43963
G01 X-1.61493 Y0.43837
G01 X-1.61875 Y0.43176
G01 X-1.61952 Y0.43058
G01 X-1.62041 Y0.42948
G01 X-1.62551 Y0.42381
G01 X-1.62651 Y0.42281
G01 X-1.62761 Y0.42192
G01 X-1.63378 Y0.41744
G01 X-1.63497 Y0.41667
G01 X-1.63623 Y0.41603
G01 X-1.64320 Y0.41292
G01 X-1.64452 Y0.41242
G01 X-1.64588 Y0.41205
G01 X-1.65335 Y0.41046
G01 X-1.65474 Y0.41024
G01 X-1.65615 Y0.41017
G01 X-1.66378 Y0.41017
G01 X-1.66519 Y0.41024
G01 X-1.66659 Y0.41046
G01 X-1.67405 Y0.41205
G01 X-1.67542 Y0.41242
G01 X-1.67674 Y0.41292
G01 X-1.68371 Y0.41603
G01 X-1.68497 Y0.41667
G01 X-1.68615 Y0.41744
G01 X-1.69233 Y0.42192
G01 X-1.69342 Y0.42281
G01 X-1.69442 Y0.42381
G01 X-1.69953 Y0.42948
G01 X-1.70042 Y0.43058
G01 X-1.70119 Y0.43176
G01 X-1.70500 Y0.43837
G01 X-1.70565 Y0.43963
G01 X-1.70615 Y0.44095
G01 X-1.70851 Y0.44821
G01 X-1.70888 Y0.44957
G01 X-1.70910 Y0.45097
G01 X-1.70989 Y0.45856
G01 X-1.70997 Y0.45997
G01 X-1.71004 Y0.45856
G01 X-1.71084 Y0.45097
G01 X-1.71106 Y0.44957
G01 X-1.71143 Y0.44821
G01 X-1.71378 Y0.44095
G01 X-1.71429 Y0.43963
G01 X-1.71493 Y0.43837
G01 X-1.71875 Y0.43176
G01 X-1.71952 Y0.43058
G01 X-1.72041 Y0.42948
G01 X-1.72551 Y0.42381
G01 X-1.72651 Y0.42281
G01 X-1.72761 Y0.42192
G01 X-1.73378 Y0.41744
G01 X-1.73497 Y0.41667
G01 X-1.73623 Y0.41603
G01 X-1.74320 Y0.41292
G01 X-1.74452 Y0.41242
G01 X-1.74588 Y0.41205
G01 X-1.75335 Y0.41046
G01 X-1.75474 Y0.41024
G01 X-1.75615 Y0.41017
G01 X-1.76378 Y0.41017
G01 X-1.76519 Y0.41024
G01 X-1.76659 Y0.41046
G01 X-1.77405 Y0.41205
G01 X-1.77542 Y0.41242
G01 X-1.77674 Y0.41292
G01 X-1.78371 Y0.41603
G01 X-1.78497 Y0.41667
G01 X-1.78615 Y0.41744
G01 X-1.79233 Y0.42192
G01 X-1.79342 Y0.42281
G01 X-1.79442 Y0.42381
G01 X-1.79953 Y0.42948
G01 X-1.80042 Y0.43058
G01 X-1.80119 Y0.43176
G01 X-1.80500 Y0.43837
G01 X-1.80565 Y0.43963
G01 X-1.80615 Y0.44095
G01 X-1.80851 Y0.44821
G01 X-1.80888 Y0.44957
G01 X-1.80910 Y0.45097
G01 X-1.80989 Y0.45856
G01 X-1.80997 Y0.45997
G01 X-1.81004 Y0.45856
G01 X-1.81084 Y0.45097
G01 X-1.81106 Y0.44957
G01 X-1.81143 Y0.44821
G01 X-1.81378 Y0.44095
G01 X-1.81429 Y0.43963
G01 X-1.81493 Y0.43837
G01 X-1.81875 Y0.43176
G01 X-1.81952 Y0.43058
G01 X-1.82041 Y0.42948
G01 X-1.82551 Y0.42381
G01 X-1.82651 Y0.42281
G01 X-1.82761 Y0.42192
G01 X-1.83378 Y0.41744
G01 X-1.83497 Y0.41667
G01 X-1.83623 Y0.41603
G01 X-1.84320 Y0.41292
G01 X-1.84452 Y0.41242
G01 X-1.84588 Y0.41205
G01 X-1.85335 Y0.41046
G01 X-1.85474 Y0.41024
G01 X-1.85615 Y0.41017
G01 X-1.86378 Y0.41017
G01 X-1.86519 Y0.41024
G01 X-1.86659 Y0.41046
G01 X-1.87405 Y0.41205
G01 X-1.87542 Y0.41242
G01 X-1.87674 Y0.41292
G01 X-1.88371 Y0.41603
G01 X-1.88497 Y0.41667
G01 X-1.88615 Y0.41744
G01 X-1.89233 Y0.42192
G01 X-1.89342 Y0.42281
G01 X-1.89442 Y0.42381
G01 X-1.89953 Y0.42948
G01 X-1.90042 Y0.43058
G01 X-1.90119 Y0.43176
G01 X-1.90500 Y0.43837
G01 X-1.90565 Y0.43963
G01 X-1.90615 Y0.44095
G01 X-1.90851 Y0.44821
G01 X-1.90888 Y0.44957
G01 X-1.90910 Y0.45097
G01 X-1.90989 Y0.45856
G01 X-1.90997 Y0.45997
G01 X-1.91004 Y0.45856
G01 X-1.91084 Y0.45097
G01 X-1.91106 Y0.44957
G01 X-1.91143 Y0.44821
G01 X-1.91378 Y0.44095
G01 X-1.91429 Y0.43963
G01 X-1.91493 Y0.43837
G01 X-1.91875 Y0.43176
G01 X-1.91952 Y0.43058
G01 X-1.92041 Y0.42948
G01 X-1.92551 Y0.42381
G01 X-1.92651 Y0.42281
G01 X-1.92761 Y0.42192
G01 X-1.93378 Y0.41744
G01 X-1.93497 Y0.41667
G01 X-1.93623 Y0.41603
G01 X-1.94320 Y0.41292
G01 X-1.94452 Y0.41242
G01 X-1.94588 Y0.41205
G01 X-1.95335 Y0.41046
G01 X-1.95474 Y0.41024
G01 X-1.95615 Y0.41017
G01 X-1.96378 Y0.41017
G01 X-1.96519 Y0.41024
G01 X-1.96659 Y0.41046
G01 X-1.97405 Y0.41205
G01 X-1.97542 Y0.41242
G01 X-1.97674 Y0.41292
G01 X-1.98371 Y0.41603
G01 X-1.98497 Y0.41667
G01 X-1.98615 Y0.41744
G01 X-1.99233 Y0.42192
G01 X-1.99342 Y0.42281
G01 X-1.99442 Y0.42381
G01 X-1.99953 Y0.42948
G01 X-2.00042 Y0.43058
G01 X-2.00119 Y0.43176
G01 X-2.00500 Y0.43837
G01 X-2.00565 Y0.43963
G01 X-2.00615 Y0.44095
G01 X-2.00851 Y0.44821
G01 X-2.00888 Y0.44957
G01 X-2.00910 Y0.45097
G01 X-2.00989 Y0.45856
G01 X-2.00997 Y0.45997
G01 X-2.00989 Y0.46138
G01 X-2.00910 Y0.46897
G01 X-2.00888 Y0.47036
G01 X-2.00851 Y0.47173
G01 X-2.00615 Y0.47899
G01 X-2.00565 Y0.48031
G01 X-2.00500 Y0.48156
G01 X-2.00119 Y0.48817
G01 X-2.00042 Y0.48936
G01 X-1.99953 Y0.49046
G01 X-1.99442 Y0.49613
G01 X-1.99342 Y0.49713
G01 X-1.99233 Y0.49802
G01 X-1.98615 Y0.50250
G01 X-1.98497 Y0.50327
G01 X-1.98371 Y0.50391
G01 X-1.97674 Y0.50702
G01 X-1.97542 Y0.50752
G01 X-1.97405 Y0.50789
G01 X-1.96659 Y0.50947
G01 X-1.96519 Y0.50970
G01 X-1.96378 Y0.50977
G01 X-1.95615 Y0.50977
G01 X-1.95474 Y0.50970
G01 X-1.95335 Y0.50947
G01 X-1.94588 Y0.50789
G01 X-1.94452 Y0.50752
G01 X-1.94320 Y0.50702
G01 X-1.93623 Y0.50391
G01 X-1.93497 Y0.50327
G01 X-1.93378 Y0.50250
G01 X-1.92761 Y0.49802
G01 X-1.92651 Y0.49713
G01 X-1.92551 Y0.49613
G01 X-1.92041 Y0.49046
G01 X-1.91952 Y0.48936
G01 X-1.91875 Y0.48817
G01 X-1.91493 Y0.48156
G01 X-1.91429 Y0.48031
G01 X-1.91378 Y0.47899
G01 X-1.91143 Y0.47173
G01 X-1.91106 Y0.47036
G01 X-1.91084 Y0.46897
G01 X-1.91004 Y0.46138
G01 X-1.90997 Y0.45997
G01 X-1.90989 Y0.46138
G01 X-1.90910 Y0.46897
G01 X-1.90888 Y0.47036
G01 X-1.90851 Y0.47173
G01 X-1.90615 Y0.47899
G01 X-1.90565 Y0.48031
G01 X-1.90500 Y0.48156
G01 X-1.90119 Y0.48817
G01 X-1.90042 Y0.48936
G01 X-1.89953 Y0.49046
G01 X-1.89442 Y0.49613
G01 X-1.89342 Y0.49713
G01 X-1.89233 Y0.49802
G01 X-1.88615 Y0.50250
G01 X-1.88497 Y0.50327
G01 X-1.88371 Y0.50391
G01 X-1.87674 Y0.50702
G01 X-1.87542 Y0.50752
G01 X-1.87405 Y0.50789
G01 X-1.86659 Y0.50947
G01 X-1.86519 Y0.50970
G01 X-1.86378 Y0.50977
G01 X-1.85615 Y0.50977
G01 X-1.85474 Y0.50970
G01 X-1.85335 Y0.50947
G01 X-1.84588 Y0.50789
G01 X-1.84452 Y0.50752
G01 X-1.84320 Y0.50702
G01 X-1.83623 Y0.50391
G01 X-1.83497 Y0.50327
G01 X-1.83378 Y0.50250
G01 X-1.82761 Y0.49802
G01 X-1.82651 Y0.49713
G01 X-1.82551 Y0.49613
G01 X-1.82041 Y0.49046
G01 X-1.81952 Y0.48936
G01 X-1.81875 Y0.48817
G01 X-1.81493 Y0.48156
G01 X-1.81429 Y0.48031
G01 X-1.81378 Y0.47899
G01 X-1.81143 Y0.47173
G01 X-1.81106 Y0.47036
G01 X-1.81084 Y0.46897
G01 X-1.81004 Y0.46138
G01 X-1.80997 Y0.45997
G01 X-1.80989 Y0.46138
G01 X-1.80910 Y0.46897
G01 X-1.80888 Y0.47036
G01 X-1.80851 Y0.47173
G01 X-1.80615 Y0.47899
G01 X-1.80565 Y0.48031
G01 X-1.80500 Y0.48156
G01 X-1.80119 Y0.48817
G01 X-1.80042 Y0.48936
G01 X-1.79953 Y0.49046
G01 X-1.79442 Y0.49613
G01 X-1.79342 Y0.49713
G01 X-1.79233 Y0.49802
G01 X-1.78615 Y0.50250
G01 X-1.78497 Y0.50327
G01 X-1.78371 Y0.50391
G01 X-1.77674 Y0.50702
G01 X-1.77542 Y0.50752
G01 X-1.77405 Y0.50789
G01 X-1.76659 Y0.50947
G01 X-1.76519 Y0.50970
G01 X-1.76378 Y0.50977
G01 X-1.75615 Y0.50977
G01 X-1.75474 Y0.50970
G01 X-1.75335 Y0.50947
G01 X-1.74588 Y0.50789
G01 X-1.74452 Y0.50752
G01 X-1.74320 Y0.50702
G01 X-1.73623 Y0.50391
G01 X-1.73497 Y0.50327
G01 X-1.73378 Y0.50250
G01 X-1.72761 Y0.49802
G01 X-1.72651 Y0.49713
G01 X-1.72551 Y0.49613
G01 X-1.72041 Y0.49046
G01 X-1.71952 Y0.48936
G01 X-1.71875 Y0.48817
G01 X-1.71493 Y0.48156
G01 X-1.71429 Y0.48031
G01 X-1.71378 Y0.47899
G01 X-1.71143 Y0.47173
G01 X-1.71106 Y0.47036
G01 X-1.71084 Y0.46897
G01 X-1.71004 Y0.46138
G01 X-1.70997 Y0.45997
G01 X-1.70989 Y0.46138
G01 X-1.70910 Y0.46897
G01 X-1.70888 Y0.47036
G01 X-1.70851 Y0.47173
G01 X-1.70615 Y0.47899
G01 X-1.70565 Y0.48031
G01 X-1.70500 Y0.48156
G01 X-1.70119 Y0.48817
G01 X-1.70042 Y0.48936
G01 X-1.69953 Y0.49046
G01 X-1.69442 Y0.49613
G01 X-1.69342 Y0.49713
G01 X-1.69233 Y0.49802
G01 X-1.68615 Y0.50250
G01 X-1.68497 Y0.50327
G01 X-1.68371 Y0.50391
G01 X-1.67674 Y0.50702
G01 X-1.67542 Y0.50752
G01 X-1.67405 Y0.50789
G01 X-1.66659 Y0.50947
G01 X-1.66519 Y0.50970
G01 X-1.66378 Y0.50977
G01 X-1.65615 Y0.50977
G01 X-1.65474 Y0.50970
G01 X-1.65335 Y0.50947
G01 X-1.64588 Y0.50789
G01 X-1.64452 Y0.50752
G01 X-1.64320 Y0.50702
G01 X-1.63623 Y0.50391
G01 X-1.63497 Y0.50327
G01 X-1.63378 Y0.50250
G01 X-1.62761 Y0.49802
G01 X-1.62651 Y0.49713
G01 X-1.62551 Y0.49613
G01 X-1.62041 Y0.49046
G01 X-1.61952 Y0.48936
G01 X-1.61875 Y0.48817
G01 X-1.61493 Y0.48156
G01 X-1.61429 Y0.48031
G01 X-1.61378 Y0.47899
G01 X-1.61143 Y0.47173
G01 X-1.61106 Y0.47036
G01 X-1.61084 Y0.46897
G01 X-1.61004 Y0.46138
G01 X-1.60997 Y0.45998
G01 X-1.60989 Y0.46138
G01 X-1.60910 Y0.46897
G01 X-1.60888 Y0.47036
G01 X-1.60851 Y0.47173
G01 X-1.60615 Y0.47899
G01 X-1.60565 Y0.48031
G01 X-1.60500 Y0.48156
G01 X-1.60119 Y0.48817
G01 X-1.60042 Y0.48936
G01 X-1.59953 Y0.49046
G01 X-1.59442 Y0.49613
G01 X-1.59342 Y0.49713
G01 X-1.59233 Y0.49802
G01 X-1.58615 Y0.50250
G01 X-1.58497 Y0.50327
G01 X-1.58371 Y0.50391
G01 X-1.57674 Y0.50702
G01 X-1.57542 Y0.50752
G01 X-1.57405 Y0.50789
G01 X-1.56659 Y0.50947
G01 X-1.56519 Y0.50970
G01 X-1.56378 Y0.50977
G01 X-1.55615 Y0.50977
G01 X-1.55474 Y0.50970
G01 X-1.55335 Y0.50947
G01 X-1.54588 Y0.50789
G01 X-1.54452 Y0.50752
G01 X-1.54320 Y0.50702
G01 X-1.53623 Y0.50391
G01 X-1.53497 Y0.50327
G01 X-1.53378 Y0.50250
G01 X-1.52761 Y0.49802
G01 X-1.52651 Y0.49713
G01 X-1.52551 Y0.49613
G01 X-1.52041 Y0.49046
G01 X-1.51952 Y0.48936
G01 X-1.51875 Y0.48817
G01 X-1.51493 Y0.48156
G01 X-1.51429 Y0.48031
G01 X-1.51378 Y0.47899
G01 X-1.51143 Y0.47173
G01 X-1.51106 Y0.47036
G01 X-1.51084 Y0.46897
G01 X-1.51004 Y0.46138
G01 X-1.50997 Y0.45997
G01 X-1.50997 Y0.46139
G01 X-1.50997 Y0.46906
G01 X-1.50997 Y0.47220
G01 X-1.50997 Y0.48023
G01 X-1.50997 Y0.48443
G01 X-1.50997 Y0.49324
G01 X-1.50997 Y0.49986
G01 X-1.50997 Y0.50439
G01 X-1.50570 Y0.50629
G01 X-1.49995 Y0.50850
G01 X-1.49996 Y0.50853
G01 X-1.49995 Y0.50850
G01 X-1.49232 Y0.51098
G01 X-1.48744 Y0.51229
G01 X-1.48745 Y0.51233
G01 X-1.48744 Y0.51229
G01 X-1.47981 Y0.51392
G01 X-1.47548 Y0.51460
G01 X-1.47549 Y0.51464
G01 X-1.47548 Y0.51460
G01 X-1.46785 Y0.51541
G01 X-1.46378 Y0.51562
G01 X-1.46378 Y0.51564
G01 X-1.46378 Y0.51562
G01 X-1.45615 Y0.51562
G01 X-1.45615 Y0.51564
G01 X-1.45615 Y0.51562
G01 X-1.45208 Y0.51541
G01 X-1.44445 Y0.51460
G01 X-1.44445 Y0.51464
G01 X-1.44445 Y0.51460
G01 X-1.44012 Y0.51392
G01 X-1.43249 Y0.51229
G01 X-1.43249 Y0.51232
G01 X-1.43249 Y0.51229
G01 X-1.42762 Y0.51098
G01 X-1.42450 Y0.50997
G01 X-1.42453 Y0.50973
G01 X-1.42450 Y0.50997
G01 X-1.15997 Y0.50997
G01 X-1.15997 Y0.50996
G01 X-1.15997 Y0.50997
G01 X-1.15751 Y0.51003
G01 X-1.15261 Y0.51027
G01 X-1.14760 Y0.51077
G01 X-1.14759 Y0.51071
G01 X-1.14760 Y0.51077
G01 X-1.14270 Y0.51149
G01 X-1.13740 Y0.51255
G01 X-1.13250 Y0.51378
G01 X-1.13228 Y0.51383
G01 X-1.13190 Y0.51306
G01 X-1.13228 Y0.51383
G01 X-1.12810 Y0.51728
G01 X-1.12446 Y0.52057
G01 X-1.12247 Y0.52247
G01 X-1.12246 Y0.52246
G01 X-1.12247 Y0.52247
G01 X-0.62247 Y1.02247
G01 X-0.62246 Y1.02246
G01 X-0.62247 Y1.02247
G01 X-0.62094 Y1.02406
G01 X-0.61828 Y1.02694
G01 X-0.61826 Y1.02692
G01 X-0.61828 Y1.02694
G01 X-0.61537 Y1.03034
G01 X-0.61384 Y1.03228
G01 X-0.61310 Y1.03191
G01 X-0.61384 Y1.03228
G01 X-0.61336 Y1.03203
G01 X-0.61384 Y1.03228
G01 X-0.61343 Y1.03375
G01 X-0.61341 Y1.03375
G01 X-0.61343 Y1.03375
G01 X-0.61237 Y1.03813
G01 X-0.61159 Y1.04206
G01 X-0.61094 Y1.04618
G01 X-0.61088 Y1.04617
G01 X-0.61094 Y1.04618
G01 X-0.61047 Y1.05010
G01 X-0.61016 Y1.05409
G01 X-0.61000 Y1.05801
G01 X-0.60997 Y1.05997
G01 X-0.60995 Y1.05997
G01 X-0.60997 Y1.05997
G01 X-0.60997 Y1.32342
G01 X-0.61024 Y1.32425
G01 X-0.61024 Y1.32686
G01 X-0.61024 Y1.33567
G01 X-0.61024 Y1.33980
G01 X-0.61024 Y1.34782
G01 X-0.61024 Y1.35091
G01 X-0.61024 Y1.35666
G01 X-0.61024 Y1.35668
G01 X-0.61024 Y1.35858
G01 X-0.61024 Y1.36136
G01 X-0.61024 Y1.36325
G01 X-0.61024 Y1.36327
G01 X-0.61024 Y1.36903
G01 X-0.61024 Y1.37212
G01 X-0.61024 Y1.38014
G01 X-0.61024 Y1.38427
G01 X-0.61024 Y1.39308
G01 X-0.61024 Y1.39918
G01 X-0.60817 Y1.40009
G01 X-0.61024 Y1.39918
G01 X-0.60828 Y1.40002
G01 X-0.61024 Y1.39918
G01 X-0.61047 Y1.39940
G01 X-0.61602 Y1.40468
G01 X-0.61600 Y1.40470
G01 X-0.61602 Y1.40468
G01 X-0.61601 Y1.40469
G01 X-0.61602 Y1.40468
G01 X-0.62018 Y1.40824
G01 X-0.62016 Y1.40827
G01 X-0.62018 Y1.40824
G01 X-0.62623 Y1.41289
G01 X-0.62621 Y1.41292
G01 X-0.62623 Y1.41289
G01 X-0.63082 Y1.41605
G01 X-0.63081 Y1.41607
G01 X-0.63079 Y1.41609
G01 X-0.63081 Y1.41607
G01 X-0.63082 Y1.41605
G01 X-0.63738 Y1.42008
G01 X-0.63736 Y1.42011
G01 X-0.63738 Y1.42008
G01 X-0.64268 Y1.42296
G01 X-0.64266 Y1.42299
G01 X-0.64268 Y1.42296
G01 X-0.64976 Y1.42635
G01 X-0.64974 Y1.42638
G01 X-0.64976 Y1.42635
G01 X-0.65615 Y1.42900
G01 X-0.65613 Y1.42904
G01 X-0.65615 Y1.42900
G01 X-0.65614 Y1.42903
G01 X-0.65615 Y1.42900
G01 X-0.66378 Y1.43171
G01 X-0.66377 Y1.43174
G01 X-0.66378 Y1.43171
G01 X-0.66967 Y1.43345
G01 X-0.66990 Y1.43352
G01 X-0.67182 Y1.43409
G01 X-0.67181 Y1.43412
G01 X-0.67182 Y1.43409
G01 X-0.68005 Y1.43607
G01 X-0.68004 Y1.43609
G01 X-0.68005 Y1.43607
G01 X-0.69054 Y1.43801
G01 X-0.69054 Y1.43805
G01 X-0.69054 Y1.43801
G01 X-0.69942 Y1.43919
G01 X-0.71360 Y1.44029
G01 X-0.71360 Y1.44031
G01 X-0.71360 Y1.44029
G01 X-0.71670 Y1.44038
G01 X-0.72322 Y1.44055
G01 X-0.72323 Y1.44057
G01 X-0.72322 Y1.44055
G01 X-0.74315 Y1.44001
G01 X-0.75150 Y1.43936
G01 X-0.76262 Y1.46272
G01 X-0.76786 Y1.47280
G01 X-0.76783 Y1.47281
G01 X-0.76786 Y1.47280
G01 X-0.77367 Y1.48217
G01 X-0.77366 Y1.48218
G01 X-0.77367 Y1.48217
G01 X-0.78006 Y1.49084
G01 X-0.78004 Y1.49085
G01 X-0.78006 Y1.49084
G01 X-0.78322 Y1.49446
G01 X-0.78322 Y1.49446
G01 X-0.78326 Y1.49451
G01 X-0.78326 Y1.49451
G01 X-0.77897 Y1.48649
G01 X-0.77544 Y1.47484
G01 X-0.77425 Y1.46272
G01 X-0.77425 Y1.42729
G01 X-0.77544 Y1.41518
G01 X-0.77620 Y1.41267
G01 X-0.77824 Y1.41246
G01 X-0.77620 Y1.41267
G01 X-0.77239 Y1.40607
G01 X-0.76944 Y1.40028
G01 X-0.76711 Y1.39421
G01 X-0.76472 Y1.38685
G01 X-0.76303 Y1.38057
G01 X-0.76202 Y1.37415
G01 X-0.76121 Y1.36646
G01 X-0.76087 Y1.35997
G01 X-0.76121 Y1.35348
G01 X-0.76202 Y1.34579
G01 X-0.76303 Y1.33936
G01 X-0.76472 Y1.33309
G01 X-0.76711 Y1.32573
G01 X-0.76944 Y1.31966
G01 X-0.77239 Y1.31387
G01 X-0.77287 Y1.31304
G01 X-0.77342 Y1.31316
G01 X-0.77287 Y1.31304
G01 X-0.77287 Y1.07025
G01 X-0.79717 Y1.01158
G01 X-0.77287 Y1.07025
G01 X-0.75997 Y1.10139
G01 X-0.75949 Y1.10130
G01 X-0.75997 Y1.10139
G01 X-0.75997 Y1.30967
G01 X-0.75969 Y1.31081
G01 X-0.75971 Y1.32333
G01 X-0.75971 Y1.32355
G01 X-0.75971 Y1.33146
G01 X-0.75971 Y1.33157
G01 X-0.75972 Y1.34555
G01 X-0.75972 Y1.34565
G01 X-0.75972 Y1.35332
G01 X-0.75972 Y1.36662
G01 X-0.75972 Y1.37429
G01 X-0.75972 Y1.37439
G01 X-0.75971 Y1.38837
G01 X-0.75971 Y1.38848
G01 X-0.75971 Y1.39639
G01 X-0.75971 Y1.39661
G01 X-0.75968 Y1.41313
G01 X-0.75968 Y1.41341
G01 X-0.75968 Y1.41511
G01 X-0.76000 Y1.41517
G01 X-0.75968 Y1.41511
G01 X-0.75777 Y1.42084
G01 X-0.75576 Y1.42729
G01 X-0.75210 Y1.43780
G01 X-0.75150 Y1.43936
G01 X-0.74315 Y1.44001
G01 X-0.72322 Y1.44055
G01 X-0.71670 Y1.44038
G01 X-0.71670 Y1.44038
G01 X-0.71360 Y1.44029
G01 X-0.71670 Y1.44038
G01 X-0.78322 Y1.49446
G01 X-0.78322 Y1.49446
G01 X-0.78326 Y1.49451
G01 X-0.78326 Y1.49451
G01 X-0.78701 Y1.49881
G01 X-0.78664 Y1.49933
G01 X-0.78701 Y1.49881
G01 X-0.80355 Y1.50580
G01 X-0.80353 Y1.50586
G01 X-0.80355 Y1.50580
G01 X-0.82010 Y1.50997
G01 X-0.82007 Y1.51015
G01 X-0.82010 Y1.50997
G01 X-0.83635 Y1.50997
G01 X-0.88359 Y1.50997
G01 X-0.89984 Y1.50997
G01 X-0.89985 Y1.51011
G01 X-0.89984 Y1.50997
G01 X-0.90996 Y1.50775
G01 X-0.90997 Y1.50778
G01 X-0.90996 Y1.50775
G01 X-0.92008 Y1.50448
G01 X-0.92009 Y1.50450
G01 X-0.92009 Y1.50452
G01 X-0.92009 Y1.50450
G01 X-0.92008 Y1.50448
G01 X-0.93020 Y1.50015
G01 X-0.93021 Y1.50017
G01 X-0.93020 Y1.50015
G01 X-0.93457 Y1.49783
G01 X-1.08536 Y1.49783
G01 X-1.08509 Y1.49768
G01 X-1.08471 Y1.49723
G01 X-1.07897 Y1.48649
G01 X-1.07544 Y1.47484
G01 X-1.07425 Y1.46272
G01 X-1.07425 Y1.42729
G01 X-1.07544 Y1.41518
G01 X-1.07620 Y1.41267
G01 X-1.07824 Y1.41246
G01 X-1.07620 Y1.41267
G01 X-1.07239 Y1.40607
G01 X-1.06944 Y1.40028
G01 X-1.06711 Y1.39421
G01 X-1.06472 Y1.38685
G01 X-1.06303 Y1.38057
G01 X-1.06202 Y1.37415
G01 X-1.06121 Y1.36646
G01 X-1.06087 Y1.35997
G01 X-1.06121 Y1.35348
G01 X-1.06202 Y1.34579
G01 X-1.06303 Y1.33936
G01 X-1.06472 Y1.33309
G01 X-1.06711 Y1.32573
G01 X-1.06944 Y1.31966
G01 X-1.07239 Y1.31387
G01 X-1.07287 Y1.31304
G01 X-1.07342 Y1.31316
G01 X-1.07287 Y1.31304
G01 X-1.07287 Y0.92025
G01 X-1.09717 Y0.86158
G01 X-1.07287 Y0.92025
G01 X-1.07287 Y0.92025
G01 X-0.94707 Y1.04605
G01 X-0.94522 Y1.04528
G01 X-0.94707 Y1.04605
G01 X-0.94707 Y1.31304
G01 X-0.94652 Y1.31315
G01 X-0.94707 Y1.31304
G01 X-0.94755 Y1.31387
G01 X-0.95050 Y1.31966
G01 X-0.95283 Y1.32573
G01 X-0.95522 Y1.33309
G01 X-0.95690 Y1.33936
G01 X-0.95792 Y1.34579
G01 X-0.95873 Y1.35348
G01 X-0.95907 Y1.35997
G01 X-0.95873 Y1.36646
G01 X-0.95792 Y1.37415
G01 X-0.95690 Y1.38057
G01 X-0.95522 Y1.38685
G01 X-0.95283 Y1.39421
G01 X-0.95050 Y1.40028
G01 X-0.94755 Y1.40607
G01 X-0.94374 Y1.41267
G01 X-0.94170 Y1.41246
G01 X-0.94374 Y1.41267
G01 X-0.94450 Y1.41518
G01 X-0.94569 Y1.42729
G01 X-0.94569 Y1.46272
G01 X-0.94450 Y1.47484
G01 X-0.94096 Y1.48649
G01 X-0.93522 Y1.49723
G01 X-0.93485 Y1.49768
G01 X-0.93457 Y1.49783
G01 X-0.93485 Y1.49768
G01 X-0.94032 Y1.49478
G01 X-0.94033 Y1.49479
G01 X-0.94032 Y1.49478
G01 X-0.95044 Y1.48834
G01 X-0.95044 Y1.48836
G01 X-0.95044 Y1.48834
G01 X-0.96056 Y1.48086
G01 X-0.96057 Y1.48088
G01 X-0.96056 Y1.48086
G01 X-0.96873 Y1.47353
G01 X-0.96894 Y1.47334
G01 X-0.96999 Y1.46272
G01 X-0.96999 Y1.42729
G01 X-0.96901 Y1.41739
G01 X-0.96801 Y1.41720
G01 X-0.96901 Y1.41739
G01 X-0.97270 Y1.41016
G01 X-0.97594 Y1.40172
G01 X-0.97833 Y1.39436
G01 X-0.98067 Y1.38563
G01 X-0.98209 Y1.37669
G01 X-0.98289 Y1.36900
G01 X-0.98337 Y1.35997
G01 X-0.98289 Y1.35094
G01 X-0.98209 Y1.34325
G01 X-0.98067 Y1.33431
G01 X-0.97833 Y1.32558
G01 X-0.97594 Y1.31822
G01 X-0.97270 Y1.30978
G01 X-0.97137 Y1.30716
G01 X-0.97090 Y1.30726
G01 X-0.97137 Y1.30716
G01 X-0.97137 Y1.05611
G01 X-0.96952 Y1.05535
G01 X-0.97137 Y1.05611
G01 X-1.04857 Y0.97891
G01 X-1.07287 Y0.92025
G01 X-1.09717 Y0.86158
G01 X-1.09784 Y0.85997
G01 X-1.09939 Y0.85646
G01 X-1.09937 Y0.85645
G01 X-1.09939 Y0.85646
G01 X-1.10162 Y0.85176
G01 X-1.10160 Y0.85175
G01 X-1.10162 Y0.85176
G01 X-1.10480 Y0.84579
G01 X-1.10476 Y0.84577
G01 X-1.10480 Y0.84579
G01 X-1.10740 Y0.84146
G01 X-1.10737 Y0.84144
G01 X-1.10740 Y0.84146
G01 X-1.11075 Y0.83644
G01 X-1.11370 Y0.83246
G01 X-1.11367 Y0.83244
G01 X-1.11366 Y0.83243
G01 X-1.11367 Y0.83244
G01 X-1.11370 Y0.83246
G01 X-1.11727 Y0.82810
G01 X-1.12057 Y0.82446
G01 X-1.12056 Y0.82445
G01 X-1.12057 Y0.82446
G01 X-1.12247 Y0.82247
G01 X-1.12246 Y0.82246
G01 X-1.12247 Y0.82247
G01 X-1.22247 Y0.72247
G01 X-1.22246 Y0.72246
G01 X-1.22247 Y0.72247
G01 X-1.22446 Y0.72057
G01 X-1.22810 Y0.71728
G01 X-1.23228 Y0.71383
G01 X-1.23190 Y0.71306
G01 X-1.23228 Y0.71383
G01 X-1.23250 Y0.71378
G01 X-1.23740 Y0.71255
G01 X-1.24270 Y0.71149
G01 X-1.24760 Y0.71077
G01 X-1.24759 Y0.71071
G01 X-1.24760 Y0.71077
G01 X-1.25261 Y0.71027
G01 X-1.25751 Y0.71003
G01 X-1.25997 Y0.70997
G01 X-1.25997 Y0.70996
G01 X-1.25997 Y0.70997
G01 X-1.65997 Y0.70997
G01 X-1.65997 Y0.70996
G01 X-1.65997 Y0.70997
G01 X-1.66243 Y0.71003
G01 X-1.66733 Y0.71027
G01 X-1.67233 Y0.71077
G01 X-1.67234 Y0.71071
G01 X-1.67233 Y0.71077
G01 X-1.67724 Y0.71149
G01 X-1.68254 Y0.71255
G01 X-1.68744 Y0.71378
G01 X-1.68766 Y0.71383
G01 X-1.68804 Y0.71306
G01 X-1.68766 Y0.71383
G01 X-1.69184 Y0.71728
G01 X-1.69547 Y0.72057
G01 X-1.69747 Y0.72247
G01 X-1.69748 Y0.72246
G01 X-1.69747 Y0.72247
G01 X-1.87169 Y0.89669
G01 X-1.87156 Y0.89686
G01 X-1.87169 Y0.89669
G01 X-1.87674 Y0.89943
G01 X-1.88146 Y0.90232
G01 X-1.88148 Y0.90230
G01 X-1.88146 Y0.90232
G01 X-1.88785 Y0.90672
G01 X-1.89176 Y0.90972
G01 X-1.89179 Y0.90969
G01 X-1.89176 Y0.90972
G01 X-1.89758 Y0.91469
G01 X-1.90098 Y0.91791
G01 X-1.90101 Y0.91788
G01 X-1.90098 Y0.91791
G01 X-1.90623 Y0.92344
G01 X-1.90933 Y0.92707
G01 X-1.90997 Y0.92790
G01 X-1.91158 Y0.92728
G01 X-1.90997 Y0.92790
G01 X-1.90997 Y0.93551
G01 X-1.90997 Y0.93971
G01 X-1.90997 Y0.94774
G01 X-1.90997 Y0.95088
G01 X-1.90997 Y0.95855
G01 X-1.90997 Y0.95997
G01 X-1.90997 Y0.96139
G01 X-1.90997 Y0.96906
G01 X-1.90997 Y0.97220
G01 X-1.90997 Y0.98023
G01 X-1.90997 Y0.98443
G01 X-1.90997 Y0.99324
G01 X-1.90997 Y0.99577
G01 X-1.90997 Y1.02416
G01 X-1.90997 Y1.02670
G01 X-1.90997 Y1.03551
G01 X-1.90997 Y1.03971
G01 X-1.90997 Y1.04774
G01 X-1.90997 Y1.05088
G01 X-1.90997 Y1.05855
G01 X-1.90997 Y1.05997
G01 X-1.90997 Y1.06139
G01 X-1.90997 Y1.06906
G01 X-1.90997 Y1.07220
G01 X-1.90997 Y1.08023
G01 X-1.90997 Y1.08443
G01 X-1.90997 Y1.09324
G01 X-1.90997 Y1.09986
G01 X-1.90997 Y1.10439
G01 X-1.91423 Y1.10629
G01 X-1.91999 Y1.10851
G01 X-1.92762 Y1.11098
G01 X-1.92761 Y1.11103
G01 X-1.92762 Y1.11098
G01 X-1.93249 Y1.11229
G01 X-1.94012 Y1.11392
G01 X-1.94011 Y1.11396
G01 X-1.94012 Y1.11392
G01 X-1.94445 Y1.11460
G01 X-1.95208 Y1.11541
G01 X-1.95615 Y1.11562
G01 X-1.95615 Y1.11568
G01 X-1.95615 Y1.11562
G01 X-1.96378 Y1.11562
G01 X-1.96785 Y1.11541
G01 X-1.97159 Y1.11501
G01 X-1.97184 Y1.11583
G01 X-1.97159 Y1.11501
G01 X-1.97516 Y1.11307
G01 X-1.97852 Y1.11102
G01 X-1.98492 Y1.10662
G01 X-1.98495 Y1.10666
G01 X-1.98492 Y1.10662
G01 X-1.98763 Y1.10454
G01 X-1.99345 Y1.09957
G01 X-1.99348 Y1.09959
G01 X-1.99345 Y1.09957
G01 X-1.99578 Y1.09735
G01 X-2.00104 Y1.09182
G01 X-2.00106 Y1.09184
G01 X-2.00104 Y1.09182
G01 X-2.00317 Y1.08932
G01 X-2.00786 Y1.08321
G01 X-2.00787 Y1.08322
G01 X-2.00786 Y1.08321
G01 X-2.00992 Y1.08021
G01 X-2.00997 Y1.08013
G01 X-2.01105 Y1.08047
G01 X-2.00997 Y1.08013
G01 X-2.00997 Y1.07220
G01 X-2.00997 Y1.06906
G01 X-2.00997 Y1.06139
G01 X-2.00997 Y1.05997
G01 X-2.00997 Y1.05855
G01 X-2.00997 Y1.05088
G01 X-2.00997 Y1.04774
G01 X-2.00997 Y1.03971
G01 X-2.00997 Y1.03551
G01 X-2.00997 Y1.02670
G01 X-2.00997 Y1.02416
G01 X-2.00957 Y1.02409
G01 X-2.00997 Y1.02416
G01 X-2.01105 Y1.02106
G01 X-2.01398 Y1.01343
G01 X-2.01497 Y1.01101
G01 X-2.01537 Y1.01109
G01 X-2.01497 Y1.01101
G01 X-2.01497 Y0.99727
G01 X-2.01476 Y0.99725
G01 X-2.01497 Y0.99727
G01 X-2.01479 Y0.99725
G01 X-2.01497 Y0.99727
G01 X-2.01524 Y0.99628
G01 X-2.01729 Y0.98865
G01 X-2.01849 Y0.98300
G01 X-2.01853 Y0.98300
G01 X-2.01849 Y0.98300
G01 X-2.01970 Y0.97537
G01 X-2.02025 Y0.97014
G01 X-2.02027 Y0.97014
G01 X-2.02025 Y0.97014
G01 X-2.02065 Y0.96251
G01 X-2.02068 Y0.96251
G01 X-2.02065 Y0.96251
G01 X-2.02065 Y0.95743
G01 X-2.02025 Y0.94980
G01 X-2.01970 Y0.94457
G01 X-2.01975 Y0.94457
G01 X-2.01970 Y0.94457
G01 X-2.01849 Y0.93694
G01 X-2.01729 Y0.93129
G01 X-2.01731 Y0.93128
G01 X-2.01729 Y0.93129
G01 X-2.01524 Y0.92365
G01 X-2.01457 Y0.92134
G01 X-2.01437 Y0.92137
G01 X-2.01457 Y0.92134
G01 X-2.01440 Y0.92136
G01 X-2.01457 Y0.92134
G01 X-2.01457 Y0.90918
G01 X-2.01450 Y0.90619
G01 X-2.01451 Y0.90619
G01 X-2.01450 Y0.90619
G01 X-2.01426 Y0.90129
G01 X-2.01366 Y0.89521
G01 X-2.01371 Y0.89521
G01 X-2.01366 Y0.89521
G01 X-2.01293 Y0.89031
G01 X-2.01165 Y0.88391
G01 X-2.01043 Y0.87901
G01 X-2.00957 Y0.87590
G01 X-2.00944 Y0.87591
G01 X-2.00957 Y0.87590
G01 X-2.00957 Y0.80174
G01 X-2.00997 Y0.80070
G01 X-2.00997 Y0.77770
G01 X-2.00997 Y0.74227
G01 X-2.00997 Y0.71525
G01 X-2.00997 Y0.69724
G01 X-1.99984 Y0.69502
G01 X-1.99985 Y0.69488
G01 X-1.99984 Y0.69502
G01 X-1.98359 Y0.69502
G01 X-1.93635 Y0.69502
G01 X-1.92010 Y0.69502
G01 X-1.92008 Y0.69489
G01 X-1.92010 Y0.69502
G01 X-1.91083 Y0.69701
G01 X-1.91083 Y0.69699
G01 X-1.91083 Y0.69701
G01 X-1.90157 Y0.69989
G01 X-1.90155 Y0.69985
G01 X-1.90157 Y0.69989
G01 X-1.90156 Y0.69987
G01 X-1.90157 Y0.69989
G01 X-1.89230 Y0.70364
G01 X-1.88527 Y0.70716
G01 X-1.88527 Y0.70716
G01 X-1.88034 Y0.70716
G01 X-1.88305 Y0.70988
G01 X-1.88304 Y0.70828
G01 X-1.88305 Y0.70988
G01 X-1.88340 Y0.71022
G01 X-1.88536 Y0.72553
G01 X-1.88340 Y0.71022
G01 X-1.88471 Y0.70777
G01 X-1.88516 Y0.70722
G01 X-1.88527 Y0.70716
G01 X-1.89230 Y0.70364
G01 X-1.89230 Y0.70362
G01 X-1.89230 Y0.70364
G01 X-1.88527 Y0.70716
G01 X-1.89230 Y0.70364
G01 X-1.88527 Y0.70716
G01 X-1.88304 Y0.70828
G01 X-1.88034 Y0.70716
G01 X-1.88006 Y0.70705
G01 X-1.87536 Y0.70499
G01 X-1.87308 Y0.70394
G01 X-1.86456 Y0.69961
G01 X-1.86455 Y0.69963
G01 X-1.86456 Y0.69961
G01 X-1.86243 Y0.69841
G01 X-1.86241 Y0.69845
G01 X-1.86243 Y0.69841
G01 X-1.85492 Y0.69382
G01 X-1.85491 Y0.69384
G01 X-1.85492 Y0.69382
G01 X-1.85293 Y0.69248
G01 X-1.85291 Y0.69250
G01 X-1.85293 Y0.69248
G01 X-1.84620 Y0.68760
G01 X-1.84434 Y0.68613
G01 X-1.84148 Y0.68379
G01 X-1.84148 Y0.68378
G01 X-1.84148 Y0.68379
G01 X-1.84034 Y0.68312
G01 X-1.83600 Y0.68052
G01 X-1.82792 Y0.67512
G01 X-1.82394 Y0.67217
G01 X-1.82391 Y0.67222
G01 X-1.82394 Y0.67217
G01 X-1.81686 Y0.66636
G01 X-1.81322 Y0.66307
G01 X-1.80997 Y0.65997
G01 X-1.80996 Y0.65998
G01 X-1.80997 Y0.65997
G01 X-1.78068 Y0.63068
G01 X-1.78094 Y0.63028
G01 X-1.78068 Y0.63068
G01 X-1.76158 Y0.62277
G01 X-1.75139 Y0.61855
G01 X-1.74879 Y0.61753
G01 X-1.74487 Y0.61609
G01 X-1.74488 Y0.61606
G01 X-1.74487 Y0.61609
G01 X-1.74011 Y0.61454
G01 X-1.74012 Y0.61450
G01 X-1.74011 Y0.61454
G01 X-1.73619 Y0.61343
G01 X-1.73620 Y0.61340
G01 X-1.73619 Y0.61343
G01 X-1.73180 Y0.61237
G01 X-1.72788 Y0.61159
G01 X-1.72789 Y0.61155
G01 X-1.72788 Y0.61159
G01 X-1.72376 Y0.61094
G01 X-1.72376 Y0.61089
G01 X-1.72376 Y0.61094
G01 X-1.71983 Y0.61048
G01 X-1.71586 Y0.61016
G01 X-1.71586 Y0.61012
G01 X-1.71586 Y0.61016
G01 X-1.71193 Y0.61001
G01 X-1.70997 Y0.60997
G01 X-1.70997 Y0.60995
G01 X-1.70997 Y0.60997
G01 X-1.20997 Y0.60997
G01 X-1.20997 Y0.60996
G01 X-1.20997 Y0.60997
G01 X-1.20751 Y0.61003
G01 X-1.20261 Y0.61027
G01 X-1.19760 Y0.61077
G01 X-1.19759 Y0.61071
G01 X-1.19760 Y0.61077
G01 X-1.19270 Y0.61149
G01 X-1.18740 Y0.61255
G01 X-1.18250 Y0.61378
G01 X-1.18228 Y0.61383
G01 X-1.18190 Y0.61306
G01 X-1.18228 Y0.61383
G01 X-1.17810 Y0.61728
G01 X-1.17446 Y0.62057
G01 X-1.17247 Y0.62247
G01 X-1.17246 Y0.62246
G01 X-1.17247 Y0.62247
G01 X-0.82247 Y0.97247
G01 X-0.82246 Y0.97246
G01 X-0.82245 Y0.97245
G01 X-0.82246 Y0.97246
G01 X-0.82247 Y0.97247
G01 X-0.82057 Y0.97446
G01 X-0.81727 Y0.97810
G01 X-0.81722 Y0.97806
G01 X-0.81727 Y0.97810
G01 X-0.81370 Y0.98246
G01 X-0.81367 Y0.98244
G01 X-0.81370 Y0.98246
G01 X-0.81075 Y0.98644
G01 X-0.81068 Y0.98639
G01 X-0.81075 Y0.98644
G01 X-0.80740 Y0.99146
G01 X-0.80736 Y0.99143
G01 X-0.80740 Y0.99146
G01 X-0.80737 Y0.99144
G01 X-0.80740 Y0.99146
G01 X-0.80480 Y0.99579
G01 X-0.80162 Y1.00176
G01 X-0.80158 Y1.00174
G01 X-0.80156 Y1.00173
G01 X-0.80158 Y1.00174
G01 X-0.80162 Y1.00176
G01 X-0.80160 Y1.00174
G01 X-0.80158 Y1.00174
G01 X-0.80160 Y1.00174
G01 X-0.80162 Y1.00176
G01 X-0.79939 Y1.00646
G01 X-0.79784 Y1.00997
G01 X-0.79717 Y1.01158
G01 X-0.72277 Y1.08598
G01 X-0.72092 Y1.08522
G01 X-0.72277 Y1.08598
G01 X-0.72277 Y1.32054
G01 X-0.72200 Y1.32074
G01 X-0.72277 Y1.32054
G01 X-0.72605 Y1.32622
G01 X-0.72784 Y1.32975
G01 X-0.72926 Y1.33344
G01 X-0.73162 Y1.34070
G01 X-0.73264 Y1.34452
G01 X-0.73326 Y1.34843
G01 X-0.73406 Y1.35602
G01 X-0.73427 Y1.35997
G01 X-0.73406 Y1.36392
G01 X-0.73326 Y1.37151
G01 X-0.73264 Y1.37542
G01 X-0.73162 Y1.37924
G01 X-0.72926 Y1.38650
G01 X-0.72784 Y1.39019
G01 X-0.72605 Y1.39371
G01 X-0.72223 Y1.40032
G01 X-0.72008 Y1.40364
G01 X-0.71759 Y1.40672
G01 X-0.71248 Y1.41239
G01 X-0.70968 Y1.41518
G01 X-0.70661 Y1.41767
G01 X-0.70044 Y1.42216
G01 X-0.69712 Y1.42431
G01 X-0.69359 Y1.42611
G01 X-0.68662 Y1.42921
G01 X-0.68293 Y1.43063
G01 X-0.67911 Y1.43166
G01 X-0.67164 Y1.43324
G01 X-0.66990 Y1.43352
G01 X-0.66967 Y1.43345
G01 X-0.66378 Y1.43171
G01 X-0.65615 Y1.42900
G01 X-0.64976 Y1.42635
G01 X-0.64268 Y1.42296
G01 X-0.63738 Y1.42008
G01 X-0.63082 Y1.41605
G01 X-0.62623 Y1.41289
G01 X-0.62018 Y1.40824
G01 X-0.61602 Y1.40468
G01 X-0.61047 Y1.39940
G01 X-0.61024 Y1.39918
G01 X-0.61024 Y1.39308
G01 X-0.61024 Y1.38427
G01 X-0.61024 Y1.38014
G01 X-0.61024 Y1.37212
G01 X-0.61024 Y1.36903
G01 X-0.61024 Y1.36327
G01 X-0.61024 Y1.36325
G01 X-0.61024 Y1.36136
G01 X-0.61024 Y1.35858
G01 X-0.61024 Y1.35668
G01 X-0.61024 Y1.35666
G01 X-0.61024 Y1.35091
G01 X-0.61024 Y1.34782
G01 X-0.61024 Y1.33980
G01 X-0.61024 Y1.33567
G01 X-0.61024 Y1.32686
G01 X-0.61024 Y1.32425
G01 X-0.60997 Y1.32342
G01 X-0.60997 Y1.05997
G01 X-0.61000 Y1.05801
G01 X-0.61016 Y1.05409
G01 X-0.61047 Y1.05010
G01 X-0.61094 Y1.04618
G01 X-0.61159 Y1.04206
G01 X-0.61237 Y1.03813
G01 X-0.61343 Y1.03375
G01 X-0.61384 Y1.03228
G01 X-0.61537 Y1.03034
G01 X-0.61828 Y1.02694
G01 X-0.62094 Y1.02406
G01 X-0.62247 Y1.02247
G01 X-1.12247 Y0.52247
G01 X-1.12446 Y0.52057
G01 X-1.12810 Y0.51728
G01 X-1.13228 Y0.51383
G01 X-1.13250 Y0.51378
G01 X-1.13740 Y0.51255
G01 X-1.14270 Y0.51149
G01 X-1.14760 Y0.51077
G01 X-1.15261 Y0.51027
G01 X-1.15751 Y0.51003
G01 X-1.15997 Y0.50997
G01 X-1.42450 Y0.50997
G01 X-1.42762 Y0.51098
G01 X-1.43249 Y0.51229
G01 X-1.44012 Y0.51392
G01 X-1.44445 Y0.51460
G01 X-1.45208 Y0.51541
G01 X-1.45615 Y0.51562
G01 X-1.46378 Y0.51562
G01 X-1.46785 Y0.51541
G01 X-1.47548 Y0.51460
G01 X-1.47981 Y0.51392
G01 X-1.48744 Y0.51229
G01 X-1.49232 Y0.51098
G01 X-1.49995 Y0.50850
G01 X-1.50570 Y0.50629
G01 X-1.50997 Y0.50439
G01 X-1.51423 Y0.50629
G01 X-1.51999 Y0.50850
G01 X-1.52762 Y0.51098
G01 X-1.52761 Y0.51103
G01 X-1.52762 Y0.51098
G01 X-1.53249 Y0.51229
G01 X-1.54012 Y0.51392
G01 X-1.54012 Y0.51395
G01 X-1.54012 Y0.51392
G01 X-1.54445 Y0.51460
G01 X-1.55208 Y0.51541
G01 X-1.55208 Y0.51544
G01 X-1.55208 Y0.51541
G01 X-1.55615 Y0.51562
G01 X-1.56378 Y0.51562
G01 X-1.56378 Y0.51565
G01 X-1.56378 Y0.51562
G01 X-1.56785 Y0.51541
G01 X-1.57548 Y0.51460
G01 X-1.57549 Y0.51464
G01 X-1.57548 Y0.51460
G01 X-1.57981 Y0.51392
G01 X-1.58744 Y0.51229
G01 X-1.58745 Y0.51233
G01 X-1.58744 Y0.51229
G01 X-1.59232 Y0.51098
G01 X-1.59995 Y0.50850
G01 X-1.59996 Y0.50853
G01 X-1.59995 Y0.50850
G01 X-1.60570 Y0.50629
G01 X-1.60997 Y0.50439
G01 X-1.61423 Y0.50629
G01 X-1.61999 Y0.50850
G01 X-1.62762 Y0.51098
G01 X-1.62761 Y0.51103
G01 X-1.62762 Y0.51098
G01 X-1.63249 Y0.51229
G01 X-1.64012 Y0.51392
G01 X-1.64012 Y0.51395
G01 X-1.64012 Y0.51392
G01 X-1.64445 Y0.51460
G01 X-1.65208 Y0.51541
G01 X-1.65208 Y0.51544
G01 X-1.65208 Y0.51541
G01 X-1.65615 Y0.51562
G01 X-1.66378 Y0.51562
G01 X-1.66378 Y0.51565
G01 X-1.66378 Y0.51562
G01 X-1.66785 Y0.51541
G01 X-1.67548 Y0.51460
G01 X-1.67549 Y0.51464
G01 X-1.67548 Y0.51460
G01 X-1.67981 Y0.51392
G01 X-1.68744 Y0.51229
G01 X-1.68745 Y0.51233
G01 X-1.68744 Y0.51229
G01 X-1.69232 Y0.51098
G01 X-1.69995 Y0.50850
G01 X-1.69996 Y0.50853
G01 X-1.69995 Y0.50850
G01 X-1.70570 Y0.50629
G01 X-1.70997 Y0.50439
G01 X-1.71423 Y0.50629
G01 X-1.71999 Y0.50850
G01 X-1.72762 Y0.51098
G01 X-1.72761 Y0.51103
G01 X-1.72762 Y0.51098
G01 X-1.73249 Y0.51229
G01 X-1.74012 Y0.51392
G01 X-1.74012 Y0.51395
G01 X-1.74012 Y0.51392
G01 X-1.74445 Y0.51460
G01 X-1.75208 Y0.51541
G01 X-1.75208 Y0.51544
G01 X-1.75208 Y0.51541
G01 X-1.75615 Y0.51562
G01 X-1.76378 Y0.51562
G01 X-1.76378 Y0.51565
G01 X-1.76378 Y0.51562
G01 X-1.76785 Y0.51541
G01 X-1.77548 Y0.51460
G01 X-1.77549 Y0.51464
G01 X-1.77548 Y0.51460
G01 X-1.77981 Y0.51392
G01 X-1.78744 Y0.51229
G01 X-1.78745 Y0.51233
G01 X-1.78744 Y0.51229
G01 X-1.79232 Y0.51098
G01 X-1.79995 Y0.50850
G01 X-1.79996 Y0.50853
G01 X-1.79995 Y0.50850
G01 X-1.80570 Y0.50629
G01 X-1.80997 Y0.50439
G01 X-1.81285 Y0.50576
G01 X-1.81411 Y0.50639
G01 X-1.81755 Y0.50800
G01 X-1.81969 Y0.50892
G01 X-1.82250 Y0.51021
G01 X-1.82667 Y0.51229
G01 X-1.82695 Y0.51243
G01 X-1.83143 Y0.51462
G01 X-1.83145 Y0.51463
G01 X-1.83583 Y0.51677
G01 X-1.83828 Y0.51805
G01 X-1.84028 Y0.51917
G01 X-1.84316 Y0.52066
G01 X-1.84476 Y0.52143
G01 X-1.84724 Y0.52270
G01 X-1.85019 Y0.52431
G01 X-1.85615 Y0.52714
G01 X-1.85614 Y0.52717
G01 X-1.85615 Y0.52714
G01 X-1.86378 Y0.53030
G01 X-1.86377 Y0.53033
G01 X-1.86378 Y0.53030
G01 X-1.87161 Y0.53306
G01 X-1.87198 Y0.53317
G01 X-1.90437 Y0.56556
G01 X-1.90687 Y0.56831
G01 X-1.90997 Y0.57210
G01 X-1.91218 Y0.57508
G01 X-1.91349 Y0.57726
G01 X-1.91229 Y0.57973
G01 X-1.91349 Y0.57726
G01 X-1.92241 Y0.57726
G01 X-1.92245 Y0.57753
G01 X-1.92241 Y0.57726
G01 X-1.92897 Y0.57527
G01 X-1.93635 Y0.57455
G01 X-1.98359 Y0.57455
G01 X-1.99096 Y0.57527
G01 X-1.99753 Y0.57726
G01 X-1.99749 Y0.57753
G01 X-1.99753 Y0.57726
G01 X-2.02241 Y0.57726
G01 X-2.02245 Y0.57753
G01 X-2.02241 Y0.57726
G01 X-2.02897 Y0.57527
G01 X-2.03635 Y0.57455
G01 X-2.08359 Y0.57455
G01 X-2.09096 Y0.57527
G01 X-2.09753 Y0.57726
G01 X-2.09749 Y0.57753
G01 X-2.09753 Y0.57726
G01 X-2.12241 Y0.57726
G01 X-2.12245 Y0.57753
G01 X-2.12241 Y0.57726
G01 X-2.12897 Y0.57527
G01 X-2.13635 Y0.57455
G01 X-2.18359 Y0.57455
G01 X-2.19096 Y0.57527
G01 X-2.19753 Y0.57726
G01 X-2.19749 Y0.57753
G01 X-2.19753 Y0.57726
G01 X-2.22241 Y0.57726
G01 X-2.22245 Y0.57753
G01 X-2.22241 Y0.57726
G01 X-2.22897 Y0.57527
G01 X-2.23635 Y0.57455
G01 X-2.28359 Y0.57455
G01 X-2.29096 Y0.57527
G01 X-2.29753 Y0.57726
G01 X-2.29749 Y0.57753
G01 X-2.29753 Y0.57726
G01 X-2.32241 Y0.57726
G01 X-2.32245 Y0.57753
G01 X-2.32241 Y0.57726
G01 X-2.32897 Y0.57527
G01 X-2.33635 Y0.57455
G01 X-2.38359 Y0.57455
G01 X-2.39096 Y0.57527
G01 X-2.39753 Y0.57726
G01 X-2.39749 Y0.57753
G01 X-2.39753 Y0.57726
G01 X-2.42241 Y0.57726
G01 X-2.42245 Y0.57753
G01 X-2.42241 Y0.57726
G01 X-2.42897 Y0.57527
G01 X-2.43635 Y0.57455
G01 X-2.48359 Y0.57455
G01 X-2.49096 Y0.57527
G01 X-2.49753 Y0.57726
G01 X-2.49749 Y0.57753
G01 X-2.49753 Y0.57726
G01 X-2.52241 Y0.57726
G01 X-2.52245 Y0.57753
G01 X-2.52241 Y0.57726
G01 X-2.52897 Y0.57527
G01 X-2.53635 Y0.57455
G01 X-2.58359 Y0.57455
G01 X-2.59096 Y0.57527
G01 X-2.59753 Y0.57726
G01 X-2.59749 Y0.57753
G01 X-2.59753 Y0.57726
G01 X-2.62117 Y0.57726
G01 X-2.62122 Y0.57756
G01 X-2.62117 Y0.57726
G01 X-2.62188 Y0.57688
G01 X-2.62897 Y0.57473
G01 X-2.63635 Y0.57400
G01 X-2.68359 Y0.57400
G01 X-2.69096 Y0.57473
G01 X-2.69720 Y0.57662
G01 X-2.69716 Y0.57689
G01 X-2.69720 Y0.57662
G01 X-2.79717 Y0.57636
G01 X-2.80426 Y0.58344
G01 X-2.79717 Y0.57636
G01 X-2.79717 Y0.52405
G01 X-2.79717 Y0.52405
G01 X-2.79717 Y0.52405
G01 X-2.79697 Y0.52439
G01 X-2.79359 Y0.52611
G01 X-2.78662 Y0.52921
G01 X-2.78293 Y0.53063
G01 X-2.77911 Y0.53166
G01 X-2.77164 Y0.53324
G01 X-2.76773 Y0.53386
G01 X-2.76378 Y0.53407
G01 X-2.75615 Y0.53407
G01 X-2.75220 Y0.53386
G01 X-2.74829 Y0.53324
G01 X-2.74083 Y0.53166
G01 X-2.73701 Y0.53063
G01 X-2.73331 Y0.52921
G01 X-2.72634 Y0.52611
G01 X-2.72282 Y0.52431
G01 X-2.71950 Y0.52216
G01 X-2.71333 Y0.51767
G01 X-2.71025 Y0.51518
G01 X-2.70997 Y0.51490
G01 X-2.70968 Y0.51518
G01 X-2.70661 Y0.51767
G01 X-2.70044 Y0.52216
G01 X-2.69712 Y0.52431
G01 X-2.69359 Y0.52611
G01 X-2.68662 Y0.52921
G01 X-2.68293 Y0.53063
G01 X-2.67911 Y0.53166
G01 X-2.67164 Y0.53324
G01 X-2.66773 Y0.53386
G01 X-2.66378 Y0.53407
G01 X-2.65615 Y0.53407
G01 X-2.65220 Y0.53386
G01 X-2.64829 Y0.53324
G01 X-2.64083 Y0.53166
G01 X-2.63701 Y0.53063
G01 X-2.63331 Y0.52921
G01 X-2.62634 Y0.52611
G01 X-2.62282 Y0.52431
G01 X-2.61950 Y0.52216
G01 X-2.61333 Y0.51767
G01 X-2.61025 Y0.51518
G01 X-2.60997 Y0.51490
G01 X-2.60968 Y0.51518
G01 X-2.60661 Y0.51767
G01 X-2.60044 Y0.52216
G01 X-2.59712 Y0.52431
G01 X-2.59359 Y0.52611
G01 X-2.58662 Y0.52921
G01 X-2.58293 Y0.53063
G01 X-2.57911 Y0.53166
G01 X-2.57164 Y0.53324
G01 X-2.56773 Y0.53386
G01 X-2.56378 Y0.53407
G01 X-2.55615 Y0.53407
G01 X-2.55220 Y0.53386
G01 X-2.54829 Y0.53324
G01 X-2.54083 Y0.53166
G01 X-2.53701 Y0.53063
G01 X-2.53331 Y0.52921
G01 X-2.52634 Y0.52611
G01 X-2.52282 Y0.52431
G01 X-2.51950 Y0.52216
G01 X-2.51333 Y0.51767
G01 X-2.51025 Y0.51518
G01 X-2.50997 Y0.51490
G01 X-2.50968 Y0.51518
G01 X-2.50661 Y0.51767
G01 X-2.50044 Y0.52216
G01 X-2.49712 Y0.52431
G01 X-2.49359 Y0.52611
G01 X-2.48662 Y0.52921
G01 X-2.48293 Y0.53063
G01 X-2.47911 Y0.53166
G01 X-2.47164 Y0.53324
G01 X-2.46773 Y0.53386
G01 X-2.46378 Y0.53407
G01 X-2.45615 Y0.53407
G01 X-2.45220 Y0.53386
G01 X-2.44829 Y0.53324
G01 X-2.44083 Y0.53166
G01 X-2.43701 Y0.53063
G01 X-2.43331 Y0.52921
G01 X-2.42634 Y0.52611
G01 X-2.42282 Y0.52431
G01 X-2.41950 Y0.52216
G01 X-2.41333 Y0.51767
G01 X-2.41025 Y0.51518
G01 X-2.40997 Y0.51490
G01 X-2.40968 Y0.51518
G01 X-2.40661 Y0.51767
G01 X-2.40044 Y0.52216
G01 X-2.39712 Y0.52431
G01 X-2.39359 Y0.52611
G01 X-2.38662 Y0.52921
G01 X-2.38293 Y0.53063
G01 X-2.37911 Y0.53166
G01 X-2.37164 Y0.53324
G01 X-2.36773 Y0.53386
G01 X-2.36378 Y0.53407
G01 X-2.35615 Y0.53407
G01 X-2.35220 Y0.53386
G01 X-2.34829 Y0.53324
G01 X-2.34083 Y0.53166
G01 X-2.33701 Y0.53063
G01 X-2.33331 Y0.52921
G01 X-2.32634 Y0.52611
G01 X-2.32282 Y0.52431
G01 X-2.31950 Y0.52216
G01 X-2.31333 Y0.51767
G01 X-2.31025 Y0.51518
G01 X-2.30997 Y0.51490
G01 X-2.30968 Y0.51518
G01 X-2.30661 Y0.51767
G01 X-2.30044 Y0.52216
G01 X-2.29712 Y0.52431
G01 X-2.29359 Y0.52611
G01 X-2.28662 Y0.52921
G01 X-2.28293 Y0.53063
G01 X-2.27911 Y0.53166
G01 X-2.27164 Y0.53324
G01 X-2.26773 Y0.53386
G01 X-2.26378 Y0.53407
G01 X-2.25615 Y0.53407
G01 X-2.25220 Y0.53386
G01 X-2.24829 Y0.53324
G01 X-2.24083 Y0.53166
G01 X-2.23701 Y0.53063
G01 X-2.23331 Y0.52921
G01 X-2.22634 Y0.52611
G01 X-2.22282 Y0.52431
G01 X-2.21950 Y0.52216
G01 X-2.21333 Y0.51767
G01 X-2.21025 Y0.51518
G01 X-2.20997 Y0.51490
G01 X-2.20968 Y0.51518
G01 X-2.20661 Y0.51767
G01 X-2.20044 Y0.52216
G01 X-2.19712 Y0.52431
G01 X-2.19359 Y0.52611
G01 X-2.18662 Y0.52921
G01 X-2.18293 Y0.53063
G01 X-2.17911 Y0.53166
G01 X-2.17164 Y0.53324
G01 X-2.16773 Y0.53386
G01 X-2.16378 Y0.53407
G01 X-2.15615 Y0.53407
G01 X-2.15220 Y0.53386
G01 X-2.14829 Y0.53324
G01 X-2.14083 Y0.53166
G01 X-2.13701 Y0.53063
G01 X-2.13331 Y0.52921
G01 X-2.12634 Y0.52611
G01 X-2.12282 Y0.52431
G01 X-2.11950 Y0.52216
G01 X-2.11333 Y0.51767
G01 X-2.11025 Y0.51518
G01 X-2.10997 Y0.51490
G01 X-2.10968 Y0.51518
G01 X-2.10661 Y0.51767
G01 X-2.10044 Y0.52216
G01 X-2.09712 Y0.52431
G01 X-2.09359 Y0.52611
G01 X-2.08662 Y0.52921
G01 X-2.08293 Y0.53063
G01 X-2.07911 Y0.53166
G01 X-2.07164 Y0.53324
G01 X-2.06773 Y0.53386
G01 X-2.06378 Y0.53407
G01 X-2.05615 Y0.53407
G01 X-2.05220 Y0.53386
G01 X-2.04829 Y0.53324
G01 X-2.04083 Y0.53166
G01 X-2.03701 Y0.53063
G01 X-2.03331 Y0.52921
G01 X-2.02634 Y0.52611
G01 X-2.02282 Y0.52431
G01 X-2.01950 Y0.52216
G01 X-2.01333 Y0.51767
G01 X-2.01025 Y0.51518
G01 X-2.00997 Y0.51490
G01 X-2.00968 Y0.51518
G01 X-2.00661 Y0.51767
G01 X-2.00044 Y0.52216
G01 X-1.99712 Y0.52431
G01 X-1.99359 Y0.52611
G01 X-1.98662 Y0.52921
G01 X-1.98293 Y0.53063
G01 X-1.97911 Y0.53166
G01 X-1.97164 Y0.53324
G01 X-1.96773 Y0.53386
G01 X-1.96378 Y0.53407
G01 X-1.95615 Y0.53407
G01 X-1.95220 Y0.53386
G01 X-1.94829 Y0.53324
G01 X-1.94083 Y0.53166
G01 X-1.93701 Y0.53063
G01 X-1.93331 Y0.52921
G01 X-1.92634 Y0.52611
G01 X-1.92282 Y0.52431
G01 X-1.91950 Y0.52216
G01 X-1.91333 Y0.51767
G01 X-1.91025 Y0.51518
G01 X-1.90997 Y0.51490
G01 X-1.90968 Y0.51518
G01 X-1.90661 Y0.51767
G01 X-1.90044 Y0.52216
G01 X-1.89712 Y0.52431
G01 X-1.89359 Y0.52611
G01 X-1.88662 Y0.52921
G01 X-1.88293 Y0.53063
G01 X-1.87911 Y0.53166
G01 X-1.87198 Y0.53317
G01 X-1.87993 Y0.53553
G01 X-1.87993 Y0.53554
G01 X-1.87993 Y0.53553
G01 X-1.89056 Y0.53806
G01 X-1.89056 Y0.53807
G01 X-1.89056 Y0.53806
G01 X-1.89967 Y0.53975
G01 X-1.90997 Y0.54125
G01 X-1.91720 Y0.54663
G01 X-1.92082 Y0.54912
G01 X-1.92358 Y0.55107
G01 X-1.92432 Y0.55161
G01 X-1.92400 Y0.55246
G01 X-1.92432 Y0.55161
G01 X-1.93632 Y0.55286
G01 X-1.93635 Y0.55287
G01 X-1.94395 Y0.55367
G01 X-1.95615 Y0.55431
G01 X-1.95615 Y0.55435
G01 X-1.95615 Y0.55431
G01 X-1.96378 Y0.55431
G01 X-1.97599 Y0.55367
G01 X-1.97599 Y0.55368
G01 X-1.97599 Y0.55367
G01 X-1.98359 Y0.55287
G01 X-1.98362 Y0.55286
G01 X-1.99609 Y0.55156
G01 X-1.99615 Y0.55155
G01 X-1.99655 Y0.55151
G01 X-2.00204 Y0.55105
G01 X-2.00205 Y0.55109
G01 X-2.00204 Y0.55105
G01 X-2.00447 Y0.55053
G01 X-2.00997 Y0.54924
G01 X-2.01546 Y0.55053
G01 X-2.01789 Y0.55105
G01 X-2.01788 Y0.55110
G01 X-2.01789 Y0.55105
G01 X-2.02338 Y0.55151
G01 X-2.02378 Y0.55155
G01 X-2.02384 Y0.55156
G01 X-2.02378 Y0.55155
G01 X-2.02338 Y0.55151
G01 X-2.01789 Y0.55105
G01 X-2.01546 Y0.55053
G01 X-2.00997 Y0.54924
G01 X-2.00447 Y0.55053
G01 X-2.00204 Y0.55105
G01 X-1.99655 Y0.55151
G01 X-1.99615 Y0.55155
G01 X-1.99609 Y0.55156
G01 X-1.98362 Y0.55286
G01 X-1.98359 Y0.55287
G01 X-1.97599 Y0.55367
G01 X-1.96378 Y0.55431
G01 X-1.95615 Y0.55431
G01 X-1.94395 Y0.55367
G01 X-1.93635 Y0.55287
G01 X-1.93632 Y0.55286
G01 X-1.92432 Y0.55161
G01 X-1.92358 Y0.55107
G01 X-1.92082 Y0.54912
G01 X-1.91720 Y0.54663
G01 X-1.90997 Y0.54125
G01 X-1.89967 Y0.53975
G01 X-1.89056 Y0.53806
G01 X-1.87993 Y0.53553
G01 X-1.87198 Y0.53317
G01 X-1.87161 Y0.53306
G01 X-1.86378 Y0.53030
G01 X-1.85615 Y0.52714
G01 X-1.85019 Y0.52431
G01 X-1.84724 Y0.52270
G01 X-1.84476 Y0.52143
G01 X-1.84316 Y0.52066
G01 X-1.84028 Y0.51917
G01 X-1.83828 Y0.51805
G01 X-1.83583 Y0.51677
G01 X-1.83145 Y0.51463
G01 X-1.83143 Y0.51462
G01 X-1.82695 Y0.51243
G01 X-1.82667 Y0.51229
G01 X-1.82250 Y0.51021
G01 X-1.81969 Y0.50892
G01 X-1.81755 Y0.50800
G01 X-1.81411 Y0.50639
G01 X-1.81285 Y0.50576
G01 X-1.80997 Y0.50439
G01 X-1.80570 Y0.50629
G01 X-1.79995 Y0.50850
G01 X-1.79232 Y0.51098
G01 X-1.78744 Y0.51229
G01 X-1.77981 Y0.51392
G01 X-1.77548 Y0.51460
G01 X-1.76785 Y0.51541
G01 X-1.76378 Y0.51562
G01 X-1.75615 Y0.51562
G01 X-1.75208 Y0.51541
G01 X-1.74445 Y0.51460
G01 X-1.74012 Y0.51392
G01 X-1.73249 Y0.51229
G01 X-1.72762 Y0.51098
G01 X-1.71999 Y0.50850
G01 X-1.71423 Y0.50629
G01 X-1.70997 Y0.50439
G01 X-1.70570 Y0.50629
G01 X-1.69995 Y0.50850
G01 X-1.69232 Y0.51098
G01 X-1.68744 Y0.51229
G01 X-1.67981 Y0.51392
G01 X-1.67548 Y0.51460
G01 X-1.66785 Y0.51541
G01 X-1.66378 Y0.51562
G01 X-1.65615 Y0.51562
G01 X-1.65208 Y0.51541
G01 X-1.64445 Y0.51460
G01 X-1.64012 Y0.51392
G01 X-1.63249 Y0.51229
G01 X-1.62762 Y0.51098
G01 X-1.61999 Y0.50850
G01 X-1.61423 Y0.50629
G01 X-1.60997 Y0.50439
G01 X-1.60570 Y0.50629
G01 X-1.59995 Y0.50850
G01 X-1.59232 Y0.51098
G01 X-1.58744 Y0.51229
G01 X-1.57981 Y0.51392
G01 X-1.57548 Y0.51460
G01 X-1.56785 Y0.51541
G01 X-1.56378 Y0.51562
G01 X-1.55615 Y0.51562
G01 X-1.55208 Y0.51541
G01 X-1.54445 Y0.51460
G01 X-1.54012 Y0.51392
G01 X-1.53249 Y0.51229
G01 X-1.52762 Y0.51098
G01 X-1.51999 Y0.50850
G01 X-1.51423 Y0.50629
G01 X-1.50997 Y0.50439
G01 X-1.50997 Y0.49986
G01 X-1.50997 Y0.49324
G01 X-1.50997 Y0.48443
G01 X-1.50997 Y0.48023
G01 X-1.50997 Y0.47220
G01 X-1.50997 Y0.46906
G01 X-1.50997 Y0.46139
G01 X-1.50997 Y0.45997
G01 X-1.50997 Y0.45855
G01 X-1.50997 Y0.45088
G01 X-1.50997 Y0.44774
G01 X-1.50997 Y0.43971
G01 X-1.50997 Y0.43551
G01 X-1.50997 Y0.42670
G01 X-1.50997 Y0.42008
G01 X-1.50997 Y0.40981
G01 X-1.50997 Y0.40504
G01 X-1.50997 Y0.39764
G01 X-1.50997 Y0.38466
G01 X-1.50997 Y0.37503
G01 X-1.50997 Y0.38466
G01 X-1.50997 Y0.39764
G01 X-1.50997 Y0.40504
G01 X-1.51025 Y0.40475
G01 X-1.51333 Y0.40226
G01 X-1.51950 Y0.39778
G01 X-1.52282 Y0.39562
G01 X-1.52634 Y0.39383
G01 X-1.53331 Y0.39072
G01 X-1.53701 Y0.38931
G01 X-1.54083 Y0.38828
G01 X-1.54829 Y0.38669
G01 X-1.55220 Y0.38608
G01 X-1.55615 Y0.38587
G01 X-1.56378 Y0.38587
G01 X-1.56773 Y0.38608
G01 X-1.57164 Y0.38669
G01 X-1.57911 Y0.38828
G01 X-1.58293 Y0.38931
G01 X-1.58662 Y0.39072
G01 X-1.59359 Y0.39383
G01 X-1.59712 Y0.39562
G01 X-1.60044 Y0.39778
G01 X-1.60661 Y0.40226
G01 X-1.60968 Y0.40475
G01 X-1.60997 Y0.40504
G01 X-1.60997 Y0.40981
G01 X-1.60997 Y0.42008
G01 X-1.60997 Y0.42670
G01 X-1.60997 Y0.43551
G01 X-1.60997 Y0.43971
G01 X-1.60997 Y0.44774
G01 X-1.60997 Y0.45088
G01 X-1.60997 Y0.45855
G01 X-1.60997 Y0.45996
G01 X-1.60997 Y0.45998
G01 X-1.60997 Y0.46139
G01 X-1.60997 Y0.46906
G01 X-1.60997 Y0.47220
G01 X-1.60997 Y0.48023
G01 X-1.60997 Y0.48443
G01 X-1.60997 Y0.49324
G01 X-1.60997 Y0.49986
G01 X-1.60997 Y0.50439
G01 X-1.60997 Y0.49986
G01 X-1.60997 Y0.49324
G01 X-1.60997 Y0.48443
G01 X-1.60997 Y0.48023
G01 X-1.60997 Y0.47220
G01 X-1.60997 Y0.46906
G01 X-1.60997 Y0.46139
G01 X-1.60997 Y0.45998
G01 X-1.60997 Y0.45996
G01 X-1.60997 Y0.45855
G01 X-1.60997 Y0.45088
G01 X-1.60997 Y0.44774
G01 X-1.60997 Y0.43971
G01 X-1.60997 Y0.43551
G01 X-1.60997 Y0.42670
G01 X-1.60997 Y0.42008
G01 X-1.60997 Y0.40981
G01 X-1.60997 Y0.40504
G01 X-1.60997 Y0.39764
G01 X-1.60997 Y0.38466
G01 X-1.60997 Y0.37503
G01 X-1.60997 Y0.38466
G01 X-1.60997 Y0.39764
G01 X-1.60997 Y0.40504
G01 X-1.61025 Y0.40475
G01 X-1.61333 Y0.40226
G01 X-1.61950 Y0.39778
G01 X-1.62282 Y0.39562
G01 X-1.62634 Y0.39383
G01 X-1.63331 Y0.39072
G01 X-1.63701 Y0.38931
G01 X-1.64083 Y0.38828
G01 X-1.64829 Y0.38669
G01 X-1.65220 Y0.38608
G01 X-1.65615 Y0.38587
G01 X-1.66378 Y0.38587
G01 X-1.66773 Y0.38608
G01 X-1.67164 Y0.38669
G01 X-1.67911 Y0.38828
G01 X-1.68293 Y0.38931
G01 X-1.68662 Y0.39072
G01 X-1.69359 Y0.39383
G01 X-1.69712 Y0.39562
G01 X-1.70044 Y0.39778
G01 X-1.70661 Y0.40226
G01 X-1.70968 Y0.40475
G01 X-1.70997 Y0.40504
G01 X-1.70997 Y0.40981
G01 X-1.70997 Y0.42008
G01 X-1.70997 Y0.42670
G01 X-1.70997 Y0.43551
G01 X-1.70997 Y0.43971
G01 X-1.70997 Y0.44774
G01 X-1.70997 Y0.45088
G01 X-1.70997 Y0.45855
G01 X-1.70997 Y0.45997
G01 X-1.70997 Y0.46139
G01 X-1.70997 Y0.46906
G01 X-1.70997 Y0.47220
G01 X-1.70997 Y0.48023
G01 X-1.70997 Y0.48443
G01 X-1.70997 Y0.49324
G01 X-1.70997 Y0.49986
G01 X-1.70997 Y0.50439
G01 X-1.70997 Y0.49986
G01 X-1.70997 Y0.49324
G01 X-1.70997 Y0.48443
G01 X-1.70997 Y0.48023
G01 X-1.70997 Y0.47220
G01 X-1.70997 Y0.46906
G01 X-1.70997 Y0.46139
G01 X-1.70997 Y0.45997
G01 X-1.70997 Y0.45855
G01 X-1.70997 Y0.45088
G01 X-1.70997 Y0.44774
G01 X-1.70997 Y0.43971
G01 X-1.70997 Y0.43551
G01 X-1.70997 Y0.42670
G01 X-1.70997 Y0.42008
G01 X-1.70997 Y0.40981
G01 X-1.70997 Y0.40504
G01 X-1.70997 Y0.39764
G01 X-1.70997 Y0.38466
G01 X-1.70997 Y0.37503
G01 X-1.70997 Y0.35707
G01 X-1.70997 Y0.35706
G01 X-1.70997 Y0.34792
G01 X-1.70639 Y0.34633
G01 X-1.69795 Y0.34308
G01 X-1.68921 Y0.34074
G01 X-1.68175 Y0.33916
G01 X-1.67281 Y0.33774
G01 X-1.66378 Y0.33727
G01 X-1.65615 Y0.33727
G01 X-1.64712 Y0.33774
G01 X-1.63819 Y0.33916
G01 X-1.63073 Y0.34074
G01 X-1.62199 Y0.34308
G01 X-1.61355 Y0.34633
G01 X-1.60997 Y0.34792
G01 X-1.60639 Y0.34633
G01 X-1.59795 Y0.34308
G01 X-1.58921 Y0.34074
G01 X-1.58175 Y0.33916
G01 X-1.57281 Y0.33774
G01 X-1.56378 Y0.33727
G01 X-1.55615 Y0.33727
G01 X-1.54712 Y0.33774
G01 X-1.53819 Y0.33916
G01 X-1.53073 Y0.34074
G01 X-1.52199 Y0.34308
G01 X-1.51355 Y0.34633
G01 X-1.50997 Y0.34792
G01 X-1.50639 Y0.34633
G01 X-1.49795 Y0.34308
G01 X-1.48921 Y0.34074
G01 X-1.48175 Y0.33916
G01 X-1.47281 Y0.33774
G01 X-1.46378 Y0.33727
G01 X-1.45615 Y0.33727
G01 X-1.44712 Y0.33774
G01 X-1.43819 Y0.33916
G01 X-1.43073 Y0.34074
G01 X-1.42199 Y0.34308
G01 X-1.41355 Y0.34633
G01 X-1.40851 Y0.34857
G01 X-1.40859 Y0.34902
G01 X-1.40851 Y0.34857
G01 X-1.10997 Y0.34857
G01 X-1.10150 Y0.34899
G01 X-1.09662 Y0.34947
G01 X-1.08001 Y0.35277
G01 X-1.07532 Y0.35419
G01 X-1.06734 Y0.35705
G01 X-1.05967 Y0.36067
G01 X-1.05535 Y0.36298
G01 X-1.04808 Y0.36734
G01 X-1.04127 Y0.37239
G01 X-1.03748 Y0.37550
G01 X-1.03120 Y0.38120
G01 X-0.48120 Y0.93120
G01 X-0.47550 Y0.93748
G01 X-0.47239 Y0.94127
G01 X-0.46734 Y0.94808
G01 X-0.46298 Y0.95535
G01 X-0.46067 Y0.95967
G01 X-0.45419 Y0.97532
G01 X-0.45277 Y0.98001
G01 X-0.45071 Y0.98824
G01 X-0.44946 Y0.99662
G01 X-0.44898 Y1.00150
G01 X-0.44857 Y1.00997
G01 X-0.44857 Y1.30933
G01 X-0.44899 Y1.30941
G01 X-0.44857 Y1.30933
G01 X-0.44824 Y1.30998
G01 X-0.44500 Y1.31842
G01 X-0.44264 Y1.32568
G01 X-0.44030 Y1.33442
G01 X-0.43888 Y1.34335
G01 X-0.43808 Y1.35094
G01 X-0.43761 Y1.35997
G01 X-0.46191 Y1.35997
G01 X-0.48621 Y1.35997
G01 X-0.51051 Y1.35997
G01 X-0.51059 Y1.35856
G01 X-0.51138 Y1.35097
G01 X-0.51160 Y1.34957
G01 X-0.51197 Y1.34821
G01 X-0.51433 Y1.34095
G01 X-0.51483 Y1.33963
G01 X-0.51548 Y1.33837
G01 X-0.51929 Y1.33176
G01 X-0.52006 Y1.33058
G01 X-0.52095 Y1.32948
G01 X-0.52147 Y1.32891
G01 X-0.52147 Y1.00997
G01 X-0.52153 Y1.00865
G01 X-0.52201 Y1.00377
G01 X-0.52221 Y1.00246
G01 X-0.52253 Y1.00117
G01 X-0.52395 Y0.99648
G01 X-0.52497 Y0.99404
G01 X-0.52728 Y0.98972
G01 X-0.52796 Y0.98858
G01 X-0.52875 Y0.98752
G01 X-0.53185 Y0.98373
G01 X-0.53274 Y0.98275
G01 X-1.08274 Y0.43275
G01 X-1.08373 Y0.43186
G01 X-1.08751 Y0.42875
G01 X-1.08858 Y0.42796
G01 X-1.08971 Y0.42728
G01 X-1.09404 Y0.42497
G01 X-1.09523 Y0.42440
G01 X-1.09648 Y0.42395
G01 X-1.10117 Y0.42253
G01 X-1.10377 Y0.42201
G01 X-1.10864 Y0.42153
G01 X-1.10997 Y0.42147
G01 X-1.42823 Y0.42147
G01 X-1.43378 Y0.41744
G01 X-1.43497 Y0.41667
G01 X-1.43623 Y0.41603
G01 X-1.44320 Y0.41292
G01 X-1.44452 Y0.41242
G01 X-1.44588 Y0.41205
G01 X-1.45335 Y0.41046
G01 X-1.45474 Y0.41024
G01 X-1.45615 Y0.41017
G01 X-1.46378 Y0.41017
G01 X-1.46519 Y0.41024
G01 X-1.46659 Y0.41046
G01 X-1.47405 Y0.41205
G01 X-1.47542 Y0.41242
G01 X-1.47674 Y0.41292
G01 X-1.48371 Y0.41603
G01 X-1.48497 Y0.41667
G01 X-1.48615 Y0.41744
G01 X-1.49233 Y0.42192
G01 X-1.49342 Y0.42281
G01 X-1.49442 Y0.42381
G01 X-1.49953 Y0.42948
G01 X-1.50042 Y0.43058
G01 X-1.50119 Y0.43176
G01 X-1.50500 Y0.43837
G01 X-1.50565 Y0.43963
G01 X-1.50615 Y0.44095
G01 X-1.50851 Y0.44821
G01 X-1.50888 Y0.44957
G01 X-1.50910 Y0.45097
G01 X-1.50989 Y0.45856
G01 X-1.50997 Y0.45997
G01 X-1.50989 Y0.46138
G01 X-1.50910 Y0.46897
G01 X-1.50888 Y0.47036
G01 X-1.50851 Y0.47173
G01 X-1.50615 Y0.47899
G01 X-1.50565 Y0.48031
G01 X-1.50500 Y0.48156
G01 X-1.50119 Y0.48817
G01 X-1.50042 Y0.48936
G01 X-1.49953 Y0.49046
G01 X-1.49442 Y0.49613
G01 X-1.49342 Y0.49713
G01 X-1.49233 Y0.49802
G01 X-1.48615 Y0.50250
G01 X-1.48497 Y0.50327
G01 X-1.48371 Y0.50391
G01 X-1.47674 Y0.50702
G01 X-1.47542 Y0.50752
G01 X-1.47405 Y0.50789
G01 X-1.46659 Y0.50947
G01 X-1.46519 Y0.50970
G01 X-1.46378 Y0.50977
G01 X-1.45615 Y0.50977
G01 X-1.45474 Y0.50970
G01 X-1.45335 Y0.50947
G01 X-1.44588 Y0.50789
G01 X-1.44452 Y0.50752
G01 X-1.44320 Y0.50702
G01 X-1.43623 Y0.50391
G01 X-1.43497 Y0.50327
G01 X-1.43378 Y0.50250
G01 X-1.42823 Y0.49847
G01 X-1.12592 Y0.49847
G01 X-0.59847 Y1.02592
G01 X-0.59847 Y1.32770
G01 X-0.60007 Y1.32948
G01 X-0.60096 Y1.33058
G01 X-0.60173 Y1.33176
G01 X-0.60555 Y1.33837
G01 X-0.60619 Y1.33963
G01 X-0.60669 Y1.34095
G01 X-0.60905 Y1.34821
G01 X-0.60942 Y1.34957
G01 X-0.60964 Y1.35097
G01 X-0.61024 Y1.35666
G01 X-0.61024 Y1.35668
G01 X-0.61084 Y1.35097
G01 X-0.61106 Y1.34957
G01 X-0.61143 Y1.34821
G01 X-0.61378 Y1.34095
G01 X-0.61429 Y1.33963
G01 X-0.61493 Y1.33837
G01 X-0.61875 Y1.33176
G01 X-0.61952 Y1.33058
G01 X-0.62041 Y1.32948
G01 X-0.62147 Y1.32830
G01 X-0.62147 Y1.05997
G01 X-0.62151 Y1.05891
G01 X-0.62182 Y1.05500
G01 X-0.62215 Y1.05291
G01 X-0.62306 Y1.04909
G01 X-0.62372 Y1.04708
G01 X-0.62522 Y1.04345
G01 X-0.62618 Y1.04157
G01 X-0.62823 Y1.03822
G01 X-0.62948 Y1.03651
G01 X-0.63202 Y1.03352
G01 X-0.63274 Y1.03275
G01 X-1.13274 Y0.53275
G01 X-1.13373 Y0.53186
G01 X-1.13751 Y0.52875
G01 X-1.13971 Y0.52728
G01 X-1.14404 Y0.52497
G01 X-1.14648 Y0.52395
G01 X-1.15117 Y0.52253
G01 X-1.15377 Y0.52201
G01 X-1.15864 Y0.52153
G01 X-1.15997 Y0.52147
G01 X-1.80997 Y0.52147
G01 X-1.81129 Y0.52153
G01 X-1.81617 Y0.52201
G01 X-1.81876 Y0.52253
G01 X-1.82345 Y0.52395
G01 X-1.82470 Y0.52440
G01 X-1.82590 Y0.52497
G01 X-1.83022 Y0.52728
G01 X-1.83136 Y0.52796
G01 X-1.83242 Y0.52875
G01 X-1.83621 Y0.53186
G01 X-1.83719 Y0.53275
G01 X-1.88719 Y0.58275
G01 X-1.88808 Y0.58373
G01 X-1.89119 Y0.58752
G01 X-1.89198 Y0.58858
G01 X-1.89266 Y0.58972
G01 X-1.89497 Y0.59404
G01 X-1.89554 Y0.59524
G01 X-1.89598 Y0.59648
G01 X-1.89741 Y0.60117
G01 X-1.89748 Y0.60156
G01 X-1.92831 Y0.60156
G01 X-1.92885 Y0.60112
G01 X-1.93118 Y0.59987
G01 X-1.93371 Y0.59910
G01 X-1.93635 Y0.59885
G01 X-1.98359 Y0.59885
G01 X-1.98622 Y0.59910
G01 X-1.98876 Y0.59987
G01 X-1.99109 Y0.60112
G01 X-1.99163 Y0.60156
G01 X-2.02831 Y0.60156
G01 X-2.02885 Y0.60112
G01 X-2.03118 Y0.59987
G01 X-2.03371 Y0.59910
G01 X-2.03635 Y0.59885
G01 X-2.08359 Y0.59885
G01 X-2.08622 Y0.59910
G01 X-2.08876 Y0.59987
G01 X-2.09109 Y0.60112
G01 X-2.09163 Y0.60156
G01 X-2.12831 Y0.60156
G01 X-2.12885 Y0.60112
G01 X-2.13118 Y0.59987
G01 X-2.13371 Y0.59910
G01 X-2.13635 Y0.59885
G01 X-2.18359 Y0.59885
G01 X-2.18622 Y0.59910
G01 X-2.18876 Y0.59987
G01 X-2.19109 Y0.60112
G01 X-2.19163 Y0.60156
G01 X-2.22831 Y0.60156
G01 X-2.22885 Y0.60112
G01 X-2.23118 Y0.59987
G01 X-2.23371 Y0.59910
G01 X-2.23635 Y0.59885
G01 X-2.28359 Y0.59885
G01 X-2.28622 Y0.59910
G01 X-2.28876 Y0.59987
G01 X-2.29109 Y0.60112
G01 X-2.29163 Y0.60156
G01 X-2.32831 Y0.60156
G01 X-2.32885 Y0.60112
G01 X-2.33118 Y0.59987
G01 X-2.33371 Y0.59910
G01 X-2.33635 Y0.59885
G01 X-2.38359 Y0.59885
G01 X-2.38622 Y0.59910
G01 X-2.38876 Y0.59987
G01 X-2.39109 Y0.60112
G01 X-2.39163 Y0.60156
G01 X-2.42831 Y0.60156
G01 X-2.42885 Y0.60112
G01 X-2.43118 Y0.59987
G01 X-2.43371 Y0.59910
G01 X-2.43635 Y0.59885
G01 X-2.48359 Y0.59885
G01 X-2.48622 Y0.59910
G01 X-2.48876 Y0.59987
G01 X-2.49109 Y0.60112
G01 X-2.49163 Y0.60156
G01 X-2.52831 Y0.60156
G01 X-2.52885 Y0.60112
G01 X-2.53118 Y0.59987
G01 X-2.53371 Y0.59910
G01 X-2.53635 Y0.59885
G01 X-2.58359 Y0.59885
G01 X-2.58622 Y0.59910
G01 X-2.58876 Y0.59987
G01 X-2.59109 Y0.60112
G01 X-2.59163 Y0.60156
G01 X-2.62765 Y0.60156
G01 X-2.62885 Y0.60058
G01 X-2.63118 Y0.59933
G01 X-2.63371 Y0.59856
G01 X-2.63635 Y0.59830
G01 X-2.68359 Y0.59830
G01 X-2.68622 Y0.59856
G01 X-2.68876 Y0.59933
G01 X-2.69109 Y0.60058
G01 X-2.69153 Y0.60094
G01 X-2.82147 Y0.60060
G01 X-2.82147 Y0.49164
G01 X-2.82041 Y0.49046
G01 X-2.81952 Y0.48936
G01 X-2.81875 Y0.48817
G01 X-2.81493 Y0.48156
G01 X-2.81429 Y0.48031
G01 X-2.81378 Y0.47899
G01 X-2.81143 Y0.47173
G01 X-2.81106 Y0.47036
G01 X-2.81084 Y0.46897
G01 X-2.81004 Y0.46138
G01 X-2.80997 Y0.45997
G01 X-2.80989 Y0.46138
G01 X-2.80910 Y0.46897
G01 X-2.80888 Y0.47036
G01 X-2.80851 Y0.47173
G01 X-2.80615 Y0.47899
G01 X-2.80565 Y0.48031
G01 X-2.80500 Y0.48156
G01 X-2.80119 Y0.48817
G01 X-2.80042 Y0.48936
G01 X-2.79953 Y0.49046
G01 X-2.79442 Y0.49613
G01 X-2.79342 Y0.49713
G01 X-2.79233 Y0.49802
G01 X-2.78615 Y0.50250
G01 X-2.78497 Y0.50327
G01 X-2.78371 Y0.50391
G01 X-2.77674 Y0.50702
G01 X-2.77542 Y0.50752
G01 X-2.77405 Y0.50789
G01 X-2.76659 Y0.50947
G01 X-2.76519 Y0.50970
G01 X-2.76378 Y0.50977
G01 X-2.75615 Y0.50977
G01 X-2.75474 Y0.50970
G01 X-2.75335 Y0.50947
G01 X-2.74588 Y0.50789
G01 X-2.74452 Y0.50752
G01 X-2.74320 Y0.50702
G01 X-2.73623 Y0.50391
G01 X-2.73497 Y0.50327
G01 X-2.73378 Y0.50250
G01 X-2.72761 Y0.49802
G01 X-2.72651 Y0.49713
G01 X-2.72551 Y0.49613
G01 X-2.72041 Y0.49046
G01 X-2.71952 Y0.48936
G01 X-2.71875 Y0.48817
G01 X-2.71493 Y0.48156
G01 X-2.71429 Y0.48031
G01 X-2.71378 Y0.47899
G01 X-2.71143 Y0.47173
G01 X-2.71106 Y0.47036
G01 X-2.71084 Y0.46897
G01 X-2.71004 Y0.46138
G01 X-2.70997 Y0.45997
G01 X-2.70989 Y0.46138
G01 X-2.70910 Y0.46897
G01 X-2.70888 Y0.47036
G01 X-2.70851 Y0.47173
G01 X-2.70615 Y0.47899
G01 X-2.70565 Y0.48031
G01 X-2.70500 Y0.48156
G01 X-2.70119 Y0.48817
G01 X-2.70042 Y0.48936
G01 X-2.69953 Y0.49046
G01 X-2.69442 Y0.49613
G01 X-2.69342 Y0.49713
G01 X-2.69233 Y0.49802
G01 X-2.68615 Y0.50250
G01 X-2.68497 Y0.50327
G01 X-2.68371 Y0.50391
G01 X-2.67674 Y0.50702
G01 X-2.67542 Y0.50752
G01 X-2.67405 Y0.50789
G01 X-2.66659 Y0.50947
G01 X-2.66519 Y0.50970
G01 X-2.66378 Y0.50977
G01 X-2.65615 Y0.50977
G01 X-2.65474 Y0.50970
G01 X-2.65335 Y0.50947
G01 X-2.64588 Y0.50789
G01 X-2.64452 Y0.50752
G01 X-2.64320 Y0.50702
G01 X-2.63623 Y0.50391
G01 X-2.63497 Y0.50327
G01 X-2.63378 Y0.50250
G01 X-2.62761 Y0.49802
G01 X-2.62651 Y0.49713
G01 X-2.62551 Y0.49613
G01 X-2.62041 Y0.49046
G01 X-2.61952 Y0.48936
G01 X-2.61875 Y0.48817
G01 X-2.61493 Y0.48156
G01 X-2.61429 Y0.48031
G01 X-2.61378 Y0.47899
G01 X-2.61143 Y0.47173
G01 X-2.61106 Y0.47036
G01 X-2.61084 Y0.46897
G01 X-2.61004 Y0.46138
G01 X-2.60997 Y0.45997
G01 X-2.61004 Y0.45856
G01 X-2.61084 Y0.45097
G01 X-2.61106 Y0.44957
G01 X-2.61143 Y0.44821
G01 X-2.61378 Y0.44095
G01 X-2.61429 Y0.43963
G01 X-2.61493 Y0.43837
G01 X-2.61875 Y0.43176
G01 X-2.61952 Y0.43058
G01 X-2.62041 Y0.42948
G01 X-2.62551 Y0.42381
G01 X-2.62651 Y0.42281
G01 X-2.62761 Y0.42192
G01 X-2.63378 Y0.41744
G01 X-2.63497 Y0.41667
G01 X-2.63623 Y0.41603
G01 X-2.64320 Y0.41292
G01 X-2.64452 Y0.41242
G01 X-2.64588 Y0.41205
G01 X-2.65335 Y0.41046
G01 X-2.65474 Y0.41024
G01 X-2.65615 Y0.41017
G01 X-2.66378 Y0.41017
G01 X-2.66519 Y0.41024
G01 X-2.66659 Y0.41046
G01 X-2.67405 Y0.41205
G01 X-2.67542 Y0.41242
G01 X-2.67674 Y0.41292
G01 X-2.68371 Y0.41603
G01 X-2.68497 Y0.41667
G01 X-2.68615 Y0.41744
G01 X-2.69233 Y0.42192
G01 X-2.69342 Y0.42281
G01 X-2.69442 Y0.42381
G01 X-2.69953 Y0.42948
G01 X-2.70042 Y0.43058
G01 X-2.70119 Y0.43176
G01 X-2.70500 Y0.43837
G01 X-2.70565 Y0.43963
G01 X-2.70615 Y0.44095
G01 X-2.70851 Y0.44821
G01 X-2.70888 Y0.44957
G01 X-2.70910 Y0.45097
G01 X-2.70989 Y0.45856
G01 X-2.70997 Y0.45997
G01 X-2.71004 Y0.45856
G01 X-2.71084 Y0.45097
G01 X-2.71106 Y0.44957
G01 X-2.71143 Y0.44821
G01 X-2.71378 Y0.44095
G01 X-2.71429 Y0.43963
G01 X-2.71493 Y0.43837
G01 X-2.71875 Y0.43176
G01 X-2.71952 Y0.43058
G01 X-2.72041 Y0.42948
G01 X-2.72551 Y0.42381
G01 X-2.72651 Y0.42281
G01 X-2.72761 Y0.42192
G01 X-2.73378 Y0.41744
G01 X-2.73497 Y0.41667
G01 X-2.73623 Y0.41603
G01 X-2.74320 Y0.41292
G01 X-2.74452 Y0.41242
G01 X-2.74588 Y0.41205
G01 X-2.75335 Y0.41046
G01 X-2.75474 Y0.41024
G01 X-2.75615 Y0.41017
G01 X-2.76378 Y0.41017
G01 X-2.76519 Y0.41024
G01 X-2.76659 Y0.41046
G01 X-2.77405 Y0.41205
G01 X-2.77542 Y0.41242
G01 X-2.77674 Y0.41292
G01 X-2.78371 Y0.41603
G01 X-2.78497 Y0.41667
G01 X-2.78615 Y0.41744
G01 X-2.79233 Y0.42192
G01 X-2.79342 Y0.42281
G01 X-2.79442 Y0.42381
G01 X-2.79953 Y0.42948
G01 X-2.80042 Y0.43058
G01 X-2.80119 Y0.43176
G01 X-2.80500 Y0.43837
G01 X-2.80565 Y0.43963
G01 X-2.80615 Y0.44095
G01 X-2.80851 Y0.44821
G01 X-2.80888 Y0.44957
G01 X-2.80910 Y0.45097
G01 X-2.80989 Y0.45856
G01 X-2.80997 Y0.45997
G01 X-2.80997 Y0.45855
G01 X-2.80997 Y0.45088
G01 X-2.80997 Y0.44774
G01 X-2.80997 Y0.43971
G01 X-2.80997 Y0.43551
G01 X-2.80997 Y0.42670
G01 X-2.80997 Y0.42008
G01 X-2.80997 Y0.40981
G01 X-2.80997 Y0.40504
G01 X-2.80997 Y0.39764
G01 X-2.80997 Y0.38466
G01 X-2.80997 Y0.37503
G01 X-2.80997 Y0.38466
G01 X-2.80997 Y0.39764
G01 X-2.80997 Y0.40504
G01 X-2.80997 Y0.40981
G01 X-2.80997 Y0.42008
G01 X-2.80997 Y0.42670
G01 X-2.80997 Y0.43551
G01 X-2.80997 Y0.43971
G01 X-2.80997 Y0.44774
G01 X-2.80997 Y0.45088
G01 X-2.80997 Y0.45855
G01 X-2.80997 Y0.45997
G01 X-2.80997 Y0.46139
G01 X-2.80997 Y0.46906
G01 X-2.80997 Y0.47220
G01 X-2.80997 Y0.48023
G01 X-2.80997 Y0.48443
G01 X-2.80997 Y0.49324
G01 X-2.80997 Y0.49577
G01 X-2.81041 Y0.49586
G01 X-2.80997 Y0.49577
G01 X-2.80888 Y0.49888
G01 X-2.80595 Y0.50651
G01 X-2.80311 Y0.51286
G01 X-2.80315 Y0.51288
G01 X-2.80311 Y0.51286
G01 X-2.79923 Y0.52049
G01 X-2.79717 Y0.52405
G01 X-2.79697 Y0.52439
G01 X-2.79463 Y0.52843
G01 X-2.79466 Y0.52845
G01 X-2.79463 Y0.52843
G01 X-2.78967 Y0.53606
G01 X-2.78222 Y0.54628
G01 X-2.78223 Y0.54629
G01 X-2.78222 Y0.54628
G01 X-2.77604 Y0.55391
G01 X-2.77542 Y0.55467
G01 X-2.77650 Y0.55684
G01 X-2.77542 Y0.55467
G01 X-2.76378 Y0.55526
G01 X-2.75615 Y0.55527
G01 X-2.75615 Y0.55529
G01 X-2.75615 Y0.55527
G01 X-2.74374 Y0.55463
G01 X-2.74374 Y0.55465
G01 X-2.74374 Y0.55463
G01 X-2.73611 Y0.55384
G01 X-2.72533 Y0.55214
G01 X-2.72343 Y0.55141
G01 X-2.71646 Y0.54831
G01 X-2.71067 Y0.54536
G01 X-2.70997 Y0.54490
G01 X-2.70927 Y0.54536
G01 X-2.70348 Y0.54831
G01 X-2.69701 Y0.55119
G01 X-2.69701 Y0.55119
G01 X-2.69675 Y0.55121
G01 X-2.70038 Y0.55232
G01 X-2.70034 Y0.55258
G01 X-2.70038 Y0.55232
G01 X-2.72599 Y0.55225
G01 X-2.73611 Y0.55384
G01 X-2.72533 Y0.55214
G01 X-2.72325 Y0.55181
G01 X-2.72324 Y0.55183
G01 X-2.72325 Y0.55181
G01 X-2.71561 Y0.55020
G01 X-2.70997 Y0.54888
G01 X-2.70433 Y0.55022
G01 X-2.70162 Y0.55080
G01 X-2.70162 Y0.55084
G01 X-2.70162 Y0.55080
G01 X-2.69701 Y0.55119
G01 X-2.69675 Y0.55121
G01 X-2.69643 Y0.55124
G01 X-2.68359 Y0.55259
G01 X-2.68356 Y0.55260
G01 X-2.67593 Y0.55340
G01 X-2.66378 Y0.55404
G01 X-2.66378 Y0.55406
G01 X-2.66378 Y0.55404
G01 X-2.65615 Y0.55404
G01 X-2.64401 Y0.55340
G01 X-2.64400 Y0.55341
G01 X-2.64401 Y0.55340
G01 X-2.63637 Y0.55260
G01 X-2.63635 Y0.55259
G01 X-2.62350 Y0.55124
G01 X-2.62318 Y0.55122
G01 X-2.62294 Y0.55120
G01 X-2.61612 Y0.55067
G01 X-2.61611 Y0.55072
G01 X-2.61612 Y0.55067
G01 X-2.61546 Y0.55053
G01 X-2.60997 Y0.54924
G01 X-2.60447 Y0.55053
G01 X-2.60204 Y0.55105
G01 X-2.60205 Y0.55109
G01 X-2.60204 Y0.55105
G01 X-2.59655 Y0.55151
G01 X-2.59615 Y0.55155
G01 X-2.59609 Y0.55156
G01 X-2.58362 Y0.55286
G01 X-2.58359 Y0.55287
G01 X-2.57599 Y0.55367
G01 X-2.57599 Y0.55368
G01 X-2.57599 Y0.55367
G01 X-2.56378 Y0.55431
G01 X-2.56378 Y0.55435
G01 X-2.56378 Y0.55431
G01 X-2.55615 Y0.55431
G01 X-2.55615 Y0.55435
G01 X-2.55615 Y0.55431
G01 X-2.54395 Y0.55367
G01 X-2.54395 Y0.55368
G01 X-2.54395 Y0.55367
G01 X-2.53634 Y0.55287
G01 X-2.53632 Y0.55286
G01 X-2.52384 Y0.55156
G01 X-2.52384 Y0.55156
G01 X-2.52384 Y0.55156
G01 X-2.52378 Y0.55155
G01 X-2.52343 Y0.55141
G01 X-2.51646 Y0.54831
G01 X-2.51067 Y0.54536
G01 X-2.50997 Y0.54490
G01 X-2.50927 Y0.54536
G01 X-2.50348 Y0.54831
G01 X-2.49651 Y0.55141
G01 X-2.49615 Y0.55155
G01 X-2.49615 Y0.55155
G01 X-2.49609 Y0.55156
G01 X-2.50073 Y0.55296
G01 X-2.50069 Y0.55323
G01 X-2.50073 Y0.55296
G01 X-2.51921 Y0.55296
G01 X-2.51925 Y0.55323
G01 X-2.51921 Y0.55296
G01 X-2.52384 Y0.55156
G01 X-2.52378 Y0.55155
G01 X-2.52338 Y0.55151
G01 X-2.51789 Y0.55105
G01 X-2.51788 Y0.55110
G01 X-2.51789 Y0.55105
G01 X-2.51546 Y0.55053
G01 X-2.50997 Y0.54924
G01 X-2.50447 Y0.55053
G01 X-2.50204 Y0.55105
G01 X-2.50205 Y0.55109
G01 X-2.50204 Y0.55105
G01 X-2.49655 Y0.55151
G01 X-2.49615 Y0.55155
G01 X-2.49609 Y0.55156
G01 X-2.48362 Y0.55286
G01 X-2.48359 Y0.55287
G01 X-2.47599 Y0.55367
G01 X-2.47599 Y0.55368
G01 X-2.47599 Y0.55367
G01 X-2.46378 Y0.55431
G01 X-2.45615 Y0.55431
G01 X-2.45615 Y0.55435
G01 X-2.45615 Y0.55431
G01 X-2.44395 Y0.55367
G01 X-2.43635 Y0.55287
G01 X-2.43632 Y0.55286
G01 X-2.42384 Y0.55156
G01 X-2.42384 Y0.55156
G01 X-2.42384 Y0.55156
G01 X-2.42378 Y0.55155
G01 X-2.42343 Y0.55141
G01 X-2.41646 Y0.54831
G01 X-2.41067 Y0.54536
G01 X-2.40997 Y0.54490
G01 X-2.40927 Y0.54536
G01 X-2.40348 Y0.54831
G01 X-2.39651 Y0.55141
G01 X-2.39615 Y0.55155
G01 X-2.39615 Y0.55155
G01 X-2.39609 Y0.55156
G01 X-2.40073 Y0.55296
G01 X-2.40069 Y0.55323
G01 X-2.40073 Y0.55296
G01 X-2.41921 Y0.55296
G01 X-2.41925 Y0.55323
G01 X-2.41921 Y0.55296
G01 X-2.42384 Y0.55156
G01 X-2.42378 Y0.55155
G01 X-2.42338 Y0.55151
G01 X-2.41789 Y0.55105
G01 X-2.41788 Y0.55110
G01 X-2.41789 Y0.55105
G01 X-2.41546 Y0.55053
G01 X-2.40997 Y0.54924
G01 X-2.40447 Y0.55053
G01 X-2.40204 Y0.55105
G01 X-2.40205 Y0.55109
G01 X-2.40204 Y0.55105
G01 X-2.39655 Y0.55151
G01 X-2.39615 Y0.55155
G01 X-2.39609 Y0.55156
G01 X-2.38362 Y0.55286
G01 X-2.38359 Y0.55287
G01 X-2.37599 Y0.55367
G01 X-2.37599 Y0.55368
G01 X-2.37599 Y0.55367
G01 X-2.36378 Y0.55431
G01 X-2.35615 Y0.55431
G01 X-2.35615 Y0.55435
G01 X-2.35615 Y0.55431
G01 X-2.34395 Y0.55367
G01 X-2.33635 Y0.55287
G01 X-2.33632 Y0.55286
G01 X-2.32378 Y0.55155
G01 X-2.32343 Y0.55141
G01 X-2.31646 Y0.54831
G01 X-2.31067 Y0.54536
G01 X-2.30997 Y0.54490
G01 X-2.30927 Y0.54536
G01 X-2.30348 Y0.54831
G01 X-2.29651 Y0.55141
G01 X-2.29615 Y0.55155
G01 X-2.29615 Y0.55155
G01 X-2.29609 Y0.55156
G01 X-2.30073 Y0.55296
G01 X-2.30069 Y0.55323
G01 X-2.30073 Y0.55296
G01 X-2.31921 Y0.55296
G01 X-2.31925 Y0.55323
G01 X-2.31921 Y0.55296
G01 X-2.32384 Y0.55156
G01 X-2.33632 Y0.55286
G01 X-2.32378 Y0.55155
G01 X-2.32338 Y0.55151
G01 X-2.31789 Y0.55105
G01 X-2.31788 Y0.55110
G01 X-2.31789 Y0.55105
G01 X-2.31546 Y0.55053
G01 X-2.30997 Y0.54924
G01 X-2.30447 Y0.55053
G01 X-2.30204 Y0.55105
G01 X-2.30205 Y0.55109
G01 X-2.30204 Y0.55105
G01 X-2.29655 Y0.55151
G01 X-2.29615 Y0.55155
G01 X-2.29609 Y0.55156
G01 X-2.28362 Y0.55286
G01 X-2.28359 Y0.55287
G01 X-2.27599 Y0.55367
G01 X-2.27599 Y0.55368
G01 X-2.27599 Y0.55367
G01 X-2.26378 Y0.55431
G01 X-2.25615 Y0.55431
G01 X-2.25615 Y0.55435
G01 X-2.25615 Y0.55431
G01 X-2.24395 Y0.55367
G01 X-2.23634 Y0.55287
G01 X-2.23632 Y0.55286
G01 X-2.22384 Y0.55156
G01 X-2.22384 Y0.55156
G01 X-2.22384 Y0.55156
G01 X-2.22378 Y0.55155
G01 X-2.22343 Y0.55141
G01 X-2.21646 Y0.54831
G01 X-2.21067 Y0.54536
G01 X-2.20997 Y0.54490
G01 X-2.20927 Y0.54536
G01 X-2.20348 Y0.54831
G01 X-2.19651 Y0.55141
G01 X-2.19615 Y0.55155
G01 X-2.19615 Y0.55155
G01 X-2.19609 Y0.55156
G01 X-2.20073 Y0.55296
G01 X-2.20069 Y0.55323
G01 X-2.20073 Y0.55296
G01 X-2.21921 Y0.55296
G01 X-2.21925 Y0.55323
G01 X-2.21921 Y0.55296
G01 X-2.22384 Y0.55156
G01 X-2.22378 Y0.55155
G01 X-2.22338 Y0.55151
G01 X-2.21789 Y0.55105
G01 X-2.21788 Y0.55110
G01 X-2.21789 Y0.55105
G01 X-2.21546 Y0.55053
G01 X-2.20997 Y0.54924
G01 X-2.20447 Y0.55053
G01 X-2.20204 Y0.55105
G01 X-2.20205 Y0.55109
G01 X-2.20204 Y0.55105
G01 X-2.19655 Y0.55151
G01 X-2.19615 Y0.55155
G01 X-2.19609 Y0.55156
G01 X-2.18362 Y0.55286
G01 X-2.18359 Y0.55287
G01 X-2.17599 Y0.55367
G01 X-2.17599 Y0.55368
G01 X-2.17599 Y0.55367
G01 X-2.16378 Y0.55431
G01 X-2.16378 Y0.55435
G01 X-2.16378 Y0.55431
G01 X-2.15615 Y0.55431
G01 X-2.15615 Y0.55435
G01 X-2.15615 Y0.55431
G01 X-2.14395 Y0.55367
G01 X-2.14395 Y0.55368
G01 X-2.14395 Y0.55367
G01 X-2.13635 Y0.55287
G01 X-2.13632 Y0.55286
G01 X-2.12384 Y0.55156
G01 X-2.12384 Y0.55156
G01 X-2.12384 Y0.55156
G01 X-2.12378 Y0.55155
G01 X-2.12343 Y0.55141
G01 X-2.11646 Y0.54831
G01 X-2.11067 Y0.54536
G01 X-2.10997 Y0.54490
G01 X-2.10927 Y0.54536
G01 X-2.10348 Y0.54831
G01 X-2.09651 Y0.55141
G01 X-2.09615 Y0.55155
G01 X-2.09615 Y0.55155
G01 X-2.09609 Y0.55156
G01 X-2.10073 Y0.55296
G01 X-2.10069 Y0.55323
G01 X-2.10073 Y0.55296
G01 X-2.11921 Y0.55296
G01 X-2.11925 Y0.55323
G01 X-2.11921 Y0.55296
G01 X-2.12384 Y0.55156
G01 X-2.12378 Y0.55155
G01 X-2.12338 Y0.55151
G01 X-2.11789 Y0.55105
G01 X-2.11788 Y0.55110
G01 X-2.11789 Y0.55105
G01 X-2.11546 Y0.55053
G01 X-2.10997 Y0.54924
G01 X-2.10447 Y0.55053
G01 X-2.10204 Y0.55105
G01 X-2.10205 Y0.55109
G01 X-2.10204 Y0.55105
G01 X-2.09655 Y0.55151
G01 X-2.09615 Y0.55155
G01 X-2.09609 Y0.55156
G01 X-2.08362 Y0.55286
G01 X-2.08359 Y0.55287
G01 X-2.07599 Y0.55367
G01 X-2.07599 Y0.55368
G01 X-2.07599 Y0.55367
G01 X-2.06378 Y0.55431
G01 X-2.06378 Y0.55435
G01 X-2.06378 Y0.55431
G01 X-2.05615 Y0.55431
G01 X-2.05615 Y0.55435
G01 X-2.05615 Y0.55431
G01 X-2.04395 Y0.55367
G01 X-2.04395 Y0.55368
G01 X-2.04395 Y0.55367
G01 X-2.03634 Y0.55287
G01 X-2.03632 Y0.55286
G01 X-2.02384 Y0.55156
G01 X-2.02384 Y0.55156
G01 X-2.02384 Y0.55156
G01 X-2.02378 Y0.55155
G01 X-2.02343 Y0.55141
G01 X-2.01646 Y0.54831
G01 X-2.01067 Y0.54536
G01 X-2.00997 Y0.54490
G01 X-2.00997 Y0.53528
G01 X-2.00997 Y0.52230
G01 X-2.00997 Y0.51490
G01 X-2.00997 Y0.51013
G01 X-2.00997 Y0.49986
G01 X-2.00997 Y0.49324
G01 X-2.00997 Y0.48443
G01 X-2.00997 Y0.48023
G01 X-2.00997 Y0.47220
G01 X-2.00997 Y0.46906
G01 X-2.00997 Y0.46139
G01 X-2.00997 Y0.45997
G01 X-2.00997 Y0.45855
G01 X-2.00997 Y0.45088
G01 X-2.00997 Y0.44774
G01 X-2.00997 Y0.43971
G01 X-2.00997 Y0.43551
G01 X-2.00997 Y0.42670
G01 X-2.00997 Y0.42008
G01 X-2.00997 Y0.40981
G01 X-2.00997 Y0.40504
G01 X-2.00997 Y0.39764
G01 X-2.00997 Y0.38466
G01 X-2.00997 Y0.37503
G01 X-2.00997 Y0.38466
G01 X-2.00997 Y0.39764
G01 X-2.00997 Y0.40504
G01 X-2.00997 Y0.40981
G01 X-2.00997 Y0.42008
G01 X-2.00997 Y0.42670
G01 X-2.00997 Y0.43551
G01 X-2.00997 Y0.43971
G01 X-2.00997 Y0.44774
G01 X-2.00997 Y0.45088
G01 X-2.00997 Y0.45855
G01 X-2.00997 Y0.45997
G01 X-2.00997 Y0.46139
G01 X-2.00997 Y0.46906
G01 X-2.00997 Y0.47220
G01 X-2.00997 Y0.48023
G01 X-2.00997 Y0.48443
G01 X-2.00997 Y0.49324
G01 X-2.00997 Y0.49986
G01 X-2.00997 Y0.51013
G01 X-2.00997 Y0.51490
G01 X-2.00997 Y0.52230
G01 X-2.00997 Y0.53528
G01 X-2.00997 Y0.54490
G01 X-2.00997 Y0.54924
G01 X-2.00997 Y0.54490
G01 X-2.00927 Y0.54536
G01 X-2.00348 Y0.54831
G01 X-1.99651 Y0.55141
G01 X-1.99615 Y0.55155
G01 X-1.99615 Y0.55155
G01 X-1.99609 Y0.55156
G01 X-2.00073 Y0.55296
G01 X-2.00069 Y0.55323
G01 X-2.00073 Y0.55296
G01 X-2.01921 Y0.55296
G01 X-2.01925 Y0.55323
G01 X-2.01921 Y0.55296
G01 X-2.02384 Y0.55156
G04 P0 ( dwell for no time -- G64 should not smooth over this point )
G00 Z0.05000 ( retract )

G00 X-1.90997 Y0.37503 ( rapid move to begin. )
G01 F5.00000
( Mill infeed pass 1/1 )
G01 Z-0.00400
G04 P0 ( dwell for no time -- G64 should not smooth over this point )
G01 F25.00000
G01 X-1.90997 Y0.37503
G01 X-1.90997 Y0.37503
G04 P0 ( dwell for no time -- G64 should not smooth over this point )
G00 Z0.05000 ( retract )

G00 X-1.90997 Y0.37503 ( rapid move to begin. )
G01 F5.00000
( Mill infeed pass 1/1 )
G01 Z-0.00400
G04 P0 ( dwell for no time -- G64 should not smooth over this point )
G01 F25.00000
G01 X-1.90997 Y0.37503
G01 X-1.90997 Y0.35707
G01 X-1.90997 Y0.35706
G01 X-1.90997 Y0.34792
G01 X-1.90997 Y0.35706
G01 X-1.90997 Y0.35707
G01 X-1.90997 Y0.37503
G01 X-1.91067 Y0.37458
G01 X-1.91646 Y0.37163
G01 X-1.92343 Y0.36852
G01 X-1.92950 Y0.36619
G01 X-1.93578 Y0.36451
G01 X-1.94324 Y0.36293
G01 X-1.94966 Y0.36191
G01 X-1.95615 Y0.36157
G01 X-1.96378 Y0.36157
G01 X-1.97027 Y0.36191
G01 X-1.97669 Y0.36293
G01 X-1.98416 Y0.36451
G01 X-1.99044 Y0.36619
G01 X-1.99651 Y0.36852
G01 X-2.00348 Y0.37163
G01 X-2.00927 Y0.37458
G01 X-2.00997 Y0.37503
G04 P0 ( dwell for no time -- G64 should not smooth over this point )
G00 Z0.05000 ( retract )

G00 X-2.00997 Y0.37503 ( rapid move to begin. )
G01 F5.00000
( Mill infeed pass 1/1 )
G01 Z-0.00400
G04 P0 ( dwell for no time -- G64 should not smooth over this point )
G01 F25.00000
G01 X-2.00997 Y0.37503
G01 X-2.00997 Y0.37503
G04 P0 ( dwell for no time -- G64 should not smooth over this point )
G00 Z0.05000 ( retract )

G00 X-2.00997 Y0.37503 ( rapid move to begin. )
G01 F5.00000
( Mill infeed pass 1/1 )
G01 Z-0.00400
G04 P0 ( dwell for no time -- G64 should not smooth over this point )
G01 F25.00000
G01 X-2.00997 Y0.37503
G01 X-2.00997 Y0.35707
G01 X-2.00997 Y0.35706
G01 X-2.00997 Y0.34792
G01 X-2.00997 Y0.35706
G01 X-2.00997 Y0.35707
G01 X-2.00997 Y0.37503
G01 X-2.01067 Y0.37458
G01 X-2.01646 Y0.37163
G01 X-2.02343 Y0.36852
G01 X-2.02950 Y0.36619
G01 X-2.03578 Y0.36451
G01 X-2.04324 Y0.36293
G01 X-2.04966 Y0.36191
G01 X-2.05615 Y0.36157
G01 X-2.06378 Y0.36157
G01 X-2.07027 Y0.36191
G01 X-2.07669 Y0.36293
G01 X-2.08416 Y0.36451
G01 X-2.09044 Y0.36619
G01 X-2.09651 Y0.36852
G01 X-2.10348 Y0.37163
G01 X-2.10927 Y0.37458
G01 X-2.10997 Y0.37503
G01 X-2.10997 Y0.38466
G01 X-2.10997 Y0.39764
G01 X-2.10997 Y0.40504
G01 X-2.11025 Y0.40475
G01 X-2.11333 Y0.40226
G01 X-2.11950 Y0.39778
G01 X-2.12282 Y0.39562
G01 X-2.12634 Y0.39383
G01 X-2.13331 Y0.39072
G01 X-2.13701 Y0.38931
G01 X-2.14083 Y0.38828
G01 X-2.14829 Y0.38669
G01 X-2.15220 Y0.38608
G01 X-2.15615 Y0.38587
G01 X-2.16378 Y0.38587
G01 X-2.16773 Y0.38608
G01 X-2.17164 Y0.38669
G01 X-2.17911 Y0.38828
G01 X-2.18293 Y0.38931
G01 X-2.18662 Y0.39072
G01 X-2.19359 Y0.39383
G01 X-2.19712 Y0.39562
G01 X-2.20044 Y0.39778
G01 X-2.20661 Y0.40226
G01 X-2.20968 Y0.40475
G01 X-2.20997 Y0.40504
G01 X-2.21025 Y0.40475
G01 X-2.21333 Y0.40226
G01 X-2.21950 Y0.39778
G01 X-2.22282 Y0.39562
G01 X-2.22634 Y0.39383
G01 X-2.23331 Y0.39072
G01 X-2.23701 Y0.38931
G01 X-2.24083 Y0.38828
G01 X-2.24829 Y0.38669
G01 X-2.25220 Y0.38608
G01 X-2.25615 Y0.38587
G01 X-2.26378 Y0.38587
G01 X-2.26773 Y0.38608
G01 X-2.27164 Y0.38669
G01 X-2.27911 Y0.38828
G01 X-2.28293 Y0.38931
G01 X-2.28662 Y0.39072
G01 X-2.29359 Y0.39383
G01 X-2.29712 Y0.39562
G01 X-2.30044 Y0.39778
G01 X-2.30661 Y0.40226
G01 X-2.30968 Y0.40475
G01 X-2.30997 Y0.40504
G01 X-2.30997 Y0.40981
G01 X-2.30997 Y0.42008
G01 X-2.30997 Y0.42670
G01 X-2.30997 Y0.43551
G01 X-2.30997 Y0.43971
G01 X-2.30997 Y0.44774
G01 X-2.30997 Y0.45088
G01 X-2.30997 Y0.45855
G01 X-2.30997 Y0.45997
G01 X-2.30997 Y0.46139
G01 X-2.30997 Y0.46906
G01 X-2.30997 Y0.47220
G01 X-2.30997 Y0.48023
G01 X-2.30997 Y0.48443
G01 X-2.30997 Y0.49324
G01 X-2.30997 Y0.49986
G01 X-2.30997 Y0.51013
G01 X-2.30997 Y0.51490
G01 X-2.30997 Y0.52230
G01 X-2.30997 Y0.53528
G01 X-2.30997 Y0.54490
G01 X-2.30997 Y0.54924
G01 X-2.31546 Y0.55053
G01 X-2.31789 Y0.55105
G01 X-2.32338 Y0.55151
G01 X-2.32378 Y0.55155
G01 X-2.33632 Y0.55286
G01 X-2.33635 Y0.55287
G01 X-2.34395 Y0.55367
G01 X-2.35615 Y0.55431
G01 X-2.36378 Y0.55431
G01 X-2.37599 Y0.55367
G01 X-2.38359 Y0.55287
G01 X-2.38362 Y0.55286
G01 X-2.39609 Y0.55156
G01 X-2.39615 Y0.55155
G01 X-2.39655 Y0.55151
G01 X-2.40204 Y0.55105
G01 X-2.40447 Y0.55053
G01 X-2.40997 Y0.54924
G01 X-2.41546 Y0.55053
G01 X-2.41789 Y0.55105
G01 X-2.42338 Y0.55151
G01 X-2.42378 Y0.55155
G01 X-2.42384 Y0.55156
G01 X-2.42378 Y0.55155
G01 X-2.42338 Y0.55151
G01 X-2.41789 Y0.55105
G01 X-2.41546 Y0.55053
G01 X-2.40997 Y0.54924
G01 X-2.40447 Y0.55053
G01 X-2.40204 Y0.55105
G01 X-2.39655 Y0.55151
G01 X-2.39615 Y0.55155
G01 X-2.39609 Y0.55156
G01 X-2.38362 Y0.55286
G01 X-2.38359 Y0.55287
G01 X-2.37599 Y0.55367
G01 X-2.36378 Y0.55431
G01 X-2.35615 Y0.55431
G01 X-2.34395 Y0.55367
G01 X-2.33635 Y0.55287
G01 X-2.33632 Y0.55286
G01 X-2.32378 Y0.55155
G01 X-2.32338 Y0.55151
G01 X-2.31789 Y0.55105
G01 X-2.31546 Y0.55053
G01 X-2.30997 Y0.54924
G01 X-2.30447 Y0.55053
G01 X-2.30204 Y0.55105
G01 X-2.29655 Y0.55151
G01 X-2.29615 Y0.55155
G01 X-2.29609 Y0.55156
G01 X-2.28362 Y0.55286
G01 X-2.28359 Y0.55287
G01 X-2.27599 Y0.55367
G01 X-2.26378 Y0.55431
G01 X-2.25615 Y0.55431
G01 X-2.24395 Y0.55367
G01 X-2.23634 Y0.55287
G01 X-2.23632 Y0.55286
G01 X-2.22384 Y0.55156
G01 X-2.23632 Y0.55286
G01 X-2.23634 Y0.55287
G01 X-2.24395 Y0.55367
G01 X-2.25615 Y0.55431
G01 X-2.26378 Y0.55431
G01 X-2.27599 Y0.55367
G01 X-2.28359 Y0.55287
G01 X-2.28362 Y0.55286
G01 X-2.29609 Y0.55156
G01 X-2.29615 Y0.55155
G01 X-2.29655 Y0.55151
G01 X-2.30204 Y0.55105
G01 X-2.30447 Y0.55053
G01 X-2.30997 Y0.54924
G01 X-2.30997 Y0.54490
G01 X-2.30997 Y0.53528
G01 X-2.30997 Y0.52230
G01 X-2.30997 Y0.51490
G01 X-2.30997 Y0.51013
G01 X-2.30997 Y0.49986
G01 X-2.30997 Y0.49324
G01 X-2.30997 Y0.48443
G01 X-2.30997 Y0.48023
G01 X-2.30997 Y0.47220
G01 X-2.30997 Y0.46906
G01 X-2.30997 Y0.46139
G01 X-2.30997 Y0.45997
G01 X-2.30997 Y0.45855
G01 X-2.30997 Y0.45088
G01 X-2.30997 Y0.44774
G01 X-2.30997 Y0.43971
G01 X-2.30997 Y0.43551
G01 X-2.30997 Y0.42670
G01 X-2.30997 Y0.42008
G01 X-2.30997 Y0.40981
G01 X-2.30997 Y0.40504
G01 X-2.30997 Y0.39764
G01 X-2.30997 Y0.38466
G01 X-2.30997 Y0.37503
G01 X-2.30997 Y0.38466
G01 X-2.30997 Y0.39764
G01 X-2.30997 Y0.40504
G01 X-2.31025 Y0.40475
G01 X-2.31333 Y0.40226
G01 X-2.31950 Y0.39778
G01 X-2.32282 Y0.39562
G01 X-2.32634 Y0.39383
G01 X-2.33331 Y0.39072
G01 X-2.33701 Y0.38931
G01 X-2.34083 Y0.38828
G01 X-2.34829 Y0.38669
G01 X-2.35220 Y0.38608
G01 X-2.35615 Y0.38587
G01 X-2.36378 Y0.38587
G01 X-2.36773 Y0.38608
G01 X-2.37164 Y0.38669
G01 X-2.37911 Y0.38828
G01 X-2.38293 Y0.38931
G01 X-2.38662 Y0.39072
G01 X-2.39359 Y0.39383
G01 X-2.39712 Y0.39562
G01 X-2.40044 Y0.39778
G01 X-2.40661 Y0.40226
G01 X-2.40968 Y0.40475
G01 X-2.40997 Y0.40504
G01 X-2.40997 Y0.40981
G01 X-2.40997 Y0.42008
G01 X-2.40997 Y0.42670
G01 X-2.40997 Y0.43551
G01 X-2.40997 Y0.43971
G01 X-2.40997 Y0.44774
G01 X-2.40997 Y0.45088
G01 X-2.40997 Y0.45855
G01 X-2.40997 Y0.45997
G01 X-2.40997 Y0.46139
G01 X-2.40997 Y0.46906
G01 X-2.40997 Y0.47220
G01 X-2.40997 Y0.48023
G01 X-2.40997 Y0.48443
G01 X-2.40997 Y0.49324
G01 X-2.40997 Y0.49986
G01 X-2.40997 Y0.51013
G01 X-2.40997 Y0.51490
G01 X-2.40997 Y0.52230
G01 X-2.40997 Y0.53528
G01 X-2.40997 Y0.54490
G01 X-2.40997 Y0.54924
G01 X-2.40997 Y0.54490
G01 X-2.40997 Y0.53528
G01 X-2.40997 Y0.52230
G01 X-2.40997 Y0.51490
G01 X-2.40997 Y0.51013
G01 X-2.40997 Y0.49986
G01 X-2.40997 Y0.49324
G01 X-2.40997 Y0.48443
G01 X-2.40997 Y0.48023
G01 X-2.40997 Y0.47220
G01 X-2.40997 Y0.46906
G01 X-2.40997 Y0.46139
G01 X-2.40997 Y0.45997
G01 X-2.40997 Y0.45855
G01 X-2.40997 Y0.45088
G01 X-2.40997 Y0.44774
G01 X-2.40997 Y0.43971
G01 X-2.40997 Y0.43551
G01 X-2.40997 Y0.42670
G01 X-2.40997 Y0.42008
G01 X-2.40997 Y0.40981
G01 X-2.40997 Y0.40504
G01 X-2.40997 Y0.39764
G01 X-2.40997 Y0.38466
G01 X-2.40997 Y0.37503
G01 X-2.40997 Y0.38466
G01 X-2.40997 Y0.39764
G01 X-2.40997 Y0.40504
G01 X-2.41025 Y0.40475
G01 X-2.41333 Y0.40226
G01 X-2.41950 Y0.39778
G01 X-2.42282 Y0.39562
G01 X-2.42634 Y0.39383
G01 X-2.43331 Y0.39072
G01 X-2.43701 Y0.38931
G01 X-2.44083 Y0.38828
G01 X-2.44829 Y0.38669
G01 X-2.45220 Y0.38608
G01 X-2.45615 Y0.38587
G01 X-2.46378 Y0.38587
G01 X-2.46773 Y0.38608
G01 X-2.47164 Y0.38669
G01 X-2.47911 Y0.38828
G01 X-2.48293 Y0.38931
G01 X-2.48662 Y0.39072
G01 X-2.49359 Y0.39383
G01 X-2.49712 Y0.39562
G01 X-2.50044 Y0.39778
G01 X-2.50661 Y0.40226
G01 X-2.50968 Y0.40475
G01 X-2.50997 Y0.40504
G01 X-2.50997 Y0.40981
G01 X-2.50997 Y0.42008
G01 X-2.50997 Y0.42670
G01 X-2.50997 Y0.43551
G01 X-2.50997 Y0.43971
G01 X-2.50997 Y0.44774
G01 X-2.50997 Y0.45088
G01 X-2.50997 Y0.45855
G01 X-2.50997 Y0.45997
G01 X-2.50997 Y0.46139
G01 X-2.50997 Y0.46906
G01 X-2.50997 Y0.47220
G01 X-2.50997 Y0.48023
G01 X-2.50997 Y0.48443
G01 X-2.50997 Y0.49324
G01 X-2.50997 Y0.49986
G01 X-2.50997 Y0.51013
G01 X-2.50997 Y0.51490
G01 X-2.50997 Y0.52230
G01 X-2.50997 Y0.53528
G01 X-2.50997 Y0.54490
G01 X-2.50997 Y0.54924
G01 X-2.51546 Y0.55053
G01 X-2.51789 Y0.55105
G01 X-2.52338 Y0.55151
G01 X-2.52378 Y0.55155
G01 X-2.52384 Y0.55156
G01 X-2.52378 Y0.55155
G01 X-2.52338 Y0.55151
G01 X-2.51789 Y0.55105
G01 X-2.51546 Y0.55053
G01 X-2.50997 Y0.54924
G01 X-2.50447 Y0.55053
G01 X-2.50204 Y0.55105
G01 X-2.49655 Y0.55151
G01 X-2.49615 Y0.55155
G01 X-2.49609 Y0.55156
G01 X-2.48362 Y0.55286
G01 X-2.48359 Y0.55287
G01 X-2.47599 Y0.55367
G01 X-2.46378 Y0.55431
G01 X-2.45615 Y0.55431
G01 X-2.44395 Y0.55367
G01 X-2.43635 Y0.55287
G01 X-2.43632 Y0.55286
G01 X-2.42384 Y0.55156
G01 X-2.43632 Y0.55286
G01 X-2.43635 Y0.55287
G01 X-2.44395 Y0.55367
G01 X-2.45615 Y0.55431
G01 X-2.46378 Y0.55431
G01 X-2.47599 Y0.55367
G01 X-2.48359 Y0.55287
G01 X-2.48362 Y0.55286
G01 X-2.49609 Y0.55156
G01 X-2.49615 Y0.55155
G01 X-2.49655 Y0.55151
G01 X-2.50204 Y0.55105
G01 X-2.50447 Y0.55053
G01 X-2.50997 Y0.54924
G01 X-2.50997 Y0.54490
G01 X-2.50997 Y0.53528
G01 X-2.50997 Y0.52230
G01 X-2.50997 Y0.51490
G01 X-2.50997 Y0.51013
G01 X-2.50997 Y0.49986
G01 X-2.50997 Y0.49324
G01 X-2.50997 Y0.48443
G01 X-2.50997 Y0.48023
G01 X-2.50997 Y0.47220
G01 X-2.50997 Y0.46906
G01 X-2.50997 Y0.46139
G01 X-2.50997 Y0.45997
G01 X-2.50997 Y0.45855
G01 X-2.50997 Y0.45088
G01 X-2.50997 Y0.44774
G01 X-2.50997 Y0.43971
G01 X-2.50997 Y0.43551
G01 X-2.50997 Y0.42670
G01 X-2.50997 Y0.42008
G01 X-2.50997 Y0.40981
G01 X-2.50997 Y0.40504
G01 X-2.50997 Y0.39764
G01 X-2.50997 Y0.38466
G01 X-2.50997 Y0.37503
G01 X-2.50997 Y0.35707
G01 X-2.50997 Y0.35706
G01 X-2.50997 Y0.34792
G01 X-2.50997 Y0.35706
G01 X-2.50997 Y0.35707
G01 X-2.50997 Y0.37503
G01 X-2.50997 Y0.38466
G01 X-2.50997 Y0.39764
G01 X-2.50997 Y0.40504
G01 X-2.51025 Y0.40475
G01 X-2.51333 Y0.40226
G01 X-2.51950 Y0.39778
G01 X-2.52282 Y0.39562
G01 X-2.52634 Y0.39383
G01 X-2.53331 Y0.39072
G01 X-2.53701 Y0.38931
G01 X-2.54083 Y0.38828
G01 X-2.54829 Y0.38669
G01 X-2.55220 Y0.38608
G01 X-2.55615 Y0.38587
G01 X-2.56378 Y0.38587
G01 X-2.56773 Y0.38608
G01 X-2.57164 Y0.38669
G01 X-2.57911 Y0.38828
G01 X-2.58293 Y0.38931
G01 X-2.58662 Y0.39072
G01 X-2.59359 Y0.39383
G01 X-2.59712 Y0.39562
G01 X-2.60044 Y0.39778
G01 X-2.60661 Y0.40226
G01 X-2.60968 Y0.40475
G01 X-2.60997 Y0.40504
G01 X-2.60997 Y0.40981
G01 X-2.60997 Y0.42008
G01 X-2.60997 Y0.42670
G01 X-2.60997 Y0.43551
G01 X-2.60997 Y0.43971
G01 X-2.60997 Y0.44774
G01 X-2.60997 Y0.45088
G01 X-2.60997 Y0.45855
G01 X-2.60997 Y0.45996
G01 X-2.60997 Y0.45998
G01 X-2.60997 Y0.46139
G01 X-2.60997 Y0.46906
G01 X-2.60997 Y0.47220
G01 X-2.60997 Y0.48023
G01 X-2.60997 Y0.48443
G01 X-2.60997 Y0.49324
G01 X-2.60997 Y0.49986
G01 X-2.60997 Y0.51013
G01 X-2.60997 Y0.51490
G01 X-2.60997 Y0.52230
G01 X-2.60997 Y0.53528
G01 X-2.60997 Y0.54490
G01 X-2.60997 Y0.54924
G01 X-2.61546 Y0.55053
G01 X-2.61612 Y0.55067
G01 X-2.62294 Y0.55120
G01 X-2.62318 Y0.55122
G01 X-2.62294 Y0.55120
G01 X-2.61612 Y0.55067
G01 X-2.61546 Y0.55053
G01 X-2.60997 Y0.54924
G01 X-2.60447 Y0.55053
G01 X-2.60204 Y0.55105
G01 X-2.59655 Y0.55151
G01 X-2.59615 Y0.55155
G01 X-2.59609 Y0.55156
G01 X-2.58362 Y0.55286
G01 X-2.58359 Y0.55287
G01 X-2.57599 Y0.55367
G01 X-2.56378 Y0.55431
G01 X-2.55615 Y0.55431
G01 X-2.54395 Y0.55367
G01 X-2.53634 Y0.55287
G01 X-2.53632 Y0.55286
G01 X-2.52384 Y0.55156
G01 X-2.53632 Y0.55286
G01 X-2.53634 Y0.55287
G01 X-2.54395 Y0.55367
G01 X-2.55615 Y0.55431
G01 X-2.56378 Y0.55431
G01 X-2.57599 Y0.55367
G01 X-2.58359 Y0.55287
G01 X-2.58362 Y0.55286
G01 X-2.59609 Y0.55156
G01 X-2.59615 Y0.55155
G01 X-2.59655 Y0.55151
G01 X-2.60204 Y0.55105
G01 X-2.60447 Y0.55053
G01 X-2.60997 Y0.54924
G01 X-2.60997 Y0.54490
G01 X-2.60997 Y0.53528
G01 X-2.60997 Y0.52230
G01 X-2.60997 Y0.51490
G01 X-2.60997 Y0.51013
G01 X-2.60997 Y0.49986
G01 X-2.60997 Y0.49324
G01 X-2.60997 Y0.48443
G01 X-2.60997 Y0.48023
G01 X-2.60997 Y0.47220
G01 X-2.60997 Y0.46906
G01 X-2.60997 Y0.46139
G01 X-2.60997 Y0.45998
G01 X-2.60997 Y0.45996
G01 X-2.60997 Y0.45855
G01 X-2.60997 Y0.45088
G01 X-2.60997 Y0.44774
G01 X-2.60997 Y0.43971
G01 X-2.60997 Y0.43551
G01 X-2.60997 Y0.42670
G01 X-2.60997 Y0.42008
G01 X-2.60997 Y0.40981
G01 X-2.60997 Y0.40504
G01 X-2.60997 Y0.39764
G01 X-2.60997 Y0.38466
G01 X-2.60997 Y0.37503
G01 X-2.60997 Y0.38466
G01 X-2.60997 Y0.39764
G01 X-2.60997 Y0.40504
G01 X-2.60997 Y0.40981
G01 X-2.60997 Y0.42008
G01 X-2.60997 Y0.42670
G01 X-2.60997 Y0.43551
G01 X-2.60997 Y0.43971
G01 X-2.60997 Y0.44774
G01 X-2.60997 Y0.45088
G01 X-2.60997 Y0.45855
G01 X-2.60997 Y0.45996
G01 X-2.60997 Y0.45998
G01 X-2.60989 Y0.46138
G01 X-2.60910 Y0.46897
G01 X-2.60888 Y0.47036
G01 X-2.60851 Y0.47173
G01 X-2.60615 Y0.47899
G01 X-2.60565 Y0.48031
G01 X-2.60500 Y0.48156
G01 X-2.60119 Y0.48817
G01 X-2.60042 Y0.48936
G01 X-2.59953 Y0.49046
G01 X-2.59442 Y0.49613
G01 X-2.59342 Y0.49713
G01 X-2.59233 Y0.49802
G01 X-2.58615 Y0.50250
G01 X-2.58497 Y0.50327
G01 X-2.58371 Y0.50391
G01 X-2.57674 Y0.50702
G01 X-2.57542 Y0.50752
G01 X-2.57405 Y0.50789
G01 X-2.56659 Y0.50947
G01 X-2.56519 Y0.50970
G01 X-2.56378 Y0.50977
G01 X-2.55615 Y0.50977
G01 X-2.55474 Y0.50970
G01 X-2.55335 Y0.50947
G01 X-2.54588 Y0.50789
G01 X-2.54452 Y0.50752
G01 X-2.54320 Y0.50702
G01 X-2.53623 Y0.50391
G01 X-2.53497 Y0.50327
G01 X-2.53378 Y0.50250
G01 X-2.52761 Y0.49802
G01 X-2.52651 Y0.49713
G01 X-2.52551 Y0.49613
G01 X-2.52041 Y0.49046
G01 X-2.51952 Y0.48936
G01 X-2.51875 Y0.48817
G01 X-2.51493 Y0.48156
G01 X-2.51429 Y0.48031
G01 X-2.51378 Y0.47899
G01 X-2.51143 Y0.47173
G01 X-2.51106 Y0.47036
G01 X-2.51084 Y0.46897
G01 X-2.51004 Y0.46138
G01 X-2.50997 Y0.45997
G01 X-2.51004 Y0.45856
G01 X-2.51084 Y0.45097
G01 X-2.51106 Y0.44957
G01 X-2.51143 Y0.44821
G01 X-2.51378 Y0.44095
G01 X-2.51429 Y0.43963
G01 X-2.51493 Y0.43837
G01 X-2.51875 Y0.43176
G01 X-2.51952 Y0.43058
G01 X-2.52041 Y0.42948
G01 X-2.52551 Y0.42381
G01 X-2.52651 Y0.42281
G01 X-2.52761 Y0.42192
G01 X-2.53378 Y0.41744
G01 X-2.53497 Y0.41667
G01 X-2.53623 Y0.41603
G01 X-2.54320 Y0.41292
G01 X-2.54452 Y0.41242
G01 X-2.54588 Y0.41205
G01 X-2.55335 Y0.41046
G01 X-2.55474 Y0.41024
G01 X-2.55615 Y0.41017
G01 X-2.56378 Y0.41017
G01 X-2.56519 Y0.41024
G01 X-2.56659 Y0.41046
G01 X-2.57405 Y0.41205
G01 X-2.57542 Y0.41242
G01 X-2.57674 Y0.41292
G01 X-2.58371 Y0.41603
G01 X-2.58497 Y0.41667
G01 X-2.58615 Y0.41744
G01 X-2.59233 Y0.42192
G01 X-2.59342 Y0.42281
G01 X-2.59442 Y0.42381
G01 X-2.59953 Y0.42948
G01 X-2.60042 Y0.43058
G01 X-2.60119 Y0.43176
G01 X-2.60500 Y0.43837
G01 X-2.60565 Y0.43963
G01 X-2.60615 Y0.44095
G01 X-2.60851 Y0.44821
G01 X-2.60888 Y0.44957
G01 X-2.60910 Y0.45097
G01 X-2.60989 Y0.45856
G01 X-2.60997 Y0.45996
G01 X-2.60997 Y0.45997
G01 X-2.61004 Y0.45856
G01 X-2.61084 Y0.45097
G01 X-2.61106 Y0.44957
G01 X-2.61143 Y0.44821
G01 X-2.61378 Y0.44095
G01 X-2.61429 Y0.43963
G01 X-2.61493 Y0.43837
G01 X-2.61875 Y0.43176
G01 X-2.61952 Y0.43058
G01 X-2.62041 Y0.42948
G01 X-2.62551 Y0.42381
G01 X-2.62651 Y0.42281
G01 X-2.62761 Y0.42192
G01 X-2.63378 Y0.41744
G01 X-2.63497 Y0.41667
G01 X-2.63623 Y0.41603
G01 X-2.64320 Y0.41292
G01 X-2.64452 Y0.41242
G01 X-2.64588 Y0.41205
G01 X-2.65335 Y0.41046
G01 X-2.65474 Y0.41024
G01 X-2.65615 Y0.41017
G01 X-2.66378 Y0.41017
G01 X-2.66519 Y0.41024
G01 X-2.66659 Y0.41046
G01 X-2.67405 Y0.41205
G01 X-2.67542 Y0.41242
G01 X-2.67674 Y0.41292
G01 X-2.68371 Y0.41603
G01 X-2.68497 Y0.41667
G01 X-2.68615 Y0.41744
G01 X-2.69233 Y0.42192
G01 X-2.69342 Y0.42281
G01 X-2.69442 Y0.42381
G01 X-2.69953 Y0.42948
G01 X-2.70042 Y0.43058
G01 X-2.70119 Y0.43176
G01 X-2.70500 Y0.43837
G01 X-2.70565 Y0.43963
G01 X-2.70615 Y0.44095
G01 X-2.70851 Y0.44821
G01 X-2.70888 Y0.44957
G01 X-2.70910 Y0.45097
G01 X-2.70989 Y0.45856
G01 X-2.70997 Y0.45997
G01 X-2.70997 Y0.46139
G01 X-2.70997 Y0.46906
G01 X-2.70997 Y0.47220
G01 X-2.70997 Y0.48023
G01 X-2.70997 Y0.48443
G01 X-2.70997 Y0.49324
G01 X-2.70997 Y0.49986
G01 X-2.70997 Y0.51013
G01 X-2.70997 Y0.51490
G01 X-2.70997 Y0.52230
G01 X-2.70997 Y0.53528
G01 X-2.70997 Y0.54490
G01 X-2.70997 Y0.54888
G01 X-2.70433 Y0.55022
G01 X-2.70162 Y0.55080
G01 X-2.69701 Y0.55119
G01 X-2.69675 Y0.55121
G01 X-2.69643 Y0.55124
G01 X-2.68359 Y0.55259
G01 X-2.68356 Y0.55260
G01 X-2.67593 Y0.55340
G01 X-2.66378 Y0.55404
G01 X-2.65615 Y0.55404
G01 X-2.64401 Y0.55340
G01 X-2.63637 Y0.55260
G01 X-2.63635 Y0.55259
G01 X-2.62350 Y0.55124
G01 X-2.62318 Y0.55122
G01 X-2.62318 Y0.55122
G01 X-2.62294 Y0.55120
G01 X-2.61646 Y0.54831
G01 X-2.61067 Y0.54536
G01 X-2.60997 Y0.54490
G01 X-2.60927 Y0.54536
G01 X-2.60348 Y0.54831
G01 X-2.59651 Y0.55141
G01 X-2.59615 Y0.55155
G01 X-2.59615 Y0.55155
G01 X-2.59609 Y0.55156
G01 X-2.60073 Y0.55296
G01 X-2.60069 Y0.55323
G01 X-2.60073 Y0.55296
G01 X-2.61743 Y0.55296
G01 X-2.61746 Y0.55323
G01 X-2.61743 Y0.55296
G01 X-2.62318 Y0.55122
G04 P0 ( dwell for no time -- G64 should not smooth over this point )
G00 Z0.05000 ( retract )

G00 X-2.60997 Y0.37503 ( rapid move to begin. )
G01 F5.00000
( Mill infeed pass 1/1 )
G01 Z-0.00400
G04 P0 ( dwell for no time -- G64 should not smooth over this point )
G01 F25.00000
G01 X-2.60997 Y0.37503
G01 X-2.60997 Y0.37503
G04 P0 ( dwell for no time -- G64 should not smooth over this point )
G00 Z0.05000 ( retract )

G00 X-2.60997 Y0.37503 ( rapid move to begin. )
G01 F5.00000
( Mill infeed pass 1/1 )
G01 Z-0.00400
G04 P0 ( dwell for no time -- G64 should not smooth over this point )
G01 F25.00000
G01 X-2.60997 Y0.37503
G01 X-2.60997 Y0.35707
G01 X-2.60997 Y0.35706
G01 X-2.60997 Y0.34792
G01 X-2.60997 Y0.35706
G01 X-2.60997 Y0.35707
G01 X-2.60997 Y0.37503
G01 X-2.61067 Y0.37458
G01 X-2.61646 Y0.37163
G01 X-2.62343 Y0.36852
G01 X-2.62950 Y0.36619
G01 X-2.63578 Y0.36451
G01 X-2.64324 Y0.36293
G01 X-2.64966 Y0.36191
G01 X-2.65615 Y0.36157
G01 X-2.66378 Y0.36157
G01 X-2.67027 Y0.36191
G01 X-2.67669 Y0.36293
G01 X-2.68416 Y0.36451
G01 X-2.69044 Y0.36619
G01 X-2.69651 Y0.36852
G01 X-2.70348 Y0.37163
G01 X-2.70927 Y0.37458
G01 X-2.70997 Y0.37503
G01 X-2.70997 Y0.38466
G01 X-2.70997 Y0.39764
G01 X-2.70997 Y0.40504
G01 X-2.71025 Y0.40475
G01 X-2.71333 Y0.40226
G01 X-2.71950 Y0.39778
G01 X-2.72282 Y0.39562
G01 X-2.72634 Y0.39383
G01 X-2.73331 Y0.39072
G01 X-2.73701 Y0.38931
G01 X-2.74083 Y0.38828
G01 X-2.74829 Y0.38669
G01 X-2.75220 Y0.38608
G01 X-2.75615 Y0.38587
G01 X-2.76378 Y0.38587
G01 X-2.76773 Y0.38608
G01 X-2.77164 Y0.38669
G01 X-2.77911 Y0.38828
G01 X-2.78293 Y0.38931
G01 X-2.78662 Y0.39072
G01 X-2.79359 Y0.39383
G01 X-2.79712 Y0.39562
G01 X-2.80044 Y0.39778
G01 X-2.80661 Y0.40226
G01 X-2.80968 Y0.40475
G01 X-2.80997 Y0.40504
G01 X-2.80997 Y0.40981
G01 X-2.80997 Y0.42008
G01 X-2.80997 Y0.42670
G01 X-2.80997 Y0.43551
G01 X-2.80997 Y0.43971
G01 X-2.80997 Y0.44774
G01 X-2.80997 Y0.45088
G01 X-2.80997 Y0.45855
G01 X-2.80997 Y0.45997
G01 X-2.80997 Y0.46139
G01 X-2.80997 Y0.46906
G01 X-2.80997 Y0.47220
G01 X-2.80997 Y0.48023
G01 X-2.80997 Y0.48443
G01 X-2.80997 Y0.49324
G01 X-2.80997 Y0.49577
G01 X-2.80888 Y0.49888
G01 X-2.80595 Y0.50651
G01 X-2.80311 Y0.51286
G01 X-2.79923 Y0.52049
G01 X-2.79717 Y0.52405
G01 X-2.79697 Y0.52439
G01 X-2.79463 Y0.52843
G01 X-2.78967 Y0.53606
G01 X-2.78222 Y0.54628
G01 X-2.77604 Y0.55391
G01 X-2.77542 Y0.55467
G01 X-2.76378 Y0.55526
G01 X-2.75615 Y0.55527
G01 X-2.74374 Y0.55463
