( pcb2gcode 2.1.0 )
( Software-independent Gcode )

G94 ( Inches per minute feed rate. )
G20 ( Units == INCHES. )

G90 ( Absolute coordinates. )
G00 S15000 ( RPM spindle speed. )
G64 P0.00040 ( set maximum deviation from commanded toolpath )
G01 F50.00000 ( Feedrate. )


G00 Z1.00000 (Retract to tool change height)
T0
M5      (Spindle stop.)
G04 P1.00000 (Wait for spindle to stop)
(MSG, Change tool bit to mill diameter 0.01000in)
M6      (Tool change.)
M0      (Temporary machine stop.)
M3 ( Spindle on clockwise. )
G04 P1.00000 (Wait for spindle to get up to speed)
G04 P0 ( dwell for no time -- G64 should not smooth over this point )
G00 Z1.00000 ( retract )

G00 X-0.20329 Y2.15500 ( rapid move to begin. )
G01 F25.00000
( Mill infeed pass 1/1 )
G01 Z-0.05000
G04 P0 ( dwell for no time -- G64 should not smooth over this point )
G01 F50.00000
G01 X-0.20329 Y2.15500
G01 X-0.18628 Y2.15500
G01 X-0.18612 Y2.15538
G01 X-0.18628 Y2.15500
G01 X-0.10500 Y2.07372
G01 X-0.10462 Y2.07388
G01 X-0.10500 Y2.07372
G01 X-0.10500 Y1.83628
G01 X-0.10462 Y1.83613
G01 X-0.10500 Y1.83628
G01 X-1.73628 Y0.20500
G01 X-1.73612 Y0.20462
G01 X-1.73628 Y0.20500
G01 X-2.31557 Y0.20500
G01 X-2.32387 Y0.20426
G01 X-2.32675 Y0.20368
G01 X-2.33378 Y0.20145
G01 X-2.34707 Y0.20150
G01 X-2.34999 Y0.20121
G01 X-2.35281 Y0.20035
G01 X-2.35540 Y0.19897
G01 X-2.35767 Y0.19710
G01 X-2.35954 Y0.19483
G01 X-2.36093 Y0.19224
G01 X-2.36178 Y0.18942
G01 X-2.36207 Y0.18650
G01 X-2.36202 Y0.17321
G01 X-2.36425 Y0.16618
G01 X-2.36483 Y0.16330
G01 X-2.36550 Y0.15647
G01 X-2.36550 Y0.15353
G01 X-2.36483 Y0.14670
G01 X-2.36425 Y0.14382
G01 X-2.36202 Y0.13679
G01 X-2.36207 Y0.12350
G01 X-2.36178 Y0.12058
G01 X-2.36093 Y0.11776
G01 X-2.35954 Y0.11517
G01 X-2.35767 Y0.11290
G01 X-2.35540 Y0.11103
G01 X-2.35281 Y0.10965
G01 X-2.34999 Y0.10879
G01 X-2.34707 Y0.10850
G01 X-2.33378 Y0.10854
G01 X-2.32675 Y0.10632
G01 X-2.32387 Y0.10574
G01 X-2.31557 Y0.10500
G01 X-1.71557 Y0.10500
G01 X-1.70727 Y0.10574
G01 X-1.70439 Y0.10632
G01 X-1.69782 Y0.10831
G01 X-1.69511 Y0.10944
G01 X-1.68779 Y0.11343
G01 X-1.68131 Y0.11866
G01 X-0.01866 Y1.78131
G01 X-0.01430 Y1.78661
G01 X-0.01267 Y1.78906
G01 X-0.00881 Y1.79644
G01 X-0.00632 Y1.80439
G01 X-0.00574 Y1.80727
G01 X-0.00500 Y1.81557
G01 X-0.01000 Y1.81557
G01 X-0.01003 Y2.09521
G01 X-0.01071 Y2.10224
G01 X-0.01247 Y2.10907
G01 X-0.01529 Y2.11554
G01 X-0.01908 Y2.12150
G01 X-0.02265 Y2.12567
G01 X-0.13448 Y2.23748
G01 X-0.13978 Y2.24183
G01 X-0.14141 Y2.24292
G01 X-0.14746 Y2.24616
G01 X-0.14927 Y2.24691
G01 X-0.15584 Y2.24890
G01 X-0.15776 Y2.24928
G01 X-0.16557 Y2.25000
G01 X-0.31557 Y2.25000
G01 X-0.32338 Y2.24928
G01 X-0.32530 Y2.24890
G01 X-0.33279 Y2.24657
G01 X-0.33973 Y2.24292
G01 X-0.34136 Y2.24183
G01 X-0.34739 Y2.23682
G01 X-0.43052 Y2.15369
G01 X-0.43052 Y2.15162
G01 X-0.43052 Y2.15369
G01 X-0.51447 Y2.23764
G01 X-0.51747 Y2.24016
G01 X-0.51910 Y2.24125
G01 X-0.52258 Y2.24306
G01 X-0.52632 Y2.24424
G01 X-0.52824 Y2.24462
G01 X-0.53215 Y2.24496
G01 X-0.93514 Y2.24496
G01 X-0.93520 Y2.24475
G01 X-0.93514 Y2.24496
G01 X-0.93639 Y2.24599
G01 X-0.93812 Y2.24692
G01 X-0.94000 Y2.24749
G01 X-0.94195 Y2.24768
G01 X-0.98919 Y2.24768
G01 X-0.99114 Y2.24749
G01 X-0.99302 Y2.24692
G01 X-0.99475 Y2.24599
G01 X-0.99601 Y2.24496
G01 X-0.99594 Y2.24475
G01 X-0.99601 Y2.24496
G01 X-1.43514 Y2.24496
G01 X-1.43520 Y2.24475
G01 X-1.43514 Y2.24496
G01 X-1.43639 Y2.24599
G01 X-1.43812 Y2.24692
G01 X-1.44000 Y2.24749
G01 X-1.44195 Y2.24768
G01 X-1.48919 Y2.24768
G01 X-1.49114 Y2.24749
G01 X-1.49302 Y2.24692
G01 X-1.49475 Y2.24599
G01 X-1.49601 Y2.24496
G01 X-1.49594 Y2.24475
G01 X-1.49601 Y2.24496
G01 X-1.73514 Y2.24496
G01 X-1.73520 Y2.24475
G01 X-1.73514 Y2.24496
G01 X-1.73639 Y2.24599
G01 X-1.73812 Y2.24692
G01 X-1.74000 Y2.24749
G01 X-1.74195 Y2.24768
G01 X-1.78919 Y2.24768
G01 X-1.79114 Y2.24749
G01 X-1.79302 Y2.24692
G01 X-1.79475 Y2.24599
G01 X-1.79601 Y2.24496
G01 X-1.79594 Y2.24475
G01 X-1.79601 Y2.24496
G01 X-2.03514 Y2.24496
G01 X-2.03520 Y2.24475
G01 X-2.03514 Y2.24496
G01 X-2.03639 Y2.24599
G01 X-2.03812 Y2.24692
G01 X-2.04000 Y2.24749
G01 X-2.04195 Y2.24768
G01 X-2.08919 Y2.24768
G01 X-2.09114 Y2.24749
G01 X-2.09302 Y2.24692
G01 X-2.09475 Y2.24599
G01 X-2.09601 Y2.24496
G01 X-2.09594 Y2.24475
G01 X-2.09601 Y2.24496
G01 X-2.33514 Y2.24496
G01 X-2.33520 Y2.24475
G01 X-2.33514 Y2.24496
G01 X-2.33639 Y2.24599
G01 X-2.33812 Y2.24692
G01 X-2.34000 Y2.24749
G01 X-2.34195 Y2.24768
G01 X-2.38919 Y2.24768
G01 X-2.39114 Y2.24749
G01 X-2.39302 Y2.24692
G01 X-2.39475 Y2.24599
G01 X-2.39601 Y2.24496
G01 X-2.39594 Y2.24475
G01 X-2.39601 Y2.24496
G01 X-2.63514 Y2.24496
G01 X-2.63520 Y2.24475
G01 X-2.63514 Y2.24496
G01 X-2.63639 Y2.24599
G01 X-2.63812 Y2.24692
G01 X-2.64000 Y2.24749
G01 X-2.64195 Y2.24768
G01 X-2.68919 Y2.24768
G01 X-2.69114 Y2.24749
G01 X-2.69302 Y2.24692
G01 X-2.69475 Y2.24599
G01 X-2.69601 Y2.24496
G01 X-2.69594 Y2.24475
G01 X-2.69601 Y2.24496
G01 X-2.93514 Y2.24496
G01 X-2.93520 Y2.24475
G01 X-2.93514 Y2.24496
G01 X-2.93639 Y2.24599
G01 X-2.93812 Y2.24692
G01 X-2.94000 Y2.24749
G01 X-2.94195 Y2.24768
G01 X-2.98919 Y2.24768
G01 X-2.99114 Y2.24749
G01 X-2.99302 Y2.24692
G01 X-2.99475 Y2.24599
G01 X-2.99601 Y2.24496
G01 X-2.99594 Y2.24475
G01 X-2.99601 Y2.24496
G01 X-3.23514 Y2.24496
G01 X-3.23520 Y2.24475
G01 X-3.23514 Y2.24496
G01 X-3.23639 Y2.24599
G01 X-3.23812 Y2.24692
G01 X-3.24000 Y2.24749
G01 X-3.24195 Y2.24768
G01 X-3.28919 Y2.24768
G01 X-3.29114 Y2.24749
G01 X-3.29302 Y2.24692
G01 X-3.29475 Y2.24599
G01 X-3.29601 Y2.24496
G01 X-3.29594 Y2.24475
G01 X-3.29601 Y2.24496
G01 X-3.53514 Y2.24496
G01 X-3.53520 Y2.24475
G01 X-3.53514 Y2.24496
G01 X-3.53639 Y2.24599
G01 X-3.53812 Y2.24692
G01 X-3.54000 Y2.24749
G01 X-3.54195 Y2.24768
G01 X-3.58919 Y2.24768
G01 X-3.59114 Y2.24749
G01 X-3.59302 Y2.24692
G01 X-3.59475 Y2.24599
G01 X-3.59601 Y2.24496
G01 X-3.59594 Y2.24475
G01 X-3.59601 Y2.24496
G01 X-3.83514 Y2.24496
G01 X-3.83520 Y2.24475
G01 X-3.83514 Y2.24496
G01 X-3.83639 Y2.24599
G01 X-3.83812 Y2.24692
G01 X-3.84000 Y2.24749
G01 X-3.84195 Y2.24768
G01 X-3.88919 Y2.24768
G01 X-3.89114 Y2.24749
G01 X-3.89302 Y2.24692
G01 X-3.89475 Y2.24599
G01 X-3.89601 Y2.24496
G01 X-3.89594 Y2.24475
G01 X-3.89601 Y2.24496
G01 X-4.13514 Y2.24496
G01 X-4.13520 Y2.24475
G01 X-4.13514 Y2.24496
G01 X-4.13639 Y2.24599
G01 X-4.13812 Y2.24692
G01 X-4.14000 Y2.24749
G01 X-4.14195 Y2.24768
G01 X-4.18919 Y2.24768
G01 X-4.19114 Y2.24749
G01 X-4.19302 Y2.24692
G01 X-4.19475 Y2.24599
G01 X-4.19601 Y2.24496
G01 X-4.19594 Y2.24475
G01 X-4.19601 Y2.24496
G01 X-4.43514 Y2.24496
G01 X-4.43520 Y2.24475
G01 X-4.43514 Y2.24496
G01 X-4.43639 Y2.24599
G01 X-4.43812 Y2.24692
G01 X-4.44000 Y2.24749
G01 X-4.44195 Y2.24768
G01 X-4.48919 Y2.24768
G01 X-4.49114 Y2.24749
G01 X-4.49302 Y2.24692
G01 X-4.49475 Y2.24599
G01 X-4.49601 Y2.24496
G01 X-4.49594 Y2.24475
G01 X-4.49601 Y2.24496
G01 X-4.73514 Y2.24496
G01 X-4.73520 Y2.24475
G01 X-4.73514 Y2.24496
G01 X-4.73639 Y2.24599
G01 X-4.73812 Y2.24692
G01 X-4.74000 Y2.24749
G01 X-4.74195 Y2.24768
G01 X-4.78919 Y2.24768
G01 X-4.79114 Y2.24749
G01 X-4.79302 Y2.24692
G01 X-4.79475 Y2.24599
G01 X-4.79601 Y2.24496
G01 X-4.79594 Y2.24475
G01 X-4.79601 Y2.24496
G01 X-5.03514 Y2.24496
G01 X-5.03520 Y2.24475
G01 X-5.03514 Y2.24496
G01 X-5.03639 Y2.24599
G01 X-5.03812 Y2.24692
G01 X-5.04000 Y2.24749
G01 X-5.04195 Y2.24768
G01 X-5.08919 Y2.24768
G01 X-5.09114 Y2.24749
G01 X-5.09302 Y2.24692
G01 X-5.09475 Y2.24599
G01 X-5.09601 Y2.24496
G01 X-5.09594 Y2.24475
G01 X-5.09601 Y2.24496
G01 X-5.33514 Y2.24496
G01 X-5.33520 Y2.24475
G01 X-5.33514 Y2.24496
G01 X-5.33639 Y2.24599
G01 X-5.33812 Y2.24692
G01 X-5.34000 Y2.24749
G01 X-5.34195 Y2.24768
G01 X-5.38919 Y2.24768
G01 X-5.39114 Y2.24749
G01 X-5.39302 Y2.24692
G01 X-5.39475 Y2.24599
G01 X-5.39601 Y2.24496
G01 X-5.39594 Y2.24475
G01 X-5.39601 Y2.24496
G01 X-5.63514 Y2.24496
G01 X-5.63520 Y2.24475
G01 X-5.63514 Y2.24496
G01 X-5.63639 Y2.24599
G01 X-5.63812 Y2.24692
G01 X-5.64000 Y2.24749
G01 X-5.64195 Y2.24768
G01 X-5.68919 Y2.24768
G01 X-5.69114 Y2.24749
G01 X-5.69302 Y2.24692
G01 X-5.69475 Y2.24599
G01 X-5.69601 Y2.24496
G01 X-5.69594 Y2.24475
G01 X-5.69601 Y2.24496
G01 X-5.93514 Y2.24496
G01 X-5.93520 Y2.24475
G01 X-5.93514 Y2.24496
G01 X-5.93639 Y2.24599
G01 X-5.93812 Y2.24692
G01 X-5.94000 Y2.24749
G01 X-5.94195 Y2.24768
G01 X-5.98919 Y2.24768
G01 X-5.99114 Y2.24749
G01 X-5.99302 Y2.24692
G01 X-5.99475 Y2.24599
G01 X-5.99601 Y2.24496
G01 X-5.99594 Y2.24475
G01 X-5.99601 Y2.24496
G01 X-6.23514 Y2.24496
G01 X-6.23520 Y2.24475
G01 X-6.23514 Y2.24496
G01 X-6.23639 Y2.24599
G01 X-6.23812 Y2.24692
G01 X-6.24000 Y2.24749
G01 X-6.24195 Y2.24768
G01 X-6.28919 Y2.24768
G01 X-6.29114 Y2.24749
G01 X-6.29302 Y2.24692
G01 X-6.29475 Y2.24599
G01 X-6.29626 Y2.24475
G01 X-6.29751 Y2.24323
G01 X-6.29843 Y2.24150
G01 X-6.29900 Y2.23963
G01 X-6.29919 Y2.23768
G01 X-6.29919 Y2.20224
G01 X-6.29900 Y2.20029
G01 X-6.29843 Y2.19842
G01 X-6.29751 Y2.19669
G01 X-6.29626 Y2.19517
G01 X-6.29475 Y2.19393
G01 X-6.29302 Y2.19301
G01 X-6.29114 Y2.19244
G01 X-6.28919 Y2.19224
G01 X-6.24195 Y2.19224
G01 X-6.24000 Y2.19244
G01 X-6.23812 Y2.19301
G01 X-6.23639 Y2.19393
G01 X-6.23514 Y2.19496
G01 X-6.23520 Y2.19517
G01 X-6.23514 Y2.19496
G01 X-5.99601 Y2.19496
G01 X-5.99594 Y2.19517
G01 X-5.99601 Y2.19496
G01 X-5.99475 Y2.19393
G01 X-5.99302 Y2.19301
G01 X-5.99114 Y2.19244
G01 X-5.98919 Y2.19224
G01 X-5.94195 Y2.19224
G01 X-5.94000 Y2.19244
G01 X-5.93812 Y2.19301
G01 X-5.93639 Y2.19393
G01 X-5.93514 Y2.19496
G01 X-5.93520 Y2.19517
G01 X-5.93514 Y2.19496
G01 X-5.69601 Y2.19496
G01 X-5.69594 Y2.19517
G01 X-5.69601 Y2.19496
G01 X-5.69475 Y2.19393
G01 X-5.69302 Y2.19301
G01 X-5.69114 Y2.19244
G01 X-5.68919 Y2.19224
G01 X-5.64195 Y2.19224
G01 X-5.64000 Y2.19244
G01 X-5.63812 Y2.19301
G01 X-5.63639 Y2.19393
G01 X-5.63514 Y2.19496
G01 X-5.63520 Y2.19517
G01 X-5.63514 Y2.19496
G01 X-5.39601 Y2.19496
G01 X-5.39594 Y2.19517
G01 X-5.39601 Y2.19496
G01 X-5.39475 Y2.19393
G01 X-5.39302 Y2.19301
G01 X-5.39114 Y2.19244
G01 X-5.38919 Y2.19224
G01 X-5.34195 Y2.19224
G01 X-5.34000 Y2.19244
G01 X-5.33812 Y2.19301
G01 X-5.33639 Y2.19393
G01 X-5.33514 Y2.19496
G01 X-5.33520 Y2.19517
G01 X-5.33514 Y2.19496
G01 X-5.09601 Y2.19496
G01 X-5.09594 Y2.19517
G01 X-5.09601 Y2.19496
G01 X-5.09475 Y2.19393
G01 X-5.09302 Y2.19301
G01 X-5.09114 Y2.19244
G01 X-5.08919 Y2.19224
G01 X-5.04195 Y2.19224
G01 X-5.04000 Y2.19244
G01 X-5.03812 Y2.19301
G01 X-5.03639 Y2.19393
G01 X-5.03514 Y2.19496
G01 X-5.03520 Y2.19517
G01 X-5.03514 Y2.19496
G01 X-4.79601 Y2.19496
G01 X-4.79594 Y2.19517
G01 X-4.79601 Y2.19496
G01 X-4.79475 Y2.19393
G01 X-4.79302 Y2.19301
G01 X-4.79114 Y2.19244
G01 X-4.78919 Y2.19224
G01 X-4.74195 Y2.19224
G01 X-4.74000 Y2.19244
G01 X-4.73812 Y2.19301
G01 X-4.73639 Y2.19393
G01 X-4.73514 Y2.19496
G01 X-4.73520 Y2.19517
G01 X-4.73514 Y2.19496
G01 X-4.49601 Y2.19496
G01 X-4.49594 Y2.19517
G01 X-4.49601 Y2.19496
G01 X-4.49475 Y2.19393
G01 X-4.49302 Y2.19301
G01 X-4.49114 Y2.19244
G01 X-4.48919 Y2.19224
G01 X-4.44195 Y2.19224
G01 X-4.44000 Y2.19244
G01 X-4.43812 Y2.19301
G01 X-4.43639 Y2.19393
G01 X-4.43514 Y2.19496
G01 X-4.43520 Y2.19517
G01 X-4.43514 Y2.19496
G01 X-4.19601 Y2.19496
G01 X-4.19594 Y2.19517
G01 X-4.19601 Y2.19496
G01 X-4.19475 Y2.19393
G01 X-4.19302 Y2.19301
G01 X-4.19114 Y2.19244
G01 X-4.18919 Y2.19224
G01 X-4.14195 Y2.19224
G01 X-4.14000 Y2.19244
G01 X-4.13812 Y2.19301
G01 X-4.13639 Y2.19393
G01 X-4.13514 Y2.19496
G01 X-4.13520 Y2.19517
G01 X-4.13514 Y2.19496
G01 X-3.89601 Y2.19496
G01 X-3.89594 Y2.19517
G01 X-3.89601 Y2.19496
G01 X-3.89475 Y2.19393
G01 X-3.89302 Y2.19301
G01 X-3.89114 Y2.19244
G01 X-3.88919 Y2.19224
G01 X-3.84195 Y2.19224
G01 X-3.84000 Y2.19244
G01 X-3.83812 Y2.19301
G01 X-3.83639 Y2.19393
G01 X-3.83514 Y2.19496
G01 X-3.83520 Y2.19517
G01 X-3.83514 Y2.19496
G01 X-3.59601 Y2.19496
G01 X-3.59594 Y2.19517
G01 X-3.59601 Y2.19496
G01 X-3.59475 Y2.19393
G01 X-3.59302 Y2.19301
G01 X-3.59114 Y2.19244
G01 X-3.58919 Y2.19224
G01 X-3.54195 Y2.19224
G01 X-3.54000 Y2.19244
G01 X-3.53812 Y2.19301
G01 X-3.53639 Y2.19393
G01 X-3.53514 Y2.19496
G01 X-3.53520 Y2.19517
G01 X-3.53514 Y2.19496
G01 X-3.29601 Y2.19496
G01 X-3.29594 Y2.19517
G01 X-3.29601 Y2.19496
G01 X-3.29475 Y2.19393
G01 X-3.29302 Y2.19301
G01 X-3.29114 Y2.19244
G01 X-3.28919 Y2.19224
G01 X-3.24195 Y2.19224
G01 X-3.24000 Y2.19244
G01 X-3.23812 Y2.19301
G01 X-3.23639 Y2.19393
G01 X-3.23514 Y2.19496
G01 X-3.23520 Y2.19517
G01 X-3.23514 Y2.19496
G01 X-2.99601 Y2.19496
G01 X-2.99594 Y2.19517
G01 X-2.99601 Y2.19496
G01 X-2.99475 Y2.19393
G01 X-2.99302 Y2.19301
G01 X-2.99114 Y2.19244
G01 X-2.98919 Y2.19224
G01 X-2.94195 Y2.19224
G01 X-2.94000 Y2.19244
G01 X-2.93812 Y2.19301
G01 X-2.93639 Y2.19393
G01 X-2.93514 Y2.19496
G01 X-2.93520 Y2.19517
G01 X-2.93514 Y2.19496
G01 X-2.69601 Y2.19496
G01 X-2.69594 Y2.19517
G01 X-2.69601 Y2.19496
G01 X-2.69475 Y2.19393
G01 X-2.69302 Y2.19301
G01 X-2.69114 Y2.19244
G01 X-2.68919 Y2.19224
G01 X-2.64195 Y2.19224
G01 X-2.64000 Y2.19244
G01 X-2.63812 Y2.19301
G01 X-2.63639 Y2.19393
G01 X-2.63514 Y2.19496
G01 X-2.63520 Y2.19517
G01 X-2.63514 Y2.19496
G01 X-2.39601 Y2.19496
G01 X-2.39594 Y2.19517
G01 X-2.39601 Y2.19496
G01 X-2.39475 Y2.19393
G01 X-2.39302 Y2.19301
G01 X-2.39114 Y2.19244
G01 X-2.38919 Y2.19224
G01 X-2.34195 Y2.19224
G01 X-2.34000 Y2.19244
G01 X-2.33812 Y2.19301
G01 X-2.33639 Y2.19393
G01 X-2.33514 Y2.19496
G01 X-2.33520 Y2.19517
G01 X-2.33514 Y2.19496
G01 X-2.09601 Y2.19496
G01 X-2.09594 Y2.19517
G01 X-2.09601 Y2.19496
G01 X-2.09475 Y2.19393
G01 X-2.09302 Y2.19301
G01 X-2.09114 Y2.19244
G01 X-2.08919 Y2.19224
G01 X-2.04195 Y2.19224
G01 X-2.04000 Y2.19244
G01 X-2.03812 Y2.19301
G01 X-2.03639 Y2.19393
G01 X-2.03514 Y2.19496
G01 X-2.03520 Y2.19517
G01 X-2.03514 Y2.19496
G01 X-1.79601 Y2.19496
G01 X-1.79594 Y2.19517
G01 X-1.79601 Y2.19496
G01 X-1.79475 Y2.19393
G01 X-1.79302 Y2.19301
G01 X-1.79114 Y2.19244
G01 X-1.78919 Y2.19224
G01 X-1.74195 Y2.19224
G01 X-1.74000 Y2.19244
G01 X-1.73812 Y2.19301
G01 X-1.73639 Y2.19393
G01 X-1.73514 Y2.19496
G01 X-1.73520 Y2.19517
G01 X-1.73514 Y2.19496
G01 X-1.49601 Y2.19496
G01 X-1.49594 Y2.19517
G01 X-1.49601 Y2.19496
G01 X-1.49475 Y2.19393
G01 X-1.49302 Y2.19301
G01 X-1.49114 Y2.19244
G01 X-1.48919 Y2.19224
G01 X-1.44195 Y2.19224
G01 X-1.44000 Y2.19244
G01 X-1.43812 Y2.19301
G01 X-1.43639 Y2.19393
G01 X-1.43514 Y2.19496
G01 X-1.43520 Y2.19517
G01 X-1.43514 Y2.19496
G01 X-0.99601 Y2.19496
G01 X-0.99594 Y2.19517
G01 X-0.99601 Y2.19496
G01 X-0.99475 Y2.19393
G01 X-0.99302 Y2.19301
G01 X-0.99114 Y2.19244
G01 X-0.98919 Y2.19224
G01 X-0.94195 Y2.19224
G01 X-0.94000 Y2.19244
G01 X-0.93812 Y2.19301
G01 X-0.93639 Y2.19393
G01 X-0.93514 Y2.19496
G01 X-0.93520 Y2.19517
G01 X-0.93514 Y2.19496
G01 X-0.54250 Y2.19496
G01 X-0.54234 Y2.19534
G01 X-0.54250 Y2.19496
G01 X-0.46298 Y2.11544
G01 X-0.46246 Y2.11562
G01 X-0.46298 Y2.11544
G01 X-0.46332 Y2.11374
G01 X-0.46413 Y2.10605
G01 X-0.46413 Y2.10395
G01 X-0.46316 Y2.09523
G01 X-0.46050 Y2.08686
G01 X-0.45965 Y2.08495
G01 X-0.45521 Y2.07737
G01 X-0.44863 Y2.07007
G01 X-0.44069 Y2.06430
G01 X-0.43171 Y2.06030
G01 X-0.42210 Y2.05826
G01 X-0.41332 Y2.05820
G01 X-0.41124 Y2.05842
G01 X-0.40367 Y2.06003
G01 X-0.40168 Y2.06068
G01 X-0.39369 Y2.06430
G01 X-0.38655 Y2.06941
G01 X-0.38500 Y2.07081
G01 X-0.37982 Y2.07656
G01 X-0.37847 Y2.07846
G01 X-0.29693 Y2.16000
G01 X-0.29709 Y2.16038
G01 X-0.29693 Y2.16000
G01 X-0.18421 Y2.16000
G01 X-0.18405 Y2.16038
G01 X-0.18421 Y2.16000
G01 X-0.10000 Y2.07579
G01 X-0.09962 Y2.07595
G01 X-0.10000 Y2.07579
G01 X-0.10000 Y1.83421
G01 X-0.09962 Y1.83405
G01 X-0.10000 Y1.83421
G01 X-1.73421 Y0.20000
G01 X-1.73405 Y0.19962
G01 X-1.73421 Y0.20000
G01 X-2.31557 Y0.20000
G01 X-2.32338 Y0.19928
G01 X-2.32530 Y0.19890
G01 X-2.33187 Y0.19691
G01 X-2.33285 Y0.19644
G01 X-2.34707 Y0.19650
G01 X-2.34902 Y0.19630
G01 X-2.35089 Y0.19573
G01 X-2.35262 Y0.19481
G01 X-2.35414 Y0.19357
G01 X-2.35538 Y0.19205
G01 X-2.35631 Y0.19032
G01 X-2.35687 Y0.18845
G01 X-2.35707 Y0.18650
G01 X-2.35701 Y0.17228
G01 X-2.35748 Y0.17130
G01 X-2.35947 Y0.16473
G01 X-2.35985 Y0.16281
G01 X-2.36052 Y0.15598
G01 X-2.36052 Y0.15402
G01 X-2.35985 Y0.14719
G01 X-2.35947 Y0.14527
G01 X-2.35748 Y0.13870
G01 X-2.35702 Y0.13772
G01 X-2.35707 Y0.12350
G01 X-2.35687 Y0.12155
G01 X-2.35631 Y0.11968
G01 X-2.35538 Y0.11795
G01 X-2.35414 Y0.11643
G01 X-2.35262 Y0.11519
G01 X-2.35089 Y0.11427
G01 X-2.34902 Y0.11370
G01 X-2.34707 Y0.11350
G01 X-2.33285 Y0.11356
G01 X-2.33187 Y0.11309
G01 X-2.32530 Y0.11110
G01 X-2.32338 Y0.11072
G01 X-2.31557 Y0.11000
G01 X-1.71557 Y0.11000
G01 X-1.70776 Y0.11072
G01 X-1.70584 Y0.11110
G01 X-1.69927 Y0.11309
G01 X-1.69746 Y0.11385
G01 X-1.69057 Y0.11758
G01 X-1.68448 Y0.12252
G01 X-0.02318 Y1.78375
G01 X-0.01817 Y1.78978
G01 X-0.01708 Y1.79141
G01 X-0.01342 Y1.79835
G01 X-0.01110 Y1.80584
G01 X-0.01072 Y1.80776
G01 X-0.01000 Y1.81557
G01 X-0.01500 Y1.81557
G01 X-0.01577 Y1.80777
G01 X-0.01804 Y1.80026
G01 X-0.02149 Y1.79377
G01 X-0.02671 Y1.78729
G01 X-1.68729 Y0.12672
G01 X-1.69335 Y0.12174
G01 X-1.69982 Y0.11825
G01 X-1.70729 Y0.11589
G01 X-1.71557 Y0.11500
G01 X-2.31557 Y0.11500
G01 X-2.32385 Y0.11589
G01 X-2.33042 Y0.11788
G01 X-2.33179 Y0.11850
G01 X-2.34707 Y0.11850
G01 X-2.34898 Y0.11888
G01 X-2.35060 Y0.11997
G01 X-2.35169 Y0.12159
G01 X-2.35207 Y0.12350
G01 X-2.35207 Y0.13878
G01 X-2.35269 Y0.14015
G01 X-2.35468 Y0.14672
G01 X-2.35557 Y0.15500
G01 X-2.35468 Y0.16328
G01 X-2.35269 Y0.16985
G01 X-2.35207 Y0.17122
G01 X-2.35207 Y0.18650
G01 X-2.35169 Y0.18841
G01 X-2.35060 Y0.19003
G01 X-2.34898 Y0.19112
G01 X-2.34707 Y0.19150
G01 X-2.33179 Y0.19150
G01 X-2.33042 Y0.19212
G01 X-2.32385 Y0.19411
G01 X-2.31606 Y0.19498
G01 X-1.73214 Y0.19500
G01 X-0.09500 Y1.83214
G01 X-0.09500 Y2.07786
G01 X-0.18214 Y2.16500
G01 X-0.29900 Y2.16500
G01 X-0.38247 Y2.08153
G01 X-0.38354 Y2.07991
G01 X-0.38949 Y2.07346
G01 X-0.39665 Y2.06839
G01 X-0.40421 Y2.06506
G01 X-0.41228 Y2.06331
G01 X-0.42158 Y2.06323
G01 X-0.43016 Y2.06506
G01 X-0.43819 Y2.06863
G01 X-0.44529 Y2.07379
G01 X-0.45116 Y2.08031
G01 X-0.45532 Y2.08745
G01 X-0.45574 Y2.08841
G01 X-0.45827 Y2.09627
G01 X-0.45916 Y2.10448
G01 X-0.45835 Y2.11322
G01 X-0.45729 Y2.11682
G01 X-0.54043 Y2.19996
G01 X-0.93753 Y2.19996
G01 X-0.93841 Y2.19871
G01 X-0.93917 Y2.19809
G01 X-0.94004 Y2.19762
G01 X-0.94195 Y2.19724
G01 X-0.98919 Y2.19724
G01 X-0.99111 Y2.19762
G01 X-0.99197 Y2.19809
G01 X-0.99273 Y2.19871
G01 X-0.99362 Y2.19996
G01 X-1.43753 Y2.19996
G01 X-1.43841 Y2.19871
G01 X-1.43917 Y2.19809
G01 X-1.44004 Y2.19762
G01 X-1.44195 Y2.19724
G01 X-1.48919 Y2.19724
G01 X-1.49111 Y2.19762
G01 X-1.49197 Y2.19809
G01 X-1.49273 Y2.19871
G01 X-1.49361 Y2.19996
G01 X-1.73753 Y2.19996
G01 X-1.73841 Y2.19871
G01 X-1.73917 Y2.19809
G01 X-1.74004 Y2.19762
G01 X-1.74195 Y2.19724
G01 X-1.78919 Y2.19724
G01 X-1.79111 Y2.19762
G01 X-1.79197 Y2.19809
G01 X-1.79273 Y2.19871
G01 X-1.79361 Y2.19996
G01 X-2.03753 Y2.19996
G01 X-2.03841 Y2.19871
G01 X-2.03917 Y2.19809
G01 X-2.04004 Y2.19762
G01 X-2.04195 Y2.19724
G01 X-2.08919 Y2.19724
G01 X-2.09111 Y2.19762
G01 X-2.09197 Y2.19809
G01 X-2.09273 Y2.19871
G01 X-2.09361 Y2.19996
G01 X-2.33753 Y2.19996
G01 X-2.33841 Y2.19871
G01 X-2.33917 Y2.19809
G01 X-2.34004 Y2.19762
G01 X-2.34195 Y2.19724
G01 X-2.38919 Y2.19724
G01 X-2.39111 Y2.19762
G01 X-2.39197 Y2.19809
G01 X-2.39273 Y2.19871
G01 X-2.39361 Y2.19996
G01 X-2.63753 Y2.19996
G01 X-2.63841 Y2.19871
G01 X-2.63917 Y2.19809
G01 X-2.64004 Y2.19762
G01 X-2.64195 Y2.19724
G01 X-2.68919 Y2.19724
G01 X-2.69111 Y2.19762
G01 X-2.69197 Y2.19809
G01 X-2.69273 Y2.19871
G01 X-2.69361 Y2.19996
G01 X-2.93753 Y2.19996
G01 X-2.93841 Y2.19871
G01 X-2.93917 Y2.19809
G01 X-2.94004 Y2.19762
G01 X-2.94195 Y2.19724
G01 X-2.98919 Y2.19724
G01 X-2.99111 Y2.19762
G01 X-2.99197 Y2.19809
G01 X-2.99273 Y2.19871
G01 X-2.99361 Y2.19996
G01 X-3.23753 Y2.19996
G01 X-3.23841 Y2.19871
G01 X-3.23917 Y2.19809
G01 X-3.24004 Y2.19762
G01 X-3.24195 Y2.19724
G01 X-3.28919 Y2.19724
G01 X-3.29111 Y2.19762
G01 X-3.29197 Y2.19809
G01 X-3.29273 Y2.19871
G01 X-3.29361 Y2.19996
G01 X-3.53753 Y2.19996
G01 X-3.53841 Y2.19871
G01 X-3.53917 Y2.19809
G01 X-3.54004 Y2.19762
G01 X-3.54195 Y2.19724
G01 X-3.58919 Y2.19724
G01 X-3.59111 Y2.19762
G01 X-3.59197 Y2.19809
G01 X-3.59273 Y2.19871
G01 X-3.59361 Y2.19996
G01 X-3.83753 Y2.19996
G01 X-3.83841 Y2.19871
G01 X-3.83917 Y2.19809
G01 X-3.84004 Y2.19762
G01 X-3.84195 Y2.19724
G01 X-3.88919 Y2.19724
G01 X-3.89111 Y2.19762
G01 X-3.89197 Y2.19809
G01 X-3.89273 Y2.19871
G01 X-3.89361 Y2.19996
G01 X-4.13753 Y2.19996
G01 X-4.13841 Y2.19871
G01 X-4.13917 Y2.19809
G01 X-4.14004 Y2.19762
G01 X-4.14195 Y2.19724
G01 X-4.18919 Y2.19724
G01 X-4.19111 Y2.19762
G01 X-4.19197 Y2.19809
G01 X-4.19273 Y2.19871
G01 X-4.19361 Y2.19996
G01 X-4.43753 Y2.19996
G01 X-4.43841 Y2.19871
G01 X-4.43917 Y2.19809
G01 X-4.44004 Y2.19762
G01 X-4.44195 Y2.19724
G01 X-4.48919 Y2.19724
G01 X-4.49111 Y2.19762
G01 X-4.49197 Y2.19809
G01 X-4.49273 Y2.19871
G01 X-4.49361 Y2.19996
G01 X-4.73753 Y2.19996
G01 X-4.73841 Y2.19871
G01 X-4.73917 Y2.19809
G01 X-4.74004 Y2.19762
G01 X-4.74195 Y2.19724
G01 X-4.78919 Y2.19724
G01 X-4.79111 Y2.19762
G01 X-4.79197 Y2.19809
G01 X-4.79273 Y2.19871
G01 X-4.79361 Y2.19996
G01 X-5.03753 Y2.19996
G01 X-5.03841 Y2.19871
G01 X-5.03917 Y2.19809
G01 X-5.04004 Y2.19762
G01 X-5.04195 Y2.19724
G01 X-5.08919 Y2.19724
G01 X-5.09111 Y2.19762
G01 X-5.09197 Y2.19809
G01 X-5.09273 Y2.19871
G01 X-5.09361 Y2.19996
G01 X-5.33753 Y2.19996
G01 X-5.33841 Y2.19871
G01 X-5.33917 Y2.19809
G01 X-5.34004 Y2.19762
G01 X-5.34195 Y2.19724
G01 X-5.38919 Y2.19724
G01 X-5.39111 Y2.19762
G01 X-5.39197 Y2.19809
G01 X-5.39273 Y2.19871
G01 X-5.39361 Y2.19996
G01 X-5.63753 Y2.19996
G01 X-5.63841 Y2.19871
G01 X-5.63917 Y2.19809
G01 X-5.64003 Y2.19762
G01 X-5.64195 Y2.19724
G01 X-5.68919 Y2.19724
G01 X-5.69111 Y2.19762
G01 X-5.69197 Y2.19809
G01 X-5.69273 Y2.19871
G01 X-5.69361 Y2.19996
G01 X-5.93753 Y2.19996
G01 X-5.93841 Y2.19871
G01 X-5.93917 Y2.19809
G01 X-5.94004 Y2.19762
G01 X-5.94195 Y2.19724
G01 X-5.98919 Y2.19724
G01 X-5.99111 Y2.19762
G01 X-5.99197 Y2.19809
G01 X-5.99273 Y2.19871
G01 X-5.99361 Y2.19996
G01 X-6.23753 Y2.19996
G01 X-6.23841 Y2.19871
G01 X-6.23917 Y2.19809
G01 X-6.24004 Y2.19762
G01 X-6.24195 Y2.19724
G01 X-6.28919 Y2.19724
G01 X-6.29111 Y2.19762
G01 X-6.29273 Y2.19871
G01 X-6.29381 Y2.20033
G01 X-6.29419 Y2.20224
G01 X-6.29419 Y2.23768
G01 X-6.29381 Y2.23959
G01 X-6.29335 Y2.24046
G01 X-6.29197 Y2.24183
G01 X-6.29111 Y2.24230
G01 X-6.28919 Y2.24268
G01 X-6.24195 Y2.24268
G01 X-6.24097 Y2.24258
G01 X-6.23917 Y2.24183
G01 X-6.23841 Y2.24121
G01 X-6.23753 Y2.23996
G01 X-5.99361 Y2.23996
G01 X-5.99273 Y2.24121
G01 X-5.99197 Y2.24183
G01 X-5.99017 Y2.24258
G01 X-5.98919 Y2.24268
G01 X-5.94195 Y2.24268
G01 X-5.94097 Y2.24258
G01 X-5.93917 Y2.24183
G01 X-5.93841 Y2.24121
G01 X-5.93753 Y2.23996
G01 X-5.69361 Y2.23996
G01 X-5.69273 Y2.24121
G01 X-5.69197 Y2.24183
G01 X-5.69017 Y2.24258
G01 X-5.68919 Y2.24268
G01 X-5.64195 Y2.24268
G01 X-5.64003 Y2.24230
G01 X-5.63917 Y2.24183
G01 X-5.63841 Y2.24121
G01 X-5.63753 Y2.23996
G01 X-5.39361 Y2.23996
G01 X-5.39273 Y2.24121
G01 X-5.39197 Y2.24183
G01 X-5.39017 Y2.24258
G01 X-5.38919 Y2.24268
G01 X-5.34195 Y2.24268
G01 X-5.34097 Y2.24258
G01 X-5.33917 Y2.24183
G01 X-5.33841 Y2.24121
G01 X-5.33753 Y2.23996
G01 X-5.09361 Y2.23996
G01 X-5.09273 Y2.24121
G01 X-5.09197 Y2.24183
G01 X-5.09017 Y2.24258
G01 X-5.08919 Y2.24268
G01 X-5.04195 Y2.24268
G01 X-5.04097 Y2.24258
G01 X-5.03917 Y2.24183
G01 X-5.03841 Y2.24121
G01 X-5.03753 Y2.23996
G01 X-4.79361 Y2.23996
G01 X-4.79273 Y2.24121
G01 X-4.79197 Y2.24183
G01 X-4.79017 Y2.24258
G01 X-4.78919 Y2.24268
G01 X-4.74195 Y2.24268
G01 X-4.74097 Y2.24258
G01 X-4.73917 Y2.24183
G01 X-4.73841 Y2.24121
G01 X-4.73753 Y2.23996
G01 X-4.49361 Y2.23996
G01 X-4.49273 Y2.24121
G01 X-4.49197 Y2.24183
G01 X-4.49017 Y2.24258
G01 X-4.48919 Y2.24268
G01 X-4.44195 Y2.24268
G01 X-4.44097 Y2.24258
G01 X-4.43917 Y2.24183
G01 X-4.43841 Y2.24121
G01 X-4.43753 Y2.23996
G01 X-4.19361 Y2.23996
G01 X-4.19273 Y2.24121
G01 X-4.19197 Y2.24183
G01 X-4.19017 Y2.24258
G01 X-4.18919 Y2.24268
G01 X-4.14195 Y2.24268
G01 X-4.14097 Y2.24258
G01 X-4.13917 Y2.24183
G01 X-4.13841 Y2.24121
G01 X-4.13753 Y2.23996
G01 X-3.89361 Y2.23996
G01 X-3.89273 Y2.24121
G01 X-3.89197 Y2.24183
G01 X-3.89017 Y2.24258
G01 X-3.88919 Y2.24268
G01 X-3.84195 Y2.24268
G01 X-3.84097 Y2.24258
G01 X-3.83917 Y2.24183
G01 X-3.83841 Y2.24121
G01 X-3.83753 Y2.23996
G01 X-3.59361 Y2.23996
G01 X-3.59273 Y2.24121
G01 X-3.59197 Y2.24183
G01 X-3.59017 Y2.24258
G01 X-3.58919 Y2.24268
G01 X-3.54195 Y2.24268
G01 X-3.54097 Y2.24258
G01 X-3.53917 Y2.24183
G01 X-3.53841 Y2.24121
G01 X-3.53753 Y2.23996
G01 X-3.29361 Y2.23996
G01 X-3.29273 Y2.24121
G01 X-3.29197 Y2.24183
G01 X-3.29017 Y2.24258
G01 X-3.28919 Y2.24268
G01 X-3.24195 Y2.24268
G01 X-3.24097 Y2.24258
G01 X-3.23917 Y2.24183
G01 X-3.23841 Y2.24121
G01 X-3.23753 Y2.23996
G01 X-2.99361 Y2.23996
G01 X-2.99273 Y2.24121
G01 X-2.99197 Y2.24183
G01 X-2.99017 Y2.24258
G01 X-2.98919 Y2.24268
G01 X-2.94195 Y2.24268
G01 X-2.94097 Y2.24258
G01 X-2.93917 Y2.24183
G01 X-2.93841 Y2.24121
G01 X-2.93753 Y2.23996
G01 X-2.69361 Y2.23996
G01 X-2.69273 Y2.24121
G01 X-2.69197 Y2.24183
G01 X-2.69017 Y2.24258
G01 X-2.68919 Y2.24268
G01 X-2.64195 Y2.24268
G01 X-2.64097 Y2.24258
G01 X-2.63917 Y2.24183
G01 X-2.63841 Y2.24121
G01 X-2.63753 Y2.23996
G01 X-2.39361 Y2.23996
G01 X-2.39273 Y2.24121
G01 X-2.39197 Y2.24183
G01 X-2.39017 Y2.24258
G01 X-2.38919 Y2.24268
G01 X-2.34195 Y2.24268
G01 X-2.34097 Y2.24258
G01 X-2.33917 Y2.24183
G01 X-2.33841 Y2.24121
G01 X-2.33753 Y2.23996
G01 X-2.09361 Y2.23996
G01 X-2.09273 Y2.24121
G01 X-2.09197 Y2.24183
G01 X-2.09017 Y2.24258
G01 X-2.08919 Y2.24268
G01 X-2.04195 Y2.24268
G01 X-2.04097 Y2.24258
G01 X-2.03917 Y2.24183
G01 X-2.03841 Y2.24121
G01 X-2.03753 Y2.23996
G01 X-1.79361 Y2.23996
G01 X-1.79273 Y2.24121
G01 X-1.79197 Y2.24183
G01 X-1.79017 Y2.24258
G01 X-1.78919 Y2.24268
G01 X-1.74195 Y2.24268
G01 X-1.74097 Y2.24258
G01 X-1.73917 Y2.24183
G01 X-1.73841 Y2.24121
G01 X-1.73753 Y2.23996
G01 X-1.49361 Y2.23996
G01 X-1.49273 Y2.24121
G01 X-1.49197 Y2.24183
G01 X-1.49017 Y2.24258
G01 X-1.48919 Y2.24268
G01 X-1.44195 Y2.24268
G01 X-1.44097 Y2.24258
G01 X-1.43917 Y2.24183
G01 X-1.43841 Y2.24121
G01 X-1.43753 Y2.23996
G01 X-0.99361 Y2.23996
G01 X-0.99273 Y2.24121
G01 X-0.99197 Y2.24183
G01 X-0.99017 Y2.24258
G01 X-0.98919 Y2.24268
G01 X-0.94195 Y2.24268
G01 X-0.94097 Y2.24258
G01 X-0.93917 Y2.24183
G01 X-0.93841 Y2.24121
G01 X-0.93753 Y2.23996
G01 X-0.53215 Y2.23996
G01 X-0.52777 Y2.23946
G01 X-0.52449 Y2.23844
G01 X-0.52064 Y2.23630
G01 X-0.51800 Y2.23410
G01 X-0.43052 Y2.14662
G01 X-0.34386 Y2.23328
G01 X-0.33737 Y2.23851
G01 X-0.33088 Y2.24196
G01 X-0.32385 Y2.24411
G01 X-0.31557 Y2.24500
G01 X-0.16508 Y2.24498
G01 X-0.15729 Y2.24411
G01 X-0.14982 Y2.24175
G01 X-0.14295 Y2.23797
G01 X-0.13729 Y2.23328
G01 X-0.02671 Y2.12271
G01 X-0.02242 Y2.11761
G01 X-0.01955 Y2.11293
G01 X-0.01709 Y2.10716
G01 X-0.01557 Y2.10107
G01 X-0.01500 Y2.09443
G01 X-0.01500 Y1.81557
G01 X-0.00500 Y1.81557
G01 X-0.00505 Y2.09561
G01 X-0.00548 Y2.10108
G01 X-0.00584 Y2.10341
G01 X-0.00713 Y2.10875
G01 X-0.00785 Y2.11098
G01 X-0.00996 Y2.11606
G01 X-0.01102 Y2.11816
G01 X-0.01389 Y2.12284
G01 X-0.01528 Y2.12474
G01 X-0.01884 Y2.12892
G01 X-0.13131 Y2.24134
G01 X-0.13661 Y2.24570
G01 X-0.13906 Y2.24733
G01 X-0.14511 Y2.25056
G01 X-0.14782 Y2.25169
G01 X-0.15439 Y2.25368
G01 X-0.15727 Y2.25426
G01 X-0.16557 Y2.25500
G01 X-0.31557 Y2.25500
G01 X-0.32387 Y2.25426
G01 X-0.32675 Y2.25368
G01 X-0.33471 Y2.25119
G01 X-0.34209 Y2.24733
G01 X-0.34453 Y2.24570
G01 X-0.35093 Y2.24036
G01 X-0.43052 Y2.16076
G01 X-0.43052 Y2.15869
G01 X-0.43052 Y2.16076
G01 X-0.51202 Y2.24216
G01 X-0.51430 Y2.24403
G01 X-0.51674 Y2.24566
G01 X-0.52067 Y2.24768
G01 X-0.52487 Y2.24903
G01 X-0.52775 Y2.24960
G01 X-0.53215 Y2.24996
G01 X-0.93339 Y2.24996
G01 X-0.93343 Y2.24980
G01 X-0.93339 Y2.24996
G01 X-0.93362 Y2.25015
G01 X-0.93621 Y2.25154
G01 X-0.93902 Y2.25239
G01 X-0.94195 Y2.25268
G01 X-0.98919 Y2.25268
G01 X-0.99212 Y2.25239
G01 X-0.99493 Y2.25154
G01 X-0.99753 Y2.25015
G01 X-0.99776 Y2.24996
G01 X-0.99771 Y2.24980
G01 X-0.99776 Y2.24996
G01 X-1.43339 Y2.24996
G01 X-1.43343 Y2.24980
G01 X-1.43339 Y2.24996
G01 X-1.43361 Y2.25015
G01 X-1.43621 Y2.25154
G01 X-1.43902 Y2.25239
G01 X-1.44195 Y2.25268
G01 X-1.48919 Y2.25268
G01 X-1.49212 Y2.25239
G01 X-1.49493 Y2.25154
G01 X-1.49753 Y2.25015
G01 X-1.49776 Y2.24996
G01 X-1.49771 Y2.24980
G01 X-1.49776 Y2.24996
G01 X-1.73339 Y2.24996
G01 X-1.73343 Y2.24980
G01 X-1.73339 Y2.24996
G01 X-1.73362 Y2.25015
G01 X-1.73621 Y2.25154
G01 X-1.73902 Y2.25239
G01 X-1.74195 Y2.25268
G01 X-1.78919 Y2.25268
G01 X-1.79212 Y2.25239
G01 X-1.79493 Y2.25154
G01 X-1.79753 Y2.25015
G01 X-1.79776 Y2.24996
G01 X-1.79771 Y2.24980
G01 X-1.79776 Y2.24996
G01 X-2.03339 Y2.24996
G01 X-2.03343 Y2.24980
G01 X-2.03339 Y2.24996
G01 X-2.03362 Y2.25015
G01 X-2.03621 Y2.25154
G01 X-2.03902 Y2.25239
G01 X-2.04195 Y2.25268
G01 X-2.08919 Y2.25268
G01 X-2.09212 Y2.25239
G01 X-2.09493 Y2.25154
G01 X-2.09753 Y2.25015
G01 X-2.09776 Y2.24996
G01 X-2.09771 Y2.24980
G01 X-2.09776 Y2.24996
G01 X-2.33339 Y2.24996
G01 X-2.33343 Y2.24980
G01 X-2.33339 Y2.24996
G01 X-2.33362 Y2.25015
G01 X-2.33621 Y2.25154
G01 X-2.33902 Y2.25239
G01 X-2.34195 Y2.25268
G01 X-2.38919 Y2.25268
G01 X-2.39212 Y2.25239
G01 X-2.39493 Y2.25154
G01 X-2.39753 Y2.25015
G01 X-2.39776 Y2.24996
G01 X-2.39771 Y2.24980
G01 X-2.39776 Y2.24996
G01 X-2.63339 Y2.24996
G01 X-2.63343 Y2.24980
G01 X-2.63339 Y2.24996
G01 X-2.63362 Y2.25015
G01 X-2.63621 Y2.25154
G01 X-2.63902 Y2.25239
G01 X-2.64195 Y2.25268
G01 X-2.68919 Y2.25268
G01 X-2.69212 Y2.25239
G01 X-2.69493 Y2.25154
G01 X-2.69753 Y2.25015
G01 X-2.69776 Y2.24996
G01 X-2.69771 Y2.24980
G01 X-2.69776 Y2.24996
G01 X-2.93339 Y2.24996
G01 X-2.93343 Y2.24980
G01 X-2.93339 Y2.24996
G01 X-2.93362 Y2.25015
G01 X-2.93621 Y2.25154
G01 X-2.93902 Y2.25239
G01 X-2.94195 Y2.25268
G01 X-2.98919 Y2.25268
G01 X-2.99212 Y2.25239
G01 X-2.99493 Y2.25154
G01 X-2.99753 Y2.25015
G01 X-2.99776 Y2.24996
G01 X-2.99771 Y2.24980
G01 X-2.99776 Y2.24996
G01 X-3.23339 Y2.24996
G01 X-3.23343 Y2.24980
G01 X-3.23339 Y2.24996
G01 X-3.23362 Y2.25015
G01 X-3.23621 Y2.25154
G01 X-3.23902 Y2.25239
G01 X-3.24195 Y2.25268
G01 X-3.28919 Y2.25268
G01 X-3.29212 Y2.25239
G01 X-3.29493 Y2.25154
G01 X-3.29753 Y2.25015
G01 X-3.29776 Y2.24996
G01 X-3.29771 Y2.24980
G01 X-3.29776 Y2.24996
G01 X-3.53339 Y2.24996
G01 X-3.53343 Y2.24980
G01 X-3.53339 Y2.24996
G01 X-3.53362 Y2.25015
G01 X-3.53621 Y2.25154
G01 X-3.53902 Y2.25239
G01 X-3.54195 Y2.25268
G01 X-3.58919 Y2.25268
G01 X-3.59212 Y2.25239
G01 X-3.59493 Y2.25154
G01 X-3.59753 Y2.25015
G01 X-3.59776 Y2.24996
G01 X-3.59771 Y2.24980
G01 X-3.59776 Y2.24996
G01 X-3.83339 Y2.24996
G01 X-3.83343 Y2.24980
G01 X-3.83339 Y2.24996
G01 X-3.83362 Y2.25015
G01 X-3.83621 Y2.25154
G01 X-3.83902 Y2.25239
G01 X-3.84195 Y2.25268
G01 X-3.88919 Y2.25268
G01 X-3.89212 Y2.25239
G01 X-3.89493 Y2.25154
G01 X-3.89753 Y2.25015
G01 X-3.89776 Y2.24996
G01 X-3.89771 Y2.24980
G01 X-3.89776 Y2.24996
G01 X-4.13339 Y2.24996
G01 X-4.13343 Y2.24980
G01 X-4.13339 Y2.24996
G01 X-4.13362 Y2.25015
G01 X-4.13621 Y2.25154
G01 X-4.13902 Y2.25239
G01 X-4.14195 Y2.25268
G01 X-4.18919 Y2.25268
G01 X-4.19212 Y2.25239
G01 X-4.19493 Y2.25154
G01 X-4.19753 Y2.25015
G01 X-4.19776 Y2.24996
G01 X-4.19771 Y2.24980
G01 X-4.19776 Y2.24996
G01 X-4.43339 Y2.24996
G01 X-4.43343 Y2.24980
G01 X-4.43339 Y2.24996
G01 X-4.43362 Y2.25015
G01 X-4.43621 Y2.25154
G01 X-4.43902 Y2.25239
G01 X-4.44195 Y2.25268
G01 X-4.48919 Y2.25268
G01 X-4.49212 Y2.25239
G01 X-4.49493 Y2.25154
G01 X-4.49753 Y2.25015
G01 X-4.49776 Y2.24996
G01 X-4.49771 Y2.24980
G01 X-4.49776 Y2.24996
G01 X-4.73339 Y2.24996
G01 X-4.73343 Y2.24980
G01 X-4.73339 Y2.24996
G01 X-4.73362 Y2.25015
G01 X-4.73621 Y2.25154
G01 X-4.73902 Y2.25239
G01 X-4.74195 Y2.25268
G01 X-4.78919 Y2.25268
G01 X-4.79212 Y2.25239
G01 X-4.79493 Y2.25154
G01 X-4.79753 Y2.25015
G01 X-4.79776 Y2.24996
G01 X-4.79771 Y2.24980
G01 X-4.79776 Y2.24996
G01 X-5.03339 Y2.24996
G01 X-5.03343 Y2.24980
G01 X-5.03339 Y2.24996
G01 X-5.03362 Y2.25015
G01 X-5.03621 Y2.25154
G01 X-5.03902 Y2.25239
G01 X-5.04195 Y2.25268
G01 X-5.08919 Y2.25268
G01 X-5.09212 Y2.25239
G01 X-5.09493 Y2.25154
G01 X-5.09753 Y2.25015
G01 X-5.09776 Y2.24996
G01 X-5.09771 Y2.24980
G01 X-5.09776 Y2.24996
G01 X-5.33339 Y2.24996
G01 X-5.33343 Y2.24980
G01 X-5.33339 Y2.24996
G01 X-5.33362 Y2.25015
G01 X-5.33621 Y2.25154
G01 X-5.33902 Y2.25239
G01 X-5.34195 Y2.25268
G01 X-5.38919 Y2.25268
G01 X-5.39212 Y2.25239
G01 X-5.39493 Y2.25154
G01 X-5.39753 Y2.25015
G01 X-5.39776 Y2.24996
G01 X-5.39771 Y2.24980
G01 X-5.39776 Y2.24996
G01 X-5.63339 Y2.24996
G01 X-5.63343 Y2.24980
G01 X-5.63339 Y2.24996
G01 X-5.63362 Y2.25015
G01 X-5.63621 Y2.25154
G01 X-5.63902 Y2.25239
G01 X-5.64195 Y2.25268
G01 X-5.68919 Y2.25268
G01 X-5.69212 Y2.25239
G01 X-5.69493 Y2.25154
G01 X-5.69753 Y2.25015
G01 X-5.69776 Y2.24996
G01 X-5.69771 Y2.24980
G01 X-5.69776 Y2.24996
G01 X-5.93339 Y2.24996
G01 X-5.93343 Y2.24980
G01 X-5.93339 Y2.24996
G01 X-5.93362 Y2.25015
G01 X-5.93621 Y2.25154
G01 X-5.93902 Y2.25239
G01 X-5.94195 Y2.25268
G01 X-5.98919 Y2.25268
G01 X-5.99212 Y2.25239
G01 X-5.99493 Y2.25154
G01 X-5.99753 Y2.25015
G01 X-5.99776 Y2.24996
G01 X-5.99771 Y2.24980
G01 X-5.99776 Y2.24996
G01 X-6.23339 Y2.24996
G01 X-6.23343 Y2.24980
G01 X-6.23339 Y2.24996
G01 X-6.23362 Y2.25015
G01 X-6.23621 Y2.25154
G01 X-6.23902 Y2.25239
G01 X-6.24195 Y2.25268
G01 X-6.28919 Y2.25268
G01 X-6.29212 Y2.25239
G01 X-6.29493 Y2.25154
G01 X-6.29753 Y2.25015
G01 X-6.29980 Y2.24828
G01 X-6.30167 Y2.24601
G01 X-6.30305 Y2.24342
G01 X-6.30390 Y2.24060
G01 X-6.30419 Y2.23768
G01 X-6.30419 Y2.20224
G01 X-6.30390 Y2.19932
G01 X-6.30305 Y2.19650
G01 X-6.30167 Y2.19391
G01 X-6.29980 Y2.19164
G01 X-6.29753 Y2.18977
G01 X-6.29493 Y2.18839
G01 X-6.29212 Y2.18753
G01 X-6.28919 Y2.18724
G01 X-6.24195 Y2.18724
G01 X-6.23902 Y2.18753
G01 X-6.23621 Y2.18839
G01 X-6.23362 Y2.18977
G01 X-6.23339 Y2.18996
G01 X-6.23343 Y2.19012
G01 X-6.23339 Y2.18996
G01 X-5.99776 Y2.18996
G01 X-5.99772 Y2.19012
G01 X-5.99776 Y2.18996
G01 X-5.99753 Y2.18977
G01 X-5.99493 Y2.18839
G01 X-5.99212 Y2.18753
G01 X-5.98919 Y2.18724
G01 X-5.94195 Y2.18724
G01 X-5.93902 Y2.18753
G01 X-5.93621 Y2.18839
G01 X-5.93362 Y2.18977
G01 X-5.93339 Y2.18996
G01 X-5.93343 Y2.19012
G01 X-5.93339 Y2.18996
G01 X-5.69776 Y2.18996
G01 X-5.69772 Y2.19012
G01 X-5.69776 Y2.18996
G01 X-5.69753 Y2.18977
G01 X-5.69493 Y2.18839
G01 X-5.69212 Y2.18753
G01 X-5.68919 Y2.18724
G01 X-5.64195 Y2.18724
G01 X-5.63902 Y2.18753
G01 X-5.63621 Y2.18839
G01 X-5.63362 Y2.18977
G01 X-5.63339 Y2.18996
G01 X-5.63343 Y2.19012
G01 X-5.63339 Y2.18996
G01 X-5.39776 Y2.18996
G01 X-5.39772 Y2.19012
G01 X-5.39776 Y2.18996
G01 X-5.39753 Y2.18977
G01 X-5.39493 Y2.18839
G01 X-5.39212 Y2.18753
G01 X-5.38919 Y2.18724
G01 X-5.34195 Y2.18724
G01 X-5.33902 Y2.18753
G01 X-5.33621 Y2.18839
G01 X-5.33362 Y2.18977
G01 X-5.33339 Y2.18996
G01 X-5.33343 Y2.19012
G01 X-5.33339 Y2.18996
G01 X-5.09776 Y2.18996
G01 X-5.09772 Y2.19012
G01 X-5.09776 Y2.18996
G01 X-5.09753 Y2.18977
G01 X-5.09493 Y2.18839
G01 X-5.09212 Y2.18753
G01 X-5.08919 Y2.18724
G01 X-5.04195 Y2.18724
G01 X-5.03902 Y2.18753
G01 X-5.03621 Y2.18839
G01 X-5.03362 Y2.18977
G01 X-5.03339 Y2.18996
G01 X-5.03343 Y2.19012
G01 X-5.03339 Y2.18996
G01 X-4.79776 Y2.18996
G01 X-4.79772 Y2.19012
G01 X-4.79776 Y2.18996
G01 X-4.79753 Y2.18977
G01 X-4.79493 Y2.18839
G01 X-4.79212 Y2.18753
G01 X-4.78919 Y2.18724
G01 X-4.74195 Y2.18724
G01 X-4.73902 Y2.18753
G01 X-4.73621 Y2.18839
G01 X-4.73362 Y2.18977
G01 X-4.73339 Y2.18996
G01 X-4.73343 Y2.19012
G01 X-4.73339 Y2.18996
G01 X-4.49776 Y2.18996
G01 X-4.49772 Y2.19012
G01 X-4.49776 Y2.18996
G01 X-4.49753 Y2.18977
G01 X-4.49493 Y2.18839
G01 X-4.49212 Y2.18753
G01 X-4.48919 Y2.18724
G01 X-4.44195 Y2.18724
G01 X-4.43902 Y2.18753
G01 X-4.43621 Y2.18839
G01 X-4.43362 Y2.18977
G01 X-4.43339 Y2.18996
G01 X-4.43343 Y2.19012
G01 X-4.43339 Y2.18996
G01 X-4.19776 Y2.18996
G01 X-4.19772 Y2.19012
G01 X-4.19776 Y2.18996
G01 X-4.19753 Y2.18977
G01 X-4.19493 Y2.18839
G01 X-4.19212 Y2.18753
G01 X-4.18919 Y2.18724
G01 X-4.14195 Y2.18724
G01 X-4.13902 Y2.18753
G01 X-4.13621 Y2.18839
G01 X-4.13362 Y2.18977
G01 X-4.13339 Y2.18996
G01 X-4.13343 Y2.19012
G01 X-4.13339 Y2.18996
G01 X-3.89776 Y2.18996
G01 X-3.89772 Y2.19012
G01 X-3.89776 Y2.18996
G01 X-3.89753 Y2.18977
G01 X-3.89493 Y2.18839
G01 X-3.89212 Y2.18753
G01 X-3.88919 Y2.18724
G01 X-3.84195 Y2.18724
G01 X-3.83902 Y2.18753
G01 X-3.83621 Y2.18839
G01 X-3.83362 Y2.18977
G01 X-3.83339 Y2.18996
G01 X-3.83343 Y2.19012
G01 X-3.83339 Y2.18996
G01 X-3.59776 Y2.18996
G01 X-3.59772 Y2.19012
G01 X-3.59776 Y2.18996
G01 X-3.59753 Y2.18977
G01 X-3.59493 Y2.18839
G01 X-3.59212 Y2.18753
G01 X-3.58919 Y2.18724
G01 X-3.54195 Y2.18724
G01 X-3.53902 Y2.18753
G01 X-3.53621 Y2.18839
G01 X-3.53362 Y2.18977
G01 X-3.53339 Y2.18996
G01 X-3.53343 Y2.19012
G01 X-3.53339 Y2.18996
G01 X-3.29776 Y2.18996
G01 X-3.29772 Y2.19012
G01 X-3.29776 Y2.18996
G01 X-3.29753 Y2.18977
G01 X-3.29493 Y2.18839
G01 X-3.29212 Y2.18753
G01 X-3.28919 Y2.18724
G01 X-3.24195 Y2.18724
G01 X-3.23902 Y2.18753
G01 X-3.23621 Y2.18839
G01 X-3.23362 Y2.18977
G01 X-3.23339 Y2.18996
G01 X-3.23343 Y2.19012
G01 X-3.23339 Y2.18996
G01 X-2.99776 Y2.18996
G01 X-2.99772 Y2.19012
G01 X-2.99776 Y2.18996
G01 X-2.99753 Y2.18977
G01 X-2.99493 Y2.18839
G01 X-2.99212 Y2.18753
G01 X-2.98919 Y2.18724
G01 X-2.94195 Y2.18724
G01 X-2.93902 Y2.18753
G01 X-2.93621 Y2.18839
G01 X-2.93362 Y2.18977
G01 X-2.93339 Y2.18996
G01 X-2.93343 Y2.19012
G01 X-2.93339 Y2.18996
G01 X-2.69776 Y2.18996
G01 X-2.69772 Y2.19012
G01 X-2.69776 Y2.18996
G01 X-2.69753 Y2.18977
G01 X-2.69493 Y2.18839
G01 X-2.69212 Y2.18753
G01 X-2.68919 Y2.18724
G01 X-2.64195 Y2.18724
G01 X-2.63902 Y2.18753
G01 X-2.63621 Y2.18839
G01 X-2.63362 Y2.18977
G01 X-2.63339 Y2.18996
G01 X-2.63343 Y2.19012
G01 X-2.63339 Y2.18996
G01 X-2.39776 Y2.18996
G01 X-2.39772 Y2.19012
G01 X-2.39776 Y2.18996
G01 X-2.39753 Y2.18977
G01 X-2.39493 Y2.18839
G01 X-2.39212 Y2.18753
G01 X-2.38919 Y2.18724
G01 X-2.34195 Y2.18724
G01 X-2.33902 Y2.18753
G01 X-2.33621 Y2.18839
G01 X-2.33362 Y2.18977
G01 X-2.33339 Y2.18996
G01 X-2.33343 Y2.19012
G01 X-2.33339 Y2.18996
G01 X-2.09776 Y2.18996
G01 X-2.09772 Y2.19012
G01 X-2.09776 Y2.18996
G01 X-2.09753 Y2.18977
G01 X-2.09493 Y2.18839
G01 X-2.09212 Y2.18753
G01 X-2.08919 Y2.18724
G01 X-2.04195 Y2.18724
G01 X-2.03902 Y2.18753
G01 X-2.03621 Y2.18839
G01 X-2.03362 Y2.18977
G01 X-2.03339 Y2.18996
G01 X-2.03343 Y2.19012
G01 X-2.03339 Y2.18996
G01 X-1.79776 Y2.18996
G01 X-1.79772 Y2.19012
G01 X-1.79776 Y2.18996
G01 X-1.79753 Y2.18977
G01 X-1.79493 Y2.18839
G01 X-1.79212 Y2.18753
G01 X-1.78919 Y2.18724
G01 X-1.74195 Y2.18724
G01 X-1.73902 Y2.18753
G01 X-1.73621 Y2.18839
G01 X-1.73362 Y2.18977
G01 X-1.73339 Y2.18996
G01 X-1.73343 Y2.19012
G01 X-1.73339 Y2.18996
G01 X-1.49776 Y2.18996
G01 X-1.49772 Y2.19012
G01 X-1.49776 Y2.18996
G01 X-1.49753 Y2.18977
G01 X-1.49493 Y2.18839
G01 X-1.49212 Y2.18753
G01 X-1.48919 Y2.18724
G01 X-1.44195 Y2.18724
G01 X-1.43902 Y2.18753
G01 X-1.43621 Y2.18839
G01 X-1.43361 Y2.18977
G01 X-1.43339 Y2.18996
G01 X-1.43343 Y2.19012
G01 X-1.43339 Y2.18996
G01 X-0.99776 Y2.18996
G01 X-0.99772 Y2.19012
G01 X-0.99776 Y2.18996
G01 X-0.99753 Y2.18977
G01 X-0.99493 Y2.18839
G01 X-0.99212 Y2.18753
G01 X-0.98919 Y2.18724
G01 X-0.94195 Y2.18724
G01 X-0.93902 Y2.18753
G01 X-0.93621 Y2.18839
G01 X-0.93362 Y2.18977
G01 X-0.93339 Y2.18996
G01 X-0.93343 Y2.19012
G01 X-0.93339 Y2.18996
G01 X-0.54457 Y2.18996
G01 X-0.54441 Y2.19034
G01 X-0.54457 Y2.18996
G01 X-0.46835 Y2.11374
G01 X-0.46785 Y2.11392
G01 X-0.46835 Y2.11374
G01 X-0.46919 Y2.10500
G01 X-0.46805 Y2.09419
G01 X-0.46469 Y2.08385
G01 X-0.46011 Y2.07575
G01 X-0.45827 Y2.07321
G01 X-0.45198 Y2.06636
G01 X-0.44319 Y2.05997
G01 X-0.43325 Y2.05555
G01 X-0.42417 Y2.05353
G01 X-0.42105 Y2.05320
G01 X-0.41175 Y2.05328
G01 X-0.40112 Y2.05555
G01 X-0.39119 Y2.05997
G01 X-0.38239 Y2.06636
G01 X-0.37610 Y2.07321
G01 X-0.37455 Y2.07531
G01 X-0.29486 Y2.15500
G01 X-0.29502 Y2.15538
G01 X-0.29486 Y2.15500
G01 X-0.23108 Y2.15500
G01 X-0.23325 Y2.15445
G01 X-0.23472 Y2.15389
G01 X-0.24319 Y2.15003
G01 X-0.25076 Y2.14463
G01 X-0.25309 Y2.14253
G01 X-0.25925 Y2.13556
G01 X-0.26398 Y2.12755
G01 X-0.26525 Y2.12468
G01 X-0.26805 Y2.11581
G01 X-0.26910 Y2.10657
G01 X-0.26910 Y2.10343
G01 X-0.26805 Y2.09419
G01 X-0.26551 Y2.08630
G01 X-0.26557 Y1.97571
G01 X-0.26519 Y1.97555
G01 X-0.26557 Y1.97571
G01 X-1.86619 Y0.37509
G01 X-1.86603 Y0.37471
G01 X-1.86619 Y0.37509
G01 X-2.66557 Y0.37509
G01 X-2.67387 Y0.37435
G01 X-2.67675 Y0.37377
G01 X-2.68332 Y0.37178
G01 X-2.68604 Y0.37066
G01 X-2.69335 Y0.36667
G01 X-2.69984 Y0.36144
G01 X-2.70191 Y0.35936
G01 X-2.70541 Y0.35509
G01 X-2.70521 Y0.35465
G01 X-2.70541 Y0.35509
G01 X-2.78339 Y0.35509
G01 X-2.78343 Y0.35493
G01 X-2.78339 Y0.35509
G01 X-2.78362 Y0.35528
G01 X-2.78621 Y0.35667
G01 X-2.78902 Y0.35752
G01 X-2.79195 Y0.35781
G01 X-2.83919 Y0.35781
G01 X-2.84212 Y0.35752
G01 X-2.84493 Y0.35667
G01 X-2.84753 Y0.35528
G01 X-2.84776 Y0.35509
G01 X-2.84771 Y0.35493
G01 X-2.84776 Y0.35509
G01 X-2.88339 Y0.35509
G01 X-2.88343 Y0.35493
G01 X-2.88339 Y0.35509
G01 X-2.88362 Y0.35528
G01 X-2.88621 Y0.35667
G01 X-2.88902 Y0.35752
G01 X-2.89195 Y0.35781
G01 X-2.93919 Y0.35781
G01 X-2.94212 Y0.35752
G01 X-2.94493 Y0.35667
G01 X-2.94753 Y0.35528
G01 X-2.94776 Y0.35509
G01 X-2.94771 Y0.35493
G01 X-2.94776 Y0.35509
G01 X-2.98339 Y0.35509
G01 X-2.98343 Y0.35493
G01 X-2.98339 Y0.35509
G01 X-2.98362 Y0.35528
G01 X-2.98621 Y0.35667
G01 X-2.98902 Y0.35752
G01 X-2.99195 Y0.35781
G01 X-3.03919 Y0.35781
G01 X-3.04212 Y0.35752
G01 X-3.04493 Y0.35667
G01 X-3.04753 Y0.35528
G01 X-3.04776 Y0.35509
G01 X-3.04771 Y0.35493
G01 X-3.04776 Y0.35509
G01 X-3.08339 Y0.35509
G01 X-3.08343 Y0.35493
G01 X-3.08339 Y0.35509
G01 X-3.08362 Y0.35528
G01 X-3.08621 Y0.35667
G01 X-3.08902 Y0.35752
G01 X-3.09195 Y0.35781
G01 X-3.13919 Y0.35781
G01 X-3.14212 Y0.35752
G01 X-3.14493 Y0.35667
G01 X-3.14753 Y0.35528
G01 X-3.14776 Y0.35509
G01 X-3.14771 Y0.35493
G01 X-3.14776 Y0.35509
G01 X-3.18339 Y0.35509
G01 X-3.18343 Y0.35493
G01 X-3.18339 Y0.35509
G01 X-3.18362 Y0.35528
G01 X-3.18621 Y0.35667
G01 X-3.18902 Y0.35752
G01 X-3.19195 Y0.35781
G01 X-3.23919 Y0.35781
G01 X-3.24212 Y0.35752
G01 X-3.24493 Y0.35667
G01 X-3.24753 Y0.35528
G01 X-3.24776 Y0.35509
G01 X-3.24771 Y0.35493
G01 X-3.24776 Y0.35509
G01 X-3.28339 Y0.35509
G01 X-3.28343 Y0.35493
G01 X-3.28339 Y0.35509
G01 X-3.28362 Y0.35528
G01 X-3.28621 Y0.35667
G01 X-3.28902 Y0.35752
G01 X-3.29195 Y0.35781
G01 X-3.33919 Y0.35781
G01 X-3.34212 Y0.35752
G01 X-3.34493 Y0.35667
G01 X-3.34753 Y0.35528
G01 X-3.34776 Y0.35509
G01 X-3.34771 Y0.35493
G01 X-3.34776 Y0.35509
G01 X-3.38339 Y0.35509
G01 X-3.38343 Y0.35493
G01 X-3.38339 Y0.35509
G01 X-3.38362 Y0.35528
G01 X-3.38621 Y0.35667
G01 X-3.38902 Y0.35752
G01 X-3.39195 Y0.35781
G01 X-3.43919 Y0.35781
G01 X-3.44212 Y0.35752
G01 X-3.44493 Y0.35667
G01 X-3.44753 Y0.35528
G01 X-3.44776 Y0.35509
G01 X-3.44771 Y0.35493
G01 X-3.44776 Y0.35509
G01 X-3.48429 Y0.35500
G01 X-3.48621 Y0.35613
G01 X-3.48902 Y0.35698
G01 X-3.49195 Y0.35727
G01 X-3.53919 Y0.35727
G01 X-3.54212 Y0.35698
G01 X-3.54493 Y0.35613
G01 X-3.54753 Y0.35474
G01 X-3.54776 Y0.35455
G01 X-3.54771 Y0.35439
G01 X-3.54776 Y0.35455
G01 X-3.66790 Y0.35455
G01 X-3.66855 Y0.35364
G01 X-3.66790 Y0.35455
G01 X-3.66888 Y0.35779
G01 X-3.67001 Y0.36050
G01 X-3.67400 Y0.36782
G01 X-3.67923 Y0.37430
G01 X-3.68131 Y0.37638
G01 X-3.68779 Y0.38161
G01 X-3.69511 Y0.38560
G01 X-3.69782 Y0.38673
G01 X-3.70582 Y0.38908
G01 X-3.71557 Y0.39004
G01 X-3.72253 Y0.38943
G01 X-3.72271 Y0.38894
G01 X-3.72253 Y0.38943
G01 X-3.77695 Y0.44384
G01 X-3.77733 Y0.44369
G01 X-3.77695 Y0.44384
G01 X-3.77695 Y0.45776
G01 X-3.77724 Y0.46068
G01 X-3.77809 Y0.46350
G01 X-3.77948 Y0.46609
G01 X-3.78134 Y0.46836
G01 X-3.78362 Y0.47023
G01 X-3.78621 Y0.47161
G01 X-3.78902 Y0.47247
G01 X-3.79195 Y0.47276
G01 X-3.83919 Y0.47276
G01 X-3.84212 Y0.47247
G01 X-3.84493 Y0.47161
G01 X-3.84753 Y0.47023
G01 X-3.84776 Y0.47004
G01 X-3.84771 Y0.46988
G01 X-3.84776 Y0.47004
G01 X-3.98339 Y0.47004
G01 X-3.98343 Y0.46988
G01 X-3.98339 Y0.47004
G01 X-3.98362 Y0.47023
G01 X-3.98621 Y0.47161
G01 X-3.98902 Y0.47247
G01 X-3.99195 Y0.47276
G01 X-4.03919 Y0.47276
G01 X-4.04212 Y0.47247
G01 X-4.04493 Y0.47161
G01 X-4.04753 Y0.47023
G01 X-4.04776 Y0.47004
G01 X-4.04771 Y0.46988
G01 X-4.04776 Y0.47004
G01 X-4.08339 Y0.47004
G01 X-4.08343 Y0.46988
G01 X-4.08339 Y0.47004
G01 X-4.08362 Y0.47023
G01 X-4.08621 Y0.47161
G01 X-4.08902 Y0.47247
G01 X-4.09195 Y0.47276
G01 X-4.13919 Y0.47276
G01 X-4.14212 Y0.47247
G01 X-4.14493 Y0.47161
G01 X-4.14753 Y0.47023
G01 X-4.14776 Y0.47004
G01 X-4.14771 Y0.46988
G01 X-4.14776 Y0.47004
G01 X-4.18339 Y0.47004
G01 X-4.18343 Y0.46988
G01 X-4.18339 Y0.47004
G01 X-4.18362 Y0.47023
G01 X-4.18621 Y0.47161
G01 X-4.18902 Y0.47247
G01 X-4.19195 Y0.47276
G01 X-4.23919 Y0.47276
G01 X-4.24212 Y0.47247
G01 X-4.24493 Y0.47161
G01 X-4.24753 Y0.47023
G01 X-4.24776 Y0.47004
G01 X-4.24771 Y0.46988
G01 X-4.24776 Y0.47004
G01 X-4.28339 Y0.47004
G01 X-4.28343 Y0.46988
G01 X-4.28339 Y0.47004
G01 X-4.28362 Y0.47023
G01 X-4.28621 Y0.47161
G01 X-4.28902 Y0.47247
G01 X-4.29195 Y0.47276
G01 X-4.33919 Y0.47276
G01 X-4.34212 Y0.47247
G01 X-4.34493 Y0.47161
G01 X-4.34753 Y0.47023
G01 X-4.34776 Y0.47004
G01 X-4.34771 Y0.46988
G01 X-4.34776 Y0.47004
G01 X-4.38339 Y0.47004
G01 X-4.38343 Y0.46988
G01 X-4.38339 Y0.47004
G01 X-4.38362 Y0.47023
G01 X-4.38621 Y0.47161
G01 X-4.38902 Y0.47247
G01 X-4.39195 Y0.47276
G01 X-4.43919 Y0.47276
G01 X-4.44212 Y0.47247
G01 X-4.44493 Y0.47161
G01 X-4.44753 Y0.47023
G01 X-4.44980 Y0.46836
G01 X-4.45167 Y0.46609
G01 X-4.45305 Y0.46350
G01 X-4.45390 Y0.46068
G01 X-4.45419 Y0.45776
G01 X-4.45419 Y0.44996
G01 X-4.45281 Y0.44854
G01 X-4.45419 Y0.44996
G01 X-4.48339 Y0.44996
G01 X-4.48343 Y0.44980
G01 X-4.48339 Y0.44996
G01 X-4.48362 Y0.45015
G01 X-4.48621 Y0.45154
G01 X-4.48902 Y0.45239
G01 X-4.49195 Y0.45268
G01 X-4.53919 Y0.45268
G01 X-4.54212 Y0.45239
G01 X-4.54493 Y0.45154
G01 X-4.54753 Y0.45015
G01 X-4.54776 Y0.44996
G01 X-4.54771 Y0.44980
G01 X-4.54776 Y0.44996
G01 X-4.58339 Y0.44996
G01 X-4.58343 Y0.44980
G01 X-4.58339 Y0.44996
G01 X-4.58362 Y0.45015
G01 X-4.58621 Y0.45154
G01 X-4.58902 Y0.45239
G01 X-4.59195 Y0.45268
G01 X-4.63919 Y0.45268
G01 X-4.64212 Y0.45239
G01 X-4.64493 Y0.45154
G01 X-4.64753 Y0.45015
G01 X-4.64980 Y0.44828
G01 X-4.65167 Y0.44601
G01 X-4.65305 Y0.44342
G01 X-4.65390 Y0.44060
G01 X-4.65419 Y0.43768
G01 X-4.65419 Y0.40224
G01 X-4.65390 Y0.39932
G01 X-4.65305 Y0.39650
G01 X-4.65167 Y0.39391
G01 X-4.64980 Y0.39164
G01 X-4.64753 Y0.38977
G01 X-4.64493 Y0.38839
G01 X-4.64212 Y0.38753
G01 X-4.63919 Y0.38724
G01 X-4.59195 Y0.38724
G01 X-4.58902 Y0.38753
G01 X-4.58621 Y0.38839
G01 X-4.58362 Y0.38977
G01 X-4.58338 Y0.38996
G01 X-4.58343 Y0.39012
G01 X-4.58338 Y0.38996
G01 X-4.54776 Y0.38996
G01 X-4.54772 Y0.39012
G01 X-4.54776 Y0.38996
G01 X-4.54753 Y0.38977
G01 X-4.54493 Y0.38839
G01 X-4.54212 Y0.38753
G01 X-4.53919 Y0.38724
G01 X-4.49195 Y0.38724
G01 X-4.48902 Y0.38753
G01 X-4.48621 Y0.38839
G01 X-4.48362 Y0.38977
G01 X-4.48338 Y0.38996
G01 X-4.48343 Y0.39012
G01 X-4.48338 Y0.38996
G01 X-4.43565 Y0.38996
G01 X-4.43213 Y0.39019
G01 X-4.42751 Y0.39111
G01 X-4.42527 Y0.39184
G01 X-4.42310 Y0.39274
G01 X-4.41899 Y0.39504
G01 X-4.41709 Y0.39642
G01 X-4.41444 Y0.39875
G01 X-4.40586 Y0.40732
G01 X-4.40602 Y0.40768
G01 X-4.40586 Y0.40732
G01 X-4.39195 Y0.40732
G01 X-4.38902 Y0.40761
G01 X-4.38621 Y0.40846
G01 X-4.38362 Y0.40985
G01 X-4.38341 Y0.41014
G01 X-4.38338 Y0.41004
G01 X-4.34776 Y0.41004
G01 X-4.34772 Y0.41020
G01 X-4.34776 Y0.41004
G01 X-4.34753 Y0.40985
G01 X-4.34493 Y0.40846
G01 X-4.34212 Y0.40761
G01 X-4.33919 Y0.40732
G01 X-4.29195 Y0.40732
G01 X-4.28902 Y0.40761
G01 X-4.28621 Y0.40846
G01 X-4.28362 Y0.40985
G01 X-4.28338 Y0.41004
G01 X-4.28343 Y0.41020
G01 X-4.28338 Y0.41004
G01 X-4.24776 Y0.41004
G01 X-4.24772 Y0.41020
G01 X-4.24776 Y0.41004
G01 X-4.24753 Y0.40985
G01 X-4.24493 Y0.40846
G01 X-4.24212 Y0.40761
G01 X-4.23919 Y0.40732
G01 X-4.19195 Y0.40732
G01 X-4.18902 Y0.40761
G01 X-4.18621 Y0.40846
G01 X-4.18362 Y0.40985
G01 X-4.18338 Y0.41004
G01 X-4.18343 Y0.41020
G01 X-4.18338 Y0.41004
G01 X-4.14776 Y0.41004
G01 X-4.14772 Y0.41020
G01 X-4.14776 Y0.41004
G01 X-4.14753 Y0.40985
G01 X-4.14493 Y0.40846
G01 X-4.14212 Y0.40761
G01 X-4.13919 Y0.40732
G01 X-4.09195 Y0.40732
G01 X-4.08902 Y0.40761
G01 X-4.08621 Y0.40846
G01 X-4.08362 Y0.40985
G01 X-4.08338 Y0.41004
G01 X-4.08343 Y0.41020
G01 X-4.08338 Y0.41004
G01 X-4.04776 Y0.41004
G01 X-4.04772 Y0.41020
G01 X-4.04776 Y0.41004
G01 X-4.04753 Y0.40985
G01 X-4.04493 Y0.40846
G01 X-4.04212 Y0.40761
G01 X-4.03919 Y0.40732
G01 X-3.99195 Y0.40732
G01 X-3.98902 Y0.40761
G01 X-3.98621 Y0.40846
G01 X-3.98362 Y0.40985
G01 X-3.98338 Y0.41004
G01 X-3.98343 Y0.41020
G01 X-3.98338 Y0.41004
G01 X-3.84776 Y0.41004
G01 X-3.84774 Y0.41014
G01 X-3.84753 Y0.40985
G01 X-3.84493 Y0.40846
G01 X-3.84212 Y0.40761
G01 X-3.83919 Y0.40732
G01 X-3.82528 Y0.40732
G01 X-3.82513 Y0.40768
G01 X-3.82528 Y0.40732
G01 X-3.76496 Y0.34700
G01 X-3.76447 Y0.34718
G01 X-3.76496 Y0.34700
G01 X-3.76557 Y0.34004
G01 X-3.76557 Y0.15500
G01 X-3.76483 Y0.14670
G01 X-3.76425 Y0.14382
G01 X-3.76226 Y0.13725
G01 X-3.76114 Y0.13454
G01 X-3.75714 Y0.12722
G01 X-3.75191 Y0.12074
G01 X-3.74984 Y0.11866
G01 X-3.74453 Y0.11430
G01 X-3.74209 Y0.11267
G01 X-3.73604 Y0.10944
G01 X-3.73332 Y0.10831
G01 X-3.72675 Y0.10632
G01 X-3.72387 Y0.10574
G01 X-3.71557 Y0.10500
G01 X-3.70727 Y0.10574
G01 X-3.70439 Y0.10632
G01 X-3.69782 Y0.10831
G01 X-3.69511 Y0.10944
G01 X-3.68906 Y0.11267
G01 X-3.68661 Y0.11430
G01 X-3.68131 Y0.11866
G01 X-3.67923 Y0.12074
G01 X-3.67400 Y0.12722
G01 X-3.67001 Y0.13454
G01 X-3.66888 Y0.13725
G01 X-3.66689 Y0.14382
G01 X-3.66632 Y0.14670
G01 X-3.66557 Y0.15500
G01 X-3.66557 Y0.29455
G01 X-3.66704 Y0.29602
G01 X-3.66557 Y0.29455
G01 X-3.54776 Y0.29455
G01 X-3.54772 Y0.29471
G01 X-3.54776 Y0.29455
G01 X-3.54753 Y0.29436
G01 X-3.54493 Y0.29298
G01 X-3.54212 Y0.29212
G01 X-3.53919 Y0.29184
G01 X-3.49195 Y0.29184
G01 X-3.48902 Y0.29212
G01 X-3.48621 Y0.29298
G01 X-3.48362 Y0.29436
G01 X-3.48273 Y0.29509
G01 X-3.48278 Y0.29528
G01 X-3.48273 Y0.29509
G01 X-3.44776 Y0.29509
G01 X-3.44772 Y0.29525
G01 X-3.44776 Y0.29509
G01 X-3.44753 Y0.29490
G01 X-3.44493 Y0.29352
G01 X-3.44212 Y0.29266
G01 X-3.43919 Y0.29238
G01 X-3.39195 Y0.29238
G01 X-3.38902 Y0.29266
G01 X-3.38621 Y0.29352
G01 X-3.38362 Y0.29490
G01 X-3.38339 Y0.29509
G01 X-3.38343 Y0.29525
G01 X-3.38339 Y0.29509
G01 X-3.34776 Y0.29509
G01 X-3.34772 Y0.29525
G01 X-3.34776 Y0.29509
G01 X-3.34753 Y0.29490
G01 X-3.34493 Y0.29352
G01 X-3.34212 Y0.29266
G01 X-3.33919 Y0.29238
G01 X-3.29195 Y0.29238
G01 X-3.28902 Y0.29266
G01 X-3.28621 Y0.29352
G01 X-3.28362 Y0.29490
G01 X-3.28339 Y0.29509
G01 X-3.28343 Y0.29525
G01 X-3.28339 Y0.29509
G01 X-3.24776 Y0.29509
G01 X-3.24772 Y0.29525
G01 X-3.24776 Y0.29509
G01 X-3.24753 Y0.29490
G01 X-3.24493 Y0.29352
G01 X-3.24212 Y0.29266
G01 X-3.23919 Y0.29238
G01 X-3.19195 Y0.29238
G01 X-3.18902 Y0.29266
G01 X-3.18621 Y0.29352
G01 X-3.18362 Y0.29490
G01 X-3.18339 Y0.29509
G01 X-3.18343 Y0.29525
G01 X-3.18339 Y0.29509
G01 X-3.14776 Y0.29509
G01 X-3.14772 Y0.29525
G01 X-3.14776 Y0.29509
G01 X-3.14753 Y0.29490
G01 X-3.14493 Y0.29352
G01 X-3.14212 Y0.29266
G01 X-3.13919 Y0.29238
G01 X-3.09195 Y0.29238
G01 X-3.08902 Y0.29266
G01 X-3.08621 Y0.29352
G01 X-3.08362 Y0.29490
G01 X-3.08339 Y0.29509
G01 X-3.08343 Y0.29525
G01 X-3.08339 Y0.29509
G01 X-3.04776 Y0.29509
G01 X-3.04772 Y0.29525
G01 X-3.04776 Y0.29509
G01 X-3.04753 Y0.29490
G01 X-3.04493 Y0.29352
G01 X-3.04212 Y0.29266
G01 X-3.03919 Y0.29238
G01 X-2.99195 Y0.29238
G01 X-2.98902 Y0.29266
G01 X-2.98621 Y0.29352
G01 X-2.98362 Y0.29490
G01 X-2.98339 Y0.29509
G01 X-2.98343 Y0.29525
G01 X-2.98339 Y0.29509
G01 X-2.94776 Y0.29509
G01 X-2.94772 Y0.29525
G01 X-2.94776 Y0.29509
G01 X-2.94753 Y0.29490
G01 X-2.94493 Y0.29352
G01 X-2.94212 Y0.29266
G01 X-2.93919 Y0.29238
G01 X-2.89195 Y0.29238
G01 X-2.88902 Y0.29266
G01 X-2.88621 Y0.29352
G01 X-2.88362 Y0.29490
G01 X-2.88339 Y0.29509
G01 X-2.88343 Y0.29525
G01 X-2.88339 Y0.29509
G01 X-2.84776 Y0.29509
G01 X-2.84772 Y0.29525
G01 X-2.84776 Y0.29509
G01 X-2.84753 Y0.29490
G01 X-2.84493 Y0.29352
G01 X-2.84212 Y0.29266
G01 X-2.83919 Y0.29238
G01 X-2.79195 Y0.29238
G01 X-2.78902 Y0.29266
G01 X-2.78621 Y0.29352
G01 X-2.78362 Y0.29490
G01 X-2.78339 Y0.29509
G01 X-2.78343 Y0.29525
G01 X-2.78339 Y0.29509
G01 X-2.70542 Y0.29509
G01 X-2.70521 Y0.29554
G01 X-2.70542 Y0.29509
G01 X-2.70191 Y0.29083
G01 X-2.69984 Y0.28875
G01 X-2.69335 Y0.28352
G01 X-2.68604 Y0.27953
G01 X-2.68332 Y0.27840
G01 X-2.67675 Y0.27641
G01 X-2.67387 Y0.27584
G01 X-2.66557 Y0.27509
G01 X-1.84548 Y0.27509
G01 X-1.83718 Y0.27584
G01 X-1.83430 Y0.27641
G01 X-1.82773 Y0.27840
G01 X-1.82501 Y0.27953
G01 X-1.81896 Y0.28276
G01 X-1.81652 Y0.28440
G01 X-1.81012 Y0.28974
G01 X-0.18022 Y1.91964
G01 X-0.17487 Y1.92604
G01 X-0.17324 Y1.92848
G01 X-0.16938 Y1.93587
G01 X-0.16689 Y1.94382
G01 X-0.16632 Y1.94670
G01 X-0.16564 Y1.95353
G01 X-0.16557 Y2.10054
G01 X-0.16519 Y2.10500
G01 X-0.17519 Y2.10500
G01 X-0.17557 Y2.10107
G01 X-0.17560 Y1.95451
G01 X-0.17646 Y1.94672
G01 X-0.17862 Y1.93969
G01 X-0.18206 Y1.93320
G01 X-0.18729 Y1.92672
G01 X-1.81719 Y0.29681
G01 X-1.82326 Y0.29183
G01 X-1.83063 Y0.28797
G01 X-1.83816 Y0.28579
G01 X-1.84548 Y0.28509
G01 X-2.66557 Y0.28509
G01 X-2.67385 Y0.28598
G01 X-2.68042 Y0.28797
G01 X-2.68737 Y0.29158
G01 X-2.69418 Y0.29717
G01 X-2.69883 Y0.30287
G01 X-2.70005 Y0.30509
G01 X-2.78753 Y0.30509
G01 X-2.78841 Y0.30384
G01 X-2.78917 Y0.30322
G01 X-2.79004 Y0.30276
G01 X-2.79195 Y0.30238
G01 X-2.83919 Y0.30238
G01 X-2.84111 Y0.30276
G01 X-2.84197 Y0.30322
G01 X-2.84273 Y0.30384
G01 X-2.84361 Y0.30509
G01 X-2.88753 Y0.30509
G01 X-2.88841 Y0.30384
G01 X-2.88917 Y0.30322
G01 X-2.89004 Y0.30276
G01 X-2.89195 Y0.30238
G01 X-2.93919 Y0.30238
G01 X-2.94111 Y0.30276
G01 X-2.94197 Y0.30322
G01 X-2.94273 Y0.30384
G01 X-2.94361 Y0.30509
G01 X-2.98753 Y0.30509
G01 X-2.98841 Y0.30384
G01 X-2.98917 Y0.30322
G01 X-2.99004 Y0.30276
G01 X-2.99195 Y0.30238
G01 X-3.03919 Y0.30238
G01 X-3.04111 Y0.30276
G01 X-3.04197 Y0.30322
G01 X-3.04273 Y0.30384
G01 X-3.04361 Y0.30509
G01 X-3.08753 Y0.30509
G01 X-3.08841 Y0.30384
G01 X-3.08917 Y0.30322
G01 X-3.09004 Y0.30276
G01 X-3.09195 Y0.30238
G01 X-3.13919 Y0.30238
G01 X-3.14111 Y0.30276
G01 X-3.14197 Y0.30322
G01 X-3.14273 Y0.30384
G01 X-3.14361 Y0.30509
G01 X-3.18753 Y0.30509
G01 X-3.18841 Y0.30384
G01 X-3.18917 Y0.30322
G01 X-3.19004 Y0.30276
G01 X-3.19195 Y0.30238
G01 X-3.23919 Y0.30238
G01 X-3.24111 Y0.30276
G01 X-3.24197 Y0.30322
G01 X-3.24273 Y0.30384
G01 X-3.24361 Y0.30509
G01 X-3.28753 Y0.30509
G01 X-3.28841 Y0.30384
G01 X-3.28917 Y0.30322
G01 X-3.29004 Y0.30276
G01 X-3.29195 Y0.30238
G01 X-3.33919 Y0.30238
G01 X-3.34111 Y0.30276
G01 X-3.34197 Y0.30322
G01 X-3.34273 Y0.30384
G01 X-3.34361 Y0.30509
G01 X-3.38753 Y0.30509
G01 X-3.38841 Y0.30384
G01 X-3.38917 Y0.30322
G01 X-3.39004 Y0.30276
G01 X-3.39195 Y0.30238
G01 X-3.43919 Y0.30238
G01 X-3.44111 Y0.30276
G01 X-3.44197 Y0.30322
G01 X-3.44273 Y0.30384
G01 X-3.44361 Y0.30509
G01 X-3.48728 Y0.30509
G01 X-3.48779 Y0.30406
G01 X-3.48917 Y0.30268
G01 X-3.49097 Y0.30193
G01 X-3.49195 Y0.30184
G01 X-3.53919 Y0.30184
G01 X-3.54017 Y0.30193
G01 X-3.54197 Y0.30268
G01 X-3.54273 Y0.30330
G01 X-3.54362 Y0.30455
G01 X-3.67557 Y0.30455
G01 X-3.67557 Y0.15500
G01 X-3.67646 Y0.14672
G01 X-3.67883 Y0.13925
G01 X-3.68231 Y0.13278
G01 X-3.68696 Y0.12708
G01 X-3.69295 Y0.12203
G01 X-3.69982 Y0.11825
G01 X-3.70729 Y0.11589
G01 X-3.71606 Y0.11502
G01 X-3.72385 Y0.11589
G01 X-3.73042 Y0.11788
G01 X-3.73779 Y0.12174
G01 X-3.74349 Y0.12639
G01 X-3.74908 Y0.13320
G01 X-3.75269 Y0.14015
G01 X-3.75487 Y0.14768
G01 X-3.75557 Y0.15500
G01 X-3.75557 Y0.34004
G01 X-3.75487 Y0.34736
G01 X-3.75409 Y0.35028
G01 X-3.82114 Y0.41732
G01 X-3.84017 Y0.41742
G01 X-3.84197 Y0.41817
G01 X-3.84273 Y0.41879
G01 X-3.84362 Y0.42004
G01 X-3.98753 Y0.42004
G01 X-3.98841 Y0.41879
G01 X-3.98917 Y0.41817
G01 X-3.99097 Y0.41742
G01 X-3.99195 Y0.41732
G01 X-4.03919 Y0.41732
G01 X-4.04017 Y0.41742
G01 X-4.04197 Y0.41817
G01 X-4.04273 Y0.41879
G01 X-4.04362 Y0.42004
G01 X-4.08753 Y0.42004
G01 X-4.08841 Y0.41879
G01 X-4.08917 Y0.41817
G01 X-4.09097 Y0.41742
G01 X-4.09195 Y0.41732
G01 X-4.13919 Y0.41732
G01 X-4.14017 Y0.41742
G01 X-4.14197 Y0.41817
G01 X-4.14273 Y0.41879
G01 X-4.14362 Y0.42004
G01 X-4.18753 Y0.42004
G01 X-4.18841 Y0.41879
G01 X-4.18917 Y0.41817
G01 X-4.19097 Y0.41742
G01 X-4.19195 Y0.41732
G01 X-4.23919 Y0.41732
G01 X-4.24017 Y0.41742
G01 X-4.24197 Y0.41817
G01 X-4.24273 Y0.41879
G01 X-4.24362 Y0.42004
G01 X-4.28753 Y0.42004
G01 X-4.28841 Y0.41879
G01 X-4.28917 Y0.41817
G01 X-4.29097 Y0.41742
G01 X-4.29195 Y0.41732
G01 X-4.33919 Y0.41732
G01 X-4.34017 Y0.41742
G01 X-4.34197 Y0.41817
G01 X-4.34273 Y0.41879
G01 X-4.34362 Y0.42004
G01 X-4.38753 Y0.42004
G01 X-4.38841 Y0.41879
G01 X-4.38917 Y0.41817
G01 X-4.39097 Y0.41742
G01 X-4.41000 Y0.41732
G01 X-4.42151 Y0.40582
G01 X-4.42358 Y0.40402
G01 X-4.42623 Y0.40233
G01 X-4.42910 Y0.40108
G01 X-4.43291 Y0.40016
G01 X-4.43565 Y0.39996
G01 X-4.48753 Y0.39996
G01 X-4.48841 Y0.39871
G01 X-4.48917 Y0.39809
G01 X-4.49004 Y0.39762
G01 X-4.49195 Y0.39724
G01 X-4.53919 Y0.39724
G01 X-4.54111 Y0.39762
G01 X-4.54197 Y0.39809
G01 X-4.54273 Y0.39871
G01 X-4.54361 Y0.39996
G01 X-4.58753 Y0.39996
G01 X-4.58841 Y0.39871
G01 X-4.58917 Y0.39809
G01 X-4.59004 Y0.39762
G01 X-4.59195 Y0.39724
G01 X-4.63919 Y0.39724
G01 X-4.64111 Y0.39762
G01 X-4.64273 Y0.39871
G01 X-4.64381 Y0.40033
G01 X-4.64410 Y0.40127
G01 X-4.64419 Y0.43768
G01 X-4.64381 Y0.43959
G01 X-4.64273 Y0.44121
G01 X-4.64111 Y0.44230
G01 X-4.63919 Y0.44268
G01 X-4.59195 Y0.44268
G01 X-4.59097 Y0.44258
G01 X-4.58917 Y0.44183
G01 X-4.58841 Y0.44121
G01 X-4.58753 Y0.43996
G01 X-4.54361 Y0.43996
G01 X-4.54273 Y0.44121
G01 X-4.54197 Y0.44183
G01 X-4.54017 Y0.44258
G01 X-4.53919 Y0.44268
G01 X-4.49195 Y0.44268
G01 X-4.49097 Y0.44258
G01 X-4.48917 Y0.44183
G01 X-4.48841 Y0.44121
G01 X-4.48753 Y0.43996
G01 X-4.44419 Y0.43996
G01 X-4.44410 Y0.45873
G01 X-4.44381 Y0.45967
G01 X-4.44273 Y0.46129
G01 X-4.44111 Y0.46238
G01 X-4.43919 Y0.46276
G01 X-4.39195 Y0.46276
G01 X-4.39004 Y0.46238
G01 X-4.38917 Y0.46191
G01 X-4.38841 Y0.46129
G01 X-4.38753 Y0.46004
G01 X-4.34361 Y0.46004
G01 X-4.34273 Y0.46129
G01 X-4.34197 Y0.46191
G01 X-4.34111 Y0.46238
G01 X-4.33919 Y0.46276
G01 X-4.29195 Y0.46276
G01 X-4.29004 Y0.46238
G01 X-4.28917 Y0.46191
G01 X-4.28841 Y0.46129
G01 X-4.28753 Y0.46004
G01 X-4.24361 Y0.46004
G01 X-4.24273 Y0.46129
G01 X-4.24197 Y0.46191
G01 X-4.24111 Y0.46238
G01 X-4.23919 Y0.46276
G01 X-4.19195 Y0.46276
G01 X-4.19004 Y0.46238
G01 X-4.18917 Y0.46191
G01 X-4.18841 Y0.46129
G01 X-4.18753 Y0.46004
G01 X-4.14361 Y0.46004
G01 X-4.14273 Y0.46129
G01 X-4.14197 Y0.46191
G01 X-4.14111 Y0.46238
G01 X-4.13919 Y0.46276
G01 X-4.09195 Y0.46276
G01 X-4.09004 Y0.46238
G01 X-4.08917 Y0.46191
G01 X-4.08841 Y0.46129
G01 X-4.08753 Y0.46004
G01 X-4.04361 Y0.46004
G01 X-4.04273 Y0.46129
G01 X-4.04197 Y0.46191
G01 X-4.04111 Y0.46238
G01 X-4.03919 Y0.46276
G01 X-3.99195 Y0.46276
G01 X-3.99004 Y0.46238
G01 X-3.98917 Y0.46191
G01 X-3.98841 Y0.46129
G01 X-3.98753 Y0.46004
G01 X-3.84361 Y0.46004
G01 X-3.84273 Y0.46129
G01 X-3.84197 Y0.46191
G01 X-3.84111 Y0.46238
G01 X-3.83919 Y0.46276
G01 X-3.79195 Y0.46276
G01 X-3.79004 Y0.46238
G01 X-3.78841 Y0.46129
G01 X-3.78733 Y0.45967
G01 X-3.78705 Y0.45873
G01 X-3.78695 Y0.43970
G01 X-3.72581 Y0.37856
G01 X-3.72289 Y0.37934
G01 X-3.71557 Y0.38004
G01 X-3.70729 Y0.37915
G01 X-3.70073 Y0.37716
G01 X-3.69377 Y0.37355
G01 X-3.68765 Y0.36865
G01 X-3.68231 Y0.36226
G01 X-3.67883 Y0.35579
G01 X-3.67646 Y0.34832
G01 X-3.67601 Y0.34455
G01 X-3.54361 Y0.34455
G01 X-3.54273 Y0.34580
G01 X-3.54197 Y0.34643
G01 X-3.54111 Y0.34689
G01 X-3.53919 Y0.34727
G01 X-3.49195 Y0.34727
G01 X-3.49004 Y0.34689
G01 X-3.48917 Y0.34643
G01 X-3.48783 Y0.34509
G01 X-3.44361 Y0.34509
G01 X-3.44273 Y0.34634
G01 X-3.44197 Y0.34697
G01 X-3.44017 Y0.34771
G01 X-3.43919 Y0.34781
G01 X-3.39195 Y0.34781
G01 X-3.39097 Y0.34771
G01 X-3.38917 Y0.34697
G01 X-3.38841 Y0.34634
G01 X-3.38753 Y0.34509
G01 X-3.34361 Y0.34509
G01 X-3.34273 Y0.34634
G01 X-3.34197 Y0.34697
G01 X-3.34017 Y0.34771
G01 X-3.33919 Y0.34781
G01 X-3.29195 Y0.34781
G01 X-3.29097 Y0.34771
G01 X-3.28917 Y0.34697
G01 X-3.28841 Y0.34634
G01 X-3.28753 Y0.34509
G01 X-3.24361 Y0.34509
G01 X-3.24273 Y0.34634
G01 X-3.24197 Y0.34697
G01 X-3.24017 Y0.34771
G01 X-3.23919 Y0.34781
G01 X-3.19195 Y0.34781
G01 X-3.19097 Y0.34771
G01 X-3.18917 Y0.34697
G01 X-3.18841 Y0.34634
G01 X-3.18753 Y0.34509
G01 X-3.14361 Y0.34509
G01 X-3.14273 Y0.34634
G01 X-3.14197 Y0.34697
G01 X-3.14017 Y0.34771
G01 X-3.13919 Y0.34781
G01 X-3.09195 Y0.34781
G01 X-3.09097 Y0.34771
G01 X-3.08917 Y0.34697
G01 X-3.08841 Y0.34634
G01 X-3.08753 Y0.34509
G01 X-3.04361 Y0.34509
G01 X-3.04273 Y0.34634
G01 X-3.04197 Y0.34697
G01 X-3.04017 Y0.34771
G01 X-3.03919 Y0.34781
G01 X-2.99195 Y0.34781
G01 X-2.99097 Y0.34771
G01 X-2.98917 Y0.34697
G01 X-2.98841 Y0.34634
G01 X-2.98753 Y0.34509
G01 X-2.94361 Y0.34509
G01 X-2.94273 Y0.34634
G01 X-2.94197 Y0.34697
G01 X-2.94017 Y0.34771
G01 X-2.93919 Y0.34781
G01 X-2.89195 Y0.34781
G01 X-2.89097 Y0.34771
G01 X-2.88917 Y0.34697
G01 X-2.88841 Y0.34634
G01 X-2.88753 Y0.34509
G01 X-2.84361 Y0.34509
G01 X-2.84273 Y0.34634
G01 X-2.84197 Y0.34697
G01 X-2.84017 Y0.34771
G01 X-2.83919 Y0.34781
G01 X-2.79195 Y0.34781
G01 X-2.79097 Y0.34771
G01 X-2.78917 Y0.34697
G01 X-2.78841 Y0.34634
G01 X-2.78753 Y0.34509
G01 X-2.70005 Y0.34509
G01 X-2.69883 Y0.34732
G01 X-2.69418 Y0.35301
G01 X-2.68737 Y0.35860
G01 X-2.68042 Y0.36221
G01 X-2.67385 Y0.36421
G01 X-2.66557 Y0.36509
G01 X-1.86205 Y0.36509
G01 X-0.25557 Y1.97157
G01 X-0.25557 Y2.08796
G01 X-0.25827 Y2.09627
G01 X-0.25919 Y2.10500
G01 X-0.25827 Y2.11373
G01 X-0.25555 Y2.12208
G01 X-0.25116 Y2.12969
G01 X-0.24566 Y2.13584
G01 X-0.24488 Y2.13654
G01 X-0.23772 Y2.14161
G01 X-0.23016 Y2.14494
G01 X-0.22209 Y2.14669
G01 X-0.21280 Y2.14677
G01 X-0.20421 Y2.14494
G01 X-0.19619 Y2.14137
G01 X-0.18908 Y2.13621
G01 X-0.18321 Y2.12969
G01 X-0.17882 Y2.12208
G01 X-0.17610 Y2.11373
G01 X-0.17519 Y2.10500
G01 X-0.17019 Y2.10500
G01 X-0.17057 Y2.10081
G01 X-0.17062 Y1.95402
G01 X-0.17129 Y1.94719
G01 X-0.17167 Y1.94527
G01 X-0.17400 Y1.93778
G01 X-0.17765 Y1.93084
G01 X-0.17874 Y1.92921
G01 X-0.18309 Y1.92391
G01 X-1.81366 Y0.29327
G01 X-1.82048 Y0.28768
G01 X-1.82737 Y0.28394
G01 X-1.82918 Y0.28319
G01 X-1.83575 Y0.28120
G01 X-1.83767 Y0.28081
G01 X-1.84548 Y0.28009
G01 X-2.66557 Y0.28009
G01 X-2.67338 Y0.28081
G01 X-2.67530 Y0.28120
G01 X-2.68187 Y0.28319
G01 X-2.68368 Y0.28394
G01 X-2.68973 Y0.28717
G01 X-2.69136 Y0.28826
G01 X-2.69666 Y0.29261
G01 X-2.69805 Y0.29400
G01 X-2.70299 Y0.30009
G01 X-2.70277 Y0.30056
G01 X-2.70299 Y0.30009
G01 X-2.78514 Y0.30009
G01 X-2.78520 Y0.30030
G01 X-2.78514 Y0.30009
G01 X-2.78639 Y0.29906
G01 X-2.78812 Y0.29814
G01 X-2.79000 Y0.29757
G01 X-2.79195 Y0.29738
G01 X-2.83919 Y0.29738
G01 X-2.84114 Y0.29757
G01 X-2.84302 Y0.29814
G01 X-2.84475 Y0.29906
G01 X-2.84601 Y0.30009
G01 X-2.84594 Y0.30030
G01 X-2.84601 Y0.30009
G01 X-2.88514 Y0.30009
G01 X-2.88520 Y0.30030
G01 X-2.88514 Y0.30009
G01 X-2.88639 Y0.29906
G01 X-2.88812 Y0.29814
G01 X-2.89000 Y0.29757
G01 X-2.89195 Y0.29738
G01 X-2.93919 Y0.29738
G01 X-2.94114 Y0.29757
G01 X-2.94302 Y0.29814
G01 X-2.94475 Y0.29906
G01 X-2.94601 Y0.30009
G01 X-2.94594 Y0.30030
G01 X-2.94601 Y0.30009
G01 X-2.98514 Y0.30009
G01 X-2.98520 Y0.30030
G01 X-2.98514 Y0.30009
G01 X-2.98639 Y0.29906
G01 X-2.98812 Y0.29814
G01 X-2.99000 Y0.29757
G01 X-2.99195 Y0.29738
G01 X-3.03919 Y0.29738
G01 X-3.04114 Y0.29757
G01 X-3.04302 Y0.29814
G01 X-3.04475 Y0.29906
G01 X-3.04601 Y0.30009
G01 X-3.04594 Y0.30030
G01 X-3.04601 Y0.30009
G01 X-3.08514 Y0.30009
G01 X-3.08520 Y0.30030
G01 X-3.08514 Y0.30009
G01 X-3.08639 Y0.29906
G01 X-3.08812 Y0.29814
G01 X-3.09000 Y0.29757
G01 X-3.09195 Y0.29738
G01 X-3.13919 Y0.29738
G01 X-3.14114 Y0.29757
G01 X-3.14302 Y0.29814
G01 X-3.14475 Y0.29906
G01 X-3.14601 Y0.30009
G01 X-3.14594 Y0.30030
G01 X-3.14601 Y0.30009
G01 X-3.18514 Y0.30009
G01 X-3.18520 Y0.30030
G01 X-3.18514 Y0.30009
G01 X-3.18639 Y0.29906
G01 X-3.18812 Y0.29814
G01 X-3.19000 Y0.29757
G01 X-3.19195 Y0.29738
G01 X-3.23919 Y0.29738
G01 X-3.24114 Y0.29757
G01 X-3.24302 Y0.29814
G01 X-3.24475 Y0.29906
G01 X-3.24601 Y0.30009
G01 X-3.24594 Y0.30030
G01 X-3.24601 Y0.30009
G01 X-3.28514 Y0.30009
G01 X-3.28520 Y0.30030
G01 X-3.28514 Y0.30009
G01 X-3.28639 Y0.29906
G01 X-3.28812 Y0.29814
G01 X-3.29000 Y0.29757
G01 X-3.29195 Y0.29738
G01 X-3.33919 Y0.29738
G01 X-3.34114 Y0.29757
G01 X-3.34302 Y0.29814
G01 X-3.34475 Y0.29906
G01 X-3.34601 Y0.30009
G01 X-3.34594 Y0.30030
G01 X-3.34601 Y0.30009
G01 X-3.38514 Y0.30009
G01 X-3.38520 Y0.30030
G01 X-3.38514 Y0.30009
G01 X-3.38639 Y0.29906
G01 X-3.38812 Y0.29814
G01 X-3.39000 Y0.29757
G01 X-3.39195 Y0.29738
G01 X-3.43919 Y0.29738
G01 X-3.44114 Y0.29757
G01 X-3.44302 Y0.29814
G01 X-3.44475 Y0.29906
G01 X-3.44601 Y0.30009
G01 X-3.44594 Y0.30030
G01 X-3.44601 Y0.30009
G01 X-3.48461 Y0.30009
G01 X-3.48468 Y0.30033
G01 X-3.48461 Y0.30009
G01 X-3.48488 Y0.29976
G01 X-3.48639 Y0.29852
G01 X-3.48812 Y0.29760
G01 X-3.49000 Y0.29703
G01 X-3.49195 Y0.29684
G01 X-3.53919 Y0.29684
G01 X-3.54114 Y0.29703
G01 X-3.54302 Y0.29760
G01 X-3.54475 Y0.29852
G01 X-3.54601 Y0.29955
G01 X-3.54594 Y0.29976
G01 X-3.54601 Y0.29955
G01 X-3.67057 Y0.29955
G01 X-3.67204 Y0.30102
G01 X-3.67057 Y0.29955
G01 X-3.67057 Y0.15500
G01 X-3.67129 Y0.14719
G01 X-3.67167 Y0.14527
G01 X-3.67367 Y0.13870
G01 X-3.67442 Y0.13689
G01 X-3.67815 Y0.13000
G01 X-3.68309 Y0.12391
G01 X-3.68448 Y0.12252
G01 X-3.68978 Y0.11817
G01 X-3.69141 Y0.11708
G01 X-3.69746 Y0.11385
G01 X-3.69927 Y0.11309
G01 X-3.70584 Y0.11110
G01 X-3.70776 Y0.11072
G01 X-3.71459 Y0.11005
G01 X-3.71655 Y0.11005
G01 X-3.72338 Y0.11072
G01 X-3.72530 Y0.11110
G01 X-3.73187 Y0.11309
G01 X-3.73368 Y0.11385
G01 X-3.74057 Y0.11758
G01 X-3.74666 Y0.12252
G01 X-3.74805 Y0.12391
G01 X-3.75240 Y0.12921
G01 X-3.75349 Y0.13084
G01 X-3.75673 Y0.13689
G01 X-3.75748 Y0.13870
G01 X-3.75947 Y0.14527
G01 X-3.75985 Y0.14719
G01 X-3.76057 Y0.15500
G01 X-3.76057 Y0.34004
G01 X-3.75985 Y0.34785
G01 X-3.75967 Y0.34878
G01 X-3.75916 Y0.34896
G01 X-3.75967 Y0.34878
G01 X-3.82321 Y0.41232
G01 X-3.82305 Y0.41269
G01 X-3.82321 Y0.41232
G01 X-3.83919 Y0.41232
G01 X-3.84114 Y0.41251
G01 X-3.84302 Y0.41308
G01 X-3.84475 Y0.41401
G01 X-3.84601 Y0.41504
G01 X-3.84597 Y0.41518
G01 X-3.84601 Y0.41504
G01 X-3.98514 Y0.41504
G01 X-3.98520 Y0.41525
G01 X-3.98514 Y0.41504
G01 X-3.98639 Y0.41401
G01 X-3.98812 Y0.41308
G01 X-3.99000 Y0.41251
G01 X-3.99195 Y0.41232
G01 X-4.03919 Y0.41232
G01 X-4.04114 Y0.41251
G01 X-4.04302 Y0.41308
G01 X-4.04475 Y0.41401
G01 X-4.04601 Y0.41504
G01 X-4.04594 Y0.41525
G01 X-4.04601 Y0.41504
G01 X-4.08514 Y0.41504
G01 X-4.08520 Y0.41525
G01 X-4.08514 Y0.41504
G01 X-4.08639 Y0.41401
G01 X-4.08812 Y0.41308
G01 X-4.09000 Y0.41251
G01 X-4.09195 Y0.41232
G01 X-4.13919 Y0.41232
G01 X-4.14114 Y0.41251
G01 X-4.14302 Y0.41308
G01 X-4.14475 Y0.41401
G01 X-4.14601 Y0.41504
G01 X-4.14594 Y0.41525
G01 X-4.14601 Y0.41504
G01 X-4.18514 Y0.41504
G01 X-4.18520 Y0.41525
G01 X-4.18514 Y0.41504
G01 X-4.18639 Y0.41401
G01 X-4.18812 Y0.41308
G01 X-4.19000 Y0.41251
G01 X-4.19195 Y0.41232
G01 X-4.23919 Y0.41232
G01 X-4.24114 Y0.41251
G01 X-4.24302 Y0.41308
G01 X-4.24475 Y0.41401
G01 X-4.24601 Y0.41504
G01 X-4.24594 Y0.41525
G01 X-4.24601 Y0.41504
G01 X-4.28514 Y0.41504
G01 X-4.28520 Y0.41525
G01 X-4.28514 Y0.41504
G01 X-4.28639 Y0.41401
G01 X-4.28812 Y0.41308
G01 X-4.29000 Y0.41251
G01 X-4.29195 Y0.41232
G01 X-4.33919 Y0.41232
G01 X-4.34114 Y0.41251
G01 X-4.34302 Y0.41308
G01 X-4.34475 Y0.41401
G01 X-4.34601 Y0.41504
G01 X-4.34594 Y0.41525
G01 X-4.34601 Y0.41504
G01 X-4.38514 Y0.41504
G01 X-4.38517 Y0.41518
G01 X-4.38514 Y0.41504
G01 X-4.38639 Y0.41401
G01 X-4.38812 Y0.41308
G01 X-4.39000 Y0.41252
G01 X-4.39195 Y0.41232
G01 X-4.40793 Y0.41232
G01 X-4.40807 Y0.41267
G01 X-4.40793 Y0.41232
G01 X-4.41797 Y0.40228
G01 X-4.42161 Y0.39930
G01 X-4.42361 Y0.39807
G01 X-4.42719 Y0.39646
G01 X-4.42868 Y0.39597
G01 X-4.43252 Y0.39518
G01 X-4.43565 Y0.39496
G01 X-4.48514 Y0.39496
G01 X-4.48520 Y0.39517
G01 X-4.48514 Y0.39496
G01 X-4.48639 Y0.39393
G01 X-4.48812 Y0.39301
G01 X-4.49000 Y0.39244
G01 X-4.49195 Y0.39224
G01 X-4.53919 Y0.39224
G01 X-4.54114 Y0.39244
G01 X-4.54302 Y0.39301
G01 X-4.54475 Y0.39393
G01 X-4.54601 Y0.39496
G01 X-4.54594 Y0.39517
G01 X-4.54601 Y0.39496
G01 X-4.58514 Y0.39496
G01 X-4.58520 Y0.39517
G01 X-4.58514 Y0.39496
G01 X-4.58639 Y0.39393
G01 X-4.58812 Y0.39301
G01 X-4.59000 Y0.39244
G01 X-4.59195 Y0.39224
G01 X-4.63919 Y0.39224
G01 X-4.64114 Y0.39244
G01 X-4.64302 Y0.39301
G01 X-4.64475 Y0.39393
G01 X-4.64626 Y0.39517
G01 X-4.64751 Y0.39669
G01 X-4.64843 Y0.39842
G01 X-4.64900 Y0.40029
G01 X-4.64919 Y0.40224
G01 X-4.64919 Y0.43768
G01 X-4.64900 Y0.43963
G01 X-4.64843 Y0.44150
G01 X-4.64751 Y0.44323
G01 X-4.64626 Y0.44475
G01 X-4.64475 Y0.44599
G01 X-4.64302 Y0.44692
G01 X-4.64114 Y0.44749
G01 X-4.63919 Y0.44768
G01 X-4.59195 Y0.44768
G01 X-4.59000 Y0.44749
G01 X-4.58812 Y0.44692
G01 X-4.58639 Y0.44599
G01 X-4.58514 Y0.44496
G01 X-4.58520 Y0.44475
G01 X-4.58514 Y0.44496
G01 X-4.54601 Y0.44496
G01 X-4.54594 Y0.44475
G01 X-4.54601 Y0.44496
G01 X-4.54475 Y0.44599
G01 X-4.54302 Y0.44692
G01 X-4.54114 Y0.44749
G01 X-4.53919 Y0.44768
G01 X-4.49195 Y0.44768
G01 X-4.49000 Y0.44749
G01 X-4.48812 Y0.44692
G01 X-4.48639 Y0.44599
G01 X-4.48514 Y0.44496
G01 X-4.48520 Y0.44475
G01 X-4.48514 Y0.44496
G01 X-4.44919 Y0.44496
G01 X-4.44773 Y0.44350
G01 X-4.44919 Y0.44496
G01 X-4.44919 Y0.45776
G01 X-4.44900 Y0.45971
G01 X-4.44843 Y0.46158
G01 X-4.44751 Y0.46331
G01 X-4.44626 Y0.46483
G01 X-4.44475 Y0.46607
G01 X-4.44302 Y0.46699
G01 X-4.44114 Y0.46756
G01 X-4.43919 Y0.46776
G01 X-4.39195 Y0.46776
G01 X-4.39000 Y0.46756
G01 X-4.38812 Y0.46699
G01 X-4.38639 Y0.46607
G01 X-4.38514 Y0.46504
G01 X-4.38520 Y0.46483
G01 X-4.38514 Y0.46504
G01 X-4.34600 Y0.46504
G01 X-4.34594 Y0.46483
G01 X-4.34600 Y0.46504
G01 X-4.34475 Y0.46607
G01 X-4.34302 Y0.46699
G01 X-4.34114 Y0.46756
G01 X-4.33919 Y0.46776
G01 X-4.29195 Y0.46776
G01 X-4.29000 Y0.46756
G01 X-4.28812 Y0.46699
G01 X-4.28639 Y0.46607
G01 X-4.28514 Y0.46504
G01 X-4.28520 Y0.46483
G01 X-4.28514 Y0.46504
G01 X-4.24600 Y0.46504
G01 X-4.24594 Y0.46483
G01 X-4.24600 Y0.46504
G01 X-4.24475 Y0.46607
G01 X-4.24302 Y0.46699
G01 X-4.24114 Y0.46756
G01 X-4.23919 Y0.46776
G01 X-4.19195 Y0.46776
G01 X-4.19000 Y0.46756
G01 X-4.18812 Y0.46699
G01 X-4.18639 Y0.46607
G01 X-4.18514 Y0.46504
G01 X-4.18520 Y0.46483
G01 X-4.18514 Y0.46504
G01 X-4.14600 Y0.46504
G01 X-4.14594 Y0.46483
G01 X-4.14600 Y0.46504
G01 X-4.14475 Y0.46607
G01 X-4.14302 Y0.46699
G01 X-4.14114 Y0.46756
G01 X-4.13919 Y0.46776
G01 X-4.09195 Y0.46776
G01 X-4.09000 Y0.46756
G01 X-4.08812 Y0.46699
G01 X-4.08639 Y0.46607
G01 X-4.08514 Y0.46504
G01 X-4.08520 Y0.46483
G01 X-4.08514 Y0.46504
G01 X-4.04600 Y0.46504
G01 X-4.04594 Y0.46483
G01 X-4.04600 Y0.46504
G01 X-4.04475 Y0.46607
G01 X-4.04302 Y0.46699
G01 X-4.04114 Y0.46756
G01 X-4.03919 Y0.46776
G01 X-3.99195 Y0.46776
G01 X-3.99000 Y0.46756
G01 X-3.98812 Y0.46699
G01 X-3.98639 Y0.46607
G01 X-3.98514 Y0.46504
G01 X-3.98520 Y0.46483
G01 X-3.98514 Y0.46504
G01 X-3.84600 Y0.46504
G01 X-3.84594 Y0.46483
G01 X-3.84600 Y0.46504
G01 X-3.84475 Y0.46607
G01 X-3.84302 Y0.46699
G01 X-3.84114 Y0.46756
G01 X-3.83919 Y0.46776
G01 X-3.79195 Y0.46776
G01 X-3.79000 Y0.46756
G01 X-3.78812 Y0.46699
G01 X-3.78639 Y0.46607
G01 X-3.78488 Y0.46483
G01 X-3.78363 Y0.46331
G01 X-3.78271 Y0.46158
G01 X-3.78214 Y0.45971
G01 X-3.78195 Y0.45776
G01 X-3.78195 Y0.44177
G01 X-3.78233 Y0.44162
G01 X-3.78195 Y0.44177
G01 X-3.72431 Y0.38413
G01 X-3.72449 Y0.38363
G01 X-3.72431 Y0.38413
G01 X-3.72338 Y0.38432
G01 X-3.71557 Y0.38504
G01 X-3.70679 Y0.38418
G01 X-3.69927 Y0.38195
G01 X-3.69746 Y0.38119
G01 X-3.69057 Y0.37746
G01 X-3.68448 Y0.37252
G01 X-3.68309 Y0.37113
G01 X-3.67815 Y0.36504
G01 X-3.67442 Y0.35815
G01 X-3.67367 Y0.35634
G01 X-3.67162 Y0.34955
G01 X-3.67231 Y0.34860
G01 X-3.67162 Y0.34955
G01 X-3.54600 Y0.34955
G01 X-3.54594 Y0.34934
G01 X-3.54600 Y0.34955
G01 X-3.54475 Y0.35058
G01 X-3.54302 Y0.35151
G01 X-3.54114 Y0.35208
G01 X-3.53919 Y0.35227
G01 X-3.49195 Y0.35227
G01 X-3.49000 Y0.35208
G01 X-3.48812 Y0.35151
G01 X-3.48639 Y0.35058
G01 X-3.48580 Y0.35009
G01 X-3.48585 Y0.34991
G01 X-3.48580 Y0.35009
G01 X-3.44600 Y0.35009
G01 X-3.44594 Y0.34988
G01 X-3.44600 Y0.35009
G01 X-3.44475 Y0.35112
G01 X-3.44302 Y0.35205
G01 X-3.44114 Y0.35262
G01 X-3.43919 Y0.35281
G01 X-3.39195 Y0.35281
G01 X-3.39000 Y0.35262
G01 X-3.38812 Y0.35205
G01 X-3.38639 Y0.35112
G01 X-3.38514 Y0.35009
G01 X-3.38520 Y0.34988
G01 X-3.38514 Y0.35009
G01 X-3.34600 Y0.35009
G01 X-3.34594 Y0.34988
G01 X-3.34600 Y0.35009
G01 X-3.34475 Y0.35112
G01 X-3.34302 Y0.35205
G01 X-3.34114 Y0.35262
G01 X-3.33919 Y0.35281
G01 X-3.29195 Y0.35281
G01 X-3.29000 Y0.35262
G01 X-3.28812 Y0.35205
G01 X-3.28639 Y0.35112
G01 X-3.28514 Y0.35009
G01 X-3.28520 Y0.34988
G01 X-3.28514 Y0.35009
G01 X-3.24600 Y0.35009
G01 X-3.24594 Y0.34988
G01 X-3.24600 Y0.35009
G01 X-3.24475 Y0.35112
G01 X-3.24302 Y0.35205
G01 X-3.24114 Y0.35262
G01 X-3.23919 Y0.35281
G01 X-3.19195 Y0.35281
G01 X-3.19000 Y0.35262
G01 X-3.18812 Y0.35205
G01 X-3.18639 Y0.35112
G01 X-3.18514 Y0.35009
G01 X-3.18520 Y0.34988
G01 X-3.18514 Y0.35009
G01 X-3.14600 Y0.35009
G01 X-3.14594 Y0.34988
G01 X-3.14600 Y0.35009
G01 X-3.14475 Y0.35112
G01 X-3.14302 Y0.35205
G01 X-3.14114 Y0.35262
G01 X-3.13919 Y0.35281
G01 X-3.09195 Y0.35281
G01 X-3.09000 Y0.35262
G01 X-3.08812 Y0.35205
G01 X-3.08639 Y0.35112
G01 X-3.08514 Y0.35009
G01 X-3.08520 Y0.34988
G01 X-3.08514 Y0.35009
G01 X-3.04600 Y0.35009
G01 X-3.04594 Y0.34988
G01 X-3.04600 Y0.35009
G01 X-3.04475 Y0.35112
G01 X-3.04302 Y0.35205
G01 X-3.04114 Y0.35262
G01 X-3.03919 Y0.35281
G01 X-2.99195 Y0.35281
G01 X-2.99000 Y0.35262
G01 X-2.98812 Y0.35205
G01 X-2.98639 Y0.35112
G01 X-2.98514 Y0.35009
G01 X-2.98520 Y0.34988
G01 X-2.98514 Y0.35009
G01 X-2.94600 Y0.35009
G01 X-2.94594 Y0.34988
G01 X-2.94600 Y0.35009
G01 X-2.94475 Y0.35112
G01 X-2.94302 Y0.35205
G01 X-2.94114 Y0.35262
G01 X-2.93919 Y0.35281
G01 X-2.89195 Y0.35281
G01 X-2.89000 Y0.35262
G01 X-2.88812 Y0.35205
G01 X-2.88639 Y0.35112
G01 X-2.88514 Y0.35009
G01 X-2.88520 Y0.34988
G01 X-2.88514 Y0.35009
G01 X-2.84600 Y0.35009
G01 X-2.84594 Y0.34988
G01 X-2.84600 Y0.35009
G01 X-2.84475 Y0.35112
G01 X-2.84302 Y0.35205
G01 X-2.84114 Y0.35262
G01 X-2.83919 Y0.35281
G01 X-2.79195 Y0.35281
G01 X-2.79000 Y0.35262
G01 X-2.78812 Y0.35205
G01 X-2.78639 Y0.35112
G01 X-2.78514 Y0.35009
G01 X-2.78520 Y0.34988
G01 X-2.78514 Y0.35009
G01 X-2.70299 Y0.35009
G01 X-2.70277 Y0.34963
G01 X-2.70299 Y0.35009
G01 X-2.69805 Y0.35619
G01 X-2.69666 Y0.35757
G01 X-2.69136 Y0.36192
G01 X-2.68973 Y0.36301
G01 X-2.68368 Y0.36625
G01 X-2.68187 Y0.36700
G01 X-2.67530 Y0.36899
G01 X-2.67338 Y0.36937
G01 X-2.66557 Y0.37009
G01 X-1.86412 Y0.37009
G01 X-1.86396 Y0.36971
G01 X-1.86412 Y0.37009
G01 X-0.26057 Y1.97364
G01 X-0.26019 Y1.97348
G01 X-0.26057 Y1.97364
G01 X-0.26051 Y2.08710
G01 X-0.26316 Y2.09523
G01 X-0.26419 Y2.10500
G01 X-0.26316 Y2.11477
G01 X-0.26050 Y2.12314
G01 X-0.25965 Y2.12505
G01 X-0.25521 Y2.13263
G01 X-0.24863 Y2.13993
G01 X-0.24156 Y2.14513
G01 X-0.23975 Y2.14618
G01 X-0.23171 Y2.14970
G01 X-0.22313 Y2.15158
G01 X-0.22105 Y2.15180
G01 X-0.21227 Y2.15174
G01 X-0.20266 Y2.14970
G01 X-0.19462 Y2.14618
G01 X-0.19281 Y2.14513
G01 X-0.18574 Y2.13993
G01 X-0.17982 Y2.13344
G01 X-0.17859 Y2.13175
G01 X-0.17472 Y2.12505
G01 X-0.17387 Y2.12314
G01 X-0.17121 Y2.11477
G01 X-0.17019 Y2.10500
G01 X-0.16519 Y2.10500
G01 X-0.16632 Y2.11581
G01 X-0.16968 Y2.12615
G01 X-0.17512 Y2.13556
G01 X-0.18128 Y2.14253
G01 X-0.18361 Y2.14463
G01 X-0.19119 Y2.15003
G01 X-0.19965 Y2.15389
G01 X-0.20263 Y2.15486
G01 X-0.21035 Y2.15574
G01 X-0.21332 Y2.15591
G01 X-0.22105 Y2.15590
G01 X-0.22402 Y2.15574
G01 X-0.23108 Y2.15500
G04 P0 ( dwell for no time -- G64 should not smooth over this point )
G00 Z1.00000 ( retract )

G00 X-0.56466 Y2.40507 ( rapid move to begin. )
G01 F25.00000
( Mill infeed pass 1/1 )
G01 Z-0.05000
G04 P0 ( dwell for no time -- G64 should not smooth over this point )
G01 F50.00000
G01 X-0.56466 Y2.40507
G01 X-0.56579 Y2.39419
G01 X-0.56859 Y2.38532
G01 X-0.56986 Y2.38245
G01 X-0.57373 Y2.37575
G01 X-0.57557 Y2.37321
G01 X-0.58186 Y2.36636
G01 X-0.59066 Y2.35997
G01 X-0.60059 Y2.35555
G01 X-0.61122 Y2.35328
G01 X-0.62209 Y2.35328
G01 X-0.63272 Y2.35555
G01 X-0.64266 Y2.35997
G01 X-0.65023 Y2.36537
G01 X-0.65256 Y2.36747
G01 X-0.65774 Y2.37321
G01 X-0.65958 Y2.37575
G01 X-0.66416 Y2.38385
G01 X-0.66711 Y2.39267
G01 X-0.66776 Y2.39574
G01 X-0.66857 Y2.40343
G01 X-0.66857 Y2.40657
G01 X-0.66752 Y2.41581
G01 X-0.66551 Y2.42206
G01 X-0.66555 Y3.40059
G01 X-0.71888 Y3.70010
G01 X-0.71815 Y3.70080
G01 X-0.71888 Y3.70010
G01 X-0.72080 Y3.70029
G01 X-0.72361 Y3.70114
G01 X-0.72620 Y3.70253
G01 X-0.72848 Y3.70439
G01 X-0.73034 Y3.70667
G01 X-0.73173 Y3.70926
G01 X-0.73258 Y3.71207
G01 X-0.73287 Y3.71500
G01 X-0.73287 Y3.79500
G01 X-0.73258 Y3.79793
G01 X-0.73173 Y3.80074
G01 X-0.73034 Y3.80333
G01 X-0.72848 Y3.80561
G01 X-0.72620 Y3.80747
G01 X-0.72361 Y3.80886
G01 X-0.72080 Y3.80971
G01 X-0.71787 Y3.81000
G01 X-0.63787 Y3.81000
G01 X-0.63494 Y3.80971
G01 X-0.63213 Y3.80886
G01 X-0.62954 Y3.80747
G01 X-0.62726 Y3.80561
G01 X-0.62540 Y3.80333
G01 X-0.62401 Y3.80074
G01 X-0.62316 Y3.79793
G01 X-0.62287 Y3.79500
G01 X-0.62289 Y3.73132
G01 X-0.56617 Y3.41245
G01 X-0.56557 Y3.40500
G01 X-0.56557 Y2.41388
G01 X-0.56466 Y2.40507
G01 X-0.56966 Y2.40504
G01 X-0.57068 Y2.39523
G01 X-0.57372 Y2.38588
G01 X-0.57863 Y2.37737
G01 X-0.58521 Y2.37007
G01 X-0.59316 Y2.36430
G01 X-0.60213 Y2.36030
G01 X-0.61174 Y2.35826
G01 X-0.62052 Y2.35820
G01 X-0.62260 Y2.35842
G01 X-0.63118 Y2.36030
G01 X-0.63922 Y2.36382
G01 X-0.64103 Y2.36487
G01 X-0.64729 Y2.36941
G01 X-0.64884 Y2.37081
G01 X-0.65468 Y2.37737
G01 X-0.65959 Y2.38588
G01 X-0.66263 Y2.39523
G01 X-0.66360 Y2.40395
G01 X-0.66360 Y2.40605
G01 X-0.66263 Y2.41477
G01 X-0.66051 Y2.42127
G01 X-0.66055 Y3.40103
G01 X-0.71468 Y3.70500
G01 X-0.71374 Y3.70607
G01 X-0.71468 Y3.70500
G01 X-0.71787 Y3.70500
G01 X-0.71982 Y3.70519
G01 X-0.72170 Y3.70576
G01 X-0.72343 Y3.70669
G01 X-0.72494 Y3.70793
G01 X-0.72619 Y3.70944
G01 X-0.72711 Y3.71117
G01 X-0.72768 Y3.71305
G01 X-0.72787 Y3.71500
G01 X-0.72787 Y3.79500
G01 X-0.72768 Y3.79695
G01 X-0.72711 Y3.79883
G01 X-0.72619 Y3.80056
G01 X-0.72494 Y3.80207
G01 X-0.72343 Y3.80331
G01 X-0.72170 Y3.80424
G01 X-0.71982 Y3.80481
G01 X-0.71787 Y3.80500
G01 X-0.63787 Y3.80500
G01 X-0.63592 Y3.80481
G01 X-0.63404 Y3.80424
G01 X-0.63232 Y3.80331
G01 X-0.63080 Y3.80207
G01 X-0.62956 Y3.80056
G01 X-0.62863 Y3.79883
G01 X-0.62806 Y3.79695
G01 X-0.62787 Y3.79500
G01 X-0.62789 Y3.73088
G01 X-0.57115 Y3.41201
G01 X-0.57057 Y3.40500
G01 X-0.57057 Y2.41359
G01 X-0.56966 Y2.40504
G01 X-0.57466 Y2.40502
G01 X-0.57557 Y2.41331
G01 X-0.57557 Y3.40500
G01 X-0.57613 Y3.41157
G01 X-0.63287 Y3.73044
G01 X-0.63287 Y3.79500
G01 X-0.63325 Y3.79691
G01 X-0.63434 Y3.79854
G01 X-0.63509 Y3.79916
G01 X-0.63690 Y3.79990
G01 X-0.63787 Y3.80000
G01 X-0.71787 Y3.80000
G01 X-0.71978 Y3.79962
G01 X-0.72141 Y3.79854
G01 X-0.72203 Y3.79778
G01 X-0.72249 Y3.79691
G01 X-0.72287 Y3.79500
G01 X-0.72277 Y3.71402
G01 X-0.72203 Y3.71222
G01 X-0.72141 Y3.71146
G01 X-0.71978 Y3.71038
G01 X-0.71787 Y3.71000
G01 X-0.71049 Y3.71000
G01 X-0.65557 Y3.40147
G01 X-0.65557 Y2.42049
G01 X-0.65774 Y2.41373
G01 X-0.65863 Y2.40552
G01 X-0.65863 Y2.40448
G01 X-0.65774 Y2.39627
G01 X-0.65502 Y2.38792
G01 X-0.65063 Y2.38031
G01 X-0.64476 Y2.37379
G01 X-0.63766 Y2.36863
G01 X-0.62963 Y2.36506
G01 X-0.62105 Y2.36323
G01 X-0.61279 Y2.36320
G01 X-0.61175 Y2.36331
G01 X-0.60319 Y2.36524
G01 X-0.59566 Y2.36863
G01 X-0.58818 Y2.37416
G01 X-0.58268 Y2.38031
G01 X-0.57829 Y2.38792
G01 X-0.57557 Y2.39627
G01 X-0.57466 Y2.40502
G04 P0 ( dwell for no time -- G64 should not smooth over this point )
G00 Z1.00000 ( retract )

G00 X-0.76324 Y2.40500 ( rapid move to begin. )
G01 F25.00000
( Mill infeed pass 1/1 )
G01 Z-0.05000
G04 P0 ( dwell for no time -- G64 should not smooth over this point )
G01 F50.00000
G01 X-0.76324 Y2.40500
G01 X-0.76438 Y2.39419
G01 X-0.76773 Y2.38385
G01 X-0.77317 Y2.37444
G01 X-0.77933 Y2.36747
G01 X-0.78166 Y2.36537
G01 X-0.78792 Y2.36082
G01 X-0.79064 Y2.35925
G01 X-0.79917 Y2.35555
G01 X-0.80825 Y2.35353
G01 X-0.81137 Y2.35320
G01 X-0.82067 Y2.35328
G01 X-0.83131 Y2.35555
G01 X-0.84124 Y2.35997
G01 X-0.85003 Y2.36636
G01 X-0.85731 Y2.37444
G01 X-0.86274 Y2.38385
G01 X-0.86610 Y2.39419
G01 X-0.86716 Y2.40343
G01 X-0.86711 Y3.20647
G01 X-0.86644 Y3.21330
G01 X-0.86587 Y3.21618
G01 X-0.86338 Y3.22413
G01 X-0.85952 Y3.23152
G01 X-0.85788 Y3.23396
G01 X-0.85353 Y3.23926
G01 X-0.85145 Y3.24134
G01 X-0.84615 Y3.24570
G01 X-0.84370 Y3.24733
G01 X-0.83632 Y3.25119
G01 X-0.82837 Y3.25368
G01 X-0.82548 Y3.25426
G01 X-0.81866 Y3.25493
G01 X-0.81571 Y3.25493
G01 X-0.80889 Y3.25426
G01 X-0.80600 Y3.25368
G01 X-0.79805 Y3.25119
G01 X-0.79067 Y3.24733
G01 X-0.78822 Y3.24570
G01 X-0.78292 Y3.24134
G01 X-0.78084 Y3.23926
G01 X-0.77649 Y3.23396
G01 X-0.77485 Y3.23152
G01 X-0.77099 Y3.22413
G01 X-0.76850 Y3.21618
G01 X-0.76793 Y3.21330
G01 X-0.76726 Y3.20647
G01 X-0.76724 Y2.42471
G01 X-0.76438 Y2.41581
G01 X-0.76324 Y2.40500
G01 X-0.76824 Y2.40500
G01 X-0.76927 Y2.39523
G01 X-0.77230 Y2.38588
G01 X-0.77722 Y2.37737
G01 X-0.78379 Y2.37007
G01 X-0.79174 Y2.36430
G01 X-0.79974 Y2.36068
G01 X-0.80173 Y2.36003
G01 X-0.80929 Y2.35842
G01 X-0.81137 Y2.35820
G01 X-0.82015 Y2.35826
G01 X-0.82976 Y2.36030
G01 X-0.83874 Y2.36430
G01 X-0.84669 Y2.37007
G01 X-0.85326 Y2.37737
G01 X-0.85818 Y2.38588
G01 X-0.86121 Y2.39523
G01 X-0.86218 Y2.40395
G01 X-0.86214 Y3.20598
G01 X-0.86146 Y3.21281
G01 X-0.86108 Y3.21473
G01 X-0.85876 Y3.22222
G01 X-0.85460 Y3.23000
G01 X-0.84966 Y3.23609
G01 X-0.84828 Y3.23748
G01 X-0.84219 Y3.24242
G01 X-0.83441 Y3.24657
G01 X-0.82692 Y3.24890
G01 X-0.82499 Y3.24928
G01 X-0.81719 Y3.25000
G01 X-0.80938 Y3.24928
G01 X-0.80745 Y3.24890
G01 X-0.79996 Y3.24657
G01 X-0.79218 Y3.24242
G01 X-0.78609 Y3.23748
G01 X-0.78471 Y3.23609
G01 X-0.77977 Y3.23000
G01 X-0.77561 Y3.22222
G01 X-0.77329 Y3.21473
G01 X-0.77291 Y3.21281
G01 X-0.77223 Y3.20598
G01 X-0.77225 Y2.42380
G01 X-0.76927 Y2.41477
G01 X-0.76824 Y2.40500
G01 X-0.77324 Y2.40500
G01 X-0.77416 Y2.39627
G01 X-0.77687 Y2.38792
G01 X-0.78126 Y2.38031
G01 X-0.78714 Y2.37379
G01 X-0.79424 Y2.36863
G01 X-0.80226 Y2.36506
G01 X-0.81085 Y2.36323
G01 X-0.81911 Y2.36320
G01 X-0.82015 Y2.36331
G01 X-0.82871 Y2.36524
G01 X-0.83624 Y2.36863
G01 X-0.84294 Y2.37346
G01 X-0.84371 Y2.37416
G01 X-0.84922 Y2.38031
G01 X-0.85361 Y2.38792
G01 X-0.85632 Y2.39627
G01 X-0.85724 Y2.40500
G01 X-0.85718 Y3.20500
G01 X-0.85630 Y3.21328
G01 X-0.85414 Y3.22031
G01 X-0.85070 Y3.22680
G01 X-0.84547 Y3.23328
G01 X-0.83899 Y3.23851
G01 X-0.83249 Y3.24196
G01 X-0.82546 Y3.24411
G01 X-0.81719 Y3.24500
G01 X-0.80891 Y3.24411
G01 X-0.80188 Y3.24196
G01 X-0.79538 Y3.23851
G01 X-0.78890 Y3.23328
G01 X-0.78367 Y3.22680
G01 X-0.78023 Y3.22031
G01 X-0.77807 Y3.21328
G01 X-0.77721 Y3.20549
G01 X-0.77719 Y2.42268
G01 X-0.77668 Y2.42159
G01 X-0.77416 Y2.41373
G01 X-0.77324 Y2.40500
G04 P0 ( dwell for no time -- G64 should not smooth over this point )
G00 Z1.00000 ( retract )

G00 X-1.06357 Y2.40500 ( rapid move to begin. )
G01 F25.00000
( Mill infeed pass 1/1 )
G01 Z-0.05000
G04 P0 ( dwell for no time -- G64 should not smooth over this point )
G01 F50.00000
G01 X-1.06357 Y2.40500
G01 X-1.06471 Y2.39419
G01 X-1.06807 Y2.38385
G01 X-1.07350 Y2.37444
G01 X-1.07967 Y2.36747
G01 X-1.08200 Y2.36537
G01 X-1.08825 Y2.36082
G01 X-1.09097 Y2.35925
G01 X-1.09950 Y2.35555
G01 X-1.11014 Y2.35328
G01 X-1.12101 Y2.35328
G01 X-1.13164 Y2.35555
G01 X-1.14157 Y2.35997
G01 X-1.14915 Y2.36537
G01 X-1.15148 Y2.36747
G01 X-1.15665 Y2.37321
G01 X-1.15850 Y2.37575
G01 X-1.16308 Y2.38385
G01 X-1.16603 Y2.39267
G01 X-1.16668 Y2.39574
G01 X-1.16757 Y2.40500
G01 X-1.16668 Y2.41426
G01 X-1.16643 Y2.41581
G01 X-1.16553 Y2.41873
G01 X-1.16555 Y3.40063
G01 X-1.21837 Y3.70011
G01 X-1.21764 Y3.70081
G01 X-1.21837 Y3.70011
G01 X-1.22020 Y3.70029
G01 X-1.22302 Y3.70114
G01 X-1.22561 Y3.70253
G01 X-1.22788 Y3.70439
G01 X-1.22975 Y3.70667
G01 X-1.23114 Y3.70926
G01 X-1.23199 Y3.71207
G01 X-1.23228 Y3.71500
G01 X-1.23228 Y3.79500
G01 X-1.23199 Y3.79793
G01 X-1.23114 Y3.80074
G01 X-1.22975 Y3.80333
G01 X-1.22788 Y3.80561
G01 X-1.22561 Y3.80747
G01 X-1.22302 Y3.80886
G01 X-1.22020 Y3.80971
G01 X-1.21728 Y3.81000
G01 X-1.13728 Y3.81000
G01 X-1.13435 Y3.80971
G01 X-1.13154 Y3.80886
G01 X-1.12894 Y3.80747
G01 X-1.12667 Y3.80561
G01 X-1.12481 Y3.80333
G01 X-1.12342 Y3.80074
G01 X-1.12257 Y3.79793
G01 X-1.12228 Y3.79500
G01 X-1.12230 Y3.73101
G01 X-1.06616 Y3.41238
G01 X-1.06557 Y3.40500
G01 X-1.06561 Y2.41873
G01 X-1.06471 Y2.41581
G01 X-1.06446 Y2.41426
G01 X-1.06357 Y2.40500
G01 X-1.06857 Y2.40500
G01 X-1.06960 Y2.39523
G01 X-1.07263 Y2.38588
G01 X-1.07755 Y2.37737
G01 X-1.08412 Y2.37007
G01 X-1.09207 Y2.36430
G01 X-1.10105 Y2.36030
G01 X-1.11066 Y2.35826
G01 X-1.11944 Y2.35820
G01 X-1.12152 Y2.35842
G01 X-1.13009 Y2.36030
G01 X-1.13814 Y2.36382
G01 X-1.13995 Y2.36487
G01 X-1.14621 Y2.36941
G01 X-1.14776 Y2.37081
G01 X-1.15359 Y2.37737
G01 X-1.15851 Y2.38588
G01 X-1.16154 Y2.39523
G01 X-1.16252 Y2.40395
G01 X-1.16252 Y2.40605
G01 X-1.16171 Y2.41374
G01 X-1.16127 Y2.41578
G01 X-1.16053 Y2.41794
G01 X-1.16055 Y3.40107
G01 X-1.21416 Y3.70500
G01 X-1.21322 Y3.70607
G01 X-1.21416 Y3.70500
G01 X-1.21728 Y3.70500
G01 X-1.21923 Y3.70519
G01 X-1.22110 Y3.70576
G01 X-1.22283 Y3.70669
G01 X-1.22435 Y3.70793
G01 X-1.22559 Y3.70944
G01 X-1.22652 Y3.71117
G01 X-1.22709 Y3.71305
G01 X-1.22728 Y3.71500
G01 X-1.22728 Y3.79500
G01 X-1.22709 Y3.79695
G01 X-1.22652 Y3.79883
G01 X-1.22559 Y3.80056
G01 X-1.22435 Y3.80207
G01 X-1.22283 Y3.80331
G01 X-1.22110 Y3.80424
G01 X-1.21923 Y3.80481
G01 X-1.21728 Y3.80500
G01 X-1.13728 Y3.80500
G01 X-1.13533 Y3.80481
G01 X-1.13345 Y3.80424
G01 X-1.13172 Y3.80331
G01 X-1.13021 Y3.80207
G01 X-1.12896 Y3.80056
G01 X-1.12804 Y3.79883
G01 X-1.12747 Y3.79695
G01 X-1.12728 Y3.79500
G01 X-1.12730 Y3.73058
G01 X-1.07114 Y3.41195
G01 X-1.07057 Y3.40500
G01 X-1.07061 Y2.41794
G01 X-1.06987 Y2.41578
G01 X-1.06943 Y2.41374
G01 X-1.06857 Y2.40500
G01 X-1.07357 Y2.40500
G01 X-1.07449 Y2.39627
G01 X-1.07720 Y2.38792
G01 X-1.08159 Y2.38031
G01 X-1.08747 Y2.37379
G01 X-1.09457 Y2.36863
G01 X-1.10259 Y2.36506
G01 X-1.11118 Y2.36323
G01 X-1.11944 Y2.36320
G01 X-1.12048 Y2.36331
G01 X-1.12904 Y2.36524
G01 X-1.13657 Y2.36863
G01 X-1.14404 Y2.37416
G01 X-1.14955 Y2.38031
G01 X-1.15394 Y2.38792
G01 X-1.15665 Y2.39627
G01 X-1.15757 Y2.40500
G01 X-1.15665 Y2.41373
G01 X-1.15557 Y2.41715
G01 X-1.15557 Y3.40150
G01 X-1.20996 Y3.71000
G01 X-1.21728 Y3.71000
G01 X-1.21919 Y3.71038
G01 X-1.22081 Y3.71146
G01 X-1.22143 Y3.71222
G01 X-1.22218 Y3.71402
G01 X-1.22228 Y3.79500
G01 X-1.22218 Y3.79598
G01 X-1.22143 Y3.79778
G01 X-1.22006 Y3.79916
G01 X-1.21919 Y3.79962
G01 X-1.21728 Y3.80000
G01 X-1.13728 Y3.80000
G01 X-1.13630 Y3.79990
G01 X-1.13450 Y3.79916
G01 X-1.13374 Y3.79854
G01 X-1.13266 Y3.79691
G01 X-1.13228 Y3.79500
G01 X-1.13228 Y3.73014
G01 X-1.07612 Y3.41151
G01 X-1.07557 Y3.40500
G01 X-1.07557 Y2.41715
G01 X-1.07449 Y2.41373
G01 X-1.07357 Y2.40500
G04 P0 ( dwell for no time -- G64 should not smooth over this point )
G00 Z1.00000 ( retract )

G00 X-2.09433 Y3.80600 ( rapid move to begin. )
G01 F25.00000
( Mill infeed pass 1/1 )
G01 Z-0.05000
G04 P0 ( dwell for no time -- G64 should not smooth over this point )
G01 F50.00000
G01 X-2.09433 Y3.80600
G01 X-2.08697 Y3.80263
G01 X-2.07889 Y3.79686
G01 X-2.07656 Y3.79476
G01 X-2.07096 Y3.78855
G01 X-2.06912 Y3.78601
G01 X-2.06423 Y3.77737
G01 X-2.06067 Y3.76644
G01 X-2.05947 Y3.75500
G01 X-2.06067 Y3.74356
G01 X-2.06194 Y3.73969
G01 X-2.01594 Y3.41088
G01 X-2.01557 Y3.40500
G01 X-2.01557 Y2.86885
G01 X-2.01575 Y2.86880
G01 X-2.01557 Y2.86885
G01 X-1.88074 Y2.64403
G01 X-1.87954 Y2.64311
G01 X-1.87746 Y2.64103
G01 X-1.87280 Y2.63535
G01 X-1.87116 Y2.63290
G01 X-1.86770 Y2.62642
G01 X-1.86657 Y2.62370
G01 X-1.86444 Y2.61667
G01 X-1.86386 Y2.61379
G01 X-1.86307 Y2.60500
G01 X-1.86307 Y2.40500
G01 X-1.86807 Y2.40500
G01 X-1.86898 Y2.39573
G01 X-1.87136 Y2.38775
G01 X-1.87211 Y2.38594
G01 X-1.87557 Y2.37945
G01 X-1.87666 Y2.37782
G01 X-1.88198 Y2.37141
G01 X-1.88839 Y2.36609
G01 X-1.89002 Y2.36500
G01 X-1.89739 Y2.36112
G01 X-1.90535 Y2.35865
G01 X-1.90727 Y2.35827
G01 X-1.91459 Y2.35755
G01 X-1.91655 Y2.35755
G01 X-1.92387 Y2.35827
G01 X-1.92579 Y2.35865
G01 X-1.93375 Y2.36112
G01 X-1.94112 Y2.36500
G01 X-1.94275 Y2.36609
G01 X-1.94916 Y2.37141
G01 X-1.95507 Y2.37861
G01 X-1.95904 Y2.38594
G01 X-1.95979 Y2.38775
G01 X-1.96216 Y2.39573
G01 X-1.96307 Y2.40500
G01 X-1.96307 Y2.59670
G01 X-1.96289 Y2.59675
G01 X-1.96307 Y2.59670
G01 X-2.10416 Y2.83185
G01 X-2.10733 Y2.83831
G01 X-2.10796 Y2.83999
G01 X-2.10964 Y2.84606
G01 X-2.10996 Y2.84783
G01 X-2.11057 Y2.85500
G01 X-2.11056 Y3.40187
G01 X-2.15598 Y3.72751
G01 X-2.16015 Y3.73466
G01 X-2.16311 Y3.74359
G01 X-2.16354 Y3.74564
G01 X-2.16447 Y3.75500
G01 X-2.16338 Y3.76540
G01 X-2.16015 Y3.77534
G01 X-2.15492 Y3.78439
G01 X-2.14867 Y3.79142
G01 X-2.14711 Y3.79282
G01 X-2.13947 Y3.79830
G01 X-2.13090 Y3.80218
G01 X-2.12891 Y3.80282
G01 X-2.12073 Y3.80456
G01 X-2.11865 Y3.80478
G01 X-2.10924 Y3.80473
G01 X-2.09902 Y3.80255
G01 X-2.08947 Y3.79830
G01 X-2.08183 Y3.79282
G01 X-2.08027 Y3.79142
G01 X-2.07468 Y3.78520
G01 X-2.07345 Y3.78351
G01 X-2.06879 Y3.77534
G01 X-2.06556 Y3.76540
G01 X-2.06453 Y3.75605
G01 X-2.06453 Y3.75395
G01 X-2.06556 Y3.74460
G01 X-2.06696 Y3.74014
G01 X-2.06708 Y3.74015
G01 X-2.06696 Y3.74014
G01 X-2.02100 Y3.41123
G01 X-2.02057 Y3.40500
G01 X-2.02057 Y2.86746
G01 X-2.02075 Y2.86741
G01 X-2.02057 Y2.86746
G01 X-1.88459 Y2.64071
G01 X-1.88271 Y2.63925
G01 X-1.88132 Y2.63786
G01 X-1.87666 Y2.63218
G01 X-1.87557 Y2.63055
G01 X-1.87211 Y2.62406
G01 X-1.87136 Y2.62225
G01 X-1.86922 Y2.61522
G01 X-1.86884 Y2.61330
G01 X-1.86807 Y2.60500
G01 X-1.86807 Y2.40500
G01 X-1.87307 Y2.40500
G01 X-1.87389 Y2.39671
G01 X-1.87652 Y2.38829
G01 X-1.88023 Y2.38139
G01 X-1.88519 Y2.37531
G01 X-1.89157 Y2.36995
G01 X-1.89931 Y2.36574
G01 X-1.90728 Y2.36332
G01 X-1.91508 Y2.36252
G01 X-1.92386 Y2.36332
G01 X-1.93228 Y2.36594
G01 X-1.93958 Y2.36995
G01 X-1.94562 Y2.37495
G01 X-1.95091 Y2.38139
G01 X-1.95463 Y2.38829
G01 X-1.95733 Y2.39719
G01 X-1.95807 Y2.40500
G01 X-1.95807 Y2.59809
G01 X-2.09987 Y2.83442
G01 X-2.10314 Y2.84133
G01 X-2.10498 Y2.84828
G01 X-2.10557 Y2.85500
G01 X-2.10557 Y3.40222
G01 X-2.15125 Y3.72913
G01 X-2.15558 Y3.73670
G01 X-2.15835 Y3.74514
G01 X-2.15857 Y3.74616
G01 X-2.15947 Y3.75500
G01 X-2.15849 Y3.76436
G01 X-2.15577 Y3.77281
G01 X-2.15088 Y3.78145
G01 X-2.14458 Y3.78844
G01 X-2.13741 Y3.79369
G01 X-2.12887 Y3.79761
G01 X-2.12787 Y3.79793
G01 X-2.11917 Y3.79975
G01 X-2.10977 Y3.79975
G01 X-2.10057 Y3.79780
G01 X-2.09197 Y3.79397
G01 X-2.08436 Y3.78844
G01 X-2.07807 Y3.78145
G01 X-2.07336 Y3.77330
G01 X-2.07045 Y3.76436
G01 X-2.06950 Y3.75552
G01 X-2.06950 Y3.75448
G01 X-2.07045 Y3.74564
G01 X-2.07207 Y3.74059
G01 X-2.02596 Y3.41053
G01 X-2.02557 Y3.40500
G01 X-2.02557 Y2.86608
G01 X-1.88838 Y2.63743
G01 X-1.88552 Y2.63505
G01 X-1.88023 Y2.62861
G01 X-1.87614 Y2.62080
G01 X-1.87382 Y2.61281
G01 X-1.87307 Y2.60500
G01 X-1.87307 Y2.40500
G01 X-1.86307 Y2.40500
G01 X-1.86386 Y2.39621
G01 X-1.86444 Y2.39333
G01 X-1.86657 Y2.38630
G01 X-1.86770 Y2.38358
G01 X-1.87192 Y2.37583
G01 X-1.87746 Y2.36897
G01 X-1.87954 Y2.36689
G01 X-1.88522 Y2.36222
G01 X-1.88767 Y2.36059
G01 X-1.89548 Y2.35650
G01 X-1.90390 Y2.35387
G01 X-1.90678 Y2.35329
G01 X-1.91557 Y2.35250
G01 X-1.92436 Y2.35329
G01 X-1.92724 Y2.35387
G01 X-1.93566 Y2.35650
G01 X-1.94348 Y2.36059
G01 X-1.94592 Y2.36222
G01 X-1.95269 Y2.36788
G01 X-1.95835 Y2.37465
G01 X-1.95998 Y2.37710
G01 X-1.96345 Y2.38358
G01 X-1.96457 Y2.38630
G01 X-1.96706 Y2.39476
G01 X-1.96800 Y2.40353
G01 X-1.96807 Y2.59532
G01 X-1.96789 Y2.59537
G01 X-1.96807 Y2.59532
G01 X-2.10845 Y2.82928
G01 X-2.11183 Y2.83613
G01 X-2.11278 Y2.83866
G01 X-2.11446 Y2.84473
G01 X-2.11494 Y2.84738
G01 X-2.11557 Y2.85500
G01 X-2.11556 Y3.40153
G01 X-2.16080 Y3.72585
G01 X-2.16472 Y3.73263
G01 X-2.16786 Y3.74205
G01 X-2.16851 Y3.74512
G01 X-2.16947 Y3.75500
G01 X-2.16851 Y3.76488
G01 X-2.16786 Y3.76795
G01 X-2.16472 Y3.77737
G01 X-2.15982 Y3.78601
G01 X-2.15798 Y3.78855
G01 X-2.15127 Y3.79587
G01 X-2.14329 Y3.80178
G01 X-2.14057 Y3.80335
G01 X-2.13460 Y3.80600
G01 X-2.12977 Y3.80687
G01 X-2.12141 Y3.80775
G01 X-2.11865 Y3.80789
G01 X-2.11029 Y3.80790
G01 X-2.10753 Y3.80775
G01 X-2.09917 Y3.80687
G01 X-2.09433 Y3.80600
G01 X-2.04181 Y3.80600
G01 X-2.04166 Y3.80638
G01 X-2.04181 Y3.80600
G01 X-2.02667 Y3.79086
G01 X-2.02629 Y3.79102
G01 X-2.02667 Y3.79086
G01 X-2.02661 Y3.77784
G01 X-2.02748 Y3.77590
G01 X-2.03047 Y3.76644
G01 X-2.03159 Y3.75657
G01 X-2.03159 Y3.75343
G01 X-2.03071 Y3.74512
G01 X-2.03006 Y3.74205
G01 X-2.02692 Y3.73263
G01 X-2.02202 Y3.72399
G01 X-2.02018 Y3.72145
G01 X-2.01458 Y3.71524
G01 X-2.01225 Y3.71314
G01 X-2.01149 Y3.71259
G01 X-2.01120 Y3.71275
G01 X-2.01149 Y3.71259
G01 X-1.96730 Y3.41326
G01 X-1.96807 Y3.40500
G01 X-1.96807 Y3.30500
G01 X-1.96706 Y3.29476
G01 X-1.96457 Y3.28630
G01 X-1.96345 Y3.28358
G01 X-1.95922 Y3.27583
G01 X-1.95269 Y3.26788
G01 X-1.94592 Y3.26222
G01 X-1.94348 Y3.26059
G01 X-1.93566 Y3.25650
G01 X-1.92724 Y3.25387
G01 X-1.92646 Y3.25371
G01 X-1.90683 Y3.25375
G01 X-1.92675 Y3.25368
G01 X-1.93332 Y3.25169
G01 X-1.93604 Y3.25056
G01 X-1.94209 Y3.24733
G01 X-1.94453 Y3.24570
G01 X-1.94984 Y3.24134
G01 X-1.95191 Y3.23926
G01 X-1.95714 Y3.23278
G01 X-1.96114 Y3.22546
G01 X-1.96226 Y3.22275
G01 X-1.96461 Y3.21475
G01 X-1.96557 Y3.20500
G01 X-1.96553 Y2.91873
G01 X-1.96643 Y2.91581
G01 X-1.96668 Y2.91426
G01 X-1.96757 Y2.90500
G01 X-1.96668 Y2.89574
G01 X-1.96603 Y2.89267
G01 X-1.96364 Y2.88532
G01 X-1.96236 Y2.88245
G01 X-1.95764 Y2.87444
G01 X-1.95037 Y2.86636
G01 X-1.94157 Y2.85997
G01 X-1.93311 Y2.85611
G01 X-1.93012 Y2.85514
G01 X-1.92256 Y2.85353
G01 X-1.91944 Y2.85320
G01 X-1.91014 Y2.85328
G01 X-1.89950 Y2.85555
G01 X-1.88957 Y2.85997
G01 X-1.88200 Y2.86537
G01 X-1.87967 Y2.86747
G01 X-1.87449 Y2.87321
G01 X-1.87265 Y2.87575
G01 X-1.86807 Y2.88385
G01 X-1.86511 Y2.89267
G01 X-1.86446 Y2.89574
G01 X-1.86357 Y2.90500
G01 X-1.86857 Y2.90500
G01 X-1.86943 Y2.91374
G01 X-1.86987 Y2.91578
G01 X-1.87061 Y2.91794
G01 X-1.87057 Y3.20500
G01 X-1.87129 Y3.21281
G01 X-1.87167 Y3.21473
G01 X-1.87367 Y3.22130
G01 X-1.87442 Y3.22311
G01 X-1.87765 Y3.22916
G01 X-1.87874 Y3.23079
G01 X-1.88309 Y3.23609
G01 X-1.88448 Y3.23748
G01 X-1.89057 Y3.24242
G01 X-1.89835 Y3.24657
G01 X-1.90584 Y3.24890
G01 X-1.90776 Y3.24928
G01 X-1.91557 Y3.25000
G01 X-1.92338 Y3.24928
G01 X-1.92530 Y3.24890
G01 X-1.93279 Y3.24657
G01 X-1.94057 Y3.24242
G01 X-1.94666 Y3.23748
G01 X-1.94805 Y3.23609
G01 X-1.95240 Y3.23079
G01 X-1.95349 Y3.22916
G01 X-1.95673 Y3.22311
G01 X-1.95748 Y3.22130
G01 X-1.95947 Y3.21473
G01 X-1.95985 Y3.21281
G01 X-1.96057 Y3.20500
G01 X-1.96053 Y2.91794
G01 X-1.96154 Y2.91477
G01 X-1.96252 Y2.90605
G01 X-1.96252 Y2.90395
G01 X-1.96171 Y2.89626
G01 X-1.96127 Y2.89422
G01 X-1.95888 Y2.88686
G01 X-1.95803 Y2.88495
G01 X-1.95359 Y2.87737
G01 X-1.94776 Y2.87081
G01 X-1.94621 Y2.86941
G01 X-1.93907 Y2.86430
G01 X-1.93009 Y2.86030
G01 X-1.92048 Y2.85826
G01 X-1.91066 Y2.85826
G01 X-1.90105 Y2.86030
G01 X-1.89300 Y2.86382
G01 X-1.89119 Y2.86487
G01 X-1.88494 Y2.86941
G01 X-1.88338 Y2.87081
G01 X-1.87755 Y2.87737
G01 X-1.87263 Y2.88588
G01 X-1.86960 Y2.89523
G01 X-1.86863 Y2.90395
G01 X-1.86857 Y2.90500
G01 X-1.87357 Y2.90500
G01 X-1.87449 Y2.91373
G01 X-1.87557 Y2.91715
G01 X-1.87557 Y3.20500
G01 X-1.87627 Y3.21232
G01 X-1.87845 Y3.21985
G01 X-1.88231 Y3.22722
G01 X-1.88696 Y3.23292
G01 X-1.89295 Y3.23797
G01 X-1.89982 Y3.24175
G01 X-1.90729 Y3.24411
G01 X-1.91606 Y3.24498
G01 X-1.92337 Y3.24423
G01 X-1.93042 Y3.24212
G01 X-1.93779 Y3.23826
G01 X-1.94349 Y3.23361
G01 X-1.94883 Y3.22722
G01 X-1.95232 Y3.22075
G01 X-1.95480 Y3.21280
G01 X-1.95555 Y3.20549
G01 X-1.95557 Y2.91715
G01 X-1.95665 Y2.91373
G01 X-1.95754 Y2.90552
G01 X-1.95674 Y2.89678
G01 X-1.95413 Y2.88841
G01 X-1.95370 Y2.88745
G01 X-1.94955 Y2.88031
G01 X-1.94404 Y2.87416
G01 X-1.94327 Y2.87346
G01 X-1.93657 Y2.86863
G01 X-1.92855 Y2.86506
G01 X-1.91996 Y2.86323
G01 X-1.91118 Y2.86323
G01 X-1.90310 Y2.86492
G01 X-1.90210 Y2.86524
G01 X-1.89457 Y2.86863
G01 X-1.88747 Y2.87379
G01 X-1.88159 Y2.88031
G01 X-1.87720 Y2.88792
G01 X-1.87449 Y2.89627
G01 X-1.87357 Y2.90500
G01 X-1.86357 Y2.90500
G01 X-1.86446 Y2.91426
G01 X-1.86471 Y2.91581
G01 X-1.86561 Y2.91873
G01 X-1.86557 Y3.20500
G01 X-1.86632 Y3.21330
G01 X-1.86689 Y3.21618
G01 X-1.86938 Y3.22413
G01 X-1.87324 Y3.23152
G01 X-1.87487 Y3.23396
G01 X-1.87923 Y3.23926
G01 X-1.88131 Y3.24134
G01 X-1.88779 Y3.24657
G01 X-1.89511 Y3.25056
G01 X-1.89782 Y3.25169
G01 X-1.90439 Y3.25368
G01 X-1.90683 Y3.25375
G01 X-1.90469 Y3.25371
G01 X-1.90390 Y3.25387
G01 X-1.89687 Y3.25600
G01 X-1.89415 Y3.25713
G01 X-1.88767 Y3.26059
G01 X-1.88522 Y3.26222
G01 X-1.87845 Y3.26788
G01 X-1.87280 Y3.27465
G01 X-1.87116 Y3.27710
G01 X-1.86770 Y3.28358
G01 X-1.86657 Y3.28630
G01 X-1.86444 Y3.29333
G01 X-1.86386 Y3.29621
G01 X-1.86307 Y3.30500
G01 X-1.86307 Y3.40500
G01 X-1.86408 Y3.41524
G01 X-1.86657 Y3.42370
G01 X-1.86770 Y3.42642
G01 X-1.86843 Y3.42768
G01 X-1.91611 Y3.75120
G01 X-1.91805 Y3.75930
G01 X-1.91904 Y3.76207
G01 X-1.92197 Y3.76827
G01 X-1.92348 Y3.77080
G01 X-1.92480 Y3.77252
G01 X-1.92586 Y3.77591
G01 X-1.92674 Y3.77784
G01 X-1.92667 Y3.78458
G01 X-1.92705 Y3.78474
G01 X-1.92667 Y3.78458
G01 X-1.90525 Y3.80600
G01 X-1.90541 Y3.80638
G01 X-1.90525 Y3.80600
G01 X-1.85900 Y3.80600
G01 X-1.85417 Y3.80687
G01 X-1.84581 Y3.80775
G01 X-1.84305 Y3.80789
G01 X-1.83469 Y3.80789
G01 X-1.83193 Y3.80775
G01 X-1.82357 Y3.80687
G01 X-1.81873 Y3.80600
G01 X-1.81277 Y3.80335
G01 X-1.81005 Y3.80178
G01 X-1.80207 Y3.79587
G01 X-1.79536 Y3.78855
G01 X-1.79352 Y3.78601
G01 X-1.78863 Y3.77737
G01 X-1.78507 Y3.76644
G01 X-1.78395 Y3.75657
G01 X-1.78395 Y3.75343
G01 X-1.78483 Y3.74512
G01 X-1.78532 Y3.74289
G01 X-1.71663 Y3.41525
G01 X-1.71578 Y3.40938
G01 X-1.71557 Y3.40500
G01 X-1.71557 Y2.86885
G01 X-1.71575 Y2.86880
G01 X-1.71557 Y2.86885
G01 X-1.58074 Y2.64403
G01 X-1.57954 Y2.64311
G01 X-1.57746 Y2.64103
G01 X-1.57280 Y2.63535
G01 X-1.57116 Y2.63290
G01 X-1.56770 Y2.62642
G01 X-1.56657 Y2.62370
G01 X-1.56444 Y2.61667
G01 X-1.56386 Y2.61379
G01 X-1.56307 Y2.60500
G01 X-1.56307 Y2.40500
G01 X-1.56807 Y2.40500
G01 X-1.56898 Y2.39573
G01 X-1.57136 Y2.38775
G01 X-1.57211 Y2.38594
G01 X-1.57557 Y2.37945
G01 X-1.57666 Y2.37782
G01 X-1.58198 Y2.37141
G01 X-1.58839 Y2.36609
G01 X-1.59002 Y2.36500
G01 X-1.59739 Y2.36112
G01 X-1.60535 Y2.35865
G01 X-1.60727 Y2.35827
G01 X-1.61459 Y2.35755
G01 X-1.61655 Y2.35755
G01 X-1.62387 Y2.35827
G01 X-1.62579 Y2.35865
G01 X-1.63375 Y2.36112
G01 X-1.64112 Y2.36500
G01 X-1.64275 Y2.36609
G01 X-1.64916 Y2.37141
G01 X-1.65507 Y2.37861
G01 X-1.65904 Y2.38594
G01 X-1.65979 Y2.38775
G01 X-1.66216 Y2.39573
G01 X-1.66307 Y2.40500
G01 X-1.66307 Y2.59670
G01 X-1.66289 Y2.59675
G01 X-1.66307 Y2.59670
G01 X-1.80416 Y2.83185
G01 X-1.80733 Y2.83831
G01 X-1.80796 Y2.83999
G01 X-1.80964 Y2.84606
G01 X-1.80996 Y2.84783
G01 X-1.81057 Y2.85500
G01 X-1.81054 Y3.40034
G01 X-1.87842 Y3.72462
G01 X-1.87989 Y3.72649
G01 X-1.88407 Y3.73373
G01 X-1.88492 Y3.73564
G01 X-1.88778 Y3.74460
G01 X-1.88887 Y3.75500
G01 X-1.88778 Y3.76540
G01 X-1.88455 Y3.77534
G01 X-1.87932 Y3.78439
G01 X-1.87307 Y3.79142
G01 X-1.87151 Y3.79282
G01 X-1.86387 Y3.79830
G01 X-1.85530 Y3.80218
G01 X-1.85331 Y3.80282
G01 X-1.84513 Y3.80456
G01 X-1.84305 Y3.80478
G01 X-1.83364 Y3.80473
G01 X-1.82342 Y3.80255
