( pcb2gcode 2.1.0 )
( Software-independent Gcode )

G94 ( Inches per minute feed rate. )
G20 ( Units == INCHES. )

G90 ( Absolute coordinates. )
G00 S30000 ( RPM spindle speed. )
G01 F10.00000 ( Feedrate. )


G00 Z0.10000 (Retract to tool change height)
G04 P0.00000 (Wait for spindle to stop)
(MSG, Change tool bit to mill diameter 0.01300in)
G04 P0.00000 (Wait for spindle to get up to speed)
G04 P0 ( dwell for no time -- G64 should not smooth over this point )
G00 Z0.05000 ( retract )

G00 X-0.77696 Y2.31437 ( rapid move to begin. )
G01 F5.00000
( Mill infeed pass 1/1 )
G01 Z-0.00300
G04 P0 ( dwell for no time -- G64 should not smooth over this point )
G01 F10.00000
G01 X-0.77696 Y2.31437
G01 X-0.77696 Y2.31437
G01 X-0.77765 Y2.31426
G01 X-0.77981 Y2.31392
G01 X-0.78744 Y2.31229
G01 X-0.79232 Y2.31098
G01 X-0.79995 Y2.30850
G01 X-0.80570 Y2.30629
G01 X-0.80611 Y2.30611
G01 X-0.80888 Y2.29888
G01 X-0.80997 Y2.29577
G01 X-0.80997 Y2.29324
G01 X-0.80997 Y2.28717
G01 X-0.80997 Y2.28443
G01 X-0.80997 Y2.28023
G01 X-0.80997 Y2.27220
G01 X-0.80997 Y2.26906
G01 X-0.80997 Y2.26139
G01 X-0.80997 Y2.25855
G01 X-0.80997 Y2.25088
G01 X-0.80997 Y2.24774
G01 X-0.80997 Y2.23971
G01 X-0.80997 Y2.23551
G01 X-0.80997 Y2.23277
G01 X-0.80997 Y2.22670
G01 X-0.80997 Y2.22416
G01 X-0.80997 Y2.04577
G01 X-0.80933 Y2.04361
G01 X-0.80729 Y2.03598
G01 X-0.80632 Y2.03141
G01 X-0.80557 Y2.02668
G01 X-0.80511 Y2.02378
G01 X-0.80467 Y2.01962
G01 X-0.80427 Y2.01199
G01 X-0.80427 Y2.00795
G01 X-0.80467 Y2.00032
G01 X-0.80511 Y1.99616
G01 X-0.80557 Y1.99326
G01 X-0.80632 Y1.98853
G01 X-0.80729 Y1.98396
G01 X-0.80724 Y1.98395
G01 X-0.80729 Y1.98396
G01 X-0.80933 Y1.97633
G01 X-0.81105 Y1.97106
G01 X-0.81398 Y1.96343
G01 X-0.81467 Y1.96179
G01 X-0.81543 Y1.95997
G01 X-0.81468 Y1.95817
G01 X-0.81467 Y1.95815
G01 X-0.81398 Y1.95651
G01 X-0.81105 Y1.94888
G01 X-0.80933 Y1.94361
G01 X-0.80729 Y1.93597
G01 X-0.80632 Y1.93141
G01 X-0.80557 Y1.92669
G01 X-0.80557 Y1.92667
G01 X-0.80557 Y1.92667
G01 X-0.80511 Y1.92378
G01 X-0.80467 Y1.91962
G01 X-0.80427 Y1.91199
G01 X-0.80427 Y1.90795
G01 X-0.80467 Y1.90032
G01 X-0.80511 Y1.89616
G01 X-0.80557 Y1.89327
G01 X-0.80630 Y1.88861
G01 X-0.80571 Y1.88830
G01 X-0.80630 Y1.88861
G01 X-0.80636 Y1.88854
G01 X-0.80762 Y1.88722
G01 X-0.80636 Y1.88854
G01 X-0.80630 Y1.88861
G01 X-0.80557 Y1.89327
G01 X-0.80511 Y1.89616
G01 X-0.80557 Y1.89327
G01 X-0.80511 Y1.89616
G01 X-0.80557 Y1.89327
G01 X-0.80703 Y1.88876
G01 X-0.80762 Y1.88722
G04 P0 ( dwell for no time -- G64 should not smooth over this point )
G00 Z0.05000 ( retract )

G00 X-0.80762 Y1.88722 ( rapid move to begin. )
G01 F5.00000
( Mill infeed pass 1/1 )
G01 Z-0.00300
G04 P0 ( dwell for no time -- G64 should not smooth over this point )
G01 F10.00000
G01 X-0.80762 Y1.88722
G01 X-0.80762 Y1.88722
G04 P0 ( dwell for no time -- G64 should not smooth over this point )
G00 Z0.05000 ( retract )

G00 X-0.80780 Y1.88704 ( rapid move to begin. )
G01 F5.00000
( Mill infeed pass 1/1 )
G01 Z-0.00300
G04 P0 ( dwell for no time -- G64 should not smooth over this point )
G01 F10.00000
G01 X-0.80780 Y1.88704
G01 X-0.80762 Y1.88722
G01 X-0.80780 Y1.88704
G01 X-0.80951 Y1.88524
G01 X-0.81531 Y1.87978
G01 X-0.81810 Y1.87741
G01 X-0.82428 Y1.87270
G01 X-0.82689 Y1.87093
G01 X-0.83343 Y1.86695
G01 X-0.83602 Y1.86556
G01 X-0.84292 Y1.86230
G01 X-0.84569 Y1.86116
G01 X-0.84911 Y1.85997
G01 X-0.85324 Y1.85997
G01 X-0.85615 Y1.85997
G01 X-0.86378 Y1.85997
G01 X-0.86670 Y1.85997
G01 X-0.87083 Y1.85997
G01 X-0.87424 Y1.85877
G01 X-0.87702 Y1.85764
G01 X-0.88392 Y1.85438
G01 X-0.88651 Y1.85299
G01 X-0.89305 Y1.84901
G01 X-0.89565 Y1.84723
G01 X-0.90183 Y1.84253
G01 X-0.90463 Y1.84016
G01 X-0.91043 Y1.83469
G01 X-0.91214 Y1.83290
G01 X-0.91043 Y1.83469
G01 X-0.91214 Y1.83290
G01 X-0.91231 Y1.83272
G01 X-0.91357 Y1.83140
G01 X-0.91363 Y1.83133
G01 X-0.91437 Y1.82668
G01 X-0.91437 Y1.82668
G01 X-0.91483 Y1.82378
G01 X-0.91526 Y1.81962
G01 X-0.91567 Y1.81199
G01 X-0.91567 Y1.80795
G01 X-0.91526 Y1.80032
G01 X-0.91483 Y1.79616
G01 X-0.91437 Y1.79326
G01 X-0.91437 Y1.79326
G01 X-0.91437 Y1.77886
G01 X-0.91502 Y1.77858
G01 X-0.91437 Y1.77886
G01 X-0.85254 Y1.71703
G01 X-0.85268 Y1.71680
G01 X-0.85254 Y1.71703
G01 X-0.85182 Y1.71692
G01 X-0.84425 Y1.71531
G01 X-0.84217 Y1.71475
G01 X-0.84016 Y1.71398
G01 X-0.83309 Y1.71083
G01 X-0.83117 Y1.70985
G01 X-0.82936 Y1.70868
G01 X-0.82310 Y1.70413
G01 X-0.82143 Y1.70277
G01 X-0.81990 Y1.70125
G01 X-0.81473 Y1.69550
G01 X-0.81337 Y1.69383
G01 X-0.81219 Y1.69202
G01 X-0.80833 Y1.68532
G01 X-0.80735 Y1.68340
G01 X-0.80658 Y1.68138
G01 X-0.80418 Y1.67403
G01 X-0.80363 Y1.67194
G01 X-0.80329 Y1.66982
G01 X-0.80248 Y1.66212
G01 X-0.80237 Y1.65997
G01 X-0.80248 Y1.65782
G01 X-0.80329 Y1.65012
G01 X-0.80363 Y1.64799
G01 X-0.80418 Y1.64591
G01 X-0.80658 Y1.63855
G01 X-0.80735 Y1.63654
G01 X-0.80833 Y1.63462
G01 X-0.81219 Y1.62792
G01 X-0.81337 Y1.62611
G01 X-0.81473 Y1.62444
G01 X-0.81990 Y1.61869
G01 X-0.82143 Y1.61716
G01 X-0.82310 Y1.61581
G01 X-0.82872 Y1.61173
G01 X-0.82963 Y1.61163
G01 X-0.82865 Y1.61173
G01 X-0.82846 Y1.61168
G01 X-0.82632 Y1.61053
G01 X-0.82638 Y1.61027
G01 X-0.82632 Y1.61053
G01 X-0.75997 Y1.61053
G01 X-0.75821 Y1.61046
G01 X-0.75566 Y1.61024
G01 X-0.75220 Y1.60964
G01 X-0.74973 Y1.60899
G01 X-0.74642 Y1.60782
G01 X-0.74409 Y1.60676
G01 X-0.74103 Y1.60504
G01 X-0.73892 Y1.60360
G01 X-0.73751 Y1.60255
G01 X-0.53751 Y1.43992
G01 X-0.53614 Y1.43870
G01 X-0.53423 Y1.43684
G01 X-0.53185 Y1.43407
G01 X-0.53030 Y1.43191
G01 X-0.52845 Y1.42876
G01 X-0.52730 Y1.42636
G01 X-0.52603 Y1.42294
G01 X-0.52533 Y1.42037
G01 X-0.52469 Y1.41677
G01 X-0.52445 Y1.41412
G01 X-0.52437 Y1.41230
G01 X-0.52437 Y1.40404
G01 X-0.52486 Y1.40382
G01 X-0.52437 Y1.40404
G01 X-0.52398 Y1.40376
G01 X-0.52230 Y1.40240
G01 X-0.52078 Y1.40088
G01 X-0.51567 Y1.39521
G01 X-0.51432 Y1.39353
G01 X-0.51314 Y1.39172
G01 X-0.50933 Y1.38511
G01 X-0.50835 Y1.38319
G01 X-0.50758 Y1.38118
G01 X-0.50522 Y1.37392
G01 X-0.50466 Y1.37184
G01 X-0.50432 Y1.36971
G01 X-0.50352 Y1.36212
G01 X-0.50341 Y1.35997
G01 X-0.50352 Y1.35782
G01 X-0.50432 Y1.35023
G01 X-0.50466 Y1.34810
G01 X-0.50522 Y1.34601
G01 X-0.50758 Y1.33876
G01 X-0.50835 Y1.33674
G01 X-0.50933 Y1.33482
G01 X-0.51314 Y1.32821
G01 X-0.51432 Y1.32641
G01 X-0.51437 Y1.32634
G01 X-0.51468 Y1.32643
G01 X-0.51437 Y1.32634
G01 X-0.51437 Y1.00997
G01 X-0.51447 Y1.00795
G01 X-0.51495 Y1.00307
G01 X-0.51524 Y1.00107
G01 X-0.51574 Y0.99911
G01 X-0.51716 Y0.99442
G01 X-0.51870 Y0.99069
G01 X-0.52101 Y0.98637
G01 X-0.52205 Y0.98463
G01 X-0.52326 Y0.98301
G01 X-0.52637 Y0.97922
G01 X-0.52772 Y0.97772
G01 X-1.07772 Y0.42772
G01 X-1.07922 Y0.42637
G01 X-1.08301 Y0.42326
G01 X-1.08463 Y0.42205
G01 X-1.08637 Y0.42101
G01 X-1.09069 Y0.41870
G01 X-1.09252 Y0.41784
G01 X-1.09442 Y0.41716
G01 X-1.09911 Y0.41574
G01 X-1.10307 Y0.41495
G01 X-1.10795 Y0.41447
G01 X-1.10997 Y0.41437
G01 X-1.42593 Y0.41437
G01 X-1.42599 Y0.41464
G01 X-1.42593 Y0.41437
G01 X-1.42961 Y0.41169
G01 X-1.43142 Y0.41052
G01 X-1.43334 Y0.40954
G01 X-1.44031 Y0.40644
G01 X-1.44232 Y0.40566
G01 X-1.44441 Y0.40511
G01 X-1.45187 Y0.40352
G01 X-1.45400 Y0.40318
G01 X-1.45615 Y0.40307
G01 X-1.46378 Y0.40307
G01 X-1.46594 Y0.40318
G01 X-1.46807 Y0.40352
G01 X-1.47553 Y0.40511
G01 X-1.47761 Y0.40566
G01 X-1.47963 Y0.40644
G01 X-1.48660 Y0.40954
G01 X-1.48852 Y0.41052
G01 X-1.49033 Y0.41169
G01 X-1.49650 Y0.41618
G01 X-1.49818 Y0.41754
G01 X-1.49970 Y0.41906
G01 X-1.50481 Y0.42473
G01 X-1.50616 Y0.42641
G01 X-1.50734 Y0.42821
G01 X-1.50997 Y0.43277
G01 X-1.50997 Y0.43551
G01 X-1.50997 Y0.43971
G01 X-1.50997 Y0.44774
G01 X-1.50997 Y0.45088
G01 X-1.50997 Y0.45855
G01 X-1.50997 Y0.46139
G01 X-1.50997 Y0.46906
G01 X-1.50997 Y0.47220
G01 X-1.50997 Y0.48023
G01 X-1.50997 Y0.48443
G01 X-1.50997 Y0.48717
G01 X-1.50734 Y0.49172
G01 X-1.50616 Y0.49353
G01 X-1.50481 Y0.49521
G01 X-1.49970 Y0.50088
G01 X-1.49818 Y0.50240
G01 X-1.49650 Y0.50376
G01 X-1.49033 Y0.50824
G01 X-1.48852 Y0.50942
G01 X-1.48660 Y0.51040
G01 X-1.47963 Y0.51350
G01 X-1.47766 Y0.51426
G01 X-1.47765 Y0.51426
G01 X-1.47696 Y0.51437
G01 X-1.47696 Y0.51437
G01 X-1.47766 Y0.51426
G01 X-1.47981 Y0.51392
G01 X-1.48744 Y0.51229
G01 X-1.49232 Y0.51098
G01 X-1.49995 Y0.50850
G01 X-1.50570 Y0.50629
G01 X-1.50799 Y0.50527
G01 X-1.51194 Y0.50527
G01 X-1.51194 Y0.50527
G01 X-1.50997 Y0.50439
G01 X-1.50997 Y0.50307
G01 X-1.50997 Y0.49986
G01 X-1.50997 Y0.49324
G01 X-1.50997 Y0.48717
G01 X-1.50997 Y0.48443
G01 X-1.50997 Y0.48023
G01 X-1.50997 Y0.47220
G01 X-1.50997 Y0.46906
G01 X-1.50997 Y0.46139
G01 X-1.50997 Y0.45855
G01 X-1.50997 Y0.45088
G01 X-1.50997 Y0.44774
G01 X-1.50997 Y0.43971
G01 X-1.50997 Y0.43551
G01 X-1.50997 Y0.43277
G01 X-1.50997 Y0.42670
G01 X-1.50997 Y0.42008
G01 X-1.50997 Y0.41686
G04 P0 ( dwell for no time -- G64 should not smooth over this point )
G00 Z0.05000 ( retract )

G00 X-1.50997 Y0.36025 ( rapid move to begin. )
G01 F5.00000
( Mill infeed pass 1/1 )
G01 Z-0.00300
G04 P0 ( dwell for no time -- G64 should not smooth over this point )
G01 F10.00000
G01 X-1.50997 Y0.36025
G01 X-1.50997 Y0.36025
G04 P0 ( dwell for no time -- G64 should not smooth over this point )
G00 Z0.05000 ( retract )

G00 X-1.50997 Y0.36025 ( rapid move to begin. )
G01 F5.00000
( Mill infeed pass 1/1 )
G01 Z-0.00300
G04 P0 ( dwell for no time -- G64 should not smooth over this point )
G01 F10.00000
G01 X-1.50997 Y0.36025
G01 X-1.50997 Y0.35707
G01 X-1.50997 Y0.35706
G01 X-1.50997 Y0.35022
G01 X-1.50997 Y0.34026
G01 X-1.50997 Y0.33831
G01 X-1.50997 Y0.33830
G01 X-1.50997 Y0.33048
G01 X-1.50997 Y0.32074
G01 X-1.50997 Y0.31101
G01 X-1.50997 Y0.30144
G01 X-1.50997 Y0.31101
G01 X-1.50997 Y0.32074
G01 X-1.50997 Y0.33048
G01 X-1.50997 Y0.33830
G01 X-1.50997 Y0.33831
G01 X-1.50997 Y0.34026
G01 X-1.50997 Y0.35022
G01 X-1.50997 Y0.35706
G01 X-1.50997 Y0.35707
G01 X-1.50997 Y0.36025
G01 X-1.51113 Y0.35966
G01 X-1.51810 Y0.35656
G01 X-1.52545 Y0.35374
G01 X-1.53305 Y0.35170
G01 X-1.54052 Y0.35011
G01 X-1.54829 Y0.34888
G01 X-1.55615 Y0.34847
G01 X-1.56378 Y0.34847
G01 X-1.57164 Y0.34888
G01 X-1.57942 Y0.35011
G01 X-1.58688 Y0.35170
G01 X-1.59449 Y0.35374
G01 X-1.60183 Y0.35656
G01 X-1.60880 Y0.35966
G01 X-1.60997 Y0.36025
G01 X-1.60997 Y0.37045
G01 X-1.60997 Y0.37045
G01 X-1.60997 Y0.38111
G01 X-1.60997 Y0.38111
G01 X-1.60997 Y0.38466
G01 X-1.60997 Y0.39222
G01 X-1.60997 Y0.39764
G01 X-1.60997 Y0.40370
G01 X-1.60997 Y0.40981
G01 X-1.60997 Y0.41686
G01 X-1.60997 Y0.42008
G01 X-1.60997 Y0.42670
G01 X-1.60997 Y0.43277
G01 X-1.60997 Y0.43551
G01 X-1.60997 Y0.43971
G01 X-1.60997 Y0.44774
G01 X-1.60997 Y0.45088
G01 X-1.60997 Y0.45855
G01 X-1.60997 Y0.46139
G01 X-1.60997 Y0.46906
G01 X-1.60997 Y0.47220
G01 X-1.60997 Y0.48023
G01 X-1.60997 Y0.48443
G01 X-1.60997 Y0.48717
G01 X-1.61260 Y0.49172
G01 X-1.61377 Y0.49353
G01 X-1.61513 Y0.49521
G01 X-1.62024 Y0.50088
G01 X-1.62176 Y0.50240
G01 X-1.62344 Y0.50376
G01 X-1.62961 Y0.50824
G01 X-1.63142 Y0.50942
G01 X-1.63334 Y0.51040
G01 X-1.64031 Y0.51350
G01 X-1.64228 Y0.51426
G01 X-1.64012 Y0.51392
G01 X-1.64011 Y0.51398
G01 X-1.64012 Y0.51392
G01 X-1.63249 Y0.51229
G01 X-1.62762 Y0.51098
G01 X-1.61999 Y0.50850
G01 X-1.61423 Y0.50629
G01 X-1.61194 Y0.50527
G01 X-1.61194 Y0.50527
G01 X-1.60997 Y0.50439
G01 X-1.60997 Y0.50307
G01 X-1.61194 Y0.50527
G01 X-1.60997 Y0.50439
G01 X-1.60799 Y0.50527
G01 X-1.60799 Y0.50527
G01 X-1.61194 Y0.50527
G01 X-1.61194 Y0.50527
G01 X-1.60997 Y0.50439
G01 X-1.60799 Y0.50527
G01 X-1.60997 Y0.50307
G01 X-1.60997 Y0.49986
G01 X-1.60997 Y0.49324
G01 X-1.60997 Y0.48717
G01 X-1.60997 Y0.49324
G01 X-1.60997 Y0.49986
G01 X-1.60997 Y0.50307
G01 X-1.60997 Y0.50439
G01 X-1.61194 Y0.50527
G01 X-1.61194 Y0.50527
G01 X-1.61423 Y0.50629
G01 X-1.61999 Y0.50850
G01 X-1.62762 Y0.51098
G01 X-1.63249 Y0.51229
G01 X-1.64012 Y0.51392
G01 X-1.64228 Y0.51426
G01 X-1.64445 Y0.51460
G01 X-1.65208 Y0.51541
G01 X-1.65615 Y0.51562
G01 X-1.65615 Y0.51565
G01 X-1.65615 Y0.51562
G01 X-1.66378 Y0.51562
G01 X-1.66378 Y0.51567
G01 X-1.66378 Y0.51562
G01 X-1.66785 Y0.51541
G01 X-1.67548 Y0.51460
G01 X-1.67696 Y0.51437
G01 X-1.67548 Y0.51460
G01 X-1.66785 Y0.51541
G01 X-1.66378 Y0.51562
G01 X-1.65615 Y0.51562
G01 X-1.65208 Y0.51541
G01 X-1.64445 Y0.51460
G01 X-1.64228 Y0.51426
G01 X-1.64012 Y0.51392
G01 X-1.63249 Y0.51229
G01 X-1.62762 Y0.51098
G01 X-1.61999 Y0.50850
G01 X-1.61423 Y0.50629
G01 X-1.61194 Y0.50527
G01 X-1.61194 Y0.50527
G01 X-1.60997 Y0.50439
G01 X-1.60799 Y0.50527
G01 X-1.60570 Y0.50629
G01 X-1.59995 Y0.50850
G01 X-1.59232 Y0.51098
G01 X-1.58744 Y0.51229
G01 X-1.58745 Y0.51233
G01 X-1.58745 Y0.51234
G01 X-1.58745 Y0.51233
G01 X-1.58744 Y0.51229
G01 X-1.57981 Y0.51392
G01 X-1.57766 Y0.51426
G01 X-1.57696 Y0.51437
G01 X-1.57696 Y0.51437
G04 P0 ( dwell for no time -- G64 should not smooth over this point )
G00 Z0.05000 ( retract )

G00 X-1.57696 Y0.51437 ( rapid move to begin. )
G01 F5.00000
( Mill infeed pass 1/1 )
G01 Z-0.00300
G04 P0 ( dwell for no time -- G64 should not smooth over this point )
G01 F10.00000
G01 X-1.57696 Y0.51437
G01 X-1.57696 Y0.51437
G01 X-1.57766 Y0.51426
G01 X-1.57981 Y0.51392
G01 X-1.58744 Y0.51229
G01 X-1.59232 Y0.51098
G01 X-1.59995 Y0.50850
G01 X-1.60570 Y0.50629
G01 X-1.60799 Y0.50527
G01 X-1.61194 Y0.50527
G01 X-1.61194 Y0.50527
G01 X-1.60997 Y0.50439
G01 X-1.60799 Y0.50527
G01 X-1.60570 Y0.50629
G01 X-1.60799 Y0.50527
G01 X-1.60997 Y0.50439
G01 X-1.60997 Y0.50307
G01 X-1.60997 Y0.49986
G01 X-1.60997 Y0.49324
G01 X-1.60997 Y0.48717
G01 X-1.60997 Y0.48443
G01 X-1.60997 Y0.48023
G01 X-1.60997 Y0.47220
G01 X-1.60997 Y0.46906
G01 X-1.60997 Y0.46139
G01 X-1.60997 Y0.45855
G01 X-1.60997 Y0.45088
G01 X-1.60997 Y0.44774
G01 X-1.60997 Y0.43971
G01 X-1.60997 Y0.43551
G01 X-1.60997 Y0.43277
G01 X-1.60997 Y0.42670
G01 X-1.60997 Y0.42008
G01 X-1.60997 Y0.41686
G01 X-1.60997 Y0.40981
G01 X-1.60997 Y0.40370
G01 X-1.60997 Y0.39764
G01 X-1.60997 Y0.39222
G01 X-1.60997 Y0.38466
G01 X-1.60997 Y0.38111
G01 X-1.60997 Y0.38111
G01 X-1.60997 Y0.37045
G01 X-1.60997 Y0.37045
G01 X-1.60997 Y0.36025
G04 P0 ( dwell for no time -- G64 should not smooth over this point )
G00 Z0.05000 ( retract )

G00 X-1.60997 Y0.36025 ( rapid move to begin. )
G01 F5.00000
( Mill infeed pass 1/1 )
G01 Z-0.00300
G04 P0 ( dwell for no time -- G64 should not smooth over this point )
G01 F10.00000
G01 X-1.60997 Y0.36025
G01 X-1.60997 Y0.36025
G04 P0 ( dwell for no time -- G64 should not smooth over this point )
G00 Z0.05000 ( retract )

G00 X-1.60997 Y0.36025 ( rapid move to begin. )
G01 F5.00000
( Mill infeed pass 1/1 )
G01 Z-0.00300
G04 P0 ( dwell for no time -- G64 should not smooth over this point )
G01 F10.00000
G01 X-1.60997 Y0.36025
G01 X-1.60997 Y0.35707
G01 X-1.60997 Y0.35706
G01 X-1.60997 Y0.35022
G01 X-1.60997 Y0.34026
G01 X-1.60997 Y0.33831
G01 X-1.60997 Y0.33830
G01 X-1.60997 Y0.33048
G01 X-1.60997 Y0.32074
G01 X-1.60997 Y0.31101
G01 X-1.60997 Y0.30144
G01 X-1.60997 Y0.31101
G01 X-1.60997 Y0.32074
G01 X-1.60997 Y0.33048
G01 X-1.60997 Y0.33830
G01 X-1.60997 Y0.33831
G01 X-1.60997 Y0.34026
G01 X-1.60997 Y0.35022
G01 X-1.60997 Y0.35706
G01 X-1.60997 Y0.35707
G01 X-1.60997 Y0.36025
G01 X-1.61113 Y0.35966
G01 X-1.61810 Y0.35656
G01 X-1.62545 Y0.35374
G01 X-1.63305 Y0.35170
G01 X-1.64052 Y0.35011
G01 X-1.64829 Y0.34888
G01 X-1.65615 Y0.34847
G01 X-1.66378 Y0.34847
G01 X-1.67164 Y0.34888
G01 X-1.67942 Y0.35011
G01 X-1.68688 Y0.35170
G01 X-1.69449 Y0.35374
G01 X-1.70183 Y0.35656
G01 X-1.70880 Y0.35966
G01 X-1.70997 Y0.36025
G01 X-1.71113 Y0.35966
G01 X-1.71810 Y0.35656
G01 X-1.72545 Y0.35374
G01 X-1.73305 Y0.35170
G01 X-1.74052 Y0.35011
G01 X-1.74829 Y0.34888
G01 X-1.75615 Y0.34847
G01 X-1.76378 Y0.34847
G01 X-1.77164 Y0.34888
G01 X-1.77942 Y0.35011
G01 X-1.78688 Y0.35170
G01 X-1.79449 Y0.35374
G01 X-1.80183 Y0.35656
G01 X-1.80880 Y0.35966
G01 X-1.80997 Y0.36025
G01 X-1.80997 Y0.37045
G01 X-1.80997 Y0.37045
G01 X-1.80997 Y0.38111
G01 X-1.80997 Y0.38111
G01 X-1.80997 Y0.38466
G01 X-1.80997 Y0.39222
G01 X-1.80997 Y0.39764
G01 X-1.80997 Y0.40370
G01 X-1.80997 Y0.40981
G01 X-1.80997 Y0.41686
G01 X-1.80997 Y0.42008
G01 X-1.80997 Y0.42670
G01 X-1.80997 Y0.43277
G01 X-1.80997 Y0.43551
G01 X-1.80997 Y0.43971
G01 X-1.80997 Y0.44774
G01 X-1.80997 Y0.45088
G01 X-1.80997 Y0.45855
G01 X-1.80997 Y0.46139
G01 X-1.80997 Y0.46906
G01 X-1.80997 Y0.47220
G01 X-1.80997 Y0.48023
G01 X-1.80997 Y0.48443
G01 X-1.80997 Y0.48717
G01 X-1.80997 Y0.49324
G01 X-1.80997 Y0.49986
G01 X-1.80997 Y0.50307
G01 X-1.80799 Y0.50527
G01 X-1.80570 Y0.50629
G01 X-1.79995 Y0.50850
G01 X-1.79232 Y0.51098
G01 X-1.78744 Y0.51229
G01 X-1.78745 Y0.51234
G01 X-1.78744 Y0.51229
G01 X-1.77981 Y0.51392
G01 X-1.77982 Y0.51396
G01 X-1.77981 Y0.51392
G01 X-1.77766 Y0.51426
G01 X-1.77765 Y0.51426
G01 X-1.77696 Y0.51437
G01 X-1.77696 Y0.51437
G01 X-1.77766 Y0.51426
G01 X-1.77981 Y0.51392
G01 X-1.78744 Y0.51229
G01 X-1.79232 Y0.51098
G01 X-1.79995 Y0.50850
G01 X-1.80570 Y0.50629
G01 X-1.80799 Y0.50527
G01 X-1.80799 Y0.50527
G01 X-1.80997 Y0.50527
G01 X-1.81203 Y0.50537
G01 X-1.80997 Y0.50439
G01 X-1.80799 Y0.50527
G01 X-1.80799 Y0.50527
G01 X-1.80799 Y0.50527
G01 X-1.80997 Y0.50439
G01 X-1.80997 Y0.50307
G01 X-1.80997 Y0.50439
G01 X-1.81203 Y0.50537
G01 X-1.81203 Y0.50537
G01 X-1.81285 Y0.50576
G01 X-1.81411 Y0.50639
G01 X-1.81755 Y0.50800
G01 X-1.81969 Y0.50892
G01 X-1.82250 Y0.51021
G01 X-1.82667 Y0.51229
G01 X-1.82695 Y0.51243
G01 X-1.83143 Y0.51462
G01 X-1.83145 Y0.51463
G01 X-1.83583 Y0.51677
G01 X-1.83828 Y0.51805
G01 X-1.84028 Y0.51917
G01 X-1.84316 Y0.52066
G01 X-1.84476 Y0.52143
G01 X-1.84724 Y0.52270
G01 X-1.85019 Y0.52430
G01 X-1.85338 Y0.52582
G01 X-1.85615 Y0.52714
G01 X-1.85615 Y0.52715
G01 X-1.85615 Y0.52714
G01 X-1.86378 Y0.53030
G01 X-1.86377 Y0.53033
G01 X-1.86378 Y0.53030
G01 X-1.86378 Y0.53032
G01 X-1.86378 Y0.53030
G01 X-1.85615 Y0.52714
G01 X-1.85338 Y0.52582
G01 X-1.85019 Y0.52430
G01 X-1.85301 Y0.52565
G01 X-1.85615 Y0.52715
G01 X-1.86378 Y0.53030
G01 X-1.87161 Y0.53306
G01 X-1.87160 Y0.53307
G01 X-1.87161 Y0.53306
G01 X-1.87399 Y0.53377
G01 X-1.87993 Y0.53553
G01 X-1.87993 Y0.53554
G01 X-1.87993 Y0.53553
G01 X-1.89056 Y0.53806
G01 X-1.89129 Y0.53819
G01 X-1.91152 Y0.55842
G01 X-1.91467 Y0.56190
G01 X-1.91778 Y0.56569
G01 X-1.91887 Y0.56716
G01 X-1.91850 Y0.56827
G01 X-1.91887 Y0.56716
G01 X-1.92108 Y0.56716
G01 X-1.92700 Y0.56537
G01 X-1.93635 Y0.56445
G01 X-1.98359 Y0.56445
G01 X-1.99293 Y0.56537
G01 X-1.99886 Y0.56716
G01 X-1.99885 Y0.56720
G01 X-1.99886 Y0.56716
G01 X-2.02108 Y0.56716
G01 X-2.02108 Y0.56720
G01 X-2.02108 Y0.56716
G01 X-2.02700 Y0.56537
G01 X-2.03635 Y0.56445
G01 X-2.08359 Y0.56445
G01 X-2.09293 Y0.56537
G01 X-2.09886 Y0.56716
G01 X-2.09885 Y0.56720
G01 X-2.09886 Y0.56716
G01 X-2.12108 Y0.56716
G01 X-2.12108 Y0.56720
G01 X-2.12108 Y0.56716
G01 X-2.12700 Y0.56537
G01 X-2.13635 Y0.56445
G01 X-2.18359 Y0.56445
G01 X-2.19293 Y0.56537
G01 X-2.19886 Y0.56716
G01 X-2.19885 Y0.56720
G01 X-2.19886 Y0.56716
G01 X-2.22108 Y0.56716
G01 X-2.22108 Y0.56720
G01 X-2.22108 Y0.56716
G01 X-2.22700 Y0.56537
G01 X-2.23635 Y0.56445
G01 X-2.28359 Y0.56445
G01 X-2.29293 Y0.56537
G01 X-2.29886 Y0.56716
G01 X-2.29885 Y0.56720
G01 X-2.29886 Y0.56716
G01 X-2.32108 Y0.56716
G01 X-2.32108 Y0.56720
G01 X-2.32108 Y0.56716
G01 X-2.32700 Y0.56537
G01 X-2.33635 Y0.56445
G01 X-2.38359 Y0.56445
G01 X-2.39293 Y0.56537
G01 X-2.39886 Y0.56716
G01 X-2.39885 Y0.56720
G01 X-2.39886 Y0.56716
G01 X-2.42108 Y0.56716
G01 X-2.42108 Y0.56720
G01 X-2.42108 Y0.56716
G01 X-2.42700 Y0.56537
G01 X-2.43635 Y0.56445
G01 X-2.48359 Y0.56445
G01 X-2.49293 Y0.56537
G01 X-2.49886 Y0.56716
G01 X-2.49885 Y0.56720
G01 X-2.49886 Y0.56716
G01 X-2.52108 Y0.56716
G01 X-2.52108 Y0.56720
G01 X-2.52108 Y0.56716
G01 X-2.52700 Y0.56537
G01 X-2.53635 Y0.56445
G01 X-2.58359 Y0.56445
G01 X-2.59293 Y0.56537
G01 X-2.59886 Y0.56716
G01 X-2.59885 Y0.56720
G01 X-2.59886 Y0.56716
G01 X-2.61930 Y0.56716
G01 X-2.61930 Y0.56720
G01 X-2.61930 Y0.56716
G01 X-2.62700 Y0.56483
G01 X-2.63635 Y0.56390
G01 X-2.68359 Y0.56390
G01 X-2.69293 Y0.56483
G01 X-2.69852 Y0.56652
G01 X-2.69852 Y0.56656
G01 X-2.69852 Y0.56652
G01 X-2.78707 Y0.56629
G01 X-2.78972 Y0.56894
G01 X-2.78707 Y0.56629
G01 X-2.78707 Y0.53963
G01 X-2.78967 Y0.53606
G01 X-2.79463 Y0.52843
G01 X-2.79464 Y0.52844
G01 X-2.79463 Y0.52843
G01 X-2.79605 Y0.52598
G01 X-2.79617 Y0.52577
G01 X-2.79617 Y0.52577
G01 X-2.79923 Y0.52049
G01 X-2.79925 Y0.52051
G01 X-2.79926 Y0.52051
G01 X-2.79925 Y0.52051
G01 X-2.79923 Y0.52049
G01 X-2.80311 Y0.51286
G01 X-2.80313 Y0.51287
G01 X-2.80311 Y0.51286
G01 X-2.80517 Y0.50826
G01 X-2.80527 Y0.50804
G01 X-2.80527 Y0.50804
G01 X-2.80595 Y0.50651
G01 X-2.80888 Y0.49888
G01 X-2.80997 Y0.49577
G01 X-2.81012 Y0.49580
G01 X-2.80997 Y0.49577
G01 X-2.81018 Y0.49582
G01 X-2.80997 Y0.49577
G01 X-2.81013 Y0.49581
G01 X-2.80997 Y0.49577
G01 X-2.81016 Y0.49581
G01 X-2.80997 Y0.49577
G01 X-2.80997 Y0.49324
G01 X-2.80997 Y0.48717
G01 X-2.80997 Y0.48443
G01 X-2.80997 Y0.48023
G01 X-2.80997 Y0.47220
G01 X-2.80997 Y0.46906
G01 X-2.80997 Y0.46139
G01 X-2.80997 Y0.45855
G01 X-2.80997 Y0.45088
G01 X-2.80997 Y0.44774
G01 X-2.80997 Y0.43971
G01 X-2.80997 Y0.43551
G01 X-2.80997 Y0.43277
G01 X-2.80997 Y0.42670
G01 X-2.80997 Y0.42008
G01 X-2.80997 Y0.41686
G01 X-2.80997 Y0.40981
G01 X-2.80997 Y0.40370
G01 X-2.80997 Y0.39764
G01 X-2.80997 Y0.39222
G01 X-2.80997 Y0.38466
G01 X-2.80997 Y0.38111
G01 X-2.80997 Y0.38111
G01 X-2.80997 Y0.37045
G01 X-2.80997 Y0.36025
G01 X-2.80997 Y0.37045
G01 X-2.80997 Y0.38111
G01 X-2.80997 Y0.38111
G01 X-2.80997 Y0.38466
G01 X-2.80997 Y0.39222
G01 X-2.80997 Y0.39764
G01 X-2.80997 Y0.40370
G01 X-2.80997 Y0.40981
G01 X-2.80997 Y0.41686
G01 X-2.80997 Y0.42008
G01 X-2.80997 Y0.42670
G01 X-2.80997 Y0.43277
G01 X-2.80997 Y0.43551
G01 X-2.80997 Y0.43971
G01 X-2.80997 Y0.44774
G01 X-2.80997 Y0.45088
G01 X-2.80997 Y0.45855
G01 X-2.80997 Y0.46139
G01 X-2.80997 Y0.46906
G01 X-2.80997 Y0.47220
G01 X-2.80997 Y0.48023
G01 X-2.80997 Y0.48443
G01 X-2.80997 Y0.48717
G01 X-2.80997 Y0.49324
G01 X-2.80997 Y0.49577
G01 X-2.80888 Y0.49888
G01 X-2.80595 Y0.50651
G01 X-2.80527 Y0.50804
G01 X-2.80517 Y0.50826
G01 X-2.80311 Y0.51286
G01 X-2.79923 Y0.52049
G01 X-2.79617 Y0.52577
G01 X-2.79617 Y0.52577
G01 X-2.79605 Y0.52598
G01 X-2.79463 Y0.52843
G01 X-2.78967 Y0.53606
G01 X-2.78707 Y0.53963
G01 X-2.78685 Y0.53993
G01 X-2.78222 Y0.54628
G01 X-2.77797 Y0.55153
G01 X-2.77604 Y0.55391
G01 X-2.77542 Y0.55467
G01 X-2.77592 Y0.55566
G01 X-2.77542 Y0.55467
G01 X-2.76378 Y0.55526
G01 X-2.75615 Y0.55527
G01 X-2.74374 Y0.55463
G01 X-2.74374 Y0.55466
G01 X-2.74374 Y0.55463
G01 X-2.73611 Y0.55384
G01 X-2.72325 Y0.55181
G01 X-2.71561 Y0.55020
G01 X-2.70997 Y0.54888
G01 X-2.70433 Y0.55022
G01 X-2.70162 Y0.55080
G01 X-2.69643 Y0.55124
G01 X-2.68359 Y0.55259
G01 X-2.68356 Y0.55260
G01 X-2.67593 Y0.55340
G01 X-2.66378 Y0.55404
G01 X-2.66378 Y0.55406
G01 X-2.66378 Y0.55404
G01 X-2.65615 Y0.55404
G01 X-2.64401 Y0.55340
G01 X-2.63637 Y0.55260
G01 X-2.63635 Y0.55259
G01 X-2.62350 Y0.55124
G01 X-2.61612 Y0.55067
G01 X-2.61546 Y0.55053
G01 X-2.60997 Y0.54924
G01 X-2.60447 Y0.55053
G01 X-2.60204 Y0.55105
G01 X-2.59655 Y0.55151
G01 X-2.58362 Y0.55286
G01 X-2.58359 Y0.55287
G01 X-2.57599 Y0.55367
G01 X-2.57599 Y0.55368
G01 X-2.57599 Y0.55367
G01 X-2.56378 Y0.55431
G01 X-2.56378 Y0.55433
G01 X-2.56378 Y0.55431
G01 X-2.55615 Y0.55431
G01 X-2.55615 Y0.55433
G01 X-2.55615 Y0.55431
G01 X-2.54395 Y0.55367
G01 X-2.54395 Y0.55368
G01 X-2.54395 Y0.55367
G01 X-2.53634 Y0.55287
G01 X-2.53632 Y0.55286
G01 X-2.52338 Y0.55151
G01 X-2.51789 Y0.55105
G01 X-2.51546 Y0.55053
G01 X-2.50997 Y0.54924
G01 X-2.50447 Y0.55053
G01 X-2.50204 Y0.55105
G01 X-2.49655 Y0.55151
G01 X-2.48362 Y0.55286
G01 X-2.48359 Y0.55287
G01 X-2.47599 Y0.55367
G01 X-2.47599 Y0.55368
G01 X-2.47599 Y0.55367
G01 X-2.46378 Y0.55431
G01 X-2.46378 Y0.55433
G01 X-2.46378 Y0.55431
G01 X-2.45615 Y0.55431
G01 X-2.45615 Y0.55433
G01 X-2.45615 Y0.55431
G01 X-2.44395 Y0.55367
G01 X-2.44395 Y0.55368
G01 X-2.44395 Y0.55367
G01 X-2.43635 Y0.55287
G01 X-2.43632 Y0.55286
G01 X-2.42338 Y0.55151
G01 X-2.41789 Y0.55105
G01 X-2.41546 Y0.55053
G01 X-2.40997 Y0.54924
G01 X-2.40447 Y0.55053
G01 X-2.40204 Y0.55105
G01 X-2.39655 Y0.55151
G01 X-2.38362 Y0.55286
G01 X-2.38359 Y0.55287
G01 X-2.37599 Y0.55367
G01 X-2.37599 Y0.55368
G01 X-2.37599 Y0.55367
G01 X-2.36378 Y0.55431
G01 X-2.36378 Y0.55433
G01 X-2.36378 Y0.55431
G01 X-2.35615 Y0.55431
G01 X-2.35615 Y0.55433
G01 X-2.35615 Y0.55431
G01 X-2.34395 Y0.55367
G01 X-2.34395 Y0.55368
G01 X-2.34395 Y0.55367
G01 X-2.33635 Y0.55287
G01 X-2.33632 Y0.55286
G01 X-2.32338 Y0.55151
G01 X-2.31789 Y0.55105
G01 X-2.31546 Y0.55053
G01 X-2.30997 Y0.54924
G01 X-2.30447 Y0.55053
G01 X-2.30204 Y0.55105
G01 X-2.29655 Y0.55151
G01 X-2.28362 Y0.55286
G01 X-2.28359 Y0.55287
G01 X-2.27599 Y0.55367
G01 X-2.27599 Y0.55368
G01 X-2.27599 Y0.55367
G01 X-2.26378 Y0.55431
G01 X-2.25615 Y0.55431
G01 X-2.25615 Y0.55433
G01 X-2.25615 Y0.55431
G01 X-2.24395 Y0.55367
G01 X-2.24395 Y0.55369
G01 X-2.24395 Y0.55367
G01 X-2.23634 Y0.55287
G01 X-2.23632 Y0.55286
G01 X-2.22338 Y0.55151
G01 X-2.21789 Y0.55105
G01 X-2.21546 Y0.55053
G01 X-2.20997 Y0.54924
G01 X-2.20447 Y0.55053
G01 X-2.20204 Y0.55105
G01 X-2.19655 Y0.55151
G01 X-2.18362 Y0.55286
G01 X-2.18359 Y0.55287
G01 X-2.17599 Y0.55367
G01 X-2.17599 Y0.55368
G01 X-2.17599 Y0.55367
G01 X-2.16378 Y0.55431
G01 X-2.16378 Y0.55433
G01 X-2.16378 Y0.55431
G01 X-2.15615 Y0.55431
G01 X-2.15615 Y0.55433
G01 X-2.15615 Y0.55431
G01 X-2.14395 Y0.55367
G01 X-2.14395 Y0.55368
G01 X-2.14395 Y0.55367
G01 X-2.13635 Y0.55287
G01 X-2.13632 Y0.55286
G01 X-2.12338 Y0.55151
G01 X-2.11789 Y0.55105
G01 X-2.11546 Y0.55053
G01 X-2.10997 Y0.54924
G01 X-2.10447 Y0.55053
G01 X-2.10204 Y0.55105
G01 X-2.09655 Y0.55151
G01 X-2.08362 Y0.55286
G01 X-2.08359 Y0.55287
G01 X-2.07599 Y0.55367
G01 X-2.07599 Y0.55368
G01 X-2.07599 Y0.55367
G01 X-2.06378 Y0.55431
G01 X-2.06378 Y0.55433
G01 X-2.06378 Y0.55431
G01 X-2.05615 Y0.55431
G01 X-2.05615 Y0.55433
G01 X-2.05615 Y0.55431
G01 X-2.04395 Y0.55367
G01 X-2.04395 Y0.55368
G01 X-2.04395 Y0.55367
G01 X-2.03634 Y0.55287
G01 X-2.03632 Y0.55286
G01 X-2.02338 Y0.55151
G01 X-2.01789 Y0.55105
G01 X-2.01546 Y0.55053
G01 X-2.00997 Y0.54924
G01 X-2.00447 Y0.55053
G01 X-2.00204 Y0.55105
G01 X-1.99655 Y0.55151
G01 X-1.98362 Y0.55286
G01 X-1.98359 Y0.55287
G01 X-1.97599 Y0.55367
G01 X-1.97599 Y0.55368
G01 X-1.97599 Y0.55367
G01 X-1.96378 Y0.55431
G01 X-1.96378 Y0.55434
G01 X-1.96378 Y0.55431
G01 X-1.95615 Y0.55431
G01 X-1.95615 Y0.55432
G01 X-1.95615 Y0.55431
G01 X-1.94395 Y0.55367
G01 X-1.93635 Y0.55287
G01 X-1.93632 Y0.55286
G01 X-1.92432 Y0.55161
G01 X-1.92420 Y0.55195
G01 X-1.92432 Y0.55161
G01 X-1.92420 Y0.55193
G01 X-1.92432 Y0.55161
G01 X-1.92358 Y0.55107
G01 X-1.92082 Y0.54912
G01 X-1.91720 Y0.54663
G01 X-1.90997 Y0.54125
G01 X-1.90997 Y0.53883
G01 X-1.90997 Y0.54125
G01 X-1.90997 Y0.53883
G01 X-1.90997 Y0.53528
G01 X-1.90997 Y0.52772
G01 X-1.91356 Y0.53033
G01 X-1.91777 Y0.53306
G01 X-1.92224 Y0.53534
G01 X-1.92921 Y0.53844
G01 X-1.93389 Y0.54024
G01 X-1.93873 Y0.54154
G01 X-1.94619 Y0.54312
G01 X-1.95115 Y0.54391
G01 X-1.95615 Y0.54417
G01 X-1.96378 Y0.54417
G01 X-1.96879 Y0.54391
G01 X-1.97374 Y0.54312
G01 X-1.98121 Y0.54154
G01 X-1.98605 Y0.54024
G01 X-1.99073 Y0.53844
G01 X-1.99770 Y0.53534
G01 X-2.00217 Y0.53306
G01 X-2.00637 Y0.53033
G01 X-2.00997 Y0.52772
G01 X-2.00997 Y0.53528
G01 X-2.00997 Y0.53883
G01 X-2.00997 Y0.54924
G01 X-2.00447 Y0.55053
G01 X-2.00204 Y0.55105
G01 X-1.99655 Y0.55151
G01 X-1.98362 Y0.55286
G01 X-1.98359 Y0.55287
G01 X-1.97599 Y0.55367
G01 X-1.96378 Y0.55431
G01 X-1.95615 Y0.55431
G01 X-1.94395 Y0.55367
G01 X-1.93635 Y0.55287
G01 X-1.93632 Y0.55286
G01 X-1.92432 Y0.55161
G01 X-1.92358 Y0.55107
G01 X-1.92082 Y0.54912
G01 X-1.91720 Y0.54663
G01 X-1.90997 Y0.54125
G01 X-1.90693 Y0.54080
G01 X-1.89967 Y0.53975
G01 X-1.89129 Y0.53819
G01 X-1.89056 Y0.53806
G01 X-1.87993 Y0.53553
G01 X-1.87399 Y0.53377
G01 X-1.87161 Y0.53306
G01 X-1.86378 Y0.53030
G01 X-1.85615 Y0.52714
G01 X-1.85338 Y0.52582
G01 X-1.85019 Y0.52430
G01 X-1.84724 Y0.52270
G01 X-1.84476 Y0.52143
G01 X-1.84316 Y0.52066
G01 X-1.84028 Y0.51917
G01 X-1.83828 Y0.51805
G01 X-1.83583 Y0.51677
G01 X-1.83145 Y0.51463
G01 X-1.83143 Y0.51462
G01 X-1.82695 Y0.51243
G01 X-1.82667 Y0.51229
G01 X-1.82250 Y0.51021
G01 X-1.81969 Y0.50892
G01 X-1.81755 Y0.50800
G01 X-1.81411 Y0.50639
G01 X-1.81285 Y0.50576
G01 X-1.81203 Y0.50537
G01 X-1.81203 Y0.50537
G01 X-1.80997 Y0.50307
G01 X-1.80997 Y0.49986
G01 X-1.80997 Y0.49324
G01 X-1.80997 Y0.48717
G01 X-1.80997 Y0.48443
G01 X-1.80997 Y0.48023
G01 X-1.80997 Y0.47220
G01 X-1.80997 Y0.46906
G01 X-1.80997 Y0.46139
G01 X-1.80997 Y0.45855
G01 X-1.80997 Y0.45088
G01 X-1.80997 Y0.44774
G01 X-1.80997 Y0.43971
G01 X-1.80997 Y0.43551
G01 X-1.80997 Y0.43277
G01 X-1.80997 Y0.42670
G01 X-1.80997 Y0.42008
G01 X-1.80997 Y0.41686
G01 X-1.80997 Y0.40981
G01 X-1.80997 Y0.40370
G01 X-1.80997 Y0.39764
G01 X-1.80997 Y0.39222
G01 X-1.80997 Y0.38466
G01 X-1.80997 Y0.38111
G01 X-1.80997 Y0.38111
G01 X-1.80997 Y0.37045
G01 X-1.80997 Y0.37045
G01 X-1.80997 Y0.36025
G01 X-1.80997 Y0.37045
G01 X-1.80997 Y0.37045
G01 X-1.80997 Y0.38111
G01 X-1.80997 Y0.38111
G01 X-1.80997 Y0.38466
G01 X-1.80997 Y0.39222
G01 X-1.80997 Y0.39764
G01 X-1.80997 Y0.40370
G01 X-1.80997 Y0.40981
G01 X-1.80997 Y0.41686
G01 X-1.80997 Y0.42008
G01 X-1.80997 Y0.42670
G01 X-1.80997 Y0.43277
G01 X-1.80997 Y0.43551
G01 X-1.80997 Y0.43971
G01 X-1.80997 Y0.44774
G01 X-1.80997 Y0.45088
G01 X-1.80997 Y0.45855
G01 X-1.80997 Y0.46139
G01 X-1.80997 Y0.46906
G01 X-1.80997 Y0.47220
G01 X-1.80997 Y0.48023
G01 X-1.80997 Y0.48443
G01 X-1.80997 Y0.48717
G01 X-1.80734 Y0.49172
G01 X-1.80616 Y0.49353
G01 X-1.80481 Y0.49521
G01 X-1.79970 Y0.50088
G01 X-1.79818 Y0.50240
G01 X-1.79650 Y0.50376
G01 X-1.79033 Y0.50824
G01 X-1.78852 Y0.50942
G01 X-1.78660 Y0.51040
G01 X-1.77963 Y0.51350
G01 X-1.77766 Y0.51426
G01 X-1.77696 Y0.51437
G01 X-1.77696 Y0.51437
G01 X-1.77548 Y0.51460
G01 X-1.76785 Y0.51541
G01 X-1.76378 Y0.51562
G01 X-1.76378 Y0.51566
G01 X-1.76378 Y0.51567
G01 X-1.76378 Y0.51566
G01 X-1.76378 Y0.51562
G01 X-1.75615 Y0.51562
G01 X-1.75208 Y0.51541
G01 X-1.74445 Y0.51460
G01 X-1.74228 Y0.51426
G01 X-1.74012 Y0.51392
G01 X-1.74011 Y0.51398
G01 X-1.74012 Y0.51392
G01 X-1.73249 Y0.51229
G01 X-1.72762 Y0.51098
G01 X-1.71999 Y0.50850
G01 X-1.71423 Y0.50629
G01 X-1.71194 Y0.50527
G01 X-1.71194 Y0.50527
G01 X-1.70997 Y0.50439
G01 X-1.70799 Y0.50527
G01 X-1.70997 Y0.50307
G01 X-1.70997 Y0.50439
G01 X-1.70799 Y0.50527
G01 X-1.70570 Y0.50629
G01 X-1.69995 Y0.50850
G01 X-1.69232 Y0.51098
G01 X-1.68744 Y0.51229
G01 X-1.68745 Y0.51233
G01 X-1.68744 Y0.51229
G01 X-1.67981 Y0.51392
G01 X-1.67766 Y0.51426
G01 X-1.67696 Y0.51437
G01 X-1.67766 Y0.51426
G01 X-1.67981 Y0.51392
G01 X-1.68744 Y0.51229
G01 X-1.69232 Y0.51098
G01 X-1.69995 Y0.50850
G01 X-1.70570 Y0.50629
G01 X-1.70799 Y0.50527
G01 X-1.71194 Y0.50527
G01 X-1.71194 Y0.50527
G01 X-1.70997 Y0.50439
G01 X-1.70799 Y0.50527
G01 X-1.70570 Y0.50629
G01 X-1.70799 Y0.50527
G01 X-1.70997 Y0.50439
G01 X-1.70997 Y0.50307
G01 X-1.70997 Y0.50439
G01 X-1.70799 Y0.50527
G01 X-1.70799 Y0.50527
G01 X-1.71194 Y0.50527
G01 X-1.71194 Y0.50527
G01 X-1.70997 Y0.50307
G01 X-1.70997 Y0.49986
G01 X-1.70997 Y0.49324
G01 X-1.70997 Y0.48717
G01 X-1.70997 Y0.48443
G01 X-1.70997 Y0.48023
G01 X-1.70997 Y0.47220
G01 X-1.70997 Y0.46906
G01 X-1.70997 Y0.46139
G01 X-1.70997 Y0.45855
G01 X-1.70997 Y0.45088
G01 X-1.70997 Y0.44774
G01 X-1.70997 Y0.43971
G01 X-1.70997 Y0.43551
G01 X-1.70997 Y0.43277
G01 X-1.70997 Y0.42670
G01 X-1.70997 Y0.42008
G01 X-1.70997 Y0.41686
G01 X-1.70997 Y0.40981
G01 X-1.70997 Y0.40370
G01 X-1.70997 Y0.39764
G01 X-1.70997 Y0.39222
G01 X-1.70997 Y0.38466
G01 X-1.70997 Y0.38111
G01 X-1.70997 Y0.37045
G01 X-1.70997 Y0.36025
G01 X-1.70997 Y0.35707
G01 X-1.70997 Y0.35706
G01 X-1.70997 Y0.35022
G01 X-1.70997 Y0.34026
G01 X-1.70997 Y0.33831
G01 X-1.70997 Y0.33830
G01 X-1.70997 Y0.33048
G01 X-1.70997 Y0.32074
G01 X-1.70997 Y0.31101
G01 X-1.70997 Y0.30144
G01 X-1.70997 Y0.31101
G01 X-1.70997 Y0.32074
G01 X-1.70997 Y0.33048
G01 X-1.70997 Y0.33830
G01 X-1.70997 Y0.33831
G01 X-1.70997 Y0.34026
G01 X-1.70997 Y0.35022
G01 X-1.70997 Y0.35706
G01 X-1.70997 Y0.35707
G01 X-1.70997 Y0.36025
G01 X-1.70997 Y0.37045
G01 X-1.70997 Y0.38111
G01 X-1.70997 Y0.38466
G01 X-1.70997 Y0.39222
G01 X-1.70997 Y0.39764
G01 X-1.70997 Y0.40370
G01 X-1.70997 Y0.40981
G01 X-1.70997 Y0.41686
G01 X-1.70997 Y0.42008
G01 X-1.70997 Y0.42670
G01 X-1.70997 Y0.43277
G01 X-1.70997 Y0.43551
G01 X-1.70997 Y0.43971
G01 X-1.70997 Y0.44774
G01 X-1.70997 Y0.45088
G01 X-1.70997 Y0.45855
G01 X-1.70997 Y0.46139
G01 X-1.70997 Y0.46906
G01 X-1.70997 Y0.47220
G01 X-1.70997 Y0.48023
G01 X-1.70997 Y0.48443
G01 X-1.70997 Y0.48717
G01 X-1.70997 Y0.49324
G01 X-1.70997 Y0.49986
G01 X-1.70997 Y0.50307
G01 X-1.70997 Y0.50439
G01 X-1.71194 Y0.50527
G01 X-1.71194 Y0.50527
G01 X-1.71423 Y0.50629
G01 X-1.71999 Y0.50850
G01 X-1.72762 Y0.51098
G01 X-1.73249 Y0.51229
G01 X-1.74012 Y0.51392
G01 X-1.74228 Y0.51426
G01 X-1.74445 Y0.51460
G01 X-1.75208 Y0.51541
G01 X-1.75615 Y0.51562
G01 X-1.76378 Y0.51562
G01 X-1.76785 Y0.51541
G01 X-1.77548 Y0.51460
G01 X-1.77696 Y0.51437
G01 X-1.77696 Y0.51437
G01 X-1.77696 Y0.51437
G01 X-1.80997 Y0.51437
G01 X-1.81199 Y0.51447
G01 X-1.81686 Y0.51495
G01 X-1.82083 Y0.51574
G01 X-1.82551 Y0.51716
G01 X-1.82742 Y0.51784
G01 X-1.82925 Y0.51870
G01 X-1.83357 Y0.52101
G01 X-1.83530 Y0.52205
G01 X-1.83693 Y0.52326
G01 X-1.84071 Y0.52637
G01 X-1.84221 Y0.52772
G01 X-1.89221 Y0.57772
G01 X-1.89357 Y0.57922
G01 X-1.89668 Y0.58301
G01 X-1.89788 Y0.58463
G01 X-1.89892 Y0.58637
G01 X-1.90123 Y0.59069
G01 X-1.90210 Y0.59252
G01 X-1.90278 Y0.59442
G01 X-1.90279 Y0.59446
G01 X-1.90195 Y0.59582
G01 X-1.90279 Y0.59446
G01 X-1.92631 Y0.59446
G01 X-1.92632 Y0.59454
G01 X-1.92631 Y0.59446
G01 X-1.92846 Y0.59331
G01 X-1.93233 Y0.59214
G01 X-1.93635 Y0.59175
G01 X-1.98359 Y0.59175
G01 X-1.98761 Y0.59214
G01 X-1.99147 Y0.59331
G01 X-1.99362 Y0.59446
G01 X-1.99361 Y0.59454
G01 X-1.99362 Y0.59446
G01 X-2.02631 Y0.59446
G01 X-2.02632 Y0.59454
G01 X-2.02631 Y0.59446
G01 X-2.02846 Y0.59331
G01 X-2.03233 Y0.59214
G01 X-2.03635 Y0.59175
G01 X-2.08359 Y0.59175
G01 X-2.08761 Y0.59214
G01 X-2.09147 Y0.59331
G01 X-2.09362 Y0.59446
G01 X-2.09361 Y0.59454
G01 X-2.09362 Y0.59446
G01 X-2.12631 Y0.59446
G01 X-2.12632 Y0.59454
G01 X-2.12631 Y0.59446
G01 X-2.12846 Y0.59331
G01 X-2.13233 Y0.59214
G01 X-2.13635 Y0.59175
G01 X-2.18359 Y0.59175
G01 X-2.18761 Y0.59214
G01 X-2.19147 Y0.59331
G01 X-2.19362 Y0.59446
G01 X-2.19361 Y0.59454
G01 X-2.19362 Y0.59446
G01 X-2.22631 Y0.59446
G01 X-2.22632 Y0.59454
G01 X-2.22631 Y0.59446
G01 X-2.22846 Y0.59331
G01 X-2.23233 Y0.59214
G01 X-2.23635 Y0.59175
G01 X-2.28359 Y0.59175
G01 X-2.28761 Y0.59214
G01 X-2.29147 Y0.59331
G01 X-2.29362 Y0.59446
G01 X-2.29361 Y0.59454
G01 X-2.29362 Y0.59446
G01 X-2.32631 Y0.59446
G01 X-2.32632 Y0.59454
G01 X-2.32631 Y0.59446
G01 X-2.32846 Y0.59331
G01 X-2.33233 Y0.59214
G01 X-2.33635 Y0.59175
G01 X-2.38359 Y0.59175
G01 X-2.38761 Y0.59214
G01 X-2.39147 Y0.59331
G01 X-2.39362 Y0.59446
G01 X-2.39361 Y0.59454
G01 X-2.39362 Y0.59446
G01 X-2.42631 Y0.59446
G01 X-2.42632 Y0.59454
G01 X-2.42631 Y0.59446
G01 X-2.42846 Y0.59331
G01 X-2.43233 Y0.59214
G01 X-2.43635 Y0.59175
G01 X-2.48359 Y0.59175
G01 X-2.48761 Y0.59214
G01 X-2.49147 Y0.59331
G01 X-2.49362 Y0.59446
G01 X-2.49361 Y0.59454
G01 X-2.49362 Y0.59446
G01 X-2.52631 Y0.59446
G01 X-2.52632 Y0.59454
G01 X-2.52631 Y0.59446
G01 X-2.52846 Y0.59331
G01 X-2.53233 Y0.59214
G01 X-2.53635 Y0.59175
G01 X-2.58359 Y0.59175
G01 X-2.58761 Y0.59214
G01 X-2.59147 Y0.59331
G01 X-2.59362 Y0.59446
G01 X-2.59361 Y0.59454
G01 X-2.59362 Y0.59446
G01 X-2.62530 Y0.59446
G01 X-2.62532 Y0.59456
G01 X-2.62530 Y0.59446
G01 X-2.62846 Y0.59277
G01 X-2.63233 Y0.59160
G01 X-2.63635 Y0.59120
G01 X-2.68359 Y0.59120
G01 X-2.68761 Y0.59160
G01 X-2.69147 Y0.59277
G01 X-2.69346 Y0.59383
G01 X-2.69345 Y0.59391
G01 X-2.69346 Y0.59383
G01 X-2.81437 Y0.59351
G01 X-2.81702 Y0.59616
G01 X-2.81437 Y0.59351
G01 X-2.81437 Y0.49427
G01 X-2.81472 Y0.49417
G01 X-2.81437 Y0.49427
G01 X-2.81377 Y0.49353
G01 X-2.81260 Y0.49172
G01 X-2.80997 Y0.48717
G01 X-2.80997 Y0.48443
G01 X-2.80997 Y0.48023
G01 X-2.80997 Y0.47220
G01 X-2.80997 Y0.46906
G01 X-2.80997 Y0.46139
G01 X-2.80997 Y0.45855
G01 X-2.80997 Y0.45088
G01 X-2.80997 Y0.44774
G01 X-2.80997 Y0.43971
G01 X-2.80997 Y0.43551
G01 X-2.80997 Y0.43277
G01 X-2.80734 Y0.42821
G01 X-2.80616 Y0.42641
G01 X-2.80481 Y0.42473
G01 X-2.79970 Y0.41906
G01 X-2.79818 Y0.41754
G01 X-2.79650 Y0.41618
G01 X-2.79033 Y0.41169
G01 X-2.78852 Y0.41052
G01 X-2.78660 Y0.40954
G01 X-2.77963 Y0.40644
G01 X-2.77761 Y0.40566
G01 X-2.77553 Y0.40511
G01 X-2.76807 Y0.40352
G01 X-2.76594 Y0.40318
G01 X-2.76378 Y0.40307
G01 X-2.75615 Y0.40307
G01 X-2.75400 Y0.40318
G01 X-2.75187 Y0.40352
G01 X-2.74441 Y0.40511
G01 X-2.74232 Y0.40566
G01 X-2.74031 Y0.40644
G01 X-2.73334 Y0.40954
G01 X-2.73142 Y0.41052
G01 X-2.72961 Y0.41169
G01 X-2.72344 Y0.41618
G01 X-2.72176 Y0.41754
G01 X-2.72024 Y0.41906
G01 X-2.71513 Y0.42473
G01 X-2.71377 Y0.42641
G01 X-2.71260 Y0.42821
G01 X-2.70997 Y0.43277
G01 X-2.70997 Y0.43551
G01 X-2.70997 Y0.43971
G01 X-2.70997 Y0.44774
G01 X-2.70997 Y0.45088
G01 X-2.70997 Y0.45855
G01 X-2.70997 Y0.46139
G01 X-2.70997 Y0.46906
G01 X-2.70997 Y0.47220
G01 X-2.70997 Y0.48023
G01 X-2.70997 Y0.48443
G01 X-2.70997 Y0.48717
G01 X-2.70997 Y0.49324
G01 X-2.70997 Y0.49986
G01 X-2.70997 Y0.50307
G01 X-2.70997 Y0.51013
G01 X-2.70997 Y0.51624
G01 X-2.70997 Y0.52230
G01 X-2.70997 Y0.52772
G01 X-2.70997 Y0.53528
G01 X-2.70997 Y0.53883
G01 X-2.70997 Y0.54888
G01 X-2.70433 Y0.55022
G01 X-2.70162 Y0.55080
G01 X-2.69643 Y0.55124
G01 X-2.68359 Y0.55259
G01 X-2.68356 Y0.55260
G01 X-2.67593 Y0.55340
G01 X-2.66378 Y0.55404
G01 X-2.65615 Y0.55404
G01 X-2.64401 Y0.55340
G01 X-2.63637 Y0.55260
G01 X-2.63635 Y0.55259
G01 X-2.62350 Y0.55124
G01 X-2.61612 Y0.55067
G01 X-2.61546 Y0.55053
G01 X-2.60997 Y0.54924
G01 X-2.60997 Y0.53883
G01 X-2.60997 Y0.53528
G01 X-2.60997 Y0.52772
G01 X-2.60997 Y0.52230
G01 X-2.60997 Y0.51624
G01 X-2.60997 Y0.51013
G01 X-2.60997 Y0.50307
G01 X-2.60997 Y0.49986
G01 X-2.60997 Y0.49324
G01 X-2.60997 Y0.48717
G01 X-2.60997 Y0.48443
G01 X-2.60997 Y0.48023
G01 X-2.60997 Y0.47220
G01 X-2.60997 Y0.46906
G01 X-2.60997 Y0.46139
G01 X-2.60997 Y0.45855
G01 X-2.60997 Y0.45088
G01 X-2.60997 Y0.44774
G01 X-2.60997 Y0.43971
G01 X-2.60997 Y0.43551
G01 X-2.60997 Y0.43277
G01 X-2.60997 Y0.42670
G01 X-2.60997 Y0.42008
G01 X-2.60997 Y0.41686
G01 X-2.60997 Y0.40981
G01 X-2.60997 Y0.40370
G01 X-2.60997 Y0.39764
G01 X-2.60997 Y0.39222
G01 X-2.60997 Y0.38466
G01 X-2.60997 Y0.38111
G01 X-2.60997 Y0.38111
G01 X-2.60997 Y0.37045
G01 X-2.60997 Y0.37045
G01 X-2.60997 Y0.36025
G01 X-2.60997 Y0.37045
G01 X-2.60997 Y0.37045
G01 X-2.60997 Y0.38111
G01 X-2.60997 Y0.38111
G01 X-2.60997 Y0.38466
G01 X-2.60997 Y0.39222
G01 X-2.60997 Y0.39764
G01 X-2.60997 Y0.40370
G01 X-2.60997 Y0.40981
G01 X-2.60997 Y0.41686
G01 X-2.60997 Y0.42008
G01 X-2.60997 Y0.42670
G01 X-2.60997 Y0.43277
G01 X-2.60997 Y0.43551
G01 X-2.60997 Y0.43971
G01 X-2.60997 Y0.44774
G01 X-2.60997 Y0.45088
G01 X-2.60997 Y0.45855
G01 X-2.60997 Y0.46139
G01 X-2.60997 Y0.46906
G01 X-2.60997 Y0.47220
G01 X-2.60997 Y0.48023
G01 X-2.60997 Y0.48443
G01 X-2.60997 Y0.48717
G01 X-2.60997 Y0.49324
G01 X-2.60997 Y0.49986
G01 X-2.60997 Y0.50307
G01 X-2.60997 Y0.51013
G01 X-2.60997 Y0.51624
G01 X-2.60997 Y0.52230
G01 X-2.60997 Y0.52772
G01 X-2.60997 Y0.53528
G01 X-2.60997 Y0.53883
G01 X-2.60997 Y0.54924
G01 X-2.61546 Y0.55053
G01 X-2.61612 Y0.55067
G01 X-2.62350 Y0.55124
G01 X-2.63635 Y0.55259
G01 X-2.63637 Y0.55260
G01 X-2.64400 Y0.55341
G01 X-2.65615 Y0.55404
G01 X-2.66378 Y0.55404
G01 X-2.67593 Y0.55340
G01 X-2.68356 Y0.55260
G01 X-2.68359 Y0.55259
G01 X-2.69643 Y0.55124
G01 X-2.70162 Y0.55080
G01 X-2.70433 Y0.55022
G01 X-2.70997 Y0.54888
G01 X-2.71561 Y0.55020
G01 X-2.72325 Y0.55181
G01 X-2.73611 Y0.55384
G01 X-2.74374 Y0.55463
G01 X-2.75615 Y0.55527
G01 X-2.76378 Y0.55526
G01 X-2.77542 Y0.55467
G01 X-2.77604 Y0.55391
G01 X-2.77797 Y0.55153
G01 X-2.78222 Y0.54628
G01 X-2.78685 Y0.53993
G01 X-2.78707 Y0.53963
G01 X-2.78685 Y0.53993
G01 X-2.78685 Y0.53993
G01 X-2.78605 Y0.54024
G01 X-2.78121 Y0.54154
G01 X-2.77374 Y0.54312
G01 X-2.76879 Y0.54391
G01 X-2.76378 Y0.54417
G01 X-2.75615 Y0.54417
G01 X-2.75115 Y0.54391
G01 X-2.74619 Y0.54312
G01 X-2.73873 Y0.54154
G01 X-2.73389 Y0.54024
G01 X-2.72921 Y0.53844
G01 X-2.72224 Y0.53534
G01 X-2.71777 Y0.53306
G01 X-2.71356 Y0.53033
G01 X-2.70997 Y0.52772
G01 X-2.70997 Y0.52230
G01 X-2.70997 Y0.51624
G01 X-2.70997 Y0.51013
G01 X-2.70997 Y0.50307
G01 X-2.70997 Y0.49986
G01 X-2.70997 Y0.49324
G01 X-2.70997 Y0.48717
G01 X-2.70997 Y0.48443
G01 X-2.70997 Y0.48023
G01 X-2.70997 Y0.47220
G01 X-2.70997 Y0.46906
G01 X-2.70997 Y0.46139
G01 X-2.70997 Y0.45855
G01 X-2.70997 Y0.45088
G01 X-2.70997 Y0.44774
G01 X-2.70997 Y0.43971
G01 X-2.70997 Y0.43551
G01 X-2.70997 Y0.43277
G01 X-2.70997 Y0.42670
G01 X-2.70997 Y0.42008
G01 X-2.70997 Y0.41686
G01 X-2.70997 Y0.40981
G01 X-2.70997 Y0.40370
G01 X-2.70997 Y0.39764
G01 X-2.70997 Y0.39222
G01 X-2.70997 Y0.38466
G01 X-2.70997 Y0.38111
G01 X-2.70997 Y0.37045
G01 X-2.70997 Y0.36025
G01 X-2.70997 Y0.35707
G01 X-2.70997 Y0.35706
G01 X-2.70997 Y0.35022
G01 X-2.70997 Y0.34026
G01 X-2.70997 Y0.33831
G01 X-2.70997 Y0.33830
G01 X-2.70997 Y0.33048
G01 X-2.70997 Y0.32074
G01 X-2.70997 Y0.31101
G01 X-2.70997 Y0.30144
G01 X-2.70997 Y0.31101
G01 X-2.70997 Y0.32074
G01 X-2.70997 Y0.33048
G01 X-2.70997 Y0.33830
G01 X-2.70997 Y0.33831
G01 X-2.70997 Y0.34026
G01 X-2.70997 Y0.35022
G01 X-2.70997 Y0.35706
G01 X-2.70997 Y0.35707
G01 X-2.70997 Y0.36025
G01 X-2.70997 Y0.37045
G01 X-2.70997 Y0.38111
G01 X-2.70997 Y0.38466
G01 X-2.70997 Y0.39222
G01 X-2.70997 Y0.39764
G01 X-2.70997 Y0.40370
G01 X-2.70997 Y0.40981
G01 X-2.70997 Y0.41686
G01 X-2.70997 Y0.42008
G01 X-2.70997 Y0.42670
G01 X-2.70997 Y0.43277
G01 X-2.70734 Y0.42821
G01 X-2.70616 Y0.42641
G01 X-2.70481 Y0.42473
G01 X-2.69970 Y0.41906
G01 X-2.69818 Y0.41754
G01 X-2.69650 Y0.41618
G01 X-2.69033 Y0.41169
G01 X-2.68852 Y0.41052
G01 X-2.68660 Y0.40954
G01 X-2.67963 Y0.40644
G01 X-2.67761 Y0.40566
G01 X-2.67553 Y0.40511
G01 X-2.66807 Y0.40352
G01 X-2.66594 Y0.40318
G01 X-2.66378 Y0.40307
G01 X-2.65615 Y0.40307
G01 X-2.65400 Y0.40318
G01 X-2.65187 Y0.40352
G01 X-2.64441 Y0.40511
G01 X-2.64232 Y0.40566
G01 X-2.64031 Y0.40644
G01 X-2.63334 Y0.40954
G01 X-2.63142 Y0.41052
G01 X-2.62961 Y0.41169
G01 X-2.62344 Y0.41618
G01 X-2.62176 Y0.41754
G01 X-2.62024 Y0.41906
G01 X-2.61513 Y0.42473
G01 X-2.61377 Y0.42641
G01 X-2.61260 Y0.42821
G01 X-2.60997 Y0.43277
G01 X-2.60997 Y0.43551
G01 X-2.60997 Y0.43971
G01 X-2.60997 Y0.44774
G01 X-2.60997 Y0.45088
G01 X-2.60997 Y0.45855
G01 X-2.61197 Y0.45997
G01 X-2.61203 Y0.46117
G01 X-2.61283 Y0.46876
G01 X-2.61302 Y0.46995
G01 X-2.61333 Y0.47111
G01 X-2.61569 Y0.47837
G01 X-2.61612 Y0.47949
G01 X-2.61666 Y0.48056
G01 X-2.62048 Y0.48717
G01 X-2.62114 Y0.48818
G01 X-2.62189 Y0.48912
G01 X-2.62700 Y0.49479
G01 X-2.62785 Y0.49564
G01 X-2.62879 Y0.49640
G01 X-2.63496 Y0.50088
G01 X-2.63597 Y0.50154
G01 X-2.63704 Y0.50208
G01 X-2.64401 Y0.50519
G01 X-2.64514 Y0.50562
G01 X-2.64630 Y0.50593
G01 X-2.65376 Y0.50752
G01 X-2.65495 Y0.50771
G01 X-2.65615 Y0.50777
G01 X-2.66378 Y0.50777
G01 X-2.66499 Y0.50771
G01 X-2.66617 Y0.50752
G01 X-2.67364 Y0.50593
G01 X-2.67480 Y0.50562
G01 X-2.67592 Y0.50519
G01 X-2.68290 Y0.50208
G01 X-2.68397 Y0.50154
G01 X-2.68498 Y0.50088
G01 X-2.69115 Y0.49640
G01 X-2.69209 Y0.49564
G01 X-2.69294 Y0.49479
G01 X-2.69804 Y0.48912
G01 X-2.69880 Y0.48818
G01 X-2.69946 Y0.48717
G01 X-2.70327 Y0.48056
G01 X-2.70382 Y0.47949
G01 X-2.70425 Y0.47837
G01 X-2.70661 Y0.47111
G01 X-2.70692 Y0.46995
G01 X-2.70711 Y0.46876
G01 X-2.70791 Y0.46117
G01 X-2.70797 Y0.45997
G01 X-2.70791 Y0.45877
G01 X-2.70711 Y0.45118
G01 X-2.70692 Y0.44999
G01 X-2.70661 Y0.44883
G01 X-2.70425 Y0.44157
G01 X-2.70382 Y0.44045
G01 X-2.70327 Y0.43937
G01 X-2.69946 Y0.43276
G01 X-2.69880 Y0.43176
G01 X-2.69804 Y0.43082
G01 X-2.69294 Y0.42515
G01 X-2.69209 Y0.42430
G01 X-2.69115 Y0.42354
G01 X-2.68498 Y0.41906
G01 X-2.68397 Y0.41840
G01 X-2.68290 Y0.41785
G01 X-2.67592 Y0.41475
G01 X-2.67480 Y0.41432
G01 X-2.67364 Y0.41401
G01 X-2.66617 Y0.41242
G01 X-2.66499 Y0.41223
G01 X-2.66378 Y0.41217
G01 X-2.65615 Y0.41217
G01 X-2.65495 Y0.41223
G01 X-2.65376 Y0.41242
G01 X-2.64630 Y0.41401
G01 X-2.64514 Y0.41432
G01 X-2.64401 Y0.41475
G01 X-2.63704 Y0.41785
G01 X-2.63597 Y0.41840
G01 X-2.63496 Y0.41906
G01 X-2.62879 Y0.42354
G01 X-2.62785 Y0.42430
G01 X-2.62700 Y0.42515
G01 X-2.62189 Y0.43082
G01 X-2.62114 Y0.43176
G01 X-2.62048 Y0.43276
G01 X-2.61666 Y0.43937
G01 X-2.61612 Y0.44045
G01 X-2.61569 Y0.44157
G01 X-2.61333 Y0.44883
G01 X-2.61302 Y0.44999
G01 X-2.61283 Y0.45118
G01 X-2.61203 Y0.45877
G01 X-2.61197 Y0.45997
G04 P0 ( dwell for no time -- G64 should not smooth over this point )
G00 Z0.05000 ( retract )

G00 X-2.70997 Y0.39222 ( rapid move to begin. )
G01 F5.00000
( Mill infeed pass 1/1 )
G01 Z-0.00300
G04 P0 ( dwell for no time -- G64 should not smooth over this point )
G01 F10.00000
G01 X-2.70997 Y0.39222
G01 X-2.71356 Y0.38961
G01 X-2.71777 Y0.38688
G01 X-2.72224 Y0.38460
G01 X-2.72921 Y0.38150
G01 X-2.73389 Y0.37970
G01 X-2.73873 Y0.37840
G01 X-2.74619 Y0.37682
G01 X-2.75115 Y0.37603
G01 X-2.75615 Y0.37577
G01 X-2.76378 Y0.37577
G01 X-2.76879 Y0.37603
G01 X-2.77374 Y0.37682
G01 X-2.78121 Y0.37840
G01 X-2.78605 Y0.37970
G01 X-2.79073 Y0.38150
G01 X-2.79770 Y0.38460
G01 X-2.80217 Y0.38688
G01 X-2.80637 Y0.38961
G01 X-2.80997 Y0.39222
G01 X-2.81356 Y0.38961
G01 X-2.81777 Y0.38688
G01 X-2.82224 Y0.38460
G01 X-2.82921 Y0.38150
G01 X-2.83389 Y0.37970
G01 X-2.83873 Y0.37840
G01 X-2.84619 Y0.37682
G01 X-2.85115 Y0.37603
G01 X-2.85615 Y0.37577
G01 X-2.86378 Y0.37577
G01 X-2.86879 Y0.37603
G01 X-2.87374 Y0.37682
G01 X-2.88121 Y0.37840
G01 X-2.88605 Y0.37970
G01 X-2.89073 Y0.38150
G01 X-2.89770 Y0.38460
G01 X-2.90217 Y0.38688
G01 X-2.90637 Y0.38961
G01 X-2.90997 Y0.39222
G01 X-2.91356 Y0.38961
G01 X-2.91777 Y0.38688
G01 X-2.92224 Y0.38460
G01 X-2.92921 Y0.38150
G01 X-2.93389 Y0.37970
G01 X-2.93873 Y0.37840
G01 X-2.94619 Y0.37682
G01 X-2.95115 Y0.37603
G01 X-2.95615 Y0.37577
G01 X-2.96378 Y0.37577
G01 X-2.96879 Y0.37603
G01 X-2.97374 Y0.37682
G01 X-2.98121 Y0.37840
G01 X-2.98605 Y0.37970
G01 X-2.99073 Y0.38150
G01 X-2.99770 Y0.38460
G01 X-3.00217 Y0.38688
G01 X-3.00637 Y0.38961
G01 X-3.00997 Y0.39222
G01 X-3.01356 Y0.38961
G01 X-3.01777 Y0.38688
G01 X-3.02224 Y0.38460
G01 X-3.02921 Y0.38150
G01 X-3.03389 Y0.37970
G01 X-3.03873 Y0.37840
G01 X-3.04619 Y0.37682
G01 X-3.05115 Y0.37603
G01 X-3.05615 Y0.37577
G01 X-3.06378 Y0.37577
G01 X-3.06879 Y0.37603
G01 X-3.07374 Y0.37682
G01 X-3.08121 Y0.37840
G01 X-3.08605 Y0.37970
G01 X-3.09073 Y0.38150
G01 X-3.09770 Y0.38460
G01 X-3.10217 Y0.38688
G01 X-3.10637 Y0.38961
G01 X-3.10997 Y0.39222
G01 X-3.11356 Y0.38961
G01 X-3.11777 Y0.38688
G01 X-3.12224 Y0.38460
G01 X-3.12921 Y0.38150
G01 X-3.13389 Y0.37970
G01 X-3.13873 Y0.37840
G01 X-3.14619 Y0.37682
G01 X-3.15115 Y0.37603
G01 X-3.15615 Y0.37577
G01 X-3.16378 Y0.37577
G01 X-3.16879 Y0.37603
G01 X-3.17374 Y0.37682
G01 X-3.18121 Y0.37840
G01 X-3.18605 Y0.37970
G01 X-3.19073 Y0.38150
G01 X-3.19770 Y0.38460
G01 X-3.20217 Y0.38688
G01 X-3.20637 Y0.38961
G01 X-3.20997 Y0.39222
G01 X-3.20997 Y0.39764
G01 X-3.20997 Y0.40370
G01 X-3.20997 Y0.40981
G01 X-3.20997 Y0.41686
G01 X-3.20997 Y0.42008
G01 X-3.20997 Y0.42670
G01 X-3.20997 Y0.43277
G01 X-3.20997 Y0.43551
G01 X-3.20997 Y0.43971
G01 X-3.20997 Y0.44774
G01 X-3.20997 Y0.45088
G01 X-3.20997 Y0.45855
G01 X-3.20997 Y0.46139
G01 X-3.20997 Y0.46906
G01 X-3.20997 Y0.47220
G01 X-3.20997 Y0.48023
G01 X-3.20997 Y0.48443
G01 X-3.20997 Y0.48717
G01 X-3.20997 Y0.49324
G01 X-3.20997 Y0.49986
G01 X-3.20997 Y0.50307
G01 X-3.20997 Y0.51013
G01 X-3.20997 Y0.51624
G01 X-3.20997 Y0.52230
G01 X-3.20997 Y0.52772
G01 X-3.20997 Y0.53528
G01 X-3.20997 Y0.53883
G01 X-3.20997 Y0.54949
G01 X-3.20997 Y0.55968
G01 X-3.20997 Y0.56287
G01 X-3.20997 Y0.56288
G01 X-3.20997 Y0.56972
G01 X-3.20997 Y0.57968
G01 X-3.20997 Y0.58163
G01 X-3.20997 Y0.58164
G01 X-3.20997 Y0.58946
G01 X-3.20997 Y0.59919
G01 X-3.20997 Y0.60893
G01 X-3.20997 Y0.60916
G01 X-3.21088 Y0.60931
G01 X-3.21097 Y0.60931
G01 X-3.22417 Y0.61001
G01 X-3.21097 Y0.60931
G01 X-3.21097 Y0.60931
G01 X-3.20997 Y0.60893
G01 X-3.20897 Y0.60931
G01 X-3.20897 Y0.60931
G01 X-3.19577 Y0.61001
G01 X-3.20897 Y0.60931
G01 X-3.20906 Y0.60931
G01 X-3.21088 Y0.60931
G01 X-3.20997 Y0.60916
G01 X-3.20906 Y0.60931
G01 X-3.20997 Y0.60916
G01 X-3.20997 Y0.60893
G01 X-3.20997 Y0.59919
G01 X-3.20997 Y0.58946
G01 X-3.20997 Y0.58164
G01 X-3.20997 Y0.58163
G01 X-3.20997 Y0.57968
G01 X-3.20997 Y0.56972
G01 X-3.20997 Y0.56288
G01 X-3.20997 Y0.56287
G01 X-3.20997 Y0.55968
G01 X-3.20997 Y0.54949
G01 X-3.20997 Y0.53883
G01 X-3.20997 Y0.53528
G01 X-3.20997 Y0.52772
G01 X-3.20997 Y0.52230
G01 X-3.20997 Y0.51624
G01 X-3.20997 Y0.51013
G01 X-3.20997 Y0.50307
G01 X-3.20997 Y0.49986
G01 X-3.20997 Y0.49324
G01 X-3.20997 Y0.48717
G01 X-3.20997 Y0.48443
G01 X-3.20997 Y0.48023
G01 X-3.20997 Y0.47220
G01 X-3.20997 Y0.46906
G01 X-3.20997 Y0.46139
G01 X-3.20997 Y0.45855
G01 X-3.20997 Y0.45088
G01 X-3.20997 Y0.44774
G01 X-3.20997 Y0.43971
G01 X-3.20997 Y0.43551
G01 X-3.20997 Y0.43277
G01 X-3.20997 Y0.42670
G01 X-3.20997 Y0.42008
G01 X-3.20997 Y0.41686
G01 X-3.20997 Y0.40981
G01 X-3.20997 Y0.40370
G01 X-3.20997 Y0.39764
G01 X-3.20997 Y0.39222
G01 X-3.20997 Y0.38466
G01 X-3.20997 Y0.38111
G01 X-3.20997 Y0.37045
G01 X-3.20997 Y0.36025
G01 X-3.20997 Y0.35707
G01 X-3.20997 Y0.35706
G01 X-3.20997 Y0.35022
G01 X-3.20997 Y0.34026
G01 X-3.20997 Y0.33831
G01 X-3.20997 Y0.33830
G01 X-3.20997 Y0.33048
G01 X-3.20997 Y0.32074
G01 X-3.20997 Y0.31101
G01 X-3.20997 Y0.30144
G01 X-3.20997 Y0.31101
G01 X-3.20997 Y0.32074
G01 X-3.20997 Y0.33048
G01 X-3.20997 Y0.33830
G01 X-3.20997 Y0.33831
G01 X-3.20997 Y0.34026
G01 X-3.20997 Y0.35022
G01 X-3.20997 Y0.35706
G01 X-3.20997 Y0.35707
G01 X-3.20997 Y0.36025
G01 X-3.20997 Y0.37045
G01 X-3.20997 Y0.38111
G01 X-3.20997 Y0.38466
G01 X-3.20997 Y0.39222
G01 X-3.20997 Y0.39764
G01 X-3.20997 Y0.40370
G01 X-3.20997 Y0.40981
G01 X-3.20997 Y0.41686
G01 X-3.20997 Y0.42008
G01 X-3.20997 Y0.42670
G01 X-3.20997 Y0.43277
G01 X-3.20997 Y0.43551
G01 X-3.20997 Y0.43971
G01 X-3.20997 Y0.44774
G01 X-3.20997 Y0.45088
G01 X-3.20997 Y0.45855
G01 X-3.21197 Y0.45997
G01 X-3.21203 Y0.46117
G01 X-3.21283 Y0.46876
G01 X-3.21302 Y0.46995
G01 X-3.21333 Y0.47111
G01 X-3.21569 Y0.47837
G01 X-3.21612 Y0.47949
G01 X-3.21666 Y0.48056
G01 X-3.22048 Y0.48717
G01 X-3.22114 Y0.48818
G01 X-3.22189 Y0.48912
G01 X-3.22700 Y0.49479
G01 X-3.22785 Y0.49564
G01 X-3.22879 Y0.49640
G01 X-3.23496 Y0.50088
G01 X-3.23597 Y0.50154
G01 X-3.23704 Y0.50208
G01 X-3.24401 Y0.50519
G01 X-3.24514 Y0.50562
G01 X-3.24630 Y0.50593
G01 X-3.25376 Y0.50752
G01 X-3.25495 Y0.50771
G01 X-3.25615 Y0.50777
G01 X-3.26378 Y0.50777
G01 X-3.26499 Y0.50771
G01 X-3.26617 Y0.50752
G01 X-3.27364 Y0.50593
G01 X-3.27480 Y0.50562
G01 X-3.27592 Y0.50519
G01 X-3.28290 Y0.50208
G01 X-3.28397 Y0.50154
G01 X-3.28498 Y0.50088
G01 X-3.29115 Y0.49640
G01 X-3.29209 Y0.49564
G01 X-3.29294 Y0.49479
G01 X-3.29804 Y0.48912
G01 X-3.29880 Y0.48818
G01 X-3.29946 Y0.48717
G01 X-3.30327 Y0.48056
G01 X-3.30382 Y0.47949
G01 X-3.30425 Y0.47837
G01 X-3.30661 Y0.47111
G01 X-3.30692 Y0.46995
G01 X-3.30711 Y0.46876
G01 X-3.30791 Y0.46117
G01 X-3.30797 Y0.45997
G01 X-3.30791 Y0.45877
G01 X-3.30711 Y0.45118
G01 X-3.30692 Y0.44999
G01 X-3.30661 Y0.44883
G01 X-3.30425 Y0.44157
G01 X-3.30382 Y0.44045
G01 X-3.30327 Y0.43937
G01 X-3.29946 Y0.43276
G01 X-3.29880 Y0.43176
G01 X-3.29804 Y0.43082
G01 X-3.29294 Y0.42515
G01 X-3.29209 Y0.42430
G01 X-3.29115 Y0.42354
G01 X-3.28498 Y0.41906
G01 X-3.28397 Y0.41840
G01 X-3.28290 Y0.41785
G01 X-3.27592 Y0.41475
G01 X-3.27480 Y0.41432
G01 X-3.27364 Y0.41401
G01 X-3.26617 Y0.41242
G01 X-3.26499 Y0.41223
G01 X-3.26378 Y0.41217
G01 X-3.25615 Y0.41217
G01 X-3.25495 Y0.41223
G01 X-3.25376 Y0.41242
G01 X-3.24630 Y0.41401
G01 X-3.24514 Y0.41432
G01 X-3.24401 Y0.41475
G01 X-3.23704 Y0.41785
G01 X-3.23597 Y0.41840
G01 X-3.23496 Y0.41906
G01 X-3.22879 Y0.42354
G01 X-3.22785 Y0.42430
G01 X-3.22700 Y0.42515
G01 X-3.22189 Y0.43082
G01 X-3.22114 Y0.43176
G01 X-3.22048 Y0.43276
G01 X-3.21666 Y0.43937
G01 X-3.21612 Y0.44045
G01 X-3.21569 Y0.44157
G01 X-3.21333 Y0.44883
G01 X-3.21302 Y0.44999
G01 X-3.21283 Y0.45118
G01 X-3.21203 Y0.45877
G01 X-3.21197 Y0.45997
G04 P0 ( dwell for no time -- G64 should not smooth over this point )
G00 Z0.05000 ( retract )

G00 X-3.30997 Y0.37045 ( rapid move to begin. )
G01 F5.00000
( Mill infeed pass 1/1 )
G01 Z-0.00300
G04 P0 ( dwell for no time -- G64 should not smooth over this point )
G01 F10.00000
G01 X-3.30997 Y0.37045
G01 X-3.30510 Y0.36797
G01 X-3.29813 Y0.36487
G01 X-3.29167 Y0.36239
G01 X-3.28499 Y0.36060
G01 X-3.27753 Y0.35901
G01 X-3.27069 Y0.35793
G01 X-3.26378 Y0.35757
G01 X-3.25615 Y0.35757
G01 X-3.24924 Y0.35793
G01 X-3.24241 Y0.35901
G01 X-3.23495 Y0.36060
G01 X-3.22826 Y0.36239
G01 X-3.22180 Y0.36487
G01 X-3.21483 Y0.36797
G01 X-3.20997 Y0.37045
G01 X-3.20997 Y0.36025
G01 X-3.20880 Y0.35966
G01 X-3.20183 Y0.35656
G01 X-3.19449 Y0.35374
G01 X-3.18688 Y0.35170
G01 X-3.17942 Y0.35011
G01 X-3.17164 Y0.34888
G01 X-3.16378 Y0.34847
G01 X-3.15615 Y0.34847
G01 X-3.14829 Y0.34888
G01 X-3.14052 Y0.35011
G01 X-3.13305 Y0.35170
G01 X-3.12545 Y0.35374
G01 X-3.11810 Y0.35656
G01 X-3.11113 Y0.35966
G01 X-3.10997 Y0.36025
G01 X-3.10997 Y0.36025
G01 X-3.10997 Y0.37045
G01 X-3.11483 Y0.36797
G01 X-3.12180 Y0.36487
G01 X-3.12826 Y0.36239
G01 X-3.13495 Y0.36060
G01 X-3.14241 Y0.35901
G01 X-3.14924 Y0.35793
G01 X-3.15615 Y0.35757
G01 X-3.16378 Y0.35757
G01 X-3.17069 Y0.35793
G01 X-3.17753 Y0.35901
G01 X-3.18499 Y0.36060
G01 X-3.19167 Y0.36239
G01 X-3.19813 Y0.36487
G01 X-3.20510 Y0.36797
G01 X-3.20997 Y0.37045
G01 X-3.20997 Y0.36025
G01 X-3.20880 Y0.35966
G01 X-3.20183 Y0.35656
G01 X-3.19449 Y0.35374
G01 X-3.18688 Y0.35170
G01 X-3.17942 Y0.35011
G01 X-3.17164 Y0.34888
G01 X-3.16378 Y0.34847
G01 X-3.15615 Y0.34847
G01 X-3.14829 Y0.34888
G01 X-3.14052 Y0.35011
G01 X-3.13305 Y0.35170
G01 X-3.12545 Y0.35374
G01 X-3.11810 Y0.35656
G01 X-3.11113 Y0.35966
G01 X-3.10997 Y0.36025
G01 X-3.10997 Y0.35707
G01 X-3.10997 Y0.35706
G01 X-3.10997 Y0.35022
G01 X-3.10997 Y0.34026
G01 X-3.10997 Y0.33831
G01 X-3.10997 Y0.33830
G01 X-3.10997 Y0.33048
G01 X-3.10997 Y0.32074
G01 X-3.10997 Y0.31101
G01 X-3.10997 Y0.30144
G01 X-3.10997 Y0.31101
G01 X-3.10997 Y0.32074
G01 X-3.10997 Y0.33048
G01 X-3.10997 Y0.33830
G01 X-3.10997 Y0.33831
G01 X-3.10997 Y0.34026
G01 X-3.10997 Y0.35022
G01 X-3.10997 Y0.35706
G01 X-3.10997 Y0.35707
G01 X-3.10997 Y0.36025
G01 X-3.10997 Y0.35707
G01 X-3.10997 Y0.35706
G01 X-3.10997 Y0.35022
G01 X-3.10554 Y0.34824
G01 X-3.09730 Y0.34508
G01 X-3.08877 Y0.34280
G01 X-3.08131 Y0.34121
G01 X-3.07260 Y0.33983
G01 X-3.06378 Y0.33937
G01 X-3.05615 Y0.33937
G01 X-3.04734 Y0.33983
G01 X-3.03863 Y0.34121
G01 X-3.03116 Y0.34280
G01 X-3.02264 Y0.34508
G01 X-3.01440 Y0.34824
G01 X-3.00997 Y0.35022
G04 P0 ( dwell for no time -- G64 should not smooth over this point )
G00 Z0.05000 ( retract )

G00 X-2.90997 Y0.36025 ( rapid move to begin. )
G01 F5.00000
( Mill infeed pass 1/1 )
G01 Z-0.00300
G04 P0 ( dwell for no time -- G64 should not smooth over this point )
G01 F10.00000
G01 X-2.90997 Y0.36025
G01 X-2.90997 Y0.36025
G04 P0 ( dwell for no time -- G64 should not smooth over this point )
G00 Z0.05000 ( retract )

G00 X-2.90997 Y0.36025 ( rapid move to begin. )
G01 F5.00000
( Mill infeed pass 1/1 )
G01 Z-0.00300
G04 P0 ( dwell for no time -- G64 should not smooth over this point )
G01 F10.00000
G01 X-2.90997 Y0.36025
G01 X-2.90997 Y0.35707
G01 X-2.90997 Y0.35706
G01 X-2.90997 Y0.35022
G01 X-2.90997 Y0.34026
G01 X-2.90997 Y0.33831
G01 X-2.90997 Y0.33830
G01 X-2.90997 Y0.33048
G01 X-2.90997 Y0.32074
G01 X-2.90997 Y0.31101
G01 X-2.90997 Y0.30144
G01 X-2.90997 Y0.31101
G01 X-2.90997 Y0.32074
G01 X-2.90997 Y0.33048
G01 X-2.90997 Y0.33830
G01 X-2.90997 Y0.33831
G01 X-2.90997 Y0.34026
G01 X-2.90997 Y0.35022
G01 X-2.90997 Y0.35706
G01 X-2.90997 Y0.35707
G01 X-2.90997 Y0.36025
G01 X-2.91113 Y0.35966
G01 X-2.91810 Y0.35656
G01 X-2.92545 Y0.35374
G01 X-2.93305 Y0.35170
G01 X-2.94052 Y0.35011
G01 X-2.94829 Y0.34888
G01 X-2.95615 Y0.34847
G01 X-2.96378 Y0.34847
G01 X-2.97164 Y0.34888
G01 X-2.97942 Y0.35011
G01 X-2.98688 Y0.35170
G01 X-2.99449 Y0.35374
G01 X-3.00183 Y0.35656
G01 X-3.00880 Y0.35966
G01 X-3.00997 Y0.36025
G01 X-3.01113 Y0.35966
G01 X-3.01810 Y0.35656
G01 X-3.02545 Y0.35374
G01 X-3.03305 Y0.35170
G01 X-3.04052 Y0.35011
G01 X-3.04829 Y0.34888
G01 X-3.05615 Y0.34847
G01 X-3.06378 Y0.34847
G01 X-3.07164 Y0.34888
G01 X-3.07942 Y0.35011
G01 X-3.08688 Y0.35170
G01 X-3.09449 Y0.35374
G01 X-3.10183 Y0.35656
G01 X-3.10880 Y0.35966
G01 X-3.10997 Y0.36025
G01 X-3.10997 Y0.37045
G01 X-3.10997 Y0.37045
G01 X-3.10997 Y0.38111
G01 X-3.11322 Y0.37900
G01 X-3.11853 Y0.37629
G01 X-3.12550 Y0.37318
G01 X-3.13107 Y0.37105
G01 X-3.13684 Y0.36950
G01 X-3.14430 Y0.36791
G01 X-3.15019 Y0.36698
G01 X-3.15615 Y0.36667
G01 X-3.16378 Y0.36667
G01 X-3.16974 Y0.36698
G01 X-3.17563 Y0.36791
G01 X-3.18310 Y0.36950
G01 X-3.18886 Y0.37105
G01 X-3.19443 Y0.37318
G01 X-3.20140 Y0.37629
G01 X-3.20672 Y0.37900
G01 X-3.20997 Y0.38111
G01 X-3.21322 Y0.37900
G01 X-3.21853 Y0.37629
G01 X-3.22550 Y0.37318
G01 X-3.23107 Y0.37105
G01 X-3.23684 Y0.36950
G01 X-3.24430 Y0.36791
G01 X-3.25019 Y0.36698
G01 X-3.25615 Y0.36667
G01 X-3.26378 Y0.36667
G01 X-3.26974 Y0.36698
G01 X-3.27563 Y0.36791
G01 X-3.28310 Y0.36950
G01 X-3.28886 Y0.37105
G01 X-3.29443 Y0.37318
G01 X-3.30140 Y0.37629
G01 X-3.30672 Y0.37900
G01 X-3.30997 Y0.38111
G01 X-3.30997 Y0.38466
G01 X-3.30997 Y0.39222
G01 X-3.30997 Y0.39764
G01 X-3.30997 Y0.40370
G01 X-3.30997 Y0.40981
G01 X-3.30997 Y0.41686
G01 X-3.30997 Y0.42008
G01 X-3.30997 Y0.42670
G01 X-3.30997 Y0.43277
G01 X-3.30997 Y0.43551
G01 X-3.30997 Y0.43971
G01 X-3.30997 Y0.44774
G01 X-3.30997 Y0.45088
G01 X-3.30997 Y0.45855
G01 X-3.30997 Y0.46139
G01 X-3.30997 Y0.46906
G01 X-3.30997 Y0.47220
G01 X-3.30997 Y0.48023
G01 X-3.30997 Y0.48443
G01 X-3.30997 Y0.48717
G01 X-3.30997 Y0.49324
G01 X-3.30997 Y0.49986
G01 X-3.30997 Y0.50307
G01 X-3.30997 Y0.51013
G01 X-3.30997 Y0.51624
G01 X-3.30997 Y0.52230
G01 X-3.30997 Y0.52772
G01 X-3.30997 Y0.53528
G01 X-3.30997 Y0.53883
G01 X-3.30672 Y0.54094
G01 X-3.30140 Y0.54365
G01 X-3.29443 Y0.54675
G01 X-3.28886 Y0.54889
G01 X-3.28310 Y0.55044
G01 X-3.27563 Y0.55202
G01 X-3.26974 Y0.55296
G01 X-3.26378 Y0.55327
G01 X-3.25615 Y0.55327
G01 X-3.25019 Y0.55296
G01 X-3.24430 Y0.55202
G01 X-3.23684 Y0.55044
G01 X-3.23107 Y0.54889
G01 X-3.22550 Y0.54675
G01 X-3.21853 Y0.54365
G01 X-3.21322 Y0.54094
G01 X-3.20997 Y0.53883
G01 X-3.20997 Y0.53528
G01 X-3.20997 Y0.52772
G01 X-3.21356 Y0.53033
G01 X-3.21777 Y0.53306
G01 X-3.22224 Y0.53534
G01 X-3.22921 Y0.53844
G01 X-3.23389 Y0.54024
G01 X-3.23873 Y0.54154
G01 X-3.24619 Y0.54312
G01 X-3.25115 Y0.54391
G01 X-3.25615 Y0.54417
G01 X-3.26378 Y0.54417
G01 X-3.26879 Y0.54391
G01 X-3.27374 Y0.54312
G01 X-3.28121 Y0.54154
G01 X-3.28605 Y0.54024
G01 X-3.29073 Y0.53844
G01 X-3.29770 Y0.53534
G01 X-3.30217 Y0.53306
G01 X-3.30637 Y0.53033
G01 X-3.30997 Y0.52772
G01 X-3.30997 Y0.52230
G01 X-3.30997 Y0.51624
G01 X-3.30997 Y0.51013
G01 X-3.30997 Y0.50307
G01 X-3.30997 Y0.49986
G01 X-3.30997 Y0.49324
G01 X-3.30997 Y0.48717
G01 X-3.30997 Y0.48443
G01 X-3.30997 Y0.48023
G01 X-3.30997 Y0.47220
G01 X-3.30997 Y0.46906
G01 X-3.30997 Y0.46139
G01 X-3.30997 Y0.45855
G01 X-3.30997 Y0.45088
G01 X-3.30997 Y0.44774
G01 X-3.30997 Y0.43971
G01 X-3.30997 Y0.43551
G01 X-3.30997 Y0.43277
G01 X-3.30997 Y0.42670
G01 X-3.30997 Y0.42008
G01 X-3.30997 Y0.41686
G01 X-3.30997 Y0.40981
G01 X-3.30997 Y0.40370
G01 X-3.30997 Y0.39764
G01 X-3.30997 Y0.39222
G01 X-3.30997 Y0.38466
G01 X-3.30997 Y0.38111
G01 X-3.30997 Y0.38466
G01 X-3.30997 Y0.39222
G01 X-3.30997 Y0.39764
G01 X-3.30997 Y0.40370
G01 X-3.30997 Y0.40981
G01 X-3.30997 Y0.41686
G01 X-3.30997 Y0.42008
G01 X-3.30997 Y0.42670
G01 X-3.30997 Y0.43277
G01 X-3.30997 Y0.43551
G01 X-3.30997 Y0.43971
G01 X-3.30997 Y0.44774
G01 X-3.30997 Y0.45088
G01 X-3.30997 Y0.45855
G01 X-3.31197 Y0.45997
G01 X-3.31203 Y0.46117
G01 X-3.31283 Y0.46876
G01 X-3.31302 Y0.46995
G01 X-3.31333 Y0.47111
G01 X-3.31569 Y0.47837
G01 X-3.31612 Y0.47949
G01 X-3.31666 Y0.48056
G01 X-3.32048 Y0.48717
G01 X-3.32114 Y0.48818
G01 X-3.32189 Y0.48912
G01 X-3.32700 Y0.49479
G01 X-3.32785 Y0.49564
G01 X-3.32879 Y0.49640
G01 X-3.33496 Y0.50088
G01 X-3.33597 Y0.50154
G01 X-3.33704 Y0.50208
G01 X-3.34401 Y0.50519
G01 X-3.34514 Y0.50562
G01 X-3.34630 Y0.50593
G01 X-3.35376 Y0.50752
G01 X-3.35495 Y0.50771
G01 X-3.35615 Y0.50777
G01 X-3.36378 Y0.50777
G01 X-3.36499 Y0.50771
G01 X-3.36617 Y0.50752
G01 X-3.37364 Y0.50593
G01 X-3.37480 Y0.50562
G01 X-3.37592 Y0.50519
G01 X-3.38290 Y0.50208
G01 X-3.38397 Y0.50154
G01 X-3.38498 Y0.50088
G01 X-3.39115 Y0.49640
G01 X-3.39209 Y0.49564
G01 X-3.39294 Y0.49479
G01 X-3.39804 Y0.48912
G01 X-3.39880 Y0.48818
G01 X-3.39946 Y0.48717
G01 X-3.40327 Y0.48056
G01 X-3.40382 Y0.47949
G01 X-3.40425 Y0.47837
G01 X-3.40661 Y0.47111
G01 X-3.40692 Y0.46995
G01 X-3.40711 Y0.46876
G01 X-3.40791 Y0.46117
G01 X-3.40797 Y0.45997
G01 X-3.40791 Y0.45877
G01 X-3.40711 Y0.45118
G01 X-3.40692 Y0.44999
G01 X-3.40661 Y0.44883
G01 X-3.40425 Y0.44157
G01 X-3.40382 Y0.44045
G01 X-3.40327 Y0.43937
G01 X-3.39946 Y0.43276
G01 X-3.39880 Y0.43176
G01 X-3.39804 Y0.43082
G01 X-3.39294 Y0.42515
G01 X-3.39209 Y0.42430
G01 X-3.39115 Y0.42354
G01 X-3.38498 Y0.41906
G01 X-3.38397 Y0.41840
G01 X-3.38290 Y0.41785
G01 X-3.37592 Y0.41475
G01 X-3.37480 Y0.41432
G01 X-3.37364 Y0.41401
G01 X-3.36617 Y0.41242
G01 X-3.36499 Y0.41223
G01 X-3.36378 Y0.41217
G01 X-3.35615 Y0.41217
G01 X-3.35495 Y0.41223
G01 X-3.35376 Y0.41242
G01 X-3.34630 Y0.41401
G01 X-3.34514 Y0.41432
G01 X-3.34401 Y0.41475
G01 X-3.33704 Y0.41785
G01 X-3.33597 Y0.41840
G01 X-3.33496 Y0.41906
G01 X-3.32879 Y0.42354
G01 X-3.32785 Y0.42430
G01 X-3.32700 Y0.42515
G01 X-3.32189 Y0.43082
G01 X-3.32114 Y0.43176
G01 X-3.32048 Y0.43276
G01 X-3.31666 Y0.43937
G01 X-3.31612 Y0.44045
G01 X-3.31569 Y0.44157
G01 X-3.31333 Y0.44883
G01 X-3.31302 Y0.44999
G01 X-3.31283 Y0.45118
G01 X-3.31203 Y0.45877
G01 X-3.31197 Y0.45997
G04 P0 ( dwell for no time -- G64 should not smooth over this point )
G00 Z0.05000 ( retract )

G00 X-3.30997 Y0.38111 ( rapid move to begin. )
G01 F5.00000
( Mill infeed pass 1/1 )
G01 Z-0.00300
G04 P0 ( dwell for no time -- G64 should not smooth over this point )
G01 F10.00000
G01 X-3.30997 Y0.38111
G01 X-3.30997 Y0.38111
G04 P0 ( dwell for no time -- G64 should not smooth over this point )
G00 Z0.05000 ( retract )

G00 X-3.30997 Y0.38111 ( rapid move to begin. )
G01 F5.00000
( Mill infeed pass 1/1 )
G01 Z-0.00300
G04 P0 ( dwell for no time -- G64 should not smooth over this point )
G01 F10.00000
G01 X-3.30997 Y0.38111
G01 X-3.30997 Y0.37045
G01 X-3.30997 Y0.37045
G01 X-3.30997 Y0.36025
G01 X-3.30997 Y0.36025
G01 X-3.30880 Y0.35966
G01 X-3.30183 Y0.35656
G01 X-3.29449 Y0.35374
G01 X-3.28688 Y0.35170
G01 X-3.27942 Y0.35011
G01 X-3.27164 Y0.34888
G01 X-3.26378 Y0.34847
G01 X-3.25615 Y0.34847
G01 X-3.24829 Y0.34888
G01 X-3.24052 Y0.35011
G01 X-3.23305 Y0.35170
G01 X-3.22545 Y0.35374
G01 X-3.21810 Y0.35656
G01 X-3.21113 Y0.35966
G01 X-3.20997 Y0.36025
G01 X-3.20880 Y0.35966
G01 X-3.20183 Y0.35656
G01 X-3.19449 Y0.35374
G01 X-3.18688 Y0.35170
G01 X-3.17942 Y0.35011
G01 X-3.17164 Y0.34888
G01 X-3.16378 Y0.34847
G01 X-3.15615 Y0.34847
G01 X-3.14829 Y0.34888
G01 X-3.14052 Y0.35011
G01 X-3.13305 Y0.35170
G01 X-3.12545 Y0.35374
G01 X-3.11810 Y0.35656
G01 X-3.11113 Y0.35966
G01 X-3.10997 Y0.36025
G01 X-3.10997 Y0.35707
G01 X-3.10997 Y0.35706
G01 X-3.10997 Y0.35022
G01 X-3.11440 Y0.34824
G01 X-3.12264 Y0.34508
G01 X-3.13116 Y0.34280
G01 X-3.13863 Y0.34121
G01 X-3.14734 Y0.33983
G01 X-3.15615 Y0.33937
G01 X-3.16378 Y0.33937
G01 X-3.17260 Y0.33983
G01 X-3.18131 Y0.34121
G01 X-3.18877 Y0.34280
G01 X-3.19730 Y0.34508
G01 X-3.20554 Y0.34824
G01 X-3.20997 Y0.35022
G01 X-3.21440 Y0.34824
G01 X-3.22264 Y0.34508
G01 X-3.23116 Y0.34280
G01 X-3.23863 Y0.34121
G01 X-3.24734 Y0.33983
G01 X-3.25615 Y0.33937
G01 X-3.26378 Y0.33937
G01 X-3.27260 Y0.33983
G01 X-3.28131 Y0.34121
G01 X-3.28877 Y0.34280
G01 X-3.29730 Y0.34508
G01 X-3.30554 Y0.34824
G01 X-3.30997 Y0.35022
G01 X-3.30997 Y0.35706
G01 X-3.30997 Y0.35707
G01 X-3.30997 Y0.36025
G01 X-3.30997 Y0.37045
G01 X-3.30997 Y0.38111
G01 X-3.31322 Y0.37900
G01 X-3.31853 Y0.37629
G01 X-3.32550 Y0.37318
G01 X-3.33107 Y0.37105
G01 X-3.33684 Y0.36950
G01 X-3.34430 Y0.36791
G01 X-3.35019 Y0.36698
G01 X-3.35615 Y0.36667
G01 X-3.36378 Y0.36667
G01 X-3.36974 Y0.36698
G01 X-3.37563 Y0.36791
G01 X-3.38310 Y0.36950
G01 X-3.38886 Y0.37105
G01 X-3.39443 Y0.37318
G01 X-3.40140 Y0.37629
G01 X-3.40672 Y0.37900
G01 X-3.40997 Y0.38111
G01 X-3.40997 Y0.38466
G01 X-3.40997 Y0.39222
G01 X-3.40997 Y0.39764
G01 X-3.40997 Y0.40370
G01 X-3.40720 Y0.40145
G01 X-3.40102 Y0.39697
G01 X-3.39762 Y0.39476
G01 X-3.39400 Y0.39291
G01 X-3.38703 Y0.38981
G01 X-3.38324 Y0.38835
G01 X-3.37931 Y0.38730
G01 X-3.37185 Y0.38572
G01 X-3.36784 Y0.38508
G01 X-3.36378 Y0.38487
G01 X-3.35615 Y0.38487
G01 X-3.35210 Y0.38508
G01 X-3.34809 Y0.38572
G01 X-3.34062 Y0.38730
G01 X-3.33670 Y0.38835
G01 X-3.33291 Y0.38981
G01 X-3.32594 Y0.39291
G01 X-3.32232 Y0.39476
G01 X-3.31891 Y0.39697
G01 X-3.31274 Y0.40145
G01 X-3.30997 Y0.40370
G01 X-3.30720 Y0.40145
G01 X-3.30102 Y0.39697
G01 X-3.29762 Y0.39476
G01 X-3.29400 Y0.39291
G01 X-3.28703 Y0.38981
G01 X-3.28324 Y0.38835
G01 X-3.27931 Y0.38730
G01 X-3.27185 Y0.38572
G01 X-3.26784 Y0.38508
G01 X-3.26378 Y0.38487
G01 X-3.25615 Y0.38487
G01 X-3.25210 Y0.38508
G01 X-3.24809 Y0.38572
G01 X-3.24062 Y0.38730
G01 X-3.23670 Y0.38835
G01 X-3.23291 Y0.38981
G01 X-3.22594 Y0.39291
G01 X-3.22232 Y0.39476
G01 X-3.21891 Y0.39697
G01 X-3.21274 Y0.40145
G01 X-3.20997 Y0.40370
G01 X-3.20720 Y0.40145
G01 X-3.20102 Y0.39697
G01 X-3.19762 Y0.39476
G01 X-3.19400 Y0.39291
G01 X-3.18703 Y0.38981
G01 X-3.18324 Y0.38835
G01 X-3.17931 Y0.38730
G01 X-3.17185 Y0.38572
G01 X-3.16784 Y0.38508
G01 X-3.16378 Y0.38487
G01 X-3.15615 Y0.38487
G01 X-3.15210 Y0.38508
G01 X-3.14809 Y0.38572
G01 X-3.14062 Y0.38730
G01 X-3.13670 Y0.38835
G01 X-3.13291 Y0.38981
G01 X-3.12594 Y0.39291
G01 X-3.12232 Y0.39476
G01 X-3.11891 Y0.39697
G01 X-3.11274 Y0.40145
G01 X-3.10997 Y0.40370
G01 X-3.10720 Y0.40145
G01 X-3.10102 Y0.39697
G01 X-3.09762 Y0.39476
G01 X-3.09400 Y0.39291
G01 X-3.08703 Y0.38981
G01 X-3.08324 Y0.38835
G01 X-3.07931 Y0.38730
G01 X-3.07185 Y0.38572
G01 X-3.06784 Y0.38508
G01 X-3.06378 Y0.38487
G01 X-3.05615 Y0.38487
G01 X-3.05210 Y0.38508
G01 X-3.04809 Y0.38572
G01 X-3.04062 Y0.38730
G01 X-3.03670 Y0.38835
G01 X-3.03291 Y0.38981
G01 X-3.02594 Y0.39291
G01 X-3.02232 Y0.39476
G01 X-3.01891 Y0.39697
G01 X-3.01274 Y0.40145
G01 X-3.00997 Y0.40370
G01 X-3.00997 Y0.40981
G01 X-3.00997 Y0.41686
G01 X-3.00997 Y0.42008
G01 X-3.00997 Y0.42670
G01 X-3.00997 Y0.43277
G01 X-3.00997 Y0.43551
G01 X-3.00997 Y0.43971
G01 X-3.00997 Y0.44774
G01 X-3.00997 Y0.45088
G01 X-3.00997 Y0.45855
G01 X-3.01197 Y0.45997
G01 X-3.01203 Y0.46117
G01 X-3.01283 Y0.46876
G01 X-3.01302 Y0.46995
G01 X-3.01333 Y0.47111
G01 X-3.01569 Y0.47837
G01 X-3.01612 Y0.47949
G01 X-3.01666 Y0.48056
G01 X-3.02048 Y0.48717
G01 X-3.02114 Y0.48818
G01 X-3.02189 Y0.48912
G01 X-3.02700 Y0.49479
G01 X-3.02785 Y0.49564
G01 X-3.02879 Y0.49640
G01 X-3.03496 Y0.50088
G01 X-3.03597 Y0.50154
G01 X-3.03704 Y0.50208
G01 X-3.04401 Y0.50519
G01 X-3.04514 Y0.50562
G01 X-3.04630 Y0.50593
G01 X-3.05376 Y0.50752
G01 X-3.05495 Y0.50771
G01 X-3.05615 Y0.50777
G01 X-3.06378 Y0.50777
G01 X-3.06499 Y0.50771
G01 X-3.06617 Y0.50752
G01 X-3.07364 Y0.50593
G01 X-3.07480 Y0.50562
G01 X-3.07592 Y0.50519
G01 X-3.08290 Y0.50208
G01 X-3.08397 Y0.50154
G01 X-3.08498 Y0.50088
G01 X-3.09115 Y0.49640
G01 X-3.09209 Y0.49564
G01 X-3.09294 Y0.49479
G01 X-3.09804 Y0.48912
G01 X-3.09880 Y0.48818
G01 X-3.09946 Y0.48717
G01 X-3.10327 Y0.48056
G01 X-3.10382 Y0.47949
G01 X-3.10425 Y0.47837
G01 X-3.10661 Y0.47111
G01 X-3.10692 Y0.46995
G01 X-3.10711 Y0.46876
G01 X-3.10791 Y0.46117
G01 X-3.10797 Y0.45997
G01 X-3.10791 Y0.45877
G01 X-3.10711 Y0.45118
G01 X-3.10692 Y0.44999
G01 X-3.10661 Y0.44883
G01 X-3.10425 Y0.44157
G01 X-3.10382 Y0.44045
G01 X-3.10327 Y0.43937
G01 X-3.09946 Y0.43276
G01 X-3.09880 Y0.43176
G01 X-3.09804 Y0.43082
G01 X-3.09294 Y0.42515
G01 X-3.09209 Y0.42430
G01 X-3.09115 Y0.42354
G01 X-3.08498 Y0.41906
G01 X-3.08397 Y0.41840
G01 X-3.08290 Y0.41785
G01 X-3.07592 Y0.41475
G01 X-3.07480 Y0.41432
G01 X-3.07364 Y0.41401
G01 X-3.06617 Y0.41242
G01 X-3.06499 Y0.41223
G01 X-3.06378 Y0.41217
G01 X-3.05615 Y0.41217
G01 X-3.05495 Y0.41223
G01 X-3.05376 Y0.41242
G01 X-3.04630 Y0.41401
G01 X-3.04514 Y0.41432
G01 X-3.04401 Y0.41475
G01 X-3.03704 Y0.41785
G01 X-3.03597 Y0.41840
G01 X-3.03496 Y0.41906
G01 X-3.02879 Y0.42354
G01 X-3.02785 Y0.42430
G01 X-3.02700 Y0.42515
G01 X-3.02189 Y0.43082
G01 X-3.02114 Y0.43176
G01 X-3.02048 Y0.43276
G01 X-3.01666 Y0.43937
G01 X-3.01612 Y0.44045
G01 X-3.01569 Y0.44157
G01 X-3.01333 Y0.44883
G01 X-3.01302 Y0.44999
G01 X-3.01283 Y0.45118
G01 X-3.01203 Y0.45877
G01 X-3.01197 Y0.45997
G04 P0 ( dwell for no time -- G64 should not smooth over this point )
G00 Z0.05000 ( retract )

G00 X-3.00997 Y0.53883 ( rapid move to begin. )
G01 F5.00000
( Mill infeed pass 1/1 )
G01 Z-0.00300
G04 P0 ( dwell for no time -- G64 should not smooth over this point )
G01 F10.00000
G01 X-3.00997 Y0.53883
G01 X-3.00672 Y0.54094
G01 X-3.00140 Y0.54365
G01 X-2.99443 Y0.54675
G01 X-2.98886 Y0.54889
G01 X-2.98310 Y0.55044
G01 X-2.97563 Y0.55202
G01 X-2.96974 Y0.55296
G01 X-2.96378 Y0.55327
G01 X-2.95615 Y0.55327
G01 X-2.95019 Y0.55296
G01 X-2.94430 Y0.55202
G01 X-2.94197 Y0.55153
G01 X-2.94197 Y0.59747
G01 X-2.94146 Y0.59765
G01 X-2.94197 Y0.59747
G01 X-3.00191 Y0.67301
G01 X-3.00147 Y0.67391
G01 X-3.00191 Y0.67301
G01 X-3.11988 Y0.67301
G01 X-3.11988 Y0.67304
G01 X-3.11988 Y0.67301
G01 X-3.12523 Y0.67139
G01 X-3.13635 Y0.67029
G01 X-3.18359 Y0.67029
G01 X-3.19471 Y0.67139
G01 X-3.20006 Y0.67301
G01 X-3.20005 Y0.67304
G01 X-3.20006 Y0.67301
G01 X-3.21988 Y0.67301
G01 X-3.21988 Y0.67304
G01 X-3.21988 Y0.67301
G01 X-3.22523 Y0.67139
G01 X-3.23635 Y0.67029
G01 X-3.28359 Y0.67029
G01 X-3.29471 Y0.67139
G01 X-3.30006 Y0.67301
G01 X-3.30005 Y0.67304
G01 X-3.30006 Y0.67301
G01 X-3.31988 Y0.67301
G01 X-3.31988 Y0.67304
G01 X-3.31988 Y0.67301
G01 X-3.32523 Y0.67139
G01 X-3.33635 Y0.67029
G01 X-3.38359 Y0.67029
G01 X-3.39471 Y0.67139
G01 X-3.40006 Y0.67301
G01 X-3.40005 Y0.67304
G01 X-3.40006 Y0.67301
G01 X-3.41988 Y0.67301
G01 X-3.41988 Y0.67304
G01 X-3.41988 Y0.67301
G01 X-3.42523 Y0.67139
G01 X-3.43635 Y0.67029
G01 X-3.48359 Y0.67029
G01 X-3.49471 Y0.67139
G01 X-3.50006 Y0.67301
G01 X-3.50005 Y0.67304
G01 X-3.50006 Y0.67301
G01 X-3.51954 Y0.67301
G01 X-3.51954 Y0.67305
G01 X-3.51954 Y0.67301
G01 X-3.52645 Y0.67116
G01 X-3.53287 Y0.67060
G01 X-3.53296 Y0.67081
G01 X-3.53287 Y0.67060
G01 X-3.53421 Y0.66945
G01 X-3.54145 Y0.66419
G01 X-3.54345 Y0.66297
G01 X-3.55142 Y0.65890
G01 X-3.55360 Y0.65800
G01 X-3.56210 Y0.65524
G01 X-3.56439 Y0.65469
G01 X-3.57323 Y0.65329
G01 X-3.57557 Y0.65311
G01 X-3.58005 Y0.65293
G01 X-3.59665 Y0.65293
G01 X-3.59552 Y0.65239
G01 X-3.58004 Y0.64502
G01 X-3.57856 Y0.64417
G01 X-3.57856 Y0.64416
G01 X-3.57811 Y0.64391
G01 X-3.57856 Y0.64416
G01 X-3.57856 Y0.64417
G01 X-3.58004 Y0.64502
G01 X-3.59552 Y0.65239
G01 X-3.59665 Y0.65293
G01 X-3.59552 Y0.65239
G01 X-3.58004 Y0.64502
G01 X-3.57856 Y0.64417
G01 X-3.57856 Y0.64416
G01 X-3.57528 Y0.63802
G01 X-3.57152 Y0.62562
G01 X-3.57025 Y0.61272
G01 X-3.57025 Y0.57729
G01 X-3.57152 Y0.56440
G01 X-3.57237 Y0.56158
G01 X-3.57682 Y0.55760
G01 X-3.57216 Y0.56178
G01 X-3.56378 Y0.56927
G01 X-3.56175 Y0.57119
G01 X-3.56145 Y0.57147
G01 X-3.55615 Y0.57647
G01 X-3.55532 Y0.57729
G01 X-3.55189 Y0.58035
G01 X-3.55189 Y0.58034
G01 X-3.54734 Y0.58011
G01 X-3.53863 Y0.57873
G01 X-3.53116 Y0.57714
G01 X-3.52264 Y0.57486
G01 X-3.51440 Y0.57169
G01 X-3.50997 Y0.56972
G01 X-3.50554 Y0.57169
G01 X-3.49730 Y0.57486
G01 X-3.48877 Y0.57714
G01 X-3.48131 Y0.57873
G01 X-3.47260 Y0.58011
G01 X-3.46378 Y0.58057
G01 X-3.45615 Y0.58057
G01 X-3.44734 Y0.58011
G01 X-3.43863 Y0.57873
G01 X-3.43116 Y0.57714
G01 X-3.42264 Y0.57486
G01 X-3.41440 Y0.57169
G01 X-3.40997 Y0.56972
G01 X-3.40997 Y0.56288
G01 X-3.40997 Y0.56287
G01 X-3.40997 Y0.55968
G01 X-3.40997 Y0.54949
G01 X-3.40997 Y0.53883
G01 X-3.40997 Y0.53528
G01 X-3.40997 Y0.52772
G01 X-3.40997 Y0.52230
G01 X-3.40997 Y0.51624
G01 X-3.40997 Y0.51013
G01 X-3.40997 Y0.50307
G01 X-3.40997 Y0.49986
G01 X-3.40997 Y0.49324
G01 X-3.40997 Y0.48717
G01 X-3.40997 Y0.48443
G01 X-3.40997 Y0.48023
G01 X-3.40997 Y0.47220
G01 X-3.40997 Y0.46906
G01 X-3.40997 Y0.46139
G01 X-3.40997 Y0.45855
G01 X-3.40997 Y0.45088
G01 X-3.40997 Y0.44774
G01 X-3.40997 Y0.43971
G01 X-3.40997 Y0.43551
G01 X-3.40997 Y0.43277
G01 X-3.40997 Y0.42670
G01 X-3.40997 Y0.42008
G01 X-3.40997 Y0.41686
G01 X-3.40997 Y0.40981
G01 X-3.40997 Y0.40370
G01 X-3.40997 Y0.39764
G01 X-3.40997 Y0.39222
G01 X-3.40997 Y0.38466
G01 X-3.40997 Y0.38111
G01 X-3.40997 Y0.38111
G01 X-3.40997 Y0.37045
G01 X-3.40997 Y0.37045
G01 X-3.40997 Y0.36025
G01 X-3.40997 Y0.37045
G01 X-3.40997 Y0.37045
G01 X-3.40997 Y0.38111
G01 X-3.40997 Y0.38111
G01 X-3.40997 Y0.38466
G01 X-3.40997 Y0.39222
G01 X-3.40997 Y0.39764
G01 X-3.40997 Y0.40370
G01 X-3.40997 Y0.40981
G01 X-3.40997 Y0.41686
G01 X-3.40997 Y0.42008
G01 X-3.40997 Y0.42670
G01 X-3.40997 Y0.43277
G01 X-3.40997 Y0.43551
G01 X-3.40997 Y0.43971
G01 X-3.40997 Y0.44774
G01 X-3.40997 Y0.45088
G01 X-3.40997 Y0.45855
G01 X-3.40997 Y0.46139
G01 X-3.40997 Y0.46906
G01 X-3.40997 Y0.47220
G01 X-3.40997 Y0.48023
G01 X-3.40997 Y0.48443
G01 X-3.40997 Y0.48717
G01 X-3.40997 Y0.49324
G01 X-3.40997 Y0.49986
G01 X-3.40997 Y0.50307
G01 X-3.40997 Y0.51013
G01 X-3.40997 Y0.51624
G01 X-3.40997 Y0.52230
G01 X-3.40997 Y0.52772
G01 X-3.40997 Y0.53528
G01 X-3.40997 Y0.53883
G01 X-3.40997 Y0.54949
G01 X-3.40997 Y0.55968
G01 X-3.40997 Y0.56287
G01 X-3.40997 Y0.56288
G01 X-3.40997 Y0.56972
G01 X-3.40997 Y0.57968
G01 X-3.40997 Y0.58163
G01 X-3.40997 Y0.58164
G01 X-3.40997 Y0.58946
G01 X-3.40997 Y0.59919
G01 X-3.40997 Y0.60893
G01 X-3.40997 Y0.60916
G01 X-3.41088 Y0.60931
G01 X-3.41097 Y0.60931
G01 X-3.42417 Y0.61001
G01 X-3.41097 Y0.60931
G01 X-3.41097 Y0.60931
G01 X-3.40997 Y0.60893
G01 X-3.40897 Y0.60931
G01 X-3.40897 Y0.60931
G01 X-3.39577 Y0.61001
G01 X-3.40897 Y0.60931
G01 X-3.40906 Y0.60931
G01 X-3.41088 Y0.60931
G01 X-3.40997 Y0.60916
G01 X-3.40906 Y0.60931
G01 X-3.40997 Y0.60916
G01 X-3.40997 Y0.60893
G01 X-3.40997 Y0.59919
G01 X-3.40997 Y0.58946
G01 X-3.40997 Y0.58164
G01 X-3.40997 Y0.58163
G01 X-3.40997 Y0.57968
G01 X-3.40997 Y0.56972
G01 X-3.40997 Y0.56288
G01 X-3.40997 Y0.56287
G01 X-3.40997 Y0.55968
G01 X-3.40997 Y0.54949
G01 X-3.40997 Y0.53883
G01 X-3.41322 Y0.54094
G01 X-3.41853 Y0.54365
G01 X-3.42550 Y0.54675
G01 X-3.43107 Y0.54889
G01 X-3.43684 Y0.55044
G01 X-3.44430 Y0.55202
G01 X-3.45019 Y0.55296
G01 X-3.45615 Y0.55327
G01 X-3.46378 Y0.55327
G01 X-3.46974 Y0.55296
G01 X-3.47563 Y0.55202
G01 X-3.48310 Y0.55044
G01 X-3.48886 Y0.54889
G01 X-3.49443 Y0.54675
G01 X-3.50140 Y0.54365
G01 X-3.50672 Y0.54094
G01 X-3.50997 Y0.53883
G01 X-3.50997 Y0.53528
G01 X-3.50997 Y0.52772
G01 X-3.50997 Y0.52230
G01 X-3.50997 Y0.51624
G01 X-3.50997 Y0.51013
G01 X-3.50997 Y0.50307
G01 X-3.50997 Y0.49986
G01 X-3.50997 Y0.49324
G01 X-3.50997 Y0.48717
G01 X-3.50997 Y0.48443
G01 X-3.50997 Y0.48023
G01 X-3.50997 Y0.47220
G01 X-3.50997 Y0.46906
G01 X-3.50997 Y0.46139
G01 X-3.50997 Y0.45855
G01 X-3.50997 Y0.45088
G01 X-3.50997 Y0.44774
G01 X-3.50997 Y0.43971
G01 X-3.50997 Y0.43551
G01 X-3.50997 Y0.43277
G01 X-3.50997 Y0.42670
G01 X-3.50997 Y0.42008
G01 X-3.50997 Y0.41686
G01 X-3.50997 Y0.40981
G01 X-3.50997 Y0.40370
G01 X-3.50720 Y0.40145
G01 X-3.50102 Y0.39697
G01 X-3.49762 Y0.39476
G01 X-3.49400 Y0.39291
G01 X-3.48703 Y0.38981
G01 X-3.48324 Y0.38835
G01 X-3.47931 Y0.38730
G01 X-3.47185 Y0.38572
G01 X-3.46784 Y0.38508
G01 X-3.46378 Y0.38487
G01 X-3.45615 Y0.38487
G01 X-3.45210 Y0.38508
G01 X-3.44809 Y0.38572
G01 X-3.44062 Y0.38730
G01 X-3.43670 Y0.38835
G01 X-3.43291 Y0.38981
G01 X-3.42594 Y0.39291
G01 X-3.42232 Y0.39476
G01 X-3.41891 Y0.39697
G01 X-3.41274 Y0.40145
G01 X-3.40997 Y0.40370
G01 X-3.40997 Y0.40981
G01 X-3.40997 Y0.41686
G01 X-3.40997 Y0.42008
G01 X-3.40997 Y0.42670
G01 X-3.40997 Y0.43277
G01 X-3.40997 Y0.43551
G01 X-3.40997 Y0.43971
G01 X-3.40997 Y0.44774
G01 X-3.40997 Y0.45088
G01 X-3.40997 Y0.45855
G01 X-3.41197 Y0.45997
G01 X-3.41203 Y0.46117
G01 X-3.41283 Y0.46876
G01 X-3.41302 Y0.46995
G01 X-3.41333 Y0.47111
G01 X-3.41569 Y0.47837
G01 X-3.41612 Y0.47949
G01 X-3.41666 Y0.48056
G01 X-3.42048 Y0.48717
G01 X-3.42114 Y0.48818
G01 X-3.42189 Y0.48912
G01 X-3.42700 Y0.49479
G01 X-3.42785 Y0.49564
G01 X-3.42879 Y0.49640
G01 X-3.43496 Y0.50088
G01 X-3.43597 Y0.50154
G01 X-3.43704 Y0.50208
G01 X-3.44401 Y0.50519
G01 X-3.44514 Y0.50562
G01 X-3.44630 Y0.50593
G01 X-3.45376 Y0.50752
G01 X-3.45495 Y0.50771
G01 X-3.45615 Y0.50777
G01 X-3.46378 Y0.50777
G01 X-3.46499 Y0.50771
G01 X-3.46617 Y0.50752
G01 X-3.47364 Y0.50593
G01 X-3.47480 Y0.50562
G01 X-3.47592 Y0.50519
G01 X-3.48290 Y0.50208
G01 X-3.48397 Y0.50154
G01 X-3.48498 Y0.50088
G01 X-3.49115 Y0.49640
G01 X-3.49209 Y0.49564
G01 X-3.49294 Y0.49479
G01 X-3.49804 Y0.48912
G01 X-3.49880 Y0.48818
G01 X-3.49946 Y0.48717
G01 X-3.50327 Y0.48056
G01 X-3.50382 Y0.47949
G01 X-3.50425 Y0.47837
G01 X-3.50661 Y0.47111
G01 X-3.50692 Y0.46995
G01 X-3.50711 Y0.46876
G01 X-3.50791 Y0.46117
G01 X-3.50797 Y0.45997
G01 X-3.50791 Y0.45877
G01 X-3.50711 Y0.45118
G01 X-3.50692 Y0.44999
G01 X-3.50661 Y0.44883
G01 X-3.50425 Y0.44157
G01 X-3.50382 Y0.44045
G01 X-3.50327 Y0.43937
G01 X-3.49946 Y0.43276
G01 X-3.49880 Y0.43176
G01 X-3.49804 Y0.43082
G01 X-3.49294 Y0.42515
G01 X-3.49209 Y0.42430
G01 X-3.49115 Y0.42354
G01 X-3.48498 Y0.41906
G01 X-3.48397 Y0.41840
G01 X-3.48290 Y0.41785
G01 X-3.47592 Y0.41475
G01 X-3.47480 Y0.41432
G01 X-3.47364 Y0.41401
G01 X-3.46617 Y0.41242
G01 X-3.46499 Y0.41223
G01 X-3.46378 Y0.41217
G01 X-3.45615 Y0.41217
G01 X-3.45495 Y0.41223
G01 X-3.45376 Y0.41242
G01 X-3.44630 Y0.41401
G01 X-3.44514 Y0.41432
G01 X-3.44401 Y0.41475
G01 X-3.43704 Y0.41785
G01 X-3.43597 Y0.41840
G01 X-3.43496 Y0.41906
G01 X-3.42879 Y0.42354
G01 X-3.42785 Y0.42430
G01 X-3.42700 Y0.42515
G01 X-3.42189 Y0.43082
G01 X-3.42114 Y0.43176
G01 X-3.42048 Y0.43276
G01 X-3.41666 Y0.43937
G01 X-3.41612 Y0.44045
G01 X-3.41569 Y0.44157
G01 X-3.41333 Y0.44883
G01 X-3.41302 Y0.44999
G01 X-3.41283 Y0.45118
G01 X-3.41203 Y0.45877
G01 X-3.41197 Y0.45997
G04 P0 ( dwell for no time -- G64 should not smooth over this point )
G00 Z0.05000 ( retract )

G00 X-3.50997 Y0.37045 ( rapid move to begin. )
G01 F5.00000
( Mill infeed pass 1/1 )
G01 Z-0.00300
G04 P0 ( dwell for no time -- G64 should not smooth over this point )
G01 F10.00000
G01 X-3.50997 Y0.37045
G01 X-3.50510 Y0.36797
G01 X-3.49813 Y0.36487
G01 X-3.49167 Y0.36239
G01 X-3.48499 Y0.36060
G01 X-3.47753 Y0.35901
G01 X-3.47069 Y0.35793
G01 X-3.46378 Y0.35757
G01 X-3.45615 Y0.35757
G01 X-3.44924 Y0.35793
G01 X-3.44241 Y0.35901
G01 X-3.43495 Y0.36060
G01 X-3.42826 Y0.36239
G01 X-3.42180 Y0.36487
G01 X-3.41483 Y0.36797
G01 X-3.40997 Y0.37045
G04 P0 ( dwell for no time -- G64 should not smooth over this point )
G00 Z0.05000 ( retract )

G00 X-3.40997 Y0.36025 ( rapid move to begin. )
G01 F5.00000
( Mill infeed pass 1/1 )
G01 Z-0.00300
G04 P0 ( dwell for no time -- G64 should not smooth over this point )
G01 F10.00000
G01 X-3.40997 Y0.36025
G01 X-3.40997 Y0.35707
G01 X-3.40997 Y0.35706
G01 X-3.40997 Y0.35022
G01 X-3.41440 Y0.34824
G01 X-3.42264 Y0.34508
G01 X-3.43116 Y0.34280
G01 X-3.43863 Y0.34121
G01 X-3.44734 Y0.33983
G01 X-3.45615 Y0.33937
G01 X-3.46378 Y0.33937
G01 X-3.47260 Y0.33983
G01 X-3.48131 Y0.34121
G01 X-3.48877 Y0.34280
G01 X-3.49730 Y0.34508
G01 X-3.50554 Y0.34824
G01 X-3.50997 Y0.35022
G01 X-3.51440 Y0.34824
G01 X-3.52264 Y0.34508
G01 X-3.53116 Y0.34280
G01 X-3.53863 Y0.34121
G01 X-3.54734 Y0.33983
G01 X-3.55615 Y0.33937
G01 X-3.56378 Y0.33937
G01 X-3.57260 Y0.33983
G01 X-3.57425 Y0.34009
G01 X-3.57425 Y0.34009
G01 X-3.57448 Y0.34065
G01 X-3.57425 Y0.34009
G01 X-3.57422 Y0.34003
G01 X-3.57422 Y0.34003
G01 X-3.57712 Y0.33649
G01 X-3.58268 Y0.33036
G01 X-3.63035 Y0.28268
G01 X-3.63522 Y0.27819
G01 X-3.63820 Y0.27564
G01 X-3.64890 Y0.26787
G01 X-3.65224 Y0.26582
G01 X-3.66403 Y0.25981
G01 X-3.66766 Y0.25831
G01 X-3.68024 Y0.25422
G01 X-3.68405 Y0.25331
G01 X-3.69712 Y0.25124
G01 X-3.70103 Y0.25093
G01 X-3.70764 Y0.25067
G01 X-3.82509 Y0.25067
G01 X-3.83335 Y0.25107
G01 X-3.83823 Y0.25156
G01 X-3.85444 Y0.25478
G01 X-3.85913 Y0.25620
G01 X-3.86692 Y0.25899
G01 X-3.87439 Y0.26253
G01 X-3.87872 Y0.26484
G01 X-3.88581 Y0.26909
G01 X-3.89246 Y0.27402
G01 X-3.89625 Y0.27713
G01 X-3.90237 Y0.28268
G01 X-4.73725 Y1.11756
G01 X-4.74281 Y1.12369
G01 X-4.74592 Y1.12748
G01 X-4.75085 Y1.13413
G01 X-4.75510 Y1.14122
G01 X-4.75741 Y1.14554
G01 X-4.76373 Y1.16081
G01 X-4.76516 Y1.16550
G01 X-4.76717 Y1.17353
G01 X-4.76838 Y1.18171
G01 X-4.76886 Y1.18659
G01 X-4.76927 Y1.19485
G01 X-4.76927 Y1.30766
G01 X-4.76914 Y1.30768
G01 X-4.76927 Y1.30766
G01 X-4.77078 Y1.31063
G01 X-4.77394 Y1.31887
G01 X-4.77633 Y1.32623
G01 X-4.77862 Y1.33475
G01 X-4.78000 Y1.34346
G01 X-4.78081 Y1.35116
G01 X-4.78127 Y1.35997
G01 X-4.78081 Y1.36878
G01 X-4.78000 Y1.37647
G01 X-4.77862 Y1.38519
G01 X-4.77633 Y1.39371
G01 X-4.77394 Y1.40107
G01 X-4.77078 Y1.40931
G01 X-4.76687 Y1.41697
G01 X-4.76665 Y1.41693
G01 X-4.76687 Y1.41697
G01 X-4.76789 Y1.42729
G01 X-4.76789 Y1.46272
G01 X-4.76627 Y1.47917
G01 X-4.76147 Y1.49499
G01 X-4.75368 Y1.50956
G01 X-4.75335 Y1.50997
G01 X-4.74163 Y1.50997
G01 X-4.72971 Y1.50997
G01 X-4.71544 Y1.50997
G01 X-4.69025 Y1.50997
G01 X-4.69024 Y1.50997
G01 X-4.68359 Y1.50997
G01 X-4.63634 Y1.50997
G01 X-4.62968 Y1.50997
G01 X-4.62010 Y1.50997
G01 X-4.62008 Y1.51007
G01 X-4.62010 Y1.50997
G01 X-4.62009 Y1.51003
G01 X-4.62010 Y1.50997
G01 X-4.60506 Y1.50629
G01 X-4.60506 Y1.50632
G01 X-4.60506 Y1.50629
G01 X-4.59663 Y1.50293
G01 X-4.59563 Y1.50253
G01 X-4.59003 Y1.50029
G01 X-4.57767 Y1.49249
G01 X-4.57767 Y1.49249
G01 X-4.59003 Y1.50029
G01 X-4.59001 Y1.50033
G01 X-4.59003 Y1.50029
G01 X-4.57767 Y1.49249
G01 X-4.59003 Y1.50029
G01 X-4.57979 Y1.49383
G01 X-4.57767 Y1.49249
G01 X-4.57767 Y1.49249
G01 X-4.57767 Y1.49249
G01 X-4.57528 Y1.48802
G01 X-4.57152 Y1.47562
G01 X-4.57025 Y1.46272
G01 X-4.57025 Y1.42729
G01 X-4.57152 Y1.41440
G01 X-4.57188 Y1.41319
G01 X-4.57231 Y1.41311
G01 X-4.57188 Y1.41319
G01 X-4.56892 Y1.40807
G01 X-4.56578 Y1.40190
G01 X-4.56330 Y1.39544
G01 X-4.56091 Y1.38809
G01 X-4.55997 Y1.38456
G01 X-4.55902 Y1.38809
G01 X-4.55663 Y1.39544
G01 X-4.55415 Y1.40190
G01 X-4.55101 Y1.40807
G01 X-4.54805 Y1.41319
G01 X-4.54762 Y1.41311
G01 X-4.54805 Y1.41319
G01 X-4.54842 Y1.41440
G01 X-4.54969 Y1.42729
G01 X-4.54969 Y1.46272
G01 X-4.54842 Y1.47562
G01 X-4.54466 Y1.48802
G01 X-4.54227 Y1.49249
G01 X-4.54227 Y1.49249
G01 X-4.54015 Y1.49383
G01 X-4.52990 Y1.50029
G01 X-4.52431 Y1.50253
G01 X-4.51487 Y1.50629
G01 X-4.49984 Y1.50997
G01 X-4.49025 Y1.50997
G01 X-4.48359 Y1.50997
G01 X-4.43635 Y1.50997
G01 X-4.42968 Y1.50997
G01 X-4.42009 Y1.50997
G01 X-4.40506 Y1.50629
G01 X-4.39663 Y1.50293
G01 X-4.39563 Y1.50253
G01 X-4.39003 Y1.50029
G01 X-4.37979 Y1.49383
G01 X-4.37767 Y1.49249
G01 X-4.36537 Y1.48473
G01 X-4.36469 Y1.48430
G01 X-4.35997 Y1.48132
G01 X-4.35997 Y1.46273
G01 X-4.35997 Y1.42729
G01 X-4.35997 Y1.41506
G01 X-4.35997 Y1.41324
G01 X-4.35997 Y1.41051
G01 X-4.35997 Y1.39652
G01 X-4.35997 Y1.38839
G01 X-4.35997 Y1.38456
G01 X-4.35997 Y1.37437
G01 X-4.35997 Y1.36659
G01 X-4.35997 Y1.35334
G01 X-4.35997 Y1.34557
G01 X-4.35997 Y1.33537
G01 X-4.35997 Y1.33155
G01 X-4.35997 Y1.32341
G01 X-4.35997 Y1.30967
G01 X-4.35984 Y1.30918
G01 X-4.35984 Y1.30918
G01 X-4.35984 Y1.30917
G01 X-4.35930 Y1.30708
G01 X-4.35723 Y1.29935
G01 X-4.35175 Y1.28253
G01 X-4.35067 Y1.27972
G01 X-4.35067 Y1.20524
G01 X-4.35136 Y1.20496
G01 X-4.35067 Y1.20524
G01 X-3.86789 Y0.72246
G01 X-3.86157 Y0.70721
G01 X-3.85815 Y0.70071
G01 X-3.85720 Y0.69890
G01 X-3.84806 Y0.68155
G01 X-3.83048 Y0.65997
G01 X-3.82971 Y0.65997
G01 X-3.81544 Y0.65997
G01 X-3.79025 Y0.65997
G01 X-3.78359 Y0.65997
G01 X-3.73635 Y0.65997
G01 X-3.72968 Y0.65997
G01 X-3.72010 Y0.65997
G01 X-3.70997 Y0.65775
G01 X-3.70997 Y0.65268
G01 X-3.70997 Y0.64103
G01 X-3.70515 Y0.64499
G01 X-3.69844 Y0.64857
G01 X-3.69116 Y0.65078
G01 X-3.68359 Y0.65152
G01 X-3.63635 Y0.65152
G01 X-3.62878 Y0.65078
G01 X-3.62150 Y0.64857
G01 X-3.61479 Y0.64499
G01 X-3.60891 Y0.64016
G01 X-3.60408 Y0.63428
G01 X-3.60050 Y0.62757
G01 X-3.59829 Y0.62029
G01 X-3.59755 Y0.61272
G01 X-3.59755 Y0.57729
G01 X-3.59829 Y0.56972
G01 X-3.60050 Y0.56244
G01 X-3.60408 Y0.55574
G01 X-3.60617 Y0.55320
G01 X-3.60651 Y0.55329
G01 X-3.60617 Y0.55320
G01 X-3.60617 Y0.51923
G01 X-3.60617 Y0.51923
G01 X-3.60617 Y0.51923
G01 X-3.60293 Y0.52559
G01 X-3.59752 Y0.53493
G01 X-3.59707 Y0.53562
G01 X-3.59256 Y0.54256
G01 X-3.58919 Y0.54750
G01 X-3.58668 Y0.54948
G01 X-3.58667 Y0.54948
G01 X-3.58310 Y0.55044
G01 X-3.57563 Y0.55202
G01 X-3.56974 Y0.55296
G01 X-3.56378 Y0.55327
G01 X-3.55615 Y0.55327
G01 X-3.55019 Y0.55296
G01 X-3.54430 Y0.55202
G01 X-3.53684 Y0.55044
G01 X-3.53107 Y0.54889
G01 X-3.52550 Y0.54675
G01 X-3.51853 Y0.54365
G01 X-3.51322 Y0.54094
G01 X-3.50997 Y0.53883
G04 P0 ( dwell for no time -- G64 should not smooth over this point )
G00 Z0.05000 ( retract )

G00 X-3.59665 Y0.65293 ( rapid move to begin. )
G01 F5.00000
( Mill infeed pass 1/1 )
G01 Z-0.00300
G04 P0 ( dwell for no time -- G64 should not smooth over this point )
G01 F10.00000
G01 X-3.59665 Y0.65293
G01 X-3.59552 Y0.65239
G01 X-3.58895 Y0.64439
G01 X-3.58368 Y0.63454
G01 X-3.58044 Y0.62385
G01 X-3.57935 Y0.61272
G01 X-3.57935 Y0.57729
G01 X-3.58044 Y0.56617
G01 X-3.58368 Y0.55548
G01 X-3.58705 Y0.54918
G01 X-3.58919 Y0.54750
G01 X-3.58926 Y0.54756
G01 X-3.58919 Y0.54750
G01 X-3.58667 Y0.54948
G01 X-3.58344 Y0.55203
G01 X-3.57682 Y0.55760
G01 X-3.57216 Y0.56178
G01 X-3.57069 Y0.56201
G01 X-3.56378 Y0.56237
G01 X-3.55615 Y0.56237
G01 X-3.54924 Y0.56201
G01 X-3.54241 Y0.56092
G01 X-3.53495 Y0.55934
G01 X-3.52826 Y0.55755
G01 X-3.52180 Y0.55507
G01 X-3.51483 Y0.55196
G01 X-3.50997 Y0.54949
G01 X-3.50997 Y0.55968
G01 X-3.50880 Y0.56028
G01 X-3.50183 Y0.56338
G01 X-3.49449 Y0.56620
G01 X-3.48688 Y0.56824
G01 X-3.47942 Y0.56983
G01 X-3.47164 Y0.57106
G01 X-3.46378 Y0.57147
G01 X-3.45615 Y0.57147
G01 X-3.44829 Y0.57106
G01 X-3.44052 Y0.56983
G01 X-3.43305 Y0.56824
G01 X-3.42545 Y0.56620
G01 X-3.41810 Y0.56338
G01 X-3.41113 Y0.56028
G01 X-3.40997 Y0.55968
G01 X-3.40997 Y0.54949
G01 X-3.41483 Y0.55196
G01 X-3.42180 Y0.55507
G01 X-3.42826 Y0.55755
G01 X-3.43495 Y0.55934
G01 X-3.44241 Y0.56092
G01 X-3.44924 Y0.56201
G01 X-3.45615 Y0.56237
G01 X-3.46378 Y0.56237
G01 X-3.47069 Y0.56201
G01 X-3.47753 Y0.56092
G01 X-3.48499 Y0.55934
G01 X-3.49167 Y0.55755
G01 X-3.49813 Y0.55507
G01 X-3.50510 Y0.55196
G01 X-3.50997 Y0.54949
G01 X-3.50997 Y0.55968
G01 X-3.50880 Y0.56028
G01 X-3.50183 Y0.56338
G01 X-3.49449 Y0.56620
G01 X-3.48688 Y0.56824
G01 X-3.47942 Y0.56983
G01 X-3.47164 Y0.57106
G01 X-3.46378 Y0.57147
G01 X-3.45615 Y0.57147
G01 X-3.44829 Y0.57106
G01 X-3.44052 Y0.56983
G01 X-3.43305 Y0.56824
G01 X-3.42545 Y0.56620
G01 X-3.41810 Y0.56338
G01 X-3.41113 Y0.56028
G01 X-3.40997 Y0.55968
G01 X-3.40997 Y0.54949
G01 X-3.40510 Y0.55196
G01 X-3.39813 Y0.55507
G01 X-3.39167 Y0.55755
G01 X-3.38499 Y0.55934
G01 X-3.37753 Y0.56092
G01 X-3.37069 Y0.56201
G01 X-3.36378 Y0.56237
G01 X-3.35615 Y0.56237
G01 X-3.34924 Y0.56201
G01 X-3.34241 Y0.56092
G01 X-3.33495 Y0.55934
G01 X-3.32826 Y0.55755
G01 X-3.32180 Y0.55507
G01 X-3.31483 Y0.55196
G01 X-3.30997 Y0.54949
G01 X-3.30997 Y0.54949
G01 X-3.30997 Y0.53883
G01 X-3.30672 Y0.54094
G01 X-3.30140 Y0.54365
G01 X-3.29443 Y0.54675
G01 X-3.28886 Y0.54889
G01 X-3.28310 Y0.55044
G01 X-3.27563 Y0.55202
G01 X-3.26974 Y0.55296
G01 X-3.26378 Y0.55327
G01 X-3.25615 Y0.55327
G01 X-3.25019 Y0.55296
G01 X-3.24430 Y0.55202
G01 X-3.23684 Y0.55044
G01 X-3.23107 Y0.54889
G01 X-3.22550 Y0.54675
G01 X-3.21853 Y0.54365
G01 X-3.21322 Y0.54094
G01 X-3.20997 Y0.53883
G01 X-3.20997 Y0.54949
G01 X-3.21483 Y0.55196
G01 X-3.22180 Y0.55507
G01 X-3.22826 Y0.55755
G01 X-3.23495 Y0.55934
G01 X-3.24241 Y0.56092
G01 X-3.24924 Y0.56201
G01 X-3.25615 Y0.56237
G01 X-3.26378 Y0.56237
G01 X-3.27069 Y0.56201
G01 X-3.27753 Y0.56092
G01 X-3.28499 Y0.55934
G01 X-3.29167 Y0.55755
G01 X-3.29813 Y0.55507
G01 X-3.30510 Y0.55196
G01 X-3.30997 Y0.54949
G04 P0 ( dwell for no time -- G64 should not smooth over this point )
G00 Z0.05000 ( retract )

G00 X-3.30997 Y0.54949 ( rapid move to begin. )
G01 F5.00000
( Mill infeed pass 1/1 )
G01 Z-0.00300
G04 P0 ( dwell for no time -- G64 should not smooth over this point )
G01 F10.00000
G01 X-3.30997 Y0.54949
G01 X-3.30997 Y0.53883
G01 X-3.30672 Y0.54094
G01 X-3.30140 Y0.54365
G01 X-3.29443 Y0.54675
G01 X-3.28886 Y0.54889
G01 X-3.28310 Y0.55044
G01 X-3.27563 Y0.55202
G01 X-3.26974 Y0.55296
G01 X-3.26378 Y0.55327
G01 X-3.25615 Y0.55327
G01 X-3.25019 Y0.55296
G01 X-3.24430 Y0.55202
G01 X-3.23684 Y0.55044
G01 X-3.23107 Y0.54889
G01 X-3.22550 Y0.54675
G01 X-3.21853 Y0.54365
G01 X-3.21322 Y0.54094
G01 X-3.20997 Y0.53883
G01 X-3.20672 Y0.54094
G01 X-3.20140 Y0.54365
G01 X-3.19443 Y0.54675
G01 X-3.18886 Y0.54889
G01 X-3.18310 Y0.55044
G01 X-3.17563 Y0.55202
G01 X-3.16974 Y0.55296
G01 X-3.16378 Y0.55327
G01 X-3.15615 Y0.55327
G01 X-3.15019 Y0.55296
G01 X-3.14430 Y0.55202
G01 X-3.13684 Y0.55044
G01 X-3.13107 Y0.54889
G01 X-3.12550 Y0.54675
G01 X-3.11853 Y0.54365
G01 X-3.11322 Y0.54094
G01 X-3.10997 Y0.53883
G01 X-3.10997 Y0.53528
G01 X-3.10997 Y0.52772
G01 X-3.10637 Y0.53033
G01 X-3.10217 Y0.53306
G01 X-3.09770 Y0.53534
G01 X-3.09073 Y0.53844
G01 X-3.08605 Y0.54024
G01 X-3.08121 Y0.54154
G01 X-3.07374 Y0.54312
G01 X-3.06879 Y0.54391
G01 X-3.06378 Y0.54417
G01 X-3.05615 Y0.54417
G01 X-3.05115 Y0.54391
G01 X-3.04619 Y0.54312
G01 X-3.03873 Y0.54154
G01 X-3.03389 Y0.54024
G01 X-3.02921 Y0.53844
G01 X-3.02224 Y0.53534
G01 X-3.01777 Y0.53306
G01 X-3.01356 Y0.53033
G01 X-3.00997 Y0.52772
G01 X-3.00637 Y0.53033
G01 X-3.00217 Y0.53306
G01 X-2.99770 Y0.53534
G01 X-2.99073 Y0.53844
G01 X-2.98605 Y0.54024
G01 X-2.98121 Y0.54154
G01 X-2.97374 Y0.54312
G01 X-2.96879 Y0.54391
G01 X-2.96378 Y0.54417
G01 X-2.95615 Y0.54417
G01 X-2.95115 Y0.54391
G01 X-2.94619 Y0.54312
G01 X-2.93873 Y0.54154
G01 X-2.93389 Y0.54024
G01 X-2.93309 Y0.53993
G01 X-2.93287 Y0.53963
G01 X-2.93287 Y0.53963
G01 X-2.93772 Y0.54628
G01 X-2.94197 Y0.55153
G01 X-2.94390 Y0.55391
G01 X-2.95107 Y0.56185
G01 X-2.95614 Y0.56746
G01 X-2.96017 Y0.57149
G01 X-2.96017 Y0.59113
G01 X-2.95966 Y0.59131
G01 X-2.96017 Y0.59113
G01 X-3.01070 Y0.65481
G01 X-3.01026 Y0.65571
G01 X-3.01070 Y0.65481
G01 X-3.11748 Y0.65481
G01 X-3.11748 Y0.65483
G01 X-3.11748 Y0.65481
G01 X-3.12168 Y0.65354
G01 X-3.13635 Y0.65209
G01 X-3.18359 Y0.65209
G01 X-3.19826 Y0.65354
G01 X-3.20245 Y0.65481
G01 X-3.20245 Y0.65483
G01 X-3.20245 Y0.65481
G01 X-3.21748 Y0.65481
G01 X-3.21748 Y0.65483
G01 X-3.21748 Y0.65481
G01 X-3.22168 Y0.65354
G01 X-3.23635 Y0.65209
G01 X-3.28359 Y0.65209
G01 X-3.29826 Y0.65354
G01 X-3.30245 Y0.65481
G01 X-3.30245 Y0.65483
G01 X-3.30245 Y0.65481
G01 X-3.31748 Y0.65481
G01 X-3.31748 Y0.65483
G01 X-3.31748 Y0.65481
G01 X-3.32168 Y0.65354
G01 X-3.33635 Y0.65209
G01 X-3.38359 Y0.65209
G01 X-3.39826 Y0.65354
G01 X-3.40245 Y0.65481
G01 X-3.40245 Y0.65483
G01 X-3.40245 Y0.65481
G01 X-3.41748 Y0.65481
G01 X-3.41748 Y0.65483
G01 X-3.41748 Y0.65481
G01 X-3.42168 Y0.65354
G01 X-3.43635 Y0.65209
G01 X-3.48359 Y0.65209
G01 X-3.49826 Y0.65354
G01 X-3.50245 Y0.65481
G01 X-3.50245 Y0.65483
G01 X-3.50245 Y0.65481
G01 X-3.51741 Y0.65481
G01 X-3.51742 Y0.65486
G01 X-3.51741 Y0.65481
G01 X-3.52329 Y0.65323
G01 X-3.52599 Y0.65300
G01 X-3.52603 Y0.65310
G01 X-3.52599 Y0.65300
G01 X-3.53194 Y0.64868
G01 X-3.53394 Y0.64745
G01 X-3.54446 Y0.64209
G01 X-3.54663 Y0.64119
G01 X-3.55785 Y0.63754
G01 X-3.56014 Y0.63699
G01 X-3.56514 Y0.63620
G01 X-3.55906 Y0.63254
G01 X-3.55622 Y0.63080
G01 X-3.55383 Y0.62931
G01 X-3.55368 Y0.62922
G01 X-3.55368 Y0.62922
G01 X-3.54398 Y0.62318
G01 X-3.54397 Y0.62318
G01 X-3.55368 Y0.62922
G01 X-3.55367 Y0.62917
G01 X-3.55205 Y0.61272
G01 X-3.55205 Y0.58021
G01 X-3.55532 Y0.57729
G01 X-3.55189 Y0.58034
G01 X-3.54266 Y0.58857
G01 X-3.53673 Y0.58763
G01 X-3.52927 Y0.58604
G01 X-3.51983 Y0.58351
G01 X-3.51070 Y0.58001
G01 X-3.50997 Y0.57968
G01 X-3.50924 Y0.58001
G01 X-3.50011 Y0.58351
G01 X-3.49067 Y0.58604
G01 X-3.48320 Y0.58763
G01 X-3.47355 Y0.58916
G01 X-3.46378 Y0.58967
G01 X-3.45615 Y0.58967
G01 X-3.44639 Y0.58916
G01 X-3.43673 Y0.58763
G01 X-3.42927 Y0.58604
G01 X-3.41983 Y0.58351
G01 X-3.41070 Y0.58001
G01 X-3.40997 Y0.57968
G01 X-3.40997 Y0.58163
G01 X-3.40997 Y0.58164
G01 X-3.40997 Y0.58946
G01 X-3.41701 Y0.59217
G01 X-3.42738 Y0.59494
G01 X-3.43484 Y0.59653
G01 X-3.44544 Y0.59821
G01 X-3.45615 Y0.59877
G01 X-3.46378 Y0.59877
G01 X-3.47450 Y0.59821
G01 X-3.48509 Y0.59653
G01 X-3.49256 Y0.59494
G01 X-3.50292 Y0.59217
G01 X-3.50997 Y0.58946
G04 P0 ( dwell for no time -- G64 should not smooth over this point )
G00 Z0.05000 ( retract )

G00 X-3.59665 Y0.65293 ( rapid move to begin. )
G01 F5.00000
( Mill infeed pass 1/1 )
G01 Z-0.00300
G04 P0 ( dwell for no time -- G64 should not smooth over this point )
G01 F10.00000
G01 X-3.59665 Y0.65293
G01 X-3.60007 Y0.65456
G01 X-3.62010 Y0.65997
G01 X-3.62968 Y0.65997
G01 X-3.62969 Y0.65997
G01 X-3.62700 Y0.65970
G01 X-3.61802 Y0.65698
G01 X-3.60973 Y0.65255
G01 X-3.60248 Y0.64660
G01 X-3.59652 Y0.63934
G01 X-3.59209 Y0.63106
G01 X-3.58937 Y0.62207
G01 X-3.58845 Y0.61272
G01 X-3.58845 Y0.57729
G01 X-3.58937 Y0.56795
G01 X-3.59209 Y0.55896
G01 X-3.59652 Y0.55068
G01 X-3.59707 Y0.55001
G01 X-3.59736 Y0.55009
G01 X-3.59707 Y0.55001
G01 X-3.59707 Y0.53562
G04 P0 ( dwell for no time -- G64 should not smooth over this point )
G00 Z0.05000 ( retract )

G00 X-3.59301 Y0.38478 ( rapid move to begin. )
G01 F5.00000
( Mill infeed pass 1/1 )
G01 Z-0.00300
G04 P0 ( dwell for no time -- G64 should not smooth over this point )
G01 F10.00000
G01 X-3.59301 Y0.38478
G01 X-3.59187 Y0.38215
G01 X-3.59463 Y0.37550
G01 X-3.59694 Y0.37118
G01 X-3.60215 Y0.36337
G01 X-3.60526 Y0.35958
G01 X-3.60842 Y0.35610
G01 X-3.65609 Y0.30842
G01 X-3.65886 Y0.30587
G01 X-3.66184 Y0.30332
G01 X-3.66792 Y0.29890
G01 X-3.67126 Y0.29685
G01 X-3.67796 Y0.29344
G01 X-3.68159 Y0.29194
G01 X-3.68873 Y0.28962
G01 X-3.69255 Y0.28870
G01 X-3.69997 Y0.28752
G01 X-3.70388 Y0.28722
G01 X-3.70764 Y0.28707
G01 X-3.82509 Y0.28707
G01 X-3.82978 Y0.28730
G01 X-3.83466 Y0.28778
G01 X-3.84387 Y0.28961
G01 X-3.84856 Y0.29103
G01 X-3.85299 Y0.29262
G01 X-3.85723 Y0.29463
G01 X-3.86156 Y0.29694
G01 X-3.86559 Y0.29935
G01 X-3.86936 Y0.30216
G01 X-3.87315 Y0.30526
G01 X-3.87664 Y0.30842
G01 X-4.71152 Y1.14330
G01 X-4.71467 Y1.14678
G01 X-4.71778 Y1.15057
G01 X-4.72058 Y1.15435
G01 X-4.72300 Y1.15838
G01 X-4.72531 Y1.16270
G01 X-4.72890 Y1.17138
G01 X-4.73032 Y1.17607
G01 X-4.73147 Y1.18063
G01 X-4.73216 Y1.18528
G01 X-4.73264 Y1.19015
G01 X-4.73287 Y1.19485
G01 X-4.73287 Y1.31684
G01 X-4.73269 Y1.31688
G01 X-4.73287 Y1.31684
G01 X-4.73525 Y1.32097
G01 X-4.73753 Y1.32544
G01 X-4.73932 Y1.33012
G01 X-4.74172 Y1.33747
G01 X-4.74301 Y1.34232
G01 X-4.74380 Y1.34727
G01 X-4.74461 Y1.35496
G01 X-4.74487 Y1.35997
G01 X-4.74461 Y1.36498
G01 X-4.74380 Y1.37267
G01 X-4.74301 Y1.37762
G01 X-4.74172 Y1.38246
G01 X-4.73932 Y1.38982
G01 X-4.73753 Y1.39450
G01 X-4.73525 Y1.39897
G01 X-4.73138 Y1.40567
G01 X-4.72865 Y1.40987
G01 X-4.72827 Y1.41035
G01 X-4.72772 Y1.41027
G01 X-4.72827 Y1.41035
G01 X-4.73057 Y1.41795
G01 X-4.73149 Y1.42729
G01 X-4.73149 Y1.46272
G01 X-4.73057 Y1.47207
G01 X-4.72784 Y1.48106
G01 X-4.72342 Y1.48934
G01 X-4.71746 Y1.49660
G01 X-4.71020 Y1.50255
G01 X-4.70192 Y1.50698
G01 X-4.69293 Y1.50970
G01 X-4.69024 Y1.50997
G01 X-4.69025 Y1.50997
G01 X-4.71544 Y1.50997
G01 X-4.72971 Y1.50997
G01 X-4.74163 Y1.50997
G01 X-4.75335 Y1.50997
G01 X-4.76373 Y1.50997
G01 X-4.77400 Y1.50997
G01 X-4.78427 Y1.50997
G01 X-4.79454 Y1.50997
G01 X-4.80425 Y1.50997
G01 X-4.79454 Y1.50997
G01 X-4.78427 Y1.50997
G01 X-4.77400 Y1.50997
G01 X-4.76373 Y1.50997
G01 X-4.75335 Y1.50997
G01 X-4.75368 Y1.51038
G01 X-4.76147 Y1.52495
G01 X-4.76627 Y1.54077
G01 X-4.76789 Y1.55721
G01 X-4.76789 Y1.59265
G01 X-4.76681 Y1.60357
G01 X-4.76681 Y1.60357
G01 X-4.76466 Y1.60399
G01 X-4.76681 Y1.60357
G01 X-4.76715 Y1.60350
G01 X-4.77078 Y1.61063
G01 X-4.77394 Y1.61887
G01 X-4.77633 Y1.62623
G01 X-4.77862 Y1.63475
G01 X-4.78000 Y1.64346
G01 X-4.78081 Y1.65116
G01 X-4.78127 Y1.65997
G01 X-4.78081 Y1.66878
G01 X-4.78000 Y1.67647
G01 X-4.77862 Y1.68519
G01 X-4.77633 Y1.69371
G01 X-4.77394 Y1.70107
G01 X-4.77078 Y1.70931
G01 X-4.76927 Y1.71228
G01 X-4.76914 Y1.71225
G01 X-4.76927 Y1.71228
G01 X-4.76927 Y1.74242
G01 X-4.76793 Y1.74324
G01 X-4.76927 Y1.74242
G01 X-4.80885 Y1.76221
G01 X-4.81563 Y1.76600
G01 X-4.81955 Y1.76843
G01 X-4.83193 Y1.77781
G01 X-4.83533 Y1.78092
G01 X-4.84578 Y1.79241
G01 X-4.84856 Y1.79609
G01 X-4.85672 Y1.80930
G01 X-4.85877 Y1.81343
G01 X-4.86437 Y1.82791
G01 X-4.86563 Y1.83235
G01 X-4.86848 Y1.84762
G01 X-4.86891 Y1.85220
G01 X-4.86927 Y1.85997
G01 X-4.86927 Y2.20876
G01 X-4.86915 Y2.20878
G01 X-4.86927 Y2.20876
G01 X-4.87032 Y2.21084
G01 X-4.87349 Y2.21907
G01 X-4.87584 Y2.22633
G01 X-4.87813 Y2.23485
G01 X-4.87951 Y2.24357
G01 X-4.88031 Y2.25116
G01 X-4.88077 Y2.25997
G01 X-4.88031 Y2.26878
G01 X-4.87951 Y2.27637
G01 X-4.87813 Y2.28508
G01 X-4.87584 Y2.29361
G01 X-4.87349 Y2.30087
G01 X-4.87032 Y2.30910
G01 X-4.86632 Y2.31696
G01 X-4.86250 Y2.32357
G01 X-4.85770 Y2.33097
G01 X-4.85214 Y2.33783
G01 X-4.84704 Y2.34350
G01 X-4.84080 Y2.34974
G01 X-4.83394 Y2.35529
G01 X-4.82777 Y2.35978
G01 X-4.82037 Y2.36458
G01 X-4.81251 Y2.36859
G01 X-4.80553 Y2.37169
G01 X-4.79730 Y2.37486
G01 X-4.78877 Y2.37714
G01 X-4.78131 Y2.37873
G01 X-4.77259 Y2.38011
G01 X-4.76378 Y2.38057
G01 X-4.75615 Y2.38057
G01 X-4.74734 Y2.38011
G01 X-4.73862 Y2.37873
G01 X-4.73116 Y2.37714
G01 X-4.72482 Y2.37544
G01 X-4.72464 Y2.37502
G01 X-4.71998 Y2.36399
G01 X-4.71893 Y2.36151
G01 X-4.71998 Y2.36400
G01 X-4.72464 Y2.37503
G01 X-4.72927 Y2.38599
G01 X-4.72930 Y2.38605
G01 X-4.72930 Y2.38606
G01 X-4.73429 Y2.39641
G01 X-4.73469 Y2.39723
G01 X-4.73975 Y2.40651
G01 X-4.74489 Y2.41592
G01 X-4.74029 Y2.42513
G01 X-4.73485 Y2.43484
G01 X-4.73242 Y2.43876
G01 X-4.71900 Y2.45649
G01 X-4.71589 Y2.45989
G01 X-4.69944 Y2.47485
G01 X-4.69576 Y2.47763
G01 X-4.67684 Y2.48932
G01 X-4.67271 Y2.49137
G01 X-4.65197 Y2.49939
G01 X-4.64754 Y2.50065
G01 X-4.62568 Y2.50473
G01 X-4.62109 Y2.50516
G01 X-4.60997 Y2.50567
G01 X-0.70997 Y2.50567
G01 X-0.69814 Y2.50509
G01 X-0.69326 Y2.50461
G01 X-0.67005 Y2.49999
G01 X-0.66536 Y2.49857
G01 X-0.64350 Y2.48951
G01 X-0.63918 Y2.48720
G01 X-0.61951 Y2.47406
G01 X-0.61572 Y2.47095
G01 X-0.60694 Y2.46300
G01 X-0.55694 Y2.41300
G01 X-0.55051 Y2.40604
G01 X-0.54796 Y2.40305
G01 X-0.53683 Y2.38773
G01 X-0.53478 Y2.38439
G01 X-0.52618 Y2.36751
G01 X-0.52468 Y2.36388
G01 X-0.51883 Y2.34587
G01 X-0.51791 Y2.34206
G01 X-0.51495 Y2.32335
G01 X-0.51464 Y2.31944
G01 X-0.51427 Y2.30997
G01 X-0.51427 Y1.81062
G01 X-0.51585 Y1.80953
G01 X-0.51427 Y1.81062
G01 X-0.51178 Y1.80995
G01 X-0.49998 Y1.80542
G01 X-0.49292 Y1.80228
G01 X-0.48166 Y1.79654
G01 X-0.47107 Y1.78966
G01 X-0.46481 Y1.78511
G01 X-0.45499 Y1.77716
G01 X-0.44606 Y1.76823
G01 X-0.44088 Y1.76248
G01 X-0.43293 Y1.75266
G01 X-0.42605 Y1.74207
G01 X-0.42218 Y1.73537
G01 X-0.41645 Y1.72411
G01 X-0.41192 Y1.71232
G01 X-0.40953 Y1.70496
G01 X-0.40626 Y1.69276
G01 X-0.40428 Y1.68028
G01 X-0.40347 Y1.67259
G01 X-0.40281 Y1.65997
G01 X-0.40347 Y1.64735
G01 X-0.40428 Y1.63966
G01 X-0.40626 Y1.62718
G01 X-0.40953 Y1.61498
G01 X-0.41192 Y1.60762
G01 X-0.41645 Y1.59583
G01 X-0.42218 Y1.58457
G01 X-0.42605 Y1.57787
G01 X-0.43293 Y1.56728
G01 X-0.44088 Y1.55746
G01 X-0.44606 Y1.55171
G01 X-0.45499 Y1.54278
G01 X-0.46481 Y1.53482
G01 X-0.47107 Y1.53028
G01 X-0.48118 Y1.52371
