( pcb2gcode 2.1.0 )
( Software-independent Gcode )

G94 ( Millimeters per minute feed rate. )
G21 ( Units == Millimeters. )

G90 ( Absolute coordinates. )
G00 S10000 ( RPM spindle speed. )
G64 P0.01016 ( set maximum deviation from commanded toolpath )
G01 F600.00000 ( Feedrate. )


G00 Z10.00000 (Retract to tool change height)
T0
M5      (Spindle stop.)
G04 P1.00000 (Wait for spindle to stop)
(MSG, Change tool bit to mill diameter 0.00500mm)
M6      (Tool change.)
M0      (Temporary machine stop.)
M3 ( Spindle on clockwise. )
G04 P1.00000 (Wait for spindle to get up to speed)
G04 P0 ( dwell for no time -- G64 should not smooth over this point )
G00 Z5.00000 ( retract )

G00 X-4.07101 Y60.69900 ( rapid move to begin. )
G01 F300.00000
( Mill infeed pass 1/1 )
G01 Z-0.05000
G04 P0 ( dwell for no time -- G64 should not smooth over this point )
G01 F600.00000
G01 X-4.07101 Y60.69900
G01 X-4.08981 Y60.89514
G01 X-4.14803 Y61.09400
G01 X-4.25537 Y61.29481
G01 X-4.38839 Y61.45371
G01 X-4.54099 Y61.57830
G01 X-4.71450 Y61.67162
G01 X-4.91221 Y61.73369
G01 X-5.12852 Y61.75650
G01 X-9.21398 Y61.75579
G01 X-9.17352 Y94.98783
G01 X-9.18464 Y95.13538
G01 X-9.21970 Y95.28758
G01 X-9.27819 Y95.43236
G01 X-9.35863 Y95.56621
G01 X-9.46465 Y95.69187
G01 X-13.27465 Y99.50187
G01 X-13.40010 Y99.60776
G01 X-13.53373 Y99.68813
G01 X-13.67828 Y99.74660
G01 X-13.83020 Y99.78175
G01 X-13.97752 Y99.79300
G01 X-17.95435 Y99.79300
G01 X-18.13807 Y99.77543
G01 X-18.32501 Y99.72082
G01 X-18.49773 Y99.63080
G01 X-18.65719 Y99.50187
G01 X-21.04495 Y97.11114
G01 X-23.43465 Y99.50187
G01 X-23.54677 Y99.59808
G01 X-23.67905 Y99.68063
G01 X-23.83828 Y99.74660
G01 X-23.99020 Y99.78175
G01 X-24.13752 Y99.79300
G01 X-30.63926 Y99.79300
G01 X-30.82298 Y99.77543
G01 X-31.02895 Y99.71294
G01 X-31.19976 Y99.61937
G01 X-31.34211 Y99.50187
G01 X-33.71528 Y97.12872
G01 X-33.81147 Y97.01661
G01 X-33.90154 Y96.86967
G01 X-33.95493 Y96.74079
G01 X-33.99257 Y96.58948
G01 X-34.00641 Y96.42585
G01 X-34.00573 Y95.98232
G01 X-41.82593 Y95.98232
G01 X-41.82522 Y96.42585
G01 X-41.84681 Y96.62979
G01 X-41.89741 Y96.79657
G01 X-41.98742 Y96.96926
G01 X-42.10942 Y97.12108
G01 X-43.24488 Y98.25729
G01 X-43.35702 Y98.35348
G01 X-43.48930 Y98.43606
G01 X-43.63286 Y98.49694
G01 X-43.78417 Y98.53459
G01 X-43.94777 Y98.54843
G01 X-48.53143 Y98.54843
G01 X-48.71515 Y98.53085
G01 X-48.92111 Y98.46837
G01 X-49.09193 Y98.37477
G01 X-49.23427 Y98.25729
G01 X-49.73971 Y97.75084
G01 X-50.24512 Y98.25729
G01 X-50.35726 Y98.35348
G01 X-50.48954 Y98.43606
G01 X-50.63310 Y98.49694
G01 X-50.80069 Y98.53718
G01 X-50.94801 Y98.54843
G01 X-54.59210 Y98.54843
G01 X-54.77581 Y98.53085
G01 X-54.98178 Y98.46837
G01 X-55.15260 Y98.37479
G01 X-55.28729 Y98.26423
G01 X-56.27017 Y97.28107
G01 X-57.24536 Y98.25729
G01 X-57.35750 Y98.35348
G01 X-57.50446 Y98.44355
G01 X-57.63334 Y98.49694
G01 X-57.78465 Y98.53459
G01 X-57.94825 Y98.54843
G01 X-61.56150 Y98.54792
G01 X-61.75513 Y98.52684
G01 X-61.92188 Y98.47624
G01 X-62.11172 Y98.37479
G01 X-62.25406 Y98.25729
G01 X-63.24984 Y97.26050
G01 X-64.24560 Y98.25729
G01 X-64.35774 Y98.35348
G01 X-64.49002 Y98.43606
G01 X-64.63358 Y98.49694
G01 X-64.78489 Y98.53459
G01 X-64.94849 Y98.54843
G01 X-72.38238 Y98.54792
G01 X-72.57601 Y98.52684
G01 X-72.76178 Y98.46837
G01 X-72.91548 Y98.38622
G01 X-73.07494 Y98.25732
G01 X-73.39993 Y97.93129
G01 X-73.72488 Y98.25729
G01 X-73.85035 Y98.36319
G01 X-73.98398 Y98.44355
G01 X-74.11286 Y98.49694
G01 X-74.28045 Y98.53718
G01 X-74.42777 Y98.54843
G01 X-79.02172 Y98.54792
G01 X-79.21534 Y98.52684
G01 X-79.40111 Y98.46837
G01 X-79.55481 Y98.38622
G01 X-79.71427 Y98.25729
G01 X-80.21971 Y97.75084
G01 X-80.72512 Y98.25729
G01 X-80.85059 Y98.36319
G01 X-80.98422 Y98.44355
G01 X-81.12877 Y98.50202
G01 X-81.28069 Y98.53718
G01 X-81.42801 Y98.54843
G01 X-86.17113 Y98.54843
G01 X-86.35485 Y98.53085
G01 X-86.54179 Y98.47624
G01 X-86.72335 Y98.38092
G01 X-86.87397 Y98.25729
G01 X-87.29968 Y97.83055
G01 X-87.72536 Y98.25729
G01 X-87.85083 Y98.36319
G01 X-87.98446 Y98.44355
G01 X-88.12901 Y98.50202
G01 X-88.28093 Y98.53718
G01 X-88.42825 Y98.54843
G01 X-93.17137 Y98.54843
G01 X-93.35509 Y98.53085
G01 X-93.54203 Y98.47624
G01 X-93.72359 Y98.38092
G01 X-93.87421 Y98.25729
G01 X-94.29992 Y97.83055
G01 X-94.72560 Y98.25729
G01 X-94.85107 Y98.36319
G01 X-94.98470 Y98.44355
G01 X-95.12925 Y98.50202
G01 X-95.28117 Y98.53718
G01 X-95.42849 Y98.54843
G01 X-102.86238 Y98.54792
G01 X-103.05601 Y98.52684
G01 X-103.24178 Y98.46837
G01 X-103.39548 Y98.38622
G01 X-103.55494 Y98.25732
G01 X-103.87993 Y97.93131
G01 X-104.20488 Y98.25729
G01 X-104.33035 Y98.36319
G01 X-104.46398 Y98.44355
G01 X-104.59286 Y98.49694
G01 X-104.76045 Y98.53718
G01 X-104.90777 Y98.54843
G01 X-109.65089 Y98.54843
G01 X-109.85480 Y98.52684
G01 X-110.04058 Y98.46837
G01 X-110.19427 Y98.38622
G01 X-110.35373 Y98.25729
G01 X-110.77944 Y97.83057
G01 X-111.20512 Y98.25729
G01 X-111.33059 Y98.36319
G01 X-111.46422 Y98.44355
G01 X-111.59310 Y98.49694
G01 X-111.74441 Y98.53459
G01 X-111.89975 Y98.54812
G01 X-116.65113 Y98.54843
G01 X-116.83485 Y98.53085
G01 X-117.02179 Y98.47624
G01 X-117.20335 Y98.38092
G01 X-117.35397 Y98.25729
G01 X-117.77968 Y97.83057
G01 X-118.20536 Y98.25729
G01 X-118.33083 Y98.36319
G01 X-118.46446 Y98.44355
G01 X-118.59334 Y98.49694
G01 X-118.76093 Y98.53718
G01 X-118.90825 Y98.54843
G01 X-123.17210 Y98.54843
G01 X-123.35581 Y98.53085
G01 X-123.54276 Y98.47624
G01 X-123.73260 Y98.37479
G01 X-123.87494 Y98.25732
G01 X-124.54029 Y97.59093
G01 X-125.20560 Y98.25729
G01 X-125.33107 Y98.36319
G01 X-125.46470 Y98.44355
G01 X-125.60925 Y98.50202
G01 X-125.76117 Y98.53718
G01 X-125.90849 Y98.54843
G01 X-133.34238 Y98.54792
G01 X-133.53601 Y98.52684
G01 X-133.72178 Y98.46837
G01 X-133.87548 Y98.38622
G01 X-134.03494 Y98.25732
G01 X-134.35993 Y97.93129
G01 X-134.68488 Y98.25729
G01 X-134.81035 Y98.36319
G01 X-134.94398 Y98.44355
G01 X-135.07286 Y98.49694
G01 X-135.24045 Y98.53718
G01 X-135.38777 Y98.54843
G01 X-140.13912 Y98.54812
G01 X-140.29447 Y98.53459
G01 X-140.44577 Y98.49694
G01 X-140.58933 Y98.43606
G01 X-140.70828 Y98.36319
G01 X-140.83376 Y98.25729
G01 X-141.25944 Y97.83055
G01 X-141.68514 Y98.25729
G01 X-141.83576 Y98.38092
G01 X-142.01732 Y98.47624
G01 X-142.18407 Y98.52684
G01 X-142.37770 Y98.54792
G01 X-147.30210 Y98.54843
G01 X-147.48581 Y98.53085
G01 X-147.68246 Y98.47276
G01 X-147.85432 Y98.38092
G01 X-148.00494 Y98.25729
G01 X-148.34517 Y97.91607
G01 X-148.68536 Y98.25729
G01 X-148.81083 Y98.36319
G01 X-148.94446 Y98.44355
G01 X-149.07334 Y98.49694
G01 X-149.24093 Y98.53718
G01 X-149.38825 Y98.54843
G01 X-154.13137 Y98.54843
G01 X-154.31509 Y98.53085
G01 X-154.52106 Y98.46837
G01 X-154.68359 Y98.38092
G01 X-154.82659 Y98.26423
G01 X-155.96279 Y97.12872
G01 X-156.06868 Y97.00330
G01 X-156.14904 Y96.86967
G01 X-156.20751 Y96.72509
G01 X-156.24267 Y96.57317
G01 X-156.25392 Y96.42585
G01 X-156.25389 Y95.49819
G01 X-156.28796 Y95.43469
G01 X-156.35643 Y95.22207
G01 X-156.38092 Y94.98900
G01 X-156.35359 Y94.74534
G01 X-156.28402 Y94.53307
G01 X-156.23230 Y94.44247
G01 X-155.94150 Y87.34873
G01 X-155.94150 Y83.55900
G01 X-155.92392 Y83.37528
G01 X-155.86583 Y83.17863
G01 X-155.77930 Y83.01562
G01 X-155.64275 Y82.84922
G01 X-155.49974 Y82.73253
G01 X-155.32789 Y82.64069
G01 X-155.15143 Y82.58661
G01 X-154.94752 Y82.56502
G01 X-154.74359 Y82.58661
G01 X-154.56713 Y82.64069
G01 X-154.39528 Y82.73253
G01 X-154.25227 Y82.84922
G01 X-154.11572 Y83.01562
G01 X-154.02919 Y83.17863
G01 X-153.97262 Y83.36510
G01 X-153.95352 Y83.55903
G01 X-153.95433 Y87.40974
G01 X-154.24567 Y94.51491
G01 X-154.23190 Y94.54333
G01 X-154.16342 Y94.75596
G01 X-154.13894 Y94.98900
G01 X-154.16342 Y95.22207
G01 X-154.23190 Y95.43469
G01 X-154.26591 Y95.49822
G01 X-154.26594 Y96.01414
G01 X-153.71964 Y96.56045
G01 X-149.79991 Y96.56063
G01 X-149.25350 Y96.01427
G01 X-149.25365 Y95.49819
G01 X-149.28772 Y95.43469
G01 X-149.35619 Y95.22207
G01 X-149.38012 Y94.97803
G01 X-149.35335 Y94.74534
G01 X-149.28378 Y94.53307
G01 X-149.19503 Y94.37833
G01 X-148.32150 Y86.04711
G01 X-148.32150 Y83.55903
G01 X-148.30392 Y83.37528
G01 X-148.24583 Y83.17863
G01 X-148.15930 Y83.01562
G01 X-148.02275 Y82.84922
G01 X-147.87974 Y82.73253
G01 X-147.70789 Y82.64069
G01 X-147.53143 Y82.58661
G01 X-147.32752 Y82.56502
G01 X-147.12359 Y82.58661
G01 X-146.94713 Y82.64069
G01 X-146.77528 Y82.73253
G01 X-146.63227 Y82.84922
G01 X-146.50718 Y82.99850
G01 X-146.40916 Y83.17863
G01 X-146.35262 Y83.36510
G01 X-146.33352 Y83.55900
G01 X-146.33352 Y86.09900
G01 X-146.33850 Y86.19720
G01 X-147.21795 Y94.58557
G01 X-147.16318 Y94.75596
G01 X-147.13870 Y94.98900
G01 X-147.16318 Y95.22207
G01 X-147.23166 Y95.43469
G01 X-147.26570 Y95.49827
G01 X-147.26570 Y96.18511
G01 X-146.89036 Y96.56045
G01 X-142.79962 Y96.56063
G01 X-142.25324 Y96.01422
G01 X-142.25334 Y95.49827
G01 X-142.28748 Y95.43469
G01 X-142.35768 Y95.21122
G01 X-142.38044 Y94.98900
G01 X-142.35768 Y94.76680
G01 X-142.28354 Y94.53307
G01 X-142.17231 Y94.33932
G01 X-142.15009 Y94.31123
G01 X-140.70147 Y86.01284
G01 X-140.70147 Y83.55903
G01 X-140.68240 Y83.36510
G01 X-140.62581 Y83.17863
G01 X-140.53930 Y83.01562
G01 X-140.40275 Y82.84922
G01 X-140.25974 Y82.73253
G01 X-140.08786 Y82.64069
G01 X-139.89124 Y82.58260
G01 X-139.70752 Y82.56502
G01 X-139.52375 Y82.58260
G01 X-139.33683 Y82.63721
G01 X-139.14699 Y82.73868
G01 X-138.99772 Y82.86378
G01 X-138.87572 Y83.01562
G01 X-138.78919 Y83.17863
G01 X-138.73511 Y83.35509
G01 X-138.71352 Y83.55900
G01 X-138.71352 Y86.09900
G01 X-138.72833 Y86.26994
G01 X-140.19312 Y94.66114
G01 X-140.16292 Y94.75596
G01 X-140.13899 Y95.00000
G01 X-140.16292 Y95.22207
G01 X-140.23142 Y95.43469
G01 X-140.26541 Y95.49819
G01 X-140.26541 Y96.01414
G01 X-139.71913 Y96.56045
G01 X-135.79943 Y96.56063
G01 X-135.25302 Y96.01422
G01 X-135.25317 Y95.49822
G01 X-135.28724 Y95.43469
G01 X-135.35571 Y95.22207
G01 X-135.37964 Y95.00000
G01 X-135.35571 Y94.75596
G01 X-135.28330 Y94.53307
G01 X-135.16613 Y94.33010
G01 X-135.10451 Y94.26091
G01 X-133.08150 Y85.97937
G01 X-133.08150 Y83.55900
G01 X-133.05991 Y83.35509
G01 X-133.00144 Y83.16931
G01 X-132.91930 Y83.01562
G01 X-132.79037 Y82.85616
G01 X-132.64802 Y82.73868
G01 X-132.47721 Y82.64508
G01 X-132.29143 Y82.58661
G01 X-132.07721 Y82.56553
G01 X-131.89359 Y82.58412
G01 X-131.69781 Y82.64508
G01 X-131.54411 Y82.72723
G01 X-131.39227 Y82.84922
G01 X-131.25572 Y83.01562
G01 X-131.17358 Y83.16931
G01 X-131.11511 Y83.35509
G01 X-131.09352 Y83.55900
G01 X-131.09352 Y86.09900
G01 X-131.10007 Y86.21155
G01 X-131.12192 Y86.33489
G01 X-133.17177 Y94.72619
G01 X-133.16098 Y94.76680
G01 X-133.13878 Y95.00000
G01 X-133.16270 Y95.22207
G01 X-133.23118 Y95.43469
G01 X-133.26522 Y95.49827
G01 X-133.26522 Y96.21562
G01 X-132.92036 Y96.56045
G01 X-126.32015 Y96.56063
G01 X-125.77374 Y96.01422
G01 X-125.77387 Y95.49827
G01 X-125.80796 Y95.43469
G01 X-125.87643 Y95.22207
G01 X-125.90092 Y94.98900
G01 X-125.87359 Y94.74534
G01 X-125.80402 Y94.53307
G01 X-125.73336 Y94.40968
G01 X-125.46150 Y86.08246
G01 X-125.46150 Y83.55900
G01 X-125.44392 Y83.37528
G01 X-125.38931 Y83.18834
G01 X-125.29930 Y83.01562
G01 X-125.16275 Y82.84922
G01 X-125.01090 Y82.72723
G01 X-124.83818 Y82.63721
G01 X-124.66143 Y82.58412
G01 X-124.45721 Y82.56553
G01 X-124.27359 Y82.58412
G01 X-124.07781 Y82.64508
G01 X-123.90699 Y82.73868
G01 X-123.76465 Y82.85616
G01 X-123.64718 Y82.99850
G01 X-123.55358 Y83.16931
G01 X-123.49262 Y83.36510
G01 X-123.47403 Y83.54871
G01 X-123.47403 Y86.13146
G01 X-123.74916 Y94.55537
G01 X-123.68350 Y94.75565
G01 X-123.65894 Y94.98900
G01 X-123.68342 Y95.22207
G01 X-123.71985 Y95.33601
G01 X-123.59457 Y95.72621
G01 X-122.76036 Y96.56045
G01 X-119.31991 Y96.56063
G01 X-118.77350 Y96.01422
G01 X-118.77363 Y95.49827
G01 X-118.80772 Y95.43469
G01 X-118.87619 Y95.22207
G01 X-118.90012 Y94.97803
G01 X-118.87335 Y94.74534
G01 X-118.80373 Y94.53297
G01 X-118.70236 Y94.35710
G01 X-117.84150 Y86.04769
G01 X-117.84150 Y83.55903
G01 X-117.82392 Y83.37528
G01 X-117.76931 Y83.18834
G01 X-117.67930 Y83.01562
G01 X-117.55037 Y82.85616
G01 X-117.39090 Y82.72723
G01 X-117.21818 Y82.63721
G01 X-117.04143 Y82.58412
G01 X-116.83721 Y82.56553
G01 X-116.64359 Y82.58661
G01 X-116.45781 Y82.64508
G01 X-116.30411 Y82.72723
G01 X-116.14465 Y82.85616
G01 X-116.01572 Y83.01562
G01 X-115.93358 Y83.16931
G01 X-115.87511 Y83.35509
G01 X-115.85352 Y83.55900
G01 X-115.85352 Y86.09900
G01 X-115.85880 Y86.20144
G01 X-116.72997 Y94.61006
G01 X-116.68318 Y94.75596
G01 X-116.65870 Y94.98900
G01 X-116.68318 Y95.22207
G01 X-116.75166 Y95.43469
G01 X-116.78567 Y95.49822
G01 X-116.78570 Y96.01412
G01 X-116.23940 Y96.56045
G01 X-112.31967 Y96.56063
G01 X-111.77326 Y96.01422
G01 X-111.77336 Y95.49822
G01 X-111.80748 Y95.43469
G01 X-111.87768 Y95.21122
G01 X-111.90044 Y94.98900
G01 X-111.87768 Y94.76680
G01 X-111.80354 Y94.53307
G01 X-111.69234 Y94.33932
G01 X-111.67014 Y94.31128
G01 X-110.22150 Y86.01292
G01 X-110.22150 Y83.55903
G01 X-110.19991 Y83.35509
G01 X-110.14144 Y83.16931
G01 X-110.04784 Y82.99850
G01 X-109.93037 Y82.85616
G01 X-109.77090 Y82.72723
G01 X-109.59818 Y82.63721
G01 X-109.42143 Y82.58412
G01 X-109.21721 Y82.56553
G01 X-109.02359 Y82.58661
G01 X-108.83781 Y82.64508
G01 X-108.68411 Y82.72723
G01 X-108.52465 Y82.85616
G01 X-108.39572 Y83.01562
G01 X-108.30571 Y83.18834
G01 X-108.25262 Y83.36510
G01 X-108.23352 Y83.55900
G01 X-108.23390 Y86.10807
G01 X-108.24833 Y86.26994
G01 X-109.71317 Y94.66109
G01 X-109.68294 Y94.75596
G01 X-109.65902 Y95.00000
G01 X-109.68294 Y95.22207
G01 X-109.75142 Y95.43469
G01 X-109.78543 Y95.49822
G01 X-109.78546 Y96.01412
G01 X-109.23916 Y96.56045
G01 X-105.31943 Y96.56063
G01 X-104.77302 Y96.01422
G01 X-104.77315 Y95.49822
G01 X-104.80724 Y95.43469
G01 X-104.87571 Y95.22207
G01 X-104.89964 Y95.00000
G01 X-104.87571 Y94.75596
G01 X-104.80330 Y94.53307
G01 X-104.68613 Y94.33010
G01 X-104.62451 Y94.26093
G01 X-102.60150 Y85.97929
G01 X-102.60150 Y83.55900
G01 X-102.57991 Y83.35509
G01 X-102.52144 Y83.16931
G01 X-102.42784 Y82.99850
G01 X-102.31037 Y82.85616
G01 X-102.15090 Y82.72723
G01 X-101.97818 Y82.63721
G01 X-101.80143 Y82.58412
G01 X-101.61781 Y82.56553
G01 X-101.41359 Y82.58412
G01 X-101.23683 Y82.63721
G01 X-101.06411 Y82.72723
G01 X-100.90465 Y82.85616
G01 X-100.77572 Y83.01562
G01 X-100.68571 Y83.18834
G01 X-100.63262 Y83.36510
G01 X-100.61352 Y83.55900
G01 X-100.61352 Y86.09900
G01 X-100.62007 Y86.21155
G01 X-100.64192 Y86.33489
G01 X-102.69177 Y94.72619
G01 X-102.68098 Y94.76680
G01 X-102.65878 Y95.00000
G01 X-102.68270 Y95.22207
G01 X-102.75118 Y95.43469
G01 X-102.78519 Y95.49822
G01 X-102.78519 Y96.21562
G01 X-102.44036 Y96.56045
G01 X-95.84015 Y96.56063
G01 X-95.29374 Y96.01427
G01 X-95.29389 Y95.49822
G01 X-95.32796 Y95.43469
G01 X-95.39643 Y95.22207
G01 X-95.42092 Y94.98900
G01 X-95.39643 Y94.75596
G01 X-95.32796 Y94.54333
G01 X-95.29158 Y94.47587
G01 X-94.98150 Y86.08076
G01 X-94.98150 Y83.55900
G01 X-94.96392 Y83.37528
G01 X-94.90931 Y83.18834
G01 X-94.81930 Y83.01562
G01 X-94.69037 Y82.85616
G01 X-94.54802 Y82.73868
G01 X-94.37721 Y82.64508
G01 X-94.18143 Y82.58412
G01 X-93.99781 Y82.56553
G01 X-93.79359 Y82.58412
G01 X-93.61683 Y82.63721
G01 X-93.44411 Y82.72723
G01 X-93.27772 Y82.86378
G01 X-93.15572 Y83.01562
G01 X-93.06571 Y83.18834
G01 X-93.01110 Y83.37528
G01 X-92.99352 Y83.55903
G01 X-92.99418 Y86.13570
G01 X-93.30266 Y94.48547
G01 X-93.27190 Y94.54333
G01 X-93.20342 Y94.75596
G01 X-93.17894 Y94.98900
G01 X-93.20342 Y95.22207
G01 X-93.27190 Y95.43469
G01 X-93.30594 Y95.49827
G01 X-93.30594 Y96.01412
G01 X-92.75964 Y96.56045
G01 X-88.83991 Y96.56063
G01 X-88.29350 Y96.01422
G01 X-88.29365 Y95.49822
G01 X-88.32772 Y95.43469
G01 X-88.39619 Y95.22207
G01 X-88.42012 Y94.97803
G01 X-88.39335 Y94.74534
G01 X-88.32378 Y94.53307
G01 X-88.23506 Y94.37833
G01 X-87.39284 Y86.34604
G01 X-87.40620 Y86.29514
G01 X-87.42500 Y86.09900
G01 X-87.42500 Y83.55900
G01 X-87.40468 Y83.35270
G01 X-87.34799 Y83.16403
G01 X-87.25208 Y82.98034
G01 X-87.11527 Y82.81125
G01 X-86.96330 Y82.68587
G01 X-86.78152 Y82.58641
G01 X-86.57382 Y82.52184
G01 X-86.37781 Y82.50203
G01 X-86.16120 Y82.52184
G01 X-85.95350 Y82.58641
G01 X-85.77171 Y82.68587
G01 X-85.61975 Y82.81125
G01 X-85.49437 Y82.96322
G01 X-85.39491 Y83.14501
G01 X-85.33034 Y83.35270
G01 X-85.31002 Y83.55900
G01 X-85.31002 Y86.09900
G01 X-85.33034 Y86.30532
G01 X-85.38703 Y86.49400
G01 X-85.41550 Y86.55155
G01 X-86.25795 Y94.58557
G01 X-86.20318 Y94.75596
G01 X-86.17870 Y94.98900
G01 X-86.20318 Y95.22207
G01 X-86.27166 Y95.43469
G01 X-86.30570 Y95.49827
G01 X-86.30570 Y96.01414
G01 X-85.75940 Y96.56045
G01 X-81.83967 Y96.56063
G01 X-81.29326 Y96.01422
G01 X-81.29336 Y95.49822
G01 X-81.32748 Y95.43469
G01 X-81.39768 Y95.21122
G01 X-81.42044 Y94.98900
G01 X-81.39768 Y94.76680
G01 X-81.32354 Y94.53307
G01 X-81.21234 Y94.33932
G01 X-81.05732 Y94.16373
G01 X-80.99954 Y94.11913
G01 X-79.80500 Y86.02143
G01 X-79.80500 Y83.55900
G01 X-79.78468 Y83.35270
G01 X-79.72799 Y83.16403
G01 X-79.63208 Y82.98034
G01 X-79.49527 Y82.81125
G01 X-79.34330 Y82.68587
G01 X-79.16152 Y82.58641
G01 X-78.95382 Y82.52184
G01 X-78.75781 Y82.50203
G01 X-78.54120 Y82.52184
G01 X-78.33350 Y82.58641
G01 X-78.15171 Y82.68587
G01 X-77.99975 Y82.81125
G01 X-77.87437 Y82.96322
G01 X-77.77491 Y83.14501
G01 X-77.71034 Y83.35270
G01 X-77.69002 Y83.55900
G01 X-77.69030 Y86.10670
G01 X-77.70135 Y86.25336
G01 X-78.97135 Y94.86142
G01 X-79.01857 Y95.05270
G01 X-79.10518 Y95.24094
G01 X-79.22687 Y95.40866
G01 X-79.28760 Y95.46652
G01 X-79.30546 Y95.49789
G01 X-79.30546 Y95.85466
G01 X-78.59969 Y96.56045
G01 X-74.83943 Y96.56063
G01 X-74.29302 Y96.01422
G01 X-74.29317 Y95.49822
G01 X-74.32724 Y95.43469
G01 X-74.39571 Y95.22207
G01 X-74.41964 Y95.00000
G01 X-74.39571 Y94.75596
G01 X-74.32330 Y94.53307
G01 X-74.27372 Y94.44610
G01 X-74.26242 Y94.37523
G01 X-72.17652 Y86.19024
G01 X-72.18500 Y86.09900
G01 X-72.18500 Y83.55900
G01 X-72.16219 Y83.34272
G01 X-72.10011 Y83.14501
G01 X-72.00065 Y82.96322
G01 X-71.87527 Y82.81125
G01 X-71.72330 Y82.68587
G01 X-71.54152 Y82.58641
G01 X-71.33382 Y82.52184
G01 X-71.13781 Y82.50203
G01 X-70.93138 Y82.52032
G01 X-70.71350 Y82.58641
G01 X-70.53171 Y82.68587
G01 X-70.37975 Y82.81125
G01 X-70.25437 Y82.96322
G01 X-70.15491 Y83.14501
G01 X-70.09034 Y83.35270
G01 X-70.07002 Y83.55900
G01 X-70.07002 Y86.09900
G01 X-70.08881 Y86.29514
G01 X-70.14703 Y86.49400
G01 X-70.25310 Y86.69290
G01 X-72.26140 Y94.57346
G01 X-72.20270 Y94.75596
G01 X-72.17822 Y94.98900
G01 X-72.20270 Y95.22207
G01 X-72.27118 Y95.43469
G01 X-72.30522 Y95.49822
G01 X-72.30522 Y96.21562
G01 X-71.96036 Y96.56045
G01 X-65.36015 Y96.56063
G01 X-64.81374 Y96.01422
G01 X-64.81387 Y95.49822
G01 X-64.84796 Y95.43469
G01 X-64.91643 Y95.22207
G01 X-64.94036 Y95.00000
G01 X-64.91643 Y94.75596
G01 X-64.84402 Y94.53307
G01 X-64.73282 Y94.33932
G01 X-64.57780 Y94.16373
G01 X-64.50125 Y94.10559
G01 X-64.50147 Y86.44942
G01 X-64.54468 Y86.30532
G01 X-64.56500 Y86.09900
G01 X-64.56500 Y83.55900
G01 X-64.54620 Y83.36289
G01 X-64.48799 Y83.16403
G01 X-64.39208 Y82.98034
G01 X-64.25527 Y82.81125
G01 X-64.10330 Y82.68587
G01 X-63.92152 Y82.58641
G01 X-63.71382 Y82.52184
G01 X-63.51781 Y82.50203
G01 X-63.31138 Y82.52032
G01 X-63.09350 Y82.58641
G01 X-62.91171 Y82.68587
G01 X-62.75281 Y82.81889
G01 X-62.63437 Y82.96322
G01 X-62.53491 Y83.14501
G01 X-62.47034 Y83.35270
G01 X-62.45053 Y83.54871
G01 X-62.45002 Y86.09900
G01 X-62.47034 Y86.30532
G01 X-62.51349 Y86.44942
G01 X-62.51352 Y94.67661
G01 X-62.53511 Y94.88052
G01 X-62.58571 Y95.04727
G01 X-62.60798 Y95.09253
G01 X-61.13948 Y96.56045
G01 X-58.35991 Y96.56063
G01 X-57.81350 Y96.01422
G01 X-57.81365 Y95.49819
G01 X-57.84772 Y95.43469
G01 X-57.91619 Y95.22207
G01 X-57.94012 Y94.97803
G01 X-57.91335 Y94.74534
G01 X-57.84378 Y94.53307
G01 X-57.75506 Y94.37836
G01 X-56.91284 Y86.34604
G01 X-56.92620 Y86.29514
G01 X-56.94500 Y86.09900
G01 X-56.94500 Y83.55900
G01 X-56.92468 Y83.35270
G01 X-56.86799 Y83.16403
G01 X-56.77208 Y82.98034
G01 X-56.63527 Y82.81125
G01 X-56.48330 Y82.68587
G01 X-56.30152 Y82.58641
G01 X-56.09382 Y82.52184
G01 X-55.89781 Y82.50203
G01 X-55.69138 Y82.52032
G01 X-55.47350 Y82.58641
G01 X-55.29171 Y82.68587
G01 X-55.13975 Y82.81125
G01 X-55.01437 Y82.96322
G01 X-54.91491 Y83.14501
G01 X-54.85034 Y83.35270
G01 X-54.83002 Y83.55900
G01 X-54.83002 Y86.09900
G01 X-54.85034 Y86.30532
G01 X-54.90703 Y86.49400
G01 X-54.93553 Y86.55153
G01 X-55.77795 Y94.58557
G01 X-55.72603 Y94.74534
G01 X-55.71673 Y94.81181
G01 X-55.13101 Y95.60980
G01 X-54.18036 Y96.56045
G01 X-51.35967 Y96.56063
G01 X-50.81326 Y96.01422
G01 X-50.81341 Y95.49819
G01 X-50.84748 Y95.43469
G01 X-50.91595 Y95.22207
G01 X-50.93988 Y95.00000
G01 X-50.91595 Y94.75596
G01 X-50.84354 Y94.53307
G01 X-50.72637 Y94.33010
G01 X-50.56955 Y94.15596
G01 X-50.44763 Y94.06690
G01 X-49.30341 Y86.31028
G01 X-49.32500 Y86.09900
G01 X-49.32500 Y83.55900
G01 X-49.30468 Y83.35270
G01 X-49.24799 Y83.16403
G01 X-49.15208 Y82.98034
G01 X-49.01527 Y82.81125
G01 X-48.86330 Y82.68587
G01 X-48.68152 Y82.58641
G01 X-48.47382 Y82.52184
G01 X-48.27781 Y82.50203
G01 X-48.07138 Y82.52032
G01 X-47.85350 Y82.58641
G01 X-47.67171 Y82.68587
G01 X-47.51975 Y82.81125
G01 X-47.39437 Y82.96322
G01 X-47.29491 Y83.14501
G01 X-47.23034 Y83.35270
G01 X-47.21002 Y83.55900
G01 X-47.21053 Y86.10931
G01 X-47.23283 Y86.31531
G01 X-47.28703 Y86.49400
G01 X-47.33486 Y86.58775
G01 X-48.55416 Y94.85214
G01 X-48.60529 Y95.05072
G01 X-48.68454 Y95.21745
G01 X-48.74969 Y95.30630
G01 X-48.79536 Y95.44496
G01 X-48.82543 Y95.49822
G01 X-48.82546 Y95.85468
G01 X-48.11969 Y96.56045
G01 X-44.35943 Y96.56063
G01 X-43.81302 Y96.01422
G01 X-43.81317 Y95.49819
G01 X-43.84724 Y95.43469
G01 X-43.91571 Y95.22207
G01 X-43.93964 Y95.00000
G01 X-43.91571 Y94.75596
G01 X-43.84330 Y94.53307
G01 X-43.72613 Y94.33010
G01 X-43.66451 Y94.26091
G01 X-41.69550 Y86.20052
G01 X-41.70500 Y86.09900
G01 X-41.70449 Y83.54871
G01 X-41.68468 Y83.35270
G01 X-41.62011 Y83.14501
G01 X-41.52065 Y82.96322
G01 X-41.40221 Y82.81889
G01 X-41.24330 Y82.68587
G01 X-41.04249 Y82.57853
G01 X-40.84364 Y82.52032
G01 X-40.65781 Y82.50203
G01 X-40.45138 Y82.52032
G01 X-40.23350 Y82.58641
G01 X-40.05169 Y82.68587
G01 X-39.89975 Y82.81125
G01 X-39.76294 Y82.98034
G01 X-39.66703 Y83.16403
G01 X-39.61034 Y83.35270
G01 X-39.59053 Y83.54871
G01 X-39.59002 Y86.09900
G01 X-39.61034 Y86.30532
G01 X-39.66703 Y86.49400
G01 X-39.76553 Y86.67723
G01 X-41.55438 Y93.99596
G01 X-34.02079 Y93.99573
G01 X-34.02150 Y83.55900
G01 X-34.00392 Y83.37528
G01 X-33.94931 Y83.18834
G01 X-33.85930 Y83.01562
G01 X-33.73037 Y82.85616
G01 X-33.58802 Y82.73868
G01 X-33.41721 Y82.64508
G01 X-33.23143 Y82.58661
G01 X-33.02752 Y82.56502
G01 X-32.84378 Y82.58260
G01 X-32.65683 Y82.63721
G01 X-32.48411 Y82.72723
G01 X-32.31772 Y82.86378
G01 X-32.19572 Y83.01562
G01 X-32.11358 Y83.16931
G01 X-32.05511 Y83.35509
G01 X-32.03403 Y83.54871
G01 X-32.03352 Y94.45367
G01 X-31.98836 Y94.53307
G01 X-31.91592 Y94.75596
G01 X-31.89143 Y94.98900
G01 X-31.91592 Y95.22207
G01 X-31.98442 Y95.43469
G01 X-32.01841 Y95.49819
G01 X-32.01843 Y96.01412
G01 X-30.22753 Y97.80502
G01 X-24.54915 Y97.80520
G01 X-21.38823 Y94.64407
G01 X-21.35160 Y94.53307
G01 X-21.32147 Y94.47981
G01 X-21.32150 Y83.55900
G01 X-21.30392 Y83.37528
G01 X-21.24931 Y83.18834
G01 X-21.15930 Y83.01562
G01 X-21.03037 Y82.85616
G01 X-20.88802 Y82.73868
G01 X-20.71721 Y82.64508
G01 X-20.53143 Y82.58661
G01 X-20.32752 Y82.56502
G01 X-20.14378 Y82.58260
G01 X-19.95683 Y82.63721
G01 X-19.78411 Y82.72723
G01 X-19.61772 Y82.86378
G01 X-19.49572 Y83.01562
G01 X-19.41358 Y83.16931
G01 X-19.35511 Y83.35509
G01 X-19.33403 Y83.54871
G01 X-19.33352 Y94.47981
G01 X-19.29948 Y94.54333
G01 X-19.23100 Y94.75596
G01 X-19.20652 Y94.98900
G01 X-19.23100 Y95.22207
G01 X-19.29948 Y95.43469
G01 X-19.33352 Y95.49822
G01 X-19.33352 Y96.01414
G01 X-17.54262 Y97.80502
G01 X-14.38915 Y97.80520
G01 X-11.16181 Y94.57785
G01 X-11.20206 Y61.05082
G01 X-11.24568 Y60.90532
G01 X-11.26549 Y60.70931
G01 X-11.24319 Y60.48272
G01 X-11.18111 Y60.28501
G01 X-11.09307 Y60.12034
G01 X-10.94862 Y59.94432
G01 X-10.79602 Y59.81973
G01 X-10.62251 Y59.72641
G01 X-10.40463 Y59.66032
G01 X-10.20852 Y59.64152
G01 X-5.12852 Y59.64152
G01 X-4.91221 Y59.66433
G01 X-4.71450 Y59.72641
G01 X-4.54099 Y59.81973
G01 X-4.38839 Y59.94432
G01 X-4.25537 Y60.10322
G01 X-4.14803 Y60.30403
G01 X-4.08981 Y60.50289
G01 X-4.07101 Y60.69900
G01 X-4.09621 Y60.48343
G01 X-4.15382 Y60.29529
G01 X-4.25130 Y60.11290
G01 X-4.38996 Y59.94627
G01 X-4.54239 Y59.82181
G01 X-4.72478 Y59.72433
G01 X-4.91292 Y59.66672
G01 X-5.12852 Y59.64401
G01 X-10.20852 Y59.64401
G01 X-10.40438 Y59.66281
G01 X-10.62132 Y59.72862
G01 X-10.79462 Y59.82181
G01 X-10.94705 Y59.94627
G01 X-11.09089 Y60.12151
G01 X-11.18319 Y60.29529
G01 X-11.24080 Y60.48343
G01 X-11.26302 Y60.70906
G01 X-11.24324 Y60.90484
G01 X-11.19957 Y61.05041
G01 X-11.15949 Y94.57882
G01 X-14.38821 Y97.80751
G01 X-17.54363 Y97.80751
G01 X-19.33601 Y96.01516
G01 X-19.33601 Y95.49756
G01 X-19.30187 Y95.43396
G01 X-19.23344 Y95.22156
G01 X-19.20901 Y94.98900
G01 X-19.23344 Y94.75646
G01 X-19.30187 Y94.54409
G01 X-19.33601 Y94.48047
G01 X-19.33649 Y83.54897
G01 X-19.35750 Y83.35583
G01 X-19.41147 Y83.17957
G01 X-19.50311 Y83.00818
G01 X-19.61965 Y82.86538
G01 X-19.78528 Y82.72944
G01 X-19.94807 Y82.64297
G01 X-20.14403 Y82.58509
G01 X-20.32752 Y82.56751
G01 X-20.53070 Y82.58900
G01 X-20.70695 Y82.64297
G01 X-20.87835 Y82.73462
G01 X-21.02861 Y82.85791
G01 X-21.15190 Y83.00818
G01 X-21.24355 Y83.17957
G01 X-21.30143 Y83.37554
G01 X-21.31901 Y83.55900
G01 X-21.31901 Y94.48047
G01 X-21.34931 Y94.53409
G01 X-21.38607 Y94.64539
G01 X-24.54821 Y97.80751
G01 X-30.22854 Y97.80751
G01 X-32.02092 Y96.01516
G01 X-32.02092 Y95.49756
G01 X-31.98678 Y95.43396
G01 X-31.91838 Y95.22156
G01 X-31.89392 Y94.98900
G01 X-31.91838 Y94.75646
G01 X-31.99064 Y94.53409
G01 X-32.03601 Y94.45438
G01 X-32.03649 Y83.54897
G01 X-32.05750 Y83.35583
G01 X-32.11147 Y83.17957
G01 X-32.20311 Y83.00818
G01 X-32.31965 Y82.86538
G01 X-32.48528 Y82.72944
G01 X-32.64807 Y82.64297
G01 X-32.84403 Y82.58509
G01 X-33.02752 Y82.56751
G01 X-33.23070 Y82.58900
G01 X-33.40695 Y82.64297
G01 X-33.57835 Y82.73462
G01 X-33.72861 Y82.85791
G01 X-33.85190 Y83.00818
G01 X-33.94355 Y83.17957
G01 X-34.00143 Y83.37554
G01 X-34.01901 Y83.55900
G01 X-34.01901 Y93.99751
G01 X-41.55633 Y93.99751
G01 X-39.76787 Y86.67634
G01 X-39.66942 Y86.49328
G01 X-39.61278 Y86.30484
G01 X-39.59251 Y86.09900
G01 X-39.59299 Y83.54897
G01 X-39.61278 Y83.35318
G01 X-39.66942 Y83.16474
G01 X-39.76513 Y82.98151
G01 X-39.90897 Y82.80627
G01 X-40.07000 Y82.67663
G01 X-40.25324 Y82.58092
G01 X-40.44168 Y82.52428
G01 X-40.63746 Y82.50449
G01 X-40.85334 Y82.52428
G01 X-41.05123 Y82.58433
G01 X-41.24170 Y82.68781
G01 X-41.40025 Y82.82047
G01 X-41.52471 Y82.97290
G01 X-41.62220 Y83.15529
G01 X-41.68224 Y83.35318
G01 X-41.70203 Y83.54897
G01 X-41.70251 Y86.09900
G01 X-41.69299 Y86.20070
G01 X-43.66230 Y94.26213
G01 X-43.72410 Y94.33157
G01 X-43.84101 Y94.53409
G01 X-43.91328 Y94.75646
G01 X-43.93715 Y94.99972
G01 X-43.91328 Y95.22156
G01 X-43.84485 Y95.43396
G01 X-43.81071 Y95.49756
G01 X-43.81071 Y96.01516
G01 X-44.35846 Y96.56294
G01 X-48.12071 Y96.56294
G01 X-48.82795 Y95.85572
G01 X-48.82795 Y95.49756
G01 X-48.79765 Y95.44396
G01 X-48.75195 Y95.30513
G01 X-48.68667 Y95.21615
G01 X-48.60755 Y95.04966
G01 X-48.55662 Y94.85179
G01 X-47.33727 Y86.58696
G01 X-47.28942 Y86.49328
G01 X-47.23522 Y86.31460
G01 X-47.21299 Y86.10906
G01 X-47.21251 Y83.55900
G01 X-47.23278 Y83.35318
G01 X-47.29282 Y83.15529
G01 X-47.38513 Y82.98151
G01 X-47.52897 Y82.80627
G01 X-47.69000 Y82.67663
G01 X-47.85470 Y82.58862
G01 X-48.07164 Y82.52281
G01 X-48.27756 Y82.50449
G01 X-48.47334 Y82.52428
G01 X-48.67123 Y82.58433
G01 X-48.86170 Y82.68781
G01 X-49.02025 Y82.82047
G01 X-49.14471 Y82.97290
G01 X-49.24220 Y83.15529
G01 X-49.30224 Y83.35318
G01 X-49.32251 Y83.55900
G01 X-49.32251 Y86.09900
G01 X-49.30090 Y86.31020
G01 X-50.44550 Y94.06817
G01 X-50.56787 Y94.15781
G01 X-50.72434 Y94.33157
G01 X-50.84125 Y94.53409
G01 X-50.91352 Y94.75646
G01 X-50.93739 Y94.99972
G01 X-50.91352 Y95.22156
G01 X-50.84509 Y95.43396
G01 X-50.81095 Y95.49756
G01 X-50.81095 Y96.01519
G01 X-51.35870 Y96.56294
G01 X-54.18140 Y96.56294
G01 X-55.13299 Y95.61135
G01 X-55.71915 Y94.81277
G01 X-55.72842 Y94.74610
G01 X-55.78049 Y94.58585
G01 X-54.93797 Y86.55084
G01 X-54.90942 Y86.49328
G01 X-54.85278 Y86.30484
G01 X-54.83251 Y86.09900
G01 X-54.83251 Y83.55900
G01 X-54.85278 Y83.35318
G01 X-54.91282 Y83.15529
G01 X-55.00513 Y82.98151
G01 X-55.14897 Y82.80627
G01 X-55.31000 Y82.67663
G01 X-55.47470 Y82.58862
G01 X-55.69164 Y82.52281
G01 X-55.89756 Y82.50449
G01 X-56.09334 Y82.52428
G01 X-56.29123 Y82.58433
G01 X-56.48170 Y82.68781
G01 X-56.64025 Y82.82047
G01 X-56.76471 Y82.97290
G01 X-56.86220 Y83.15529
G01 X-56.92224 Y83.35318
G01 X-56.94251 Y83.55900
G01 X-56.94251 Y86.09900
G01 X-56.92372 Y86.29488
G01 X-56.91033 Y86.34581
G01 X-57.75269 Y94.37915
G01 X-57.84149 Y94.53409
G01 X-57.91096 Y94.74610
G01 X-57.93763 Y94.97831
G01 X-57.91376 Y95.22156
G01 X-57.84533 Y95.43396
G01 X-57.81119 Y95.49756
G01 X-57.81119 Y96.01519
G01 X-58.35894 Y96.56294
G01 X-61.14052 Y96.56294
G01 X-62.61060 Y95.09286
G01 X-62.58809 Y95.04656
G01 X-62.53750 Y94.87978
G01 X-62.51601 Y94.67661
G01 X-62.51601 Y86.44899
G01 X-62.47278 Y86.30484
G01 X-62.45251 Y86.09900
G01 X-62.45299 Y83.54897
G01 X-62.47278 Y83.35318
G01 X-62.53282 Y83.15529
G01 X-62.63031 Y82.97290
G01 X-62.75477 Y82.82047
G01 X-62.93000 Y82.67663
G01 X-63.10379 Y82.58433
G01 X-63.31164 Y82.52281
G01 X-63.51755 Y82.50449
G01 X-63.71334 Y82.52428
G01 X-63.91123 Y82.58433
G01 X-64.10170 Y82.68781
G01 X-64.26025 Y82.82047
G01 X-64.38471 Y82.97290
G01 X-64.48220 Y83.15529
G01 X-64.54371 Y83.36314
G01 X-64.56251 Y83.55900
G01 X-64.56251 Y86.09900
G01 X-64.54224 Y86.30484
G01 X-64.49901 Y86.44904
G01 X-64.49901 Y94.10673
G01 X-64.57595 Y94.16538
G01 X-64.73066 Y94.34056
G01 X-64.84173 Y94.53409
G01 X-64.91400 Y94.75646
G01 X-64.93787 Y94.99972
G01 X-64.91400 Y95.22156
G01 X-64.84557 Y95.43396
G01 X-64.81143 Y95.49756
G01 X-64.81143 Y96.01516
G01 X-65.35918 Y96.56294
G01 X-71.96140 Y96.56294
G01 X-72.30771 Y96.21666
G01 X-72.30771 Y95.49756
G01 X-72.27357 Y95.43396
G01 X-72.20514 Y95.22156
G01 X-72.18071 Y94.98900
G01 X-72.20514 Y94.75646
G01 X-72.26399 Y94.57353
G01 X-70.25541 Y86.69189
G01 X-70.15282 Y86.50273
G01 X-70.09130 Y86.29488
G01 X-70.07251 Y86.09900
G01 X-70.07251 Y83.55900
G01 X-70.09278 Y83.35318
G01 X-70.15282 Y83.15529
G01 X-70.24513 Y82.98151
G01 X-70.38897 Y82.80627
G01 X-70.55000 Y82.67663
G01 X-70.71470 Y82.58862
G01 X-70.93164 Y82.52281
G01 X-71.13755 Y82.50449
G01 X-71.33334 Y82.52428
G01 X-71.53123 Y82.58433
G01 X-71.70502 Y82.67663
G01 X-71.86605 Y82.80627
G01 X-72.00471 Y82.97290
G01 X-72.10220 Y83.15529
G01 X-72.15980 Y83.34343
G01 X-72.18251 Y83.55900
G01 X-72.18251 Y86.09900
G01 X-72.17400 Y86.19041
G01 X-74.26000 Y94.37587
G01 X-74.27133 Y94.44691
G01 X-74.32101 Y94.53409
G01 X-74.39328 Y94.75646
G01 X-74.41715 Y94.99972
G01 X-74.39328 Y95.22156
G01 X-74.32485 Y95.43396
G01 X-74.29071 Y95.49756
G01 X-74.29071 Y96.01519
G01 X-74.83846 Y96.56294
G01 X-78.60071 Y96.56294
G01 X-79.30795 Y95.85572
G01 X-79.30795 Y95.49723
G01 X-79.28958 Y95.46495
G01 X-79.22888 Y95.40719
G01 X-79.10744 Y95.23988
G01 X-79.02098 Y95.05209
G01 X-78.97381 Y94.86106
G01 X-77.70381 Y86.25300
G01 X-77.69279 Y86.10652
G01 X-77.69251 Y83.55900
G01 X-77.71278 Y83.35318
G01 X-77.77282 Y83.15529
G01 X-77.86513 Y82.98151
G01 X-78.00897 Y82.80627
G01 X-78.17000 Y82.67663
G01 X-78.33470 Y82.58862
G01 X-78.54168 Y82.52428
G01 X-78.73746 Y82.50449
G01 X-78.95334 Y82.52428
G01 X-79.15123 Y82.58433
G01 X-79.32502 Y82.67663
G01 X-79.48605 Y82.80627
G01 X-79.62471 Y82.97290
G01 X-79.72220 Y83.15529
G01 X-79.78224 Y83.35318
G01 X-79.80251 Y83.55900
G01 X-79.80251 Y86.02171
G01 X-80.99738 Y94.12042
G01 X-81.05547 Y94.16538
G01 X-81.21018 Y94.34056
G01 X-81.32125 Y94.53409
G01 X-81.39519 Y94.76705
G01 X-81.41795 Y94.98900
G01 X-81.39519 Y95.21100
G01 X-81.32509 Y95.43396
G01 X-81.29095 Y95.49756
G01 X-81.29095 Y96.01519
G01 X-81.83870 Y96.56294
G01 X-85.76041 Y96.56294
G01 X-86.30819 Y96.01519
G01 X-86.30819 Y95.49756
G01 X-86.27405 Y95.43396
G01 X-86.20562 Y95.22156
G01 X-86.18119 Y94.98900
G01 X-86.20562 Y94.75646
G01 X-86.26049 Y94.58585
G01 X-85.41794 Y86.55082
G01 X-85.38942 Y86.49328
G01 X-85.33278 Y86.30484
G01 X-85.31251 Y86.09900
G01 X-85.31251 Y83.55900
G01 X-85.33278 Y83.35318
G01 X-85.39282 Y83.15529
G01 X-85.48513 Y82.98151
G01 X-85.62897 Y82.80627
G01 X-85.79000 Y82.67663
G01 X-85.95470 Y82.58862
G01 X-86.16168 Y82.52428
G01 X-86.35746 Y82.50449
G01 X-86.57334 Y82.52428
G01 X-86.77123 Y82.58433
G01 X-86.94502 Y82.67663
G01 X-87.10605 Y82.80627
G01 X-87.24471 Y82.97290
G01 X-87.34220 Y83.15529
G01 X-87.40224 Y83.35318
G01 X-87.42251 Y83.55900
G01 X-87.42251 Y86.09900
G01 X-87.40372 Y86.29488
G01 X-87.39033 Y86.34579
G01 X-88.23267 Y94.37912
G01 X-88.32149 Y94.53409
G01 X-88.39096 Y94.74610
G01 X-88.41763 Y94.97831
G01 X-88.39376 Y95.22156
G01 X-88.32533 Y95.43396
G01 X-88.29119 Y95.49756
G01 X-88.29119 Y96.01516
G01 X-88.83894 Y96.56294
G01 X-92.76065 Y96.56294
G01 X-93.30843 Y96.01519
G01 X-93.30843 Y95.49756
G01 X-93.27429 Y95.43396
G01 X-93.20586 Y95.22156
G01 X-93.18143 Y94.98900
G01 X-93.20586 Y94.75646
G01 X-93.27429 Y94.54409
G01 X-93.30518 Y94.48611
G01 X-92.99669 Y86.13563
G01 X-92.99601 Y83.55903
G01 X-93.01358 Y83.37554
G01 X-93.06809 Y83.18905
G01 X-93.16911 Y83.00007
G01 X-93.29387 Y82.85115
G01 X-93.43667 Y82.73462
G01 X-93.61755 Y82.63960
G01 X-93.79408 Y82.58656
G01 X-93.97746 Y82.56799
G01 X-94.18094 Y82.58656
G01 X-94.35747 Y82.63960
G01 X-94.53835 Y82.73462
G01 X-94.68115 Y82.85115
G01 X-94.81190 Y83.00818
G01 X-94.90355 Y83.17957
G01 X-94.96143 Y83.37554
G01 X-94.97901 Y83.55900
G01 X-94.97901 Y86.08046
G01 X-95.28917 Y94.47658
G01 X-95.32557 Y94.54409
G01 X-95.39400 Y94.75646
G01 X-95.41843 Y94.98900
G01 X-95.39400 Y95.22156
G01 X-95.32557 Y95.43396
G01 X-95.29143 Y95.49756
G01 X-95.29143 Y96.01519
G01 X-95.83918 Y96.56294
G01 X-102.44140 Y96.56294
G01 X-102.78771 Y96.21666
G01 X-102.78771 Y95.49756
G01 X-102.75357 Y95.43396
G01 X-102.68514 Y95.22156
G01 X-102.66127 Y94.99972
G01 X-102.68347 Y94.76705
G01 X-102.69436 Y94.72629
G01 X-100.64433 Y86.33431
G01 X-100.62256 Y86.21140
G01 X-100.61601 Y86.09900
G01 X-100.61601 Y83.55900
G01 X-100.63506 Y83.36558
G01 X-100.69579 Y83.17048
G01 X-100.78311 Y83.00818
G01 X-100.89965 Y82.86538
G01 X-101.06528 Y82.72944
G01 X-101.23755 Y82.63960
G01 X-101.41408 Y82.58656
G01 X-101.59746 Y82.56799
G01 X-101.80094 Y82.58656
G01 X-101.97747 Y82.63960
G01 X-102.15835 Y82.73462
G01 X-102.30115 Y82.85115
G01 X-102.43190 Y83.00818
G01 X-102.52355 Y83.17957
G01 X-102.57752 Y83.35583
G01 X-102.59901 Y83.55900
G01 X-102.59901 Y85.97970
G01 X-104.62227 Y94.26208
G01 X-104.68410 Y94.33157
G01 X-104.80101 Y94.53409
G01 X-104.87328 Y94.75646
G01 X-104.89715 Y94.99972
G01 X-104.87328 Y95.22156
G01 X-104.80485 Y95.43396
G01 X-104.77071 Y95.49756
G01 X-104.77071 Y96.01519
G01 X-105.31846 Y96.56294
G01 X-109.24017 Y96.56294
G01 X-109.78795 Y96.01519
G01 X-109.78795 Y95.49756
G01 X-109.75381 Y95.43396
G01 X-109.68538 Y95.22156
G01 X-109.66151 Y94.99972
G01 X-109.68538 Y94.75646
G01 X-109.71574 Y94.66126
G01 X-108.25079 Y86.26951
G01 X-108.23639 Y86.10786
G01 X-108.23601 Y83.55900
G01 X-108.25506 Y83.36558
G01 X-108.31579 Y83.17048
G01 X-108.40311 Y83.00818
G01 X-108.51965 Y82.86538
G01 X-108.68528 Y82.72944
G01 X-108.85755 Y82.63960
G01 X-109.02432 Y82.58900
G01 X-109.21746 Y82.56799
G01 X-109.42094 Y82.58656
G01 X-109.59747 Y82.63960
G01 X-109.77835 Y82.73462
G01 X-109.92115 Y82.85115
G01 X-110.05190 Y83.00818
G01 X-110.14355 Y83.17957
G01 X-110.19752 Y83.35583
G01 X-110.21901 Y83.55903
G01 X-110.21901 Y86.01317
G01 X-111.66783 Y94.31239
G01 X-111.69018 Y94.34056
G01 X-111.80125 Y94.53409
G01 X-111.87519 Y94.76705
G01 X-111.89795 Y94.98900
G01 X-111.87519 Y95.21100
G01 X-111.80509 Y95.43396
G01 X-111.77095 Y95.49756
G01 X-111.77095 Y96.01516
G01 X-112.31870 Y96.56294
G01 X-116.24041 Y96.56294
G01 X-116.78819 Y96.01519
G01 X-116.78819 Y95.49756
G01 X-116.75405 Y95.43396
G01 X-116.68562 Y95.22156
G01 X-116.66119 Y94.98900
G01 X-116.68562 Y94.75646
G01 X-116.73251 Y94.61034
G01 X-115.86129 Y86.20118
G01 X-115.85601 Y86.09900
G01 X-115.85601 Y83.55900
G01 X-115.87750 Y83.35583
G01 X-115.93147 Y83.17957
G01 X-116.01793 Y83.01679
G01 X-116.13965 Y82.86538
G01 X-116.30528 Y82.72944
G01 X-116.47755 Y82.63960
G01 X-116.64432 Y82.58900
G01 X-116.83746 Y82.56799
G01 X-117.04094 Y82.58656
G01 X-117.21747 Y82.63960
G01 X-117.39835 Y82.73462
G01 X-117.54115 Y82.85115
G01 X-117.67190 Y83.00818
G01 X-117.76355 Y83.17957
G01 X-117.82143 Y83.37554
G01 X-117.83901 Y83.55903
G01 X-117.83901 Y86.04779
G01 X-118.69999 Y94.35789
G01 X-118.80144 Y94.53398
G01 X-118.87096 Y94.74610
G01 X-118.89763 Y94.97831
G01 X-118.87376 Y95.22156
G01 X-118.80533 Y95.43396
G01 X-118.77119 Y95.49756
G01 X-118.77119 Y96.01516
G01 X-119.31894 Y96.56294
G01 X-122.76140 Y96.56294
G01 X-123.59678 Y95.72756
G01 X-123.72246 Y95.33601
G01 X-123.68586 Y95.22156
G01 X-123.66143 Y94.98900
G01 X-123.68594 Y94.75618
G01 X-123.75167 Y94.55575
G01 X-123.47654 Y86.13139
G01 X-123.47649 Y83.54897
G01 X-123.49506 Y83.36558
G01 X-123.54809 Y83.18905
G01 X-123.64311 Y83.00818
G01 X-123.75965 Y82.86538
G01 X-123.91667 Y82.73462
G01 X-124.07898 Y82.64729
G01 X-124.27408 Y82.58656
G01 X-124.45746 Y82.56799
G01 X-124.66094 Y82.58656
G01 X-124.83747 Y82.63960
G01 X-125.01835 Y82.73462
G01 X-125.16115 Y82.85115
G01 X-125.29709 Y83.01679
G01 X-125.38355 Y83.17957
G01 X-125.44143 Y83.37554
G01 X-125.45901 Y83.55900
G01 X-125.45901 Y86.08302
G01 X-125.73094 Y94.41036
G01 X-125.80173 Y94.53409
G01 X-125.87120 Y94.74610
G01 X-125.89843 Y94.98900
G01 X-125.87400 Y95.22156
G01 X-125.80557 Y95.43396
G01 X-125.77143 Y95.49756
G01 X-125.77143 Y96.01516
G01 X-126.31918 Y96.56294
G01 X-132.92140 Y96.56294
G01 X-133.26771 Y96.21666
G01 X-133.26771 Y95.49756
G01 X-133.23357 Y95.43396
G01 X-133.16514 Y95.22156
G01 X-133.14127 Y94.99972
G01 X-133.16347 Y94.76705
G01 X-133.17436 Y94.72626
G01 X-131.12433 Y86.33431
G01 X-131.10256 Y86.21140
G01 X-131.09601 Y86.09900
G01 X-131.09601 Y83.55900
G01 X-131.11750 Y83.35583
G01 X-131.17147 Y83.17957
G01 X-131.25793 Y83.01679
G01 X-131.39387 Y82.85115
G01 X-131.53667 Y82.73462
G01 X-131.71755 Y82.63960
G01 X-131.89408 Y82.58656
G01 X-132.07746 Y82.56799
G01 X-132.29070 Y82.58900
G01 X-132.47604 Y82.64729
G01 X-132.64645 Y82.74061
G01 X-132.79537 Y82.86538
G01 X-132.91190 Y83.00818
G01 X-133.00355 Y83.17957
G01 X-133.05752 Y83.35583
G01 X-133.07901 Y83.55900
G01 X-133.07901 Y85.97962
G01 X-135.10230 Y94.26210
G01 X-135.16410 Y94.33157
G01 X-135.28101 Y94.53409
G01 X-135.35328 Y94.75646
G01 X-135.37715 Y94.99972
G01 X-135.35328 Y95.22156
G01 X-135.28485 Y95.43396
G01 X-135.25071 Y95.49756
G01 X-135.25071 Y96.01516
G01 X-135.79846 Y96.56294
G01 X-139.72017 Y96.56294
G01 X-140.26792 Y96.01519
G01 X-140.26792 Y95.49751
G01 X-140.23381 Y95.43396
G01 X-140.16538 Y95.22156
G01 X-140.14092 Y94.98900
G01 X-140.16538 Y94.75646
G01 X-140.19571 Y94.66129
G01 X-138.73079 Y86.26951
G01 X-138.71601 Y86.09900
G01 X-138.71601 Y83.55900
G01 X-138.73747 Y83.35583
G01 X-138.79147 Y83.17957
G01 X-138.87793 Y83.01679
G01 X-139.01387 Y82.85115
G01 X-139.16528 Y82.72944
G01 X-139.33752 Y82.63960
G01 X-139.51405 Y82.58656
G01 X-139.69744 Y82.56799
G01 X-139.90092 Y82.58656
G01 X-140.07747 Y82.63960
G01 X-140.26645 Y82.74061
G01 X-140.40861 Y82.85791
G01 X-140.53709 Y83.01679
G01 X-140.62352 Y83.17957
G01 X-140.67996 Y83.36558
G01 X-140.69901 Y83.55903
G01 X-140.69901 Y86.01310
G01 X-142.14778 Y94.31234
G01 X-142.17018 Y94.34056
G01 X-142.28125 Y94.53409
G01 X-142.35517 Y94.76705
G01 X-142.37795 Y94.98900
G01 X-142.35517 Y95.21100
G01 X-142.28509 Y95.43396
G01 X-142.25093 Y95.49764
G01 X-142.25093 Y96.01516
G01 X-142.79870 Y96.56294
G01 X-146.89135 Y96.56294
G01 X-147.26819 Y96.18615
G01 X-147.26819 Y95.49756
G01 X-147.23405 Y95.43396
G01 X-147.16562 Y95.22156
G01 X-147.14119 Y94.98900
G01 X-147.16562 Y94.75646
G01 X-147.22049 Y94.58585
G01 X-146.34099 Y86.19707
G01 X-146.33598 Y86.09900
G01 X-146.33598 Y83.55900
G01 X-146.35503 Y83.36558
G01 X-146.41147 Y83.17957
G01 X-146.49791 Y83.01679
G01 X-146.62638 Y82.85791
G01 X-146.76854 Y82.74061
G01 X-146.93898 Y82.64729
G01 X-147.13408 Y82.58656
G01 X-147.31746 Y82.56799
G01 X-147.52094 Y82.58656
G01 X-147.69747 Y82.63960
G01 X-147.86974 Y82.72944
G01 X-148.02115 Y82.85115
G01 X-148.15709 Y83.01679
G01 X-148.24355 Y83.17957
G01 X-148.30143 Y83.37554
G01 X-148.31901 Y83.55903
G01 X-148.31901 Y86.04721
G01 X-149.19267 Y94.37912
G01 X-149.28149 Y94.53409
G01 X-149.35096 Y94.74610
G01 X-149.37763 Y94.97831
G01 X-149.35376 Y95.22156
G01 X-149.28533 Y95.43396
G01 X-149.25119 Y95.49756
G01 X-149.25119 Y96.01519
G01 X-149.79894 Y96.56294
G01 X-153.72065 Y96.56294
G01 X-154.26843 Y96.01519
G01 X-154.26843 Y95.49756
G01 X-154.23429 Y95.43396
G01 X-154.16586 Y95.22156
G01 X-154.14143 Y94.98900
G01 X-154.16586 Y94.75646
G01 X-154.23429 Y94.54409
G01 X-154.24818 Y94.51554
G01 X-153.95674 Y87.40545
G01 X-153.95601 Y83.55903
G01 X-153.97506 Y83.36558
G01 X-154.03147 Y83.17957
G01 X-154.11793 Y83.01679
G01 X-154.24641 Y82.85791
G01 X-154.38857 Y82.74061
G01 X-154.55898 Y82.64729
G01 X-154.74432 Y82.58900
G01 X-154.95756 Y82.56799
G01 X-155.14094 Y82.58656
G01 X-155.31747 Y82.63960
G01 X-155.48974 Y82.72944
G01 X-155.64115 Y82.85115
G01 X-155.77709 Y83.01679
G01 X-155.86355 Y83.17957
G01 X-155.92143 Y83.37554
G01 X-155.93901 Y83.55900
G01 X-155.93901 Y87.34845
G01 X-156.22989 Y94.44315
G01 X-156.28173 Y94.53409
G01 X-156.35120 Y94.74610
G01 X-156.37843 Y94.98900
G01 X-156.35400 Y95.22156
G01 X-156.28557 Y95.43396
G01 X-156.25143 Y95.49756
G01 X-156.25143 Y96.42585
G01 X-156.24018 Y96.57297
G01 X-156.20508 Y96.72451
G01 X-156.14673 Y96.86870
G01 X-156.06654 Y97.00195
G01 X-155.96103 Y97.12697
G01 X-154.82499 Y98.26230
G01 X-154.67358 Y98.38401
G01 X-154.51989 Y98.46616
G01 X-154.31483 Y98.52836
G01 X-154.13137 Y98.54594
G01 X-149.38825 Y98.54594
G01 X-149.24113 Y98.53469
G01 X-149.07428 Y98.49463
G01 X-148.94540 Y98.44124
G01 X-148.81213 Y98.36105
G01 X-148.68713 Y98.25552
G01 X-148.34517 Y97.91356
G01 X-148.00319 Y98.25554
G01 X-147.86102 Y98.37284
G01 X-147.67205 Y98.47385
G01 X-147.48556 Y98.52836
G01 X-147.30210 Y98.54594
G01 X-142.37795 Y98.54546
G01 X-142.18481 Y98.52445
G01 X-142.01803 Y98.47385
G01 X-141.84577 Y98.38401
G01 X-141.68689 Y98.25554
G01 X-141.25944 Y97.82806
G01 X-140.83198 Y98.25552
G01 X-140.70696 Y98.36105
G01 X-140.57371 Y98.44124
G01 X-140.44483 Y98.49463
G01 X-140.29388 Y98.53217
G01 X-140.13892 Y98.54561
G01 X-135.38777 Y98.54594
G01 X-135.24065 Y98.53469
G01 X-135.07380 Y98.49463
G01 X-134.94492 Y98.44124
G01 X-134.81165 Y98.36105
G01 X-134.68665 Y98.25552
G01 X-134.35993 Y97.92880
G01 X-134.03316 Y98.25554
G01 X-133.87429 Y98.38401
G01 X-133.70205 Y98.47385
G01 X-133.53527 Y98.52445
G01 X-133.34213 Y98.54546
G01 X-125.90849 Y98.54594
G01 X-125.76137 Y98.53469
G01 X-125.60984 Y98.49958
G01 X-125.46564 Y98.44124
G01 X-125.33237 Y98.36105
G01 X-125.20737 Y98.25552
G01 X-124.54029 Y97.58844
G01 X-123.87316 Y98.25554
G01 X-123.73100 Y98.37286
G01 X-123.54205 Y98.47385
G01 X-123.35556 Y98.52836
G01 X-123.17210 Y98.54594
G01 X-118.90825 Y98.54594
G01 X-118.76113 Y98.53469
G01 X-118.59428 Y98.49463
G01 X-118.46540 Y98.44124
G01 X-118.33213 Y98.36105
G01 X-118.20713 Y98.25552
G01 X-117.77968 Y97.82806
G01 X-117.35222 Y98.25554
G01 X-117.20195 Y98.37883
G01 X-117.03965 Y98.46616
G01 X-116.85430 Y98.52445
G01 X-116.65113 Y98.54594
G01 X-111.90801 Y98.54594
G01 X-111.76089 Y98.53469
G01 X-111.59404 Y98.49463
G01 X-111.46516 Y98.44124
G01 X-111.33189 Y98.36105
G01 X-111.20689 Y98.25552
G01 X-110.77944 Y97.82806
G01 X-110.35198 Y98.25554
G01 X-110.19310 Y98.38401
G01 X-110.03031 Y98.47048
G01 X-109.85406 Y98.52445
G01 X-109.65089 Y98.54594
G01 X-104.90777 Y98.54594
G01 X-104.76065 Y98.53469
G01 X-104.59380 Y98.49463
G01 X-104.46492 Y98.44124
G01 X-104.33165 Y98.36105
G01 X-104.20665 Y98.25552
G01 X-103.87993 Y97.92880
G01 X-103.55316 Y98.25554
G01 X-103.39429 Y98.38401
G01 X-103.22205 Y98.47385
G01 X-103.05527 Y98.52445
G01 X-102.86213 Y98.54546
G01 X-95.42044 Y98.54561
G01 X-95.26547 Y98.53217
G01 X-95.11452 Y98.49463
G01 X-94.98564 Y98.44124
G01 X-94.85237 Y98.36105
G01 X-94.72737 Y98.25552
G01 X-94.29992 Y97.82806
G01 X-93.87246 Y98.25554
G01 X-93.72219 Y98.37883
G01 X-93.54132 Y98.47385
G01 X-93.36479 Y98.52689
G01 X-93.18140 Y98.54546
G01 X-88.42825 Y98.54594
G01 X-88.28113 Y98.53469
G01 X-88.11428 Y98.49463
G01 X-87.98540 Y98.44124
G01 X-87.85213 Y98.36105
G01 X-87.72713 Y98.25552
G01 X-87.29968 Y97.82806
G01 X-86.87222 Y98.25554
G01 X-86.73006 Y98.37284
G01 X-86.54108 Y98.47385
G01 X-86.35459 Y98.52836
G01 X-86.17113 Y98.54594
G01 X-81.42801 Y98.54594
G01 X-81.28089 Y98.53469
G01 X-81.12936 Y98.49958
G01 X-80.98516 Y98.44124
G01 X-80.85189 Y98.36105
G01 X-80.72689 Y98.25552
G01 X-80.21971 Y97.74833
G01 X-79.71252 Y98.25554
G01 X-79.56225 Y98.37883
G01 X-79.38138 Y98.47385
G01 X-79.20485 Y98.52689
G01 X-79.02146 Y98.54546
G01 X-74.42777 Y98.54594
G01 X-74.28065 Y98.53469
G01 X-74.11380 Y98.49463
G01 X-73.98492 Y98.44124
G01 X-73.85165 Y98.36105
G01 X-73.72665 Y98.25552
G01 X-73.39993 Y97.92880
G01 X-73.07316 Y98.25554
G01 X-72.91429 Y98.38401
G01 X-72.74205 Y98.47385
G01 X-72.57527 Y98.52445
G01 X-72.38213 Y98.54546
G01 X-64.94849 Y98.54594
G01 X-64.78547 Y98.53217
G01 X-64.63452 Y98.49463
G01 X-64.49131 Y98.43393
G01 X-64.35936 Y98.35158
G01 X-64.24737 Y98.25552
G01 X-63.24984 Y97.25798
G01 X-62.25230 Y98.25554
G01 X-62.11012 Y98.37284
G01 X-61.92116 Y98.47385
G01 X-61.75439 Y98.52445
G01 X-61.56125 Y98.54546
G01 X-57.94825 Y98.54594
G01 X-57.78523 Y98.53217
G01 X-57.63428 Y98.49463
G01 X-57.50540 Y98.44124
G01 X-57.35912 Y98.35158
G01 X-57.24713 Y98.25552
G01 X-56.27017 Y97.27856
G01 X-55.28572 Y98.26230
G01 X-55.13431 Y98.38401
G01 X-54.98061 Y98.46616
G01 X-54.77556 Y98.52836
G01 X-54.59210 Y98.54594
G01 X-50.94801 Y98.54594
G01 X-50.80089 Y98.53469
G01 X-50.63404 Y98.49463
G01 X-50.49083 Y98.43393
G01 X-50.35888 Y98.35158
G01 X-50.24689 Y98.25552
G01 X-49.73971 Y97.74833
G01 X-49.23252 Y98.25554
G01 X-49.09036 Y98.37284
G01 X-48.90138 Y98.47385
G01 X-48.71489 Y98.52836
G01 X-48.53143 Y98.54594
G01 X-43.94777 Y98.54594
G01 X-43.78475 Y98.53217
G01 X-43.63380 Y98.49463
G01 X-43.49059 Y98.43393
G01 X-43.35864 Y98.35158
G01 X-43.24665 Y98.25552
G01 X-42.11135 Y97.11950
G01 X-42.00078 Y96.98478
G01 X-41.90749 Y96.81440
G01 X-41.84920 Y96.62905
G01 X-41.82771 Y96.42585
G01 X-41.82771 Y95.98054
G01 X-34.00392 Y95.98054
G01 X-34.00392 Y96.42585
G01 X-33.99016 Y96.58887
G01 X-33.95262 Y96.73982
G01 X-33.89922 Y96.86870
G01 X-33.80959 Y97.01501
G01 X-33.71353 Y97.12697
G01 X-31.34035 Y99.50012
G01 X-31.19816 Y99.61741
G01 X-31.02778 Y99.71073
G01 X-30.82273 Y99.77294
G01 X-30.63926 Y99.79051
G01 X-24.13752 Y99.79051
G01 X-23.99041 Y99.77926
G01 X-23.83887 Y99.74416
G01 X-23.68035 Y99.67853
G01 X-23.54839 Y99.59618
G01 X-23.43641 Y99.50012
G01 X-21.04479 Y97.10848
G01 X-18.65544 Y99.50012
G01 X-18.49656 Y99.62859
G01 X-18.32430 Y99.71843
G01 X-18.13781 Y99.77294
G01 X-17.95435 Y99.79051
G01 X-13.97752 Y99.79051
G01 X-13.83041 Y99.77926
G01 X-13.67887 Y99.74416
G01 X-13.53470 Y99.68582
G01 X-13.40142 Y99.60563
G01 X-13.27641 Y99.50012
G01 X-9.46641 Y95.69012
G01 X-9.36074 Y95.56489
G01 X-9.28048 Y95.43139
G01 X-9.22213 Y95.28697
G01 X-9.18713 Y95.13518
G01 X-9.17601 Y94.98783
G01 X-9.21576 Y61.75401
G01 X-5.12852 Y61.75401
G01 X-4.91292 Y61.73131
G01 X-4.71569 Y61.66941
G01 X-4.54239 Y61.57621
G01 X-4.38996 Y61.45175
G01 X-4.25130 Y61.28513
G01 X-4.15041 Y61.09328
G01 X-4.09621 Y60.91460
G01 X-4.07350 Y60.69900
G01 X-4.06903 Y60.68848
G01 X-4.09144 Y60.48198
G01 X-4.14920 Y60.29336
G01 X-4.24173 Y60.11917
G01 X-4.37188 Y59.95729
G01 X-4.54866 Y59.81224
G01 X-4.72285 Y59.71970
G01 X-4.91147 Y59.66194
G01 X-5.12852 Y59.63901
G01 X-10.20852 Y59.63901
G01 X-10.40486 Y59.65783
G01 X-10.62368 Y59.72420
G01 X-10.80587 Y59.82394
G01 X-10.95022 Y59.94238
G01 X-11.09528 Y60.11917
G01 X-11.18781 Y60.29336
G01 X-11.24557 Y60.48198
G01 X-11.26798 Y60.70954
G01 X-11.24814 Y60.90581
G01 X-11.20455 Y61.05112
G01 X-11.16432 Y94.57681
G01 X-14.39020 Y97.80271
G01 X-17.54157 Y97.80251
G01 X-19.33100 Y96.01313
G01 X-19.33100 Y95.49888
G01 X-19.29712 Y95.43548
G01 X-19.22857 Y95.22260
G01 X-19.20400 Y94.98900
G01 X-19.22857 Y94.75542
G01 X-19.29712 Y94.54254
G01 X-19.33100 Y94.47915
G01 X-19.33154 Y83.54848
G01 X-19.35272 Y83.35438
G01 X-19.40687 Y83.17767
G01 X-19.49354 Y83.01442
G01 X-19.61579 Y82.86220
G01 X-19.76542 Y82.73673
G01 X-19.93664 Y82.64287
G01 X-20.14355 Y82.58011
G01 X-20.33804 Y82.56304
G01 X-20.53214 Y82.58422
G01 X-20.70885 Y82.63838
G01 X-20.88960 Y82.73673
G01 X-21.03214 Y82.85438
G01 X-21.16148 Y83.01442
G01 X-21.24815 Y83.17767
G01 X-21.30641 Y83.37505
G01 X-21.32401 Y83.55900
G01 X-21.32396 Y94.47915
G01 X-21.35389 Y94.53205
G01 X-21.39038 Y94.64272
G01 X-24.55020 Y97.80271
G01 X-30.22649 Y97.80251
G01 X-32.01592 Y96.01313
G01 X-32.01592 Y95.49888
G01 X-31.98203 Y95.43548
G01 X-31.91348 Y95.22260
G01 X-31.88894 Y94.98900
G01 X-31.91348 Y94.75542
G01 X-31.98607 Y94.53205
G01 X-32.03100 Y94.45303
G01 X-32.03154 Y83.54848
G01 X-32.05272 Y83.35438
G01 X-32.10687 Y83.17767
G01 X-32.19354 Y83.01442
G01 X-32.31579 Y82.86220
G01 X-32.46542 Y82.73673
G01 X-32.63664 Y82.64287
G01 X-32.84355 Y82.58011
G01 X-33.03804 Y82.56304
G01 X-33.23214 Y82.58422
G01 X-33.40885 Y82.63838
G01 X-33.58960 Y82.73673
G01 X-33.73214 Y82.85438
G01 X-33.86148 Y83.01442
G01 X-33.94815 Y83.17767
G01 X-34.00641 Y83.37505
G01 X-34.02401 Y83.55900
G01 X-34.02328 Y93.99324
G01 X-41.55120 Y93.99347
G01 X-39.76317 Y86.67817
G01 X-39.66848 Y86.50532
G01 X-39.61041 Y86.31604
G01 X-39.58750 Y86.09900
G01 X-39.58801 Y83.54848
G01 X-39.61041 Y83.34198
G01 X-39.67270 Y83.14384
G01 X-39.76071 Y82.97917
G01 X-39.89088 Y82.81729
G01 X-40.05860 Y82.67765
G01 X-40.25179 Y82.57615
G01 X-40.45113 Y82.51783
G01 X-40.63698 Y82.49954
G01 X-40.84386 Y82.51783
G01 X-41.04323 Y82.57615
G01 X-41.23642 Y82.67765
G01 X-41.40414 Y82.81729
G01 X-41.52888 Y82.97010
G01 X-41.62232 Y83.14384
G01 X-41.68458 Y83.34198
G01 X-41.70698 Y83.54848
G01 X-41.70751 Y86.09900
G01 X-41.69804 Y86.20035
G01 X-43.66679 Y94.25974
G01 X-43.72814 Y94.32863
G01 X-43.84559 Y94.53205
G01 X-43.91815 Y94.75542
G01 X-43.94213 Y95.00025
G01 X-43.91815 Y95.22260
G01 X-43.84960 Y95.43548
G01 X-43.81566 Y95.49893
G01 X-43.81551 Y96.01318
G01 X-44.36044 Y96.55811
G01 X-48.11865 Y96.55793
G01 X-48.82294 Y95.85367
G01 X-48.82294 Y95.49888
G01 X-48.79307 Y95.44597
G01 X-48.74743 Y95.30741
G01 X-48.68238 Y95.21874
G01 X-48.60303 Y95.05179
G01 X-48.55167 Y94.85253
G01 X-47.33245 Y86.58856
G01 X-47.28464 Y86.49473
G01 X-47.23044 Y86.31604
G01 X-47.20804 Y86.10954
G01 X-47.20750 Y83.55900
G01 X-47.23044 Y83.34198
G01 X-47.29270 Y83.14384
G01 X-47.38073 Y82.97917
G01 X-47.52579 Y82.80238
G01 X-47.67860 Y82.67765
G01 X-47.85233 Y82.58420
G01 X-48.07115 Y82.51783
G01 X-48.27804 Y82.49954
G01 X-48.47430 Y82.51938
G01 X-48.68269 Y82.58420
G01 X-48.85642 Y82.67765
G01 X-49.00923 Y82.80238
G01 X-49.14888 Y82.97010
G01 X-49.24232 Y83.14384
G01 X-49.30458 Y83.34198
G01 X-49.32751 Y83.55900
G01 X-49.32751 Y86.09900
G01 X-49.30598 Y86.31040
G01 X-50.44994 Y94.06548
G01 X-50.57123 Y94.15410
G01 X-50.72838 Y94.32863
G01 X-50.84583 Y94.53205
G01 X-50.91839 Y94.75542
G01 X-50.94237 Y95.00025
G01 X-50.91839 Y95.22260
G01 X-50.84984 Y95.43548
G01 X-50.81590 Y95.49893
G01 X-50.81575 Y96.01318
G01 X-51.36068 Y96.55811
G01 X-54.17932 Y96.55793
G01 X-55.12918 Y95.60810
G01 X-55.71432 Y94.81087
G01 X-55.72364 Y94.74455
G01 X-55.77541 Y94.58529
G01 X-54.93309 Y86.55231
G01 X-54.90464 Y86.49473
G01 X-54.85044 Y86.31604
G01 X-54.82750 Y86.09900
G01 X-54.82750 Y83.55900
G01 X-54.85044 Y83.34198
G01 X-54.91270 Y83.14384
G01 X-55.00073 Y82.97917
G01 X-55.14579 Y82.80238
G01 X-55.29860 Y82.67765
G01 X-55.47233 Y82.58420
G01 X-55.69115 Y82.51783
G01 X-55.89804 Y82.49954
G01 X-56.09430 Y82.51938
G01 X-56.30269 Y82.58420
G01 X-56.47642 Y82.67765
G01 X-56.62923 Y82.80238
G01 X-56.76888 Y82.97010
G01 X-56.87038 Y83.16329
G01 X-56.92869 Y83.36266
G01 X-56.94751 Y83.55900
G01 X-56.94751 Y86.09900
G01 X-56.92869 Y86.29537
G01 X-56.91538 Y86.34629
G01 X-57.75750 Y94.37757
G01 X-57.84607 Y94.53205
G01 X-57.91574 Y94.74455
G01 X-57.94261 Y94.97777
G01 X-57.91863 Y95.22260
G01 X-57.85008 Y95.43548
G01 X-57.81617 Y95.49888
G01 X-57.81599 Y96.01318
G01 X-58.36092 Y96.55811
G01 X-61.13844 Y96.55793
G01 X-62.60488 Y95.09205
G01 X-62.58332 Y95.04800
G01 X-62.53272 Y94.88123
G01 X-62.51100 Y94.67661
G01 X-62.51100 Y86.44975
G01 X-62.46633 Y86.29537
G01 X-62.44750 Y86.09900
G01 X-62.44804 Y83.54848
G01 X-62.47044 Y83.34198
G01 X-62.53270 Y83.14384
G01 X-62.62614 Y82.97010
G01 X-62.75088 Y82.81729
G01 X-62.91860 Y82.67765
G01 X-63.09233 Y82.58420
G01 X-63.31115 Y82.51783
G01 X-63.51804 Y82.49954
G01 X-63.71430 Y82.51938
G01 X-63.92269 Y82.58420
G01 X-64.09642 Y82.67765
G01 X-64.24923 Y82.80238
G01 X-64.38888 Y82.97010
G01 X-64.49038 Y83.16329
G01 X-64.54869 Y83.36266
G01 X-64.56751 Y83.55900
G01 X-64.56751 Y86.09900
G01 X-64.54869 Y86.29537
G01 X-64.50399 Y86.44980
G01 X-64.50376 Y94.10429
G01 X-64.57966 Y94.16205
G01 X-64.73498 Y94.33807
G01 X-64.84631 Y94.53205
G01 X-64.91887 Y94.75542
G01 X-64.94285 Y95.00025
G01 X-64.91887 Y95.22260
G01 X-64.85032 Y95.43548
G01 X-64.81638 Y95.49893
G01 X-64.81623 Y96.01318
G01 X-65.36116 Y96.55814
G01 X-71.95935 Y96.55793
G01 X-72.30270 Y96.21458
G01 X-72.30270 Y95.49893
G01 X-72.26882 Y95.43548
G01 X-72.20027 Y95.22260
G01 X-72.17570 Y94.98900
G01 X-72.20027 Y94.75542
G01 X-72.25879 Y94.57335
G01 X-70.25087 Y86.69427
G01 X-70.14464 Y86.49473
G01 X-70.08633 Y86.29537
G01 X-70.06750 Y86.09900
G01 X-70.06750 Y83.55900
G01 X-70.09044 Y83.34198
G01 X-70.15270 Y83.14384
G01 X-70.24073 Y82.97917
G01 X-70.38579 Y82.80238
G01 X-70.53860 Y82.67765
G01 X-70.71233 Y82.58420
G01 X-70.93115 Y82.51783
G01 X-71.13804 Y82.49954
G01 X-71.33430 Y82.51938
G01 X-71.54268 Y82.58420
G01 X-71.71642 Y82.67765
G01 X-71.86923 Y82.80238
G01 X-72.00888 Y82.97010
G01 X-72.10232 Y83.14384
G01 X-72.16458 Y83.34198
G01 X-72.18751 Y83.55900
G01 X-72.18751 Y86.09900
G01 X-72.17906 Y86.19006
G01 X-74.26485 Y94.37462
G01 X-74.27613 Y94.44526
G01 X-74.32559 Y94.53205
G01 X-74.39815 Y94.75542
G01 X-74.42213 Y95.00025
G01 X-74.39815 Y95.22260
G01 X-74.32960 Y95.43548
G01 X-74.29566 Y95.49893
G01 X-74.29551 Y96.01318
G01 X-74.84044 Y96.55811
G01 X-78.59865 Y96.55793
G01 X-79.30294 Y95.85367
G01 X-79.30294 Y95.49855
G01 X-79.28562 Y95.46809
G01 X-79.22486 Y95.41016
G01 X-79.10292 Y95.24201
G01 X-79.01613 Y95.05329
G01 X-78.96886 Y94.86180
G01 X-77.69886 Y86.25374
G01 X-77.68781 Y86.10687
G01 X-77.68750 Y83.55900
G01 X-77.71044 Y83.34198
G01 X-77.77270 Y83.14384
G01 X-77.86073 Y82.97917
G01 X-78.00579 Y82.80238
G01 X-78.15860 Y82.67765
G01 X-78.33233 Y82.58420
G01 X-78.54072 Y82.51938
G01 X-78.73698 Y82.49954
G01 X-78.95430 Y82.51938
G01 X-79.16268 Y82.58420
G01 X-79.33642 Y82.67765
G01 X-79.50414 Y82.81729
G01 X-79.62888 Y82.97010
G01 X-79.72232 Y83.14384
G01 X-79.78458 Y83.34198
G01 X-79.80751 Y83.55900
G01 X-79.80751 Y86.02130
G01 X-81.00185 Y94.11770
G01 X-81.05918 Y94.16205
G01 X-81.21450 Y94.33807
G01 X-81.32583 Y94.53205
G01 X-81.40015 Y94.76655
G01 X-81.42295 Y94.98900
G01 X-81.40015 Y95.21148
G01 X-81.32984 Y95.43548
G01 X-81.29588 Y95.49885
G01 X-81.29575 Y96.01318
G01 X-81.84068 Y96.55811
G01 X-85.75835 Y96.55793
G01 X-86.30318 Y96.01313
G01 X-86.30318 Y95.49893
G01 X-86.26930 Y95.43548
G01 X-86.20075 Y95.22260
G01 X-86.17618 Y94.98900
G01 X-86.20075 Y94.75542
G01 X-86.25541 Y94.58532
G01 X-85.41307 Y86.55229
G01 X-85.38464 Y86.49473
G01 X-85.33044 Y86.31604
G01 X-85.30750 Y86.09900
G01 X-85.30750 Y83.55900
G01 X-85.33044 Y83.34198
G01 X-85.39270 Y83.14384
G01 X-85.48073 Y82.97917
G01 X-85.62579 Y82.80238
G01 X-85.77860 Y82.67765
G01 X-85.95233 Y82.58420
G01 X-86.16072 Y82.51938
G01 X-86.35698 Y82.49954
G01 X-86.57430 Y82.51938
G01 X-86.78269 Y82.58420
G01 X-86.95642 Y82.67765
G01 X-87.10923 Y82.80238
G01 X-87.24888 Y82.97010
G01 X-87.35037 Y83.16329
G01 X-87.40869 Y83.36266
G01 X-87.42751 Y83.55900
G01 X-87.42751 Y86.09900
G01 X-87.40869 Y86.29537
G01 X-87.39538 Y86.34627
G01 X-88.23747 Y94.37755
G01 X-88.32607 Y94.53205
G01 X-88.39574 Y94.74455
G01 X-88.42261 Y94.97777
G01 X-88.39863 Y95.22260
G01 X-88.33008 Y95.43548
G01 X-88.29614 Y95.49888
G01 X-88.29599 Y96.01318
G01 X-88.84092 Y96.55811
G01 X-92.75859 Y96.55793
G01 X-93.30342 Y96.01313
G01 X-93.30342 Y95.49893
G01 X-93.26954 Y95.43548
G01 X-93.20099 Y95.22260
G01 X-93.17642 Y94.98900
G01 X-93.20099 Y94.75542
G01 X-93.26954 Y94.54254
G01 X-93.30012 Y94.48484
G01 X-92.99169 Y86.13580
G01 X-92.99100 Y83.55903
G01 X-93.00861 Y83.37505
G01 X-93.06332 Y83.18760
G01 X-93.16522 Y82.99692
G01 X-93.29070 Y82.84729
G01 X-93.43388 Y82.73045
G01 X-93.59664 Y82.64287
G01 X-93.79311 Y82.58166
G01 X-93.97698 Y82.56304
G01 X-94.18191 Y82.58166
G01 X-94.37838 Y82.64287
G01 X-94.54114 Y82.73045
G01 X-94.68432 Y82.84729
G01 X-94.81607 Y83.00538
G01 X-94.91170 Y83.18760
G01 X-94.96641 Y83.37505
G01 X-94.98401 Y83.55900
G01 X-94.98401 Y86.08069
G01 X-95.29405 Y94.47513
G01 X-95.33032 Y94.54254
G01 X-95.39887 Y94.75542
G01 X-95.42343 Y94.98900
G01 X-95.39887 Y95.22260
G01 X-95.33032 Y95.43548
G01 X-95.29638 Y95.49893
G01 X-95.29623 Y96.01320
G01 X-95.84116 Y96.55814
G01 X-102.43932 Y96.55793
G01 X-102.78270 Y96.21458
G01 X-102.78270 Y95.49888
G01 X-102.74882 Y95.43548
G01 X-102.68027 Y95.22260
G01 X-102.65629 Y95.00025
G01 X-102.67851 Y94.76655
G01 X-102.68918 Y94.72608
G01 X-100.63948 Y86.33550
G01 X-100.61758 Y86.21170
G01 X-100.61100 Y86.09900
G01 X-100.61100 Y83.55900
G01 X-100.63016 Y83.36461
G01 X-100.69137 Y83.16814
G01 X-100.77895 Y83.00538
G01 X-100.89579 Y82.86220
G01 X-101.06292 Y82.72504
G01 X-101.23610 Y82.63482
G01 X-101.41311 Y82.58166
G01 X-101.59698 Y82.56304
G01 X-101.80191 Y82.58166
G01 X-101.99838 Y82.64287
G01 X-102.16114 Y82.73045
G01 X-102.30432 Y82.84729
G01 X-102.43607 Y83.00538
G01 X-102.52365 Y83.16814
G01 X-102.58230 Y83.35438
G01 X-102.60401 Y83.55900
G01 X-102.60399 Y85.97901
G01 X-104.62677 Y94.25972
G01 X-104.68814 Y94.32863
G01 X-104.80559 Y94.53205
G01 X-104.87815 Y94.75542
G01 X-104.90213 Y95.00025
G01 X-104.87815 Y95.22260
G01 X-104.80960 Y95.43548
G01 X-104.77566 Y95.49888
G01 X-104.77551 Y96.01318
G01 X-105.32044 Y96.55811
G01 X-109.23811 Y96.55793
G01 X-109.78294 Y96.01313
G01 X-109.78297 Y95.49893
G01 X-109.74906 Y95.43548
G01 X-109.68051 Y95.22260
G01 X-109.65653 Y95.00025
G01 X-109.68051 Y94.75542
G01 X-109.71060 Y94.66088
G01 X-108.24586 Y86.27037
G01 X-108.23141 Y86.10830
G01 X-108.23100 Y83.55900
G01 X-108.25016 Y83.36461
G01 X-108.31137 Y83.16814
G01 X-108.39895 Y83.00538
G01 X-108.51579 Y82.86220
G01 X-108.68292 Y82.72504
G01 X-108.83664 Y82.64287
G01 X-109.02287 Y82.58422
G01 X-109.21698 Y82.56304
G01 X-109.42191 Y82.58166
G01 X-109.61838 Y82.64287
G01 X-109.78114 Y82.73045
G01 X-109.92432 Y82.84729
G01 X-110.05607 Y83.00538
G01 X-110.14365 Y83.16814
G01 X-110.20230 Y83.35438
G01 X-110.22401 Y83.55903
G01 X-110.22399 Y86.01274
G01 X-111.67248 Y94.31013
G01 X-111.69450 Y94.33807
G01 X-111.80583 Y94.53205
G01 X-111.88015 Y94.76655
G01 X-111.90295 Y94.98900
G01 X-111.88015 Y95.21148
G01 X-111.80984 Y95.43548
G01 X-111.77588 Y95.49885
G01 X-111.77575 Y96.01318
G01 X-112.32068 Y96.55811
G01 X-116.23835 Y96.55793
G01 X-116.78318 Y96.01313
G01 X-116.78321 Y95.49893
G01 X-116.74930 Y95.43548
G01 X-116.68075 Y95.22260
G01 X-116.65618 Y94.98900
G01 X-116.68075 Y94.75542
G01 X-116.72743 Y94.60983
G01 X-115.85631 Y86.20172
G01 X-115.85100 Y86.09900
G01 X-115.85100 Y83.55900
G01 X-115.87272 Y83.35438
G01 X-115.93137 Y83.16814
G01 X-116.01354 Y83.01442
G01 X-116.15070 Y82.84729
G01 X-116.29388 Y82.73045
G01 X-116.45664 Y82.64287
G01 X-116.64287 Y82.58422
G01 X-116.83698 Y82.56304
G01 X-117.04191 Y82.58166
G01 X-117.23838 Y82.64287
G01 X-117.40114 Y82.73045
G01 X-117.54432 Y82.84729
G01 X-117.67607 Y83.00538
G01 X-117.77170 Y83.18760
G01 X-117.82641 Y83.37505
G01 X-117.84401 Y83.55903
G01 X-117.84401 Y86.04757
G01 X-118.70480 Y94.35634
G01 X-118.80601 Y94.53195
G01 X-118.87574 Y94.74455
G01 X-118.90261 Y94.97777
G01 X-118.87863 Y95.22260
G01 X-118.81008 Y95.43548
G01 X-118.77614 Y95.49888
G01 X-118.77599 Y96.01318
G01 X-119.32092 Y96.55811
G01 X-122.75932 Y96.55793
G01 X-123.59239 Y95.72489
G01 X-123.71721 Y95.33601
G01 X-123.68099 Y95.22260
G01 X-123.65642 Y94.98900
G01 X-123.68104 Y94.75512
G01 X-123.74664 Y94.55504
G01 X-123.47154 Y86.13154
G01 X-123.47154 Y83.54848
G01 X-123.49016 Y83.36461
G01 X-123.55137 Y83.16814
G01 X-123.63895 Y83.00538
G01 X-123.77070 Y82.84729
G01 X-123.91388 Y82.73045
G01 X-124.07664 Y82.64287
G01 X-124.27311 Y82.58166
G01 X-124.45698 Y82.56304
G01 X-124.67214 Y82.58422
G01 X-124.85838 Y82.64287
G01 X-125.02960 Y82.73673
G01 X-125.17923 Y82.86220
G01 X-125.29607 Y83.00538
G01 X-125.39170 Y83.18760
G01 X-125.44641 Y83.37505
G01 X-125.46401 Y83.55900
G01 X-125.46401 Y86.08239
G01 X-125.73585 Y94.40897
G01 X-125.80631 Y94.53205
G01 X-125.87598 Y94.74455
G01 X-125.90343 Y94.98900
G01 X-125.87887 Y95.22260
G01 X-125.81032 Y95.43548
G01 X-125.77638 Y95.49888
G01 X-125.77623 Y96.01318
G01 X-126.32114 Y96.55814
G01 X-132.91935 Y96.55793
G01 X-133.26270 Y96.21458
G01 X-133.26270 Y95.49888
G01 X-133.22882 Y95.43548
G01 X-133.16027 Y95.22260
G01 X-133.13629 Y95.00025
G01 X-133.15851 Y94.76655
G01 X-133.16918 Y94.72608
G01 X-131.11948 Y86.33550
G01 X-131.09758 Y86.21170
G01 X-131.09100 Y86.09900
G01 X-131.09100 Y83.55900
G01 X-131.11272 Y83.35438
G01 X-131.17137 Y83.16814
G01 X-131.25895 Y83.00538
G01 X-131.37579 Y82.86220
G01 X-131.52542 Y82.73673
G01 X-131.71610 Y82.63482
G01 X-131.89311 Y82.58166
G01 X-132.07698 Y82.56304
G01 X-132.29214 Y82.58422
G01 X-132.47838 Y82.64287
G01 X-132.64960 Y82.73673
G01 X-132.79923 Y82.86220
G01 X-132.91607 Y83.00538
G01 X-133.00365 Y83.16814
G01 X-133.06230 Y83.35438
G01 X-133.08401 Y83.55900
G01 X-133.08399 Y85.97909
G01 X-135.10679 Y94.25974
G01 X-135.16814 Y94.32863
G01 X-135.28559 Y94.53205
G01 X-135.35815 Y94.75542
G01 X-135.38213 Y95.00025
G01 X-135.35815 Y95.22260
G01 X-135.28960 Y95.43548
G01 X-135.25566 Y95.49893
G01 X-135.25551 Y96.01318
G01 X-135.80044 Y96.55811
G01 X-139.71811 Y96.55793
G01 X-140.26292 Y96.01313
G01 X-140.26292 Y95.49883
G01 X-140.22906 Y95.43548
G01 X-140.16051 Y95.22260
G01 X-140.13592 Y94.98900
G01 X-140.16051 Y94.75542
G01 X-140.19058 Y94.66096
G01 X-138.72584 Y86.27037
G01 X-138.71100 Y86.09900
G01 X-138.71100 Y83.55900
G01 X-138.73272 Y83.35438
G01 X-138.78685 Y83.17767
G01 X-138.88522 Y82.99692
G01 X-138.99579 Y82.86220
G01 X-139.14542 Y82.73673
G01 X-139.33607 Y82.63482
G01 X-139.52355 Y82.58011
G01 X-139.69696 Y82.56304
G01 X-139.91212 Y82.58422
G01 X-140.08883 Y82.63838
G01 X-140.26957 Y82.73673
G01 X-140.41920 Y82.86220
G01 X-140.54148 Y83.01442
G01 X-140.62815 Y83.17767
G01 X-140.68230 Y83.35438
G01 X-140.70401 Y83.55903
G01 X-140.70399 Y86.01269
G01 X-142.15242 Y94.31011
G01 X-142.17450 Y94.33807
G01 X-142.28583 Y94.53205
G01 X-142.36012 Y94.76655
G01 X-142.38295 Y94.98900
G01 X-142.36012 Y95.21148
G01 X-142.28981 Y95.43548
G01 X-142.25583 Y95.49893
G01 X-142.25570 Y96.01318
G01 X-142.80063 Y96.55811
G01 X-146.88930 Y96.55793
G01 X-147.26318 Y96.18407
G01 X-147.26318 Y95.49888
G01 X-147.22930 Y95.43548
G01 X-147.16075 Y95.22260
G01 X-147.13618 Y94.98900
G01 X-147.16075 Y94.75542
G01 X-147.21541 Y94.58532
G01 X-146.33598 Y86.19732
G01 X-146.33098 Y86.09900
G01 X-146.33098 Y83.55900
G01 X-146.34858 Y83.37505
G01 X-146.40687 Y83.17767
G01 X-146.49351 Y83.01442
G01 X-146.61579 Y82.86220
G01 X-146.77385 Y82.73045
G01 X-146.94617 Y82.63838
G01 X-147.12287 Y82.58422
G01 X-147.31698 Y82.56304
G01 X-147.53214 Y82.58422
G01 X-147.70885 Y82.63838
G01 X-147.88960 Y82.73673
G01 X-148.03923 Y82.86220
G01 X-148.16148 Y83.01442
G01 X-148.24814 Y83.17767
G01 X-148.30641 Y83.37505
G01 X-148.32401 Y83.55903
G01 X-148.32401 Y86.04698
G01 X-149.19747 Y94.37755
G01 X-149.28607 Y94.53205
G01 X-149.35574 Y94.74455
G01 X-149.38261 Y94.97777
G01 X-149.35863 Y95.22260
G01 X-149.29008 Y95.43548
G01 X-149.25614 Y95.49893
G01 X-149.25602 Y96.01320
G01 X-149.80092 Y96.55811
G01 X-153.71859 Y96.55793
G01 X-154.26342 Y96.01313
G01 X-154.26342 Y95.49888
G01 X-154.22954 Y95.43548
G01 X-154.16099 Y95.22260
G01 X-154.13642 Y94.98900
G01 X-154.16099 Y94.75542
G01 X-154.22954 Y94.54254
G01 X-154.24313 Y94.51430
G01 X-153.95184 Y87.40984
G01 X-153.95100 Y83.55903
G01 X-153.96861 Y83.37505
G01 X-154.03137 Y83.16814
G01 X-154.12522 Y82.99692
G01 X-154.25070 Y82.84729
G01 X-154.39388 Y82.73045
G01 X-154.56617 Y82.63838
G01 X-154.74287 Y82.58422
G01 X-154.93698 Y82.56304
G01 X-155.15214 Y82.58422
G01 X-155.32885 Y82.63838
G01 X-155.50960 Y82.73673
G01 X-155.65923 Y82.86220
G01 X-155.78148 Y83.01442
G01 X-155.86814 Y83.17767
G01 X-155.92641 Y83.37505
G01 X-155.94401 Y83.55900
G01 X-155.94401 Y87.34863
G01 X-156.23477 Y94.44173
G01 X-156.28631 Y94.53205
G01 X-156.35598 Y94.74455
G01 X-156.38343 Y94.98900
G01 X-156.35887 Y95.22260
G01 X-156.29032 Y95.43548
G01 X-156.25638 Y95.49893
G01 X-156.25643 Y96.42585
G01 X-156.24516 Y96.57338
G01 X-156.20995 Y96.72570
G01 X-156.15135 Y96.87063
G01 X-156.07081 Y97.00459
G01 X-155.96456 Y97.13050
G01 X-154.82817 Y98.26616
G01 X-154.68499 Y98.38300
G01 X-154.52222 Y98.47058
G01 X-154.31532 Y98.53334
G01 X-154.13137 Y98.55094
G01 X-149.38825 Y98.55094
G01 X-149.24073 Y98.53967
G01 X-149.07237 Y98.49925
G01 X-148.94350 Y98.44586
G01 X-148.80951 Y98.36530
G01 X-148.68360 Y98.25907
G01 X-148.34515 Y97.91960
G01 X-148.00672 Y98.25907
G01 X-147.85572 Y98.38300
G01 X-147.68343 Y98.47507
G01 X-147.48604 Y98.53334
G01 X-147.30210 Y98.55094
G01 X-142.37747 Y98.55041
G01 X-142.20404 Y98.53334
G01 X-142.01659 Y98.47863
G01 X-141.83434 Y98.38300
G01 X-141.68336 Y98.25907
G01 X-141.25944 Y97.83410
G01 X-140.83551 Y98.25907
G01 X-140.70960 Y98.36530
G01 X-140.59065 Y98.43819
G01 X-140.44674 Y98.49925
G01 X-140.29505 Y98.53702
G01 X-140.13932 Y98.55061
G01 X-135.38777 Y98.55094
G01 X-135.24025 Y98.53967
G01 X-135.07189 Y98.49925
G01 X-134.94302 Y98.44586
G01 X-134.80903 Y98.36530
G01 X-134.68312 Y98.25907
G01 X-134.35993 Y97.93482
G01 X-134.03672 Y98.25907
G01 X-133.87665 Y98.38843
G01 X-133.72295 Y98.47058
G01 X-133.53672 Y98.52923
G01 X-133.34261 Y98.55041
G01 X-125.90849 Y98.55094
G01 X-125.76097 Y98.53967
G01 X-125.60867 Y98.50446
G01 X-125.46374 Y98.44586
G01 X-125.32975 Y98.36530
G01 X-125.20384 Y98.25907
G01 X-124.54029 Y97.59446
G01 X-123.87672 Y98.25907
G01 X-123.73417 Y98.37673
G01 X-123.54350 Y98.47863
G01 X-123.35604 Y98.53334
G01 X-123.17210 Y98.55094
G01 X-118.90825 Y98.55094
G01 X-118.76073 Y98.53967
G01 X-118.59238 Y98.49925
G01 X-118.46350 Y98.44586
G01 X-118.32951 Y98.36530
G01 X-118.20360 Y98.25907
G01 X-117.77968 Y97.83410
G01 X-117.35575 Y98.25907
G01 X-117.20475 Y98.38300
G01 X-117.04198 Y98.47058
G01 X-116.85575 Y98.52923
G01 X-116.65113 Y98.55094
G01 X-111.90801 Y98.55094
G01 X-111.76049 Y98.53967
G01 X-111.59214 Y98.49925
G01 X-111.46326 Y98.44586
G01 X-111.32927 Y98.36530
G01 X-111.20336 Y98.25907
G01 X-110.77944 Y97.83410
G01 X-110.35551 Y98.25907
G01 X-110.20451 Y98.38300
G01 X-110.04174 Y98.47058
G01 X-109.85551 Y98.52923
G01 X-109.65089 Y98.55094
G01 X-104.90777 Y98.55094
G01 X-104.76025 Y98.53967
G01 X-104.59190 Y98.49925
G01 X-104.46302 Y98.44586
G01 X-104.32903 Y98.36530
G01 X-104.20312 Y98.25907
G01 X-103.87993 Y97.93484
G01 X-103.55672 Y98.25907
G01 X-103.39665 Y98.38843
G01 X-103.24295 Y98.47058
G01 X-103.05672 Y98.52923
G01 X-102.86261 Y98.55041
G01 X-95.42003 Y98.55061
G01 X-95.26430 Y98.53702
G01 X-95.11261 Y98.49925
G01 X-94.98374 Y98.44586
G01 X-94.84975 Y98.36530
G01 X-94.72384 Y98.25907
G01 X-94.29992 Y97.83410
G01 X-93.87599 Y98.25907
G01 X-93.72499 Y98.38300
G01 X-93.54277 Y98.47863
G01 X-93.36576 Y98.53179
G01 X-93.18188 Y98.55041
G01 X-88.42825 Y98.55094
G01 X-88.28073 Y98.53967
G01 X-88.11238 Y98.49925
G01 X-87.98350 Y98.44586
G01 X-87.84951 Y98.36530
G01 X-87.72360 Y98.25907
G01 X-87.29968 Y97.83410
G01 X-86.87575 Y98.25907
G01 X-86.72475 Y98.38300
G01 X-86.54253 Y98.47863
G01 X-86.35508 Y98.53334
G01 X-86.17113 Y98.55094
G01 X-81.42801 Y98.55094
G01 X-81.28049 Y98.53967
G01 X-81.12819 Y98.50446
G01 X-80.98326 Y98.44586
G01 X-80.84927 Y98.36530
G01 X-80.72336 Y98.25907
G01 X-80.21971 Y97.75437
G01 X-79.71605 Y98.25907
G01 X-79.56505 Y98.38300
G01 X-79.38283 Y98.47863
G01 X-79.20581 Y98.53179
G01 X-79.02194 Y98.55041
G01 X-74.42777 Y98.55094
G01 X-74.28025 Y98.53967
G01 X-74.11190 Y98.49925
G01 X-73.98302 Y98.44586
G01 X-73.84903 Y98.36530
G01 X-73.72312 Y98.25907
G01 X-73.39993 Y97.93484
G01 X-73.07672 Y98.25907
G01 X-72.91665 Y98.38843
G01 X-72.76295 Y98.47058
G01 X-72.57672 Y98.52923
G01 X-72.38261 Y98.55041
G01 X-64.94849 Y98.55094
G01 X-64.78430 Y98.53702
G01 X-64.63261 Y98.49925
G01 X-64.48870 Y98.43819
G01 X-64.35611 Y98.35539
G01 X-64.24384 Y98.25907
G01 X-63.24986 Y97.26403
G01 X-62.25584 Y98.25907
G01 X-62.11329 Y98.37673
G01 X-61.92261 Y98.47863
G01 X-61.73516 Y98.53334
G01 X-61.56173 Y98.55041
G01 X-57.94825 Y98.55094
G01 X-57.78406 Y98.53702
G01 X-57.63237 Y98.49925
G01 X-57.50350 Y98.44586
G01 X-57.35587 Y98.35539
G01 X-57.24360 Y98.25907
G01 X-56.27017 Y97.28458
G01 X-55.28889 Y98.26616
G01 X-55.15417 Y98.37673
G01 X-54.98295 Y98.47058
G01 X-54.77604 Y98.53334
G01 X-54.59210 Y98.55094
G01 X-50.94801 Y98.55094
G01 X-50.80049 Y98.53967
G01 X-50.63213 Y98.49925
G01 X-50.48822 Y98.43819
G01 X-50.35563 Y98.35539
G01 X-50.24336 Y98.25907
G01 X-49.73971 Y97.75440
G01 X-49.23605 Y98.25907
G01 X-49.09350 Y98.37673
G01 X-48.92228 Y98.47058
G01 X-48.71537 Y98.53334
G01 X-48.53143 Y98.55094
G01 X-43.94777 Y98.55094
G01 X-43.78358 Y98.53702
G01 X-43.63190 Y98.49925
G01 X-43.48798 Y98.43819
G01 X-43.35539 Y98.35539
G01 X-43.24312 Y98.25907
G01 X-42.10749 Y97.12268
G01 X-41.98521 Y96.97045
G01 X-41.90307 Y96.81673
G01 X-41.84442 Y96.63050
G01 X-41.82270 Y96.42585
G01 X-41.82344 Y95.98481
G01 X-34.00822 Y95.98481
G01 X-34.00893 Y96.42585
G01 X-33.99501 Y96.59004
G01 X-33.95724 Y96.74173
G01 X-33.90385 Y96.87063
G01 X-33.81337 Y97.01823
G01 X-33.71706 Y97.13050
G01 X-31.34388 Y99.50365
G01 X-31.20134 Y99.62130
G01 X-31.03012 Y99.71515
G01 X-30.82321 Y99.77792
G01 X-30.63926 Y99.79552
G01 X-24.13752 Y99.79552
G01 X-23.99000 Y99.78424
G01 X-23.83770 Y99.74904
G01 X-23.67773 Y99.68277
G01 X-23.54514 Y99.59996
G01 X-23.43288 Y99.50365
G01 X-21.04507 Y97.11483
G01 X-18.65897 Y99.50365
G01 X-18.49890 Y99.63301
G01 X-18.32575 Y99.72320
G01 X-18.13830 Y99.77792
G01 X-17.95435 Y99.79552
G01 X-13.97752 Y99.79552
G01 X-13.83000 Y99.78424
G01 X-13.67770 Y99.74904
G01 X-13.53277 Y99.69044
G01 X-13.39881 Y99.60990
G01 X-13.27288 Y99.50365
G01 X-9.46288 Y95.69365
G01 X-9.35650 Y95.56751
G01 X-9.27588 Y95.43332
G01 X-9.21728 Y95.28814
G01 X-9.18215 Y95.13556
G01 X-9.17100 Y94.98783
G01 X-9.21147 Y61.75828
G01 X-5.12852 Y61.75902
G01 X-4.91147 Y61.73608
G01 X-4.72285 Y61.67832
G01 X-4.53114 Y61.57408
G01 X-4.38679 Y61.45564
G01 X-4.25344 Y61.29638
G01 X-4.14564 Y61.09473
G01 X-4.09144 Y60.91604
G01 X-4.06903 Y60.68848
G01 X-4.06405 Y60.68798
G01 X-4.08234 Y60.89588
G01 X-4.14086 Y61.09618
G01 X-4.24958 Y61.29956
G01 X-4.38361 Y61.45950
G01 X-4.53682 Y61.58452
G01 X-4.71097 Y61.67822
G01 X-4.91003 Y61.74086
G01 X-5.12852 Y61.76402
G01 X-9.20646 Y61.76329
G01 X-9.16600 Y94.98781
G01 X-9.17715 Y95.13594
G01 X-9.21241 Y95.28930
G01 X-9.27126 Y95.43525
G01 X-9.35223 Y95.57013
G01 X-9.45934 Y95.69720
G01 X-13.26934 Y99.50718
G01 X-13.39619 Y99.61416
G01 X-13.53086 Y99.69506
G01 X-13.67653 Y99.75389
G01 X-13.82962 Y99.78922
G01 X-13.97752 Y99.80052
G01 X-17.95435 Y99.80052
G01 X-18.13880 Y99.78289
G01 X-18.32720 Y99.72800
G01 X-18.50126 Y99.63740
G01 X-18.66250 Y99.50718
G01 X-21.04538 Y97.12219
G01 X-23.42934 Y99.50718
G01 X-23.54192 Y99.60377
G01 X-23.67514 Y99.68703
G01 X-23.83653 Y99.75389
G01 X-23.98962 Y99.78922
G01 X-24.13752 Y99.80052
G01 X-30.63926 Y99.80052
G01 X-30.82372 Y99.78289
G01 X-31.03248 Y99.71955
G01 X-31.20451 Y99.62516
G01 X-31.34741 Y99.50718
G01 X-33.72059 Y97.13403
G01 X-33.81718 Y97.02148
G01 X-33.90847 Y96.87251
G01 X-33.96730 Y96.72684
G01 X-33.99986 Y96.59121
G01 X-34.01393 Y96.42585
G01 X-34.01319 Y95.98981
G01 X-41.81844 Y95.98981
G01 X-41.81770 Y96.42585
G01 X-41.83965 Y96.63195
G01 X-41.89022 Y96.79872
G01 X-41.98082 Y96.97279
G01 X-42.10363 Y97.12585
G01 X-43.23959 Y98.26260
G01 X-43.35214 Y98.35920
G01 X-43.48536 Y98.44246
G01 X-43.62999 Y98.50385
G01 X-43.78242 Y98.54188
G01 X-43.94777 Y98.55595
G01 X-48.53143 Y98.55595
G01 X-48.71588 Y98.53832
G01 X-48.90427 Y98.48343
G01 X-49.09668 Y98.38059
G01 X-49.23958 Y98.26260
G01 X-49.73971 Y97.76146
G01 X-50.23983 Y98.26260
G01 X-50.35238 Y98.35920
G01 X-50.50135 Y98.45049
G01 X-50.64702 Y98.50931
G01 X-50.80011 Y98.54464
G01 X-50.94801 Y98.55595
G01 X-54.59210 Y98.55595
G01 X-54.77655 Y98.53832
G01 X-54.98531 Y98.47497
G01 X-55.15735 Y98.38059
G01 X-55.29207 Y98.27002
G01 X-56.27017 Y97.29166
G01 X-57.24007 Y98.26260
G01 X-57.35262 Y98.35920
G01 X-57.50159 Y98.45049
G01 X-57.64726 Y98.50931
G01 X-57.78290 Y98.54188
G01 X-57.94825 Y98.55595
G01 X-61.56224 Y98.55539
G01 X-61.73567 Y98.53832
G01 X-61.92406 Y98.48343
G01 X-62.11647 Y98.38059
G01 X-62.25937 Y98.26260
G01 X-63.24986 Y97.27109
G01 X-64.24031 Y98.26260
G01 X-64.35286 Y98.35920
G01 X-64.48608 Y98.44246
G01 X-64.63071 Y98.50385
G01 X-64.78314 Y98.54188
G01 X-64.94849 Y98.55595
G01 X-72.38312 Y98.55539
G01 X-72.55655 Y98.53832
G01 X-72.74494 Y98.48343
G01 X-72.91901 Y98.39283
G01 X-73.08025 Y98.26260
G01 X-73.39993 Y97.94190
G01 X-73.71959 Y98.26260
G01 X-73.84644 Y98.36956
G01 X-73.98111 Y98.45049
G01 X-74.10999 Y98.50385
G01 X-74.27987 Y98.54464
G01 X-74.42777 Y98.55595
G01 X-79.02245 Y98.55539
G01 X-79.19588 Y98.53832
G01 X-79.38427 Y98.48343
G01 X-79.56781 Y98.38716
G01 X-79.71958 Y98.26260
G01 X-80.21971 Y97.76144
G01 X-80.71983 Y98.26260
G01 X-80.84668 Y98.36956
G01 X-80.98135 Y98.45049
G01 X-81.12702 Y98.50931
G01 X-81.28011 Y98.54464
G01 X-81.42801 Y98.55595
G01 X-86.17113 Y98.55595
G01 X-86.35558 Y98.53832
G01 X-86.54398 Y98.48343
G01 X-86.72752 Y98.38716
G01 X-86.87928 Y98.26260
G01 X-87.29968 Y97.84117
G01 X-87.72007 Y98.26260
G01 X-87.84692 Y98.36956
G01 X-87.98159 Y98.45049
G01 X-88.12726 Y98.50931
G01 X-88.28035 Y98.54464
G01 X-88.42825 Y98.55595
G01 X-93.17137 Y98.55595
G01 X-93.35582 Y98.53832
G01 X-93.54422 Y98.48343
G01 X-93.72776 Y98.38716
G01 X-93.87952 Y98.26260
G01 X-94.29992 Y97.84117
G01 X-94.72031 Y98.26260
G01 X-94.84716 Y98.36956
G01 X-94.98183 Y98.45049
G01 X-95.12750 Y98.50931
G01 X-95.28059 Y98.54464
G01 X-95.42849 Y98.55595
G01 X-102.86312 Y98.55539
G01 X-103.03655 Y98.53832
G01 X-103.22494 Y98.48343
G01 X-103.39901 Y98.39283
G01 X-103.56025 Y98.26260
G01 X-103.87993 Y97.94190
G01 X-104.19959 Y98.26260
G01 X-104.32644 Y98.36956
G01 X-104.46111 Y98.45049
G01 X-104.58999 Y98.50385
G01 X-104.75987 Y98.54464
G01 X-104.90777 Y98.55595
G01 X-109.65089 Y98.55595
G01 X-109.83534 Y98.53832
G01 X-110.02374 Y98.48343
G01 X-110.20728 Y98.38716
G01 X-110.35904 Y98.26260
G01 X-110.77946 Y97.84119
G01 X-111.19983 Y98.26260
G01 X-111.32668 Y98.36956
G01 X-111.46135 Y98.45049
G01 X-111.59023 Y98.50385
G01 X-111.76011 Y98.54464
G01 X-111.90801 Y98.55595
G01 X-116.65113 Y98.55595
G01 X-116.83558 Y98.53832
G01 X-117.02398 Y98.48343
G01 X-117.20752 Y98.38716
G01 X-117.35928 Y98.26260
G01 X-117.77968 Y97.84117
G01 X-118.20007 Y98.26260
G01 X-118.32692 Y98.36956
G01 X-118.46159 Y98.45049
G01 X-118.59047 Y98.50385
G01 X-118.76035 Y98.54464
G01 X-118.90825 Y98.55595
G01 X-123.17210 Y98.55595
G01 X-123.35655 Y98.53832
G01 X-123.54494 Y98.48343
G01 X-123.73735 Y98.38059
G01 X-123.88025 Y98.26260
G01 X-124.54029 Y97.60154
G01 X-125.20031 Y98.26260
G01 X-125.32716 Y98.36956
G01 X-125.46183 Y98.45049
G01 X-125.60750 Y98.50931
G01 X-125.76059 Y98.54464
G01 X-125.90849 Y98.55595
G01 X-133.34312 Y98.55539
G01 X-133.51655 Y98.53832
G01 X-133.70494 Y98.48343
G01 X-133.87901 Y98.39283
G01 X-134.04025 Y98.26260
G01 X-134.35993 Y97.94190
G01 X-134.67959 Y98.26260
G01 X-134.80644 Y98.36956
G01 X-134.94111 Y98.45049
G01 X-135.06999 Y98.50385
G01 X-135.23987 Y98.54464
G01 X-135.38777 Y98.55595
G01 X-140.13970 Y98.55559
G01 X-140.27877 Y98.54464
G01 X-140.43185 Y98.50931
G01 X-140.57752 Y98.45049
G01 X-140.71219 Y98.36956
G01 X-140.83904 Y98.26260
G01 X-141.25944 Y97.84117
G01 X-141.67983 Y98.26260
G01 X-141.83157 Y98.38716
G01 X-142.01514 Y98.48343
G01 X-142.20353 Y98.53832
G01 X-142.37694 Y98.55539
G01 X-147.30210 Y98.55595
G01 X-147.48655 Y98.53832
G01 X-147.67494 Y98.48343
G01 X-147.85848 Y98.38716
G01 X-148.01025 Y98.26260
G01 X-148.34517 Y97.92666
G01 X-148.68007 Y98.26260
G01 X-148.80692 Y98.36956
G01 X-148.94159 Y98.45049
G01 X-149.07047 Y98.50385
G01 X-149.24035 Y98.54464
G01 X-149.38825 Y98.55595
G01 X-154.13137 Y98.55595
G01 X-154.31582 Y98.53832
G01 X-154.52459 Y98.47497
G01 X-154.68776 Y98.38716
G01 X-154.83134 Y98.27002
G01 X-155.96809 Y97.13403
G01 X-156.07508 Y97.00718
G01 X-156.15598 Y96.87251
G01 X-156.21480 Y96.72684
G01 X-156.25014 Y96.57376
G01 X-156.26144 Y96.42585
G01 X-156.26139 Y95.50023
G01 X-156.29509 Y95.43703
G01 X-156.36378 Y95.22367
G01 X-156.38844 Y94.98900
G01 X-156.36073 Y94.74300
G01 X-156.29088 Y94.53002
G01 X-156.23972 Y94.44031
G01 X-155.94902 Y87.34840
G01 X-155.94902 Y83.55900
G01 X-155.93139 Y83.37455
G01 X-155.87277 Y83.17576
G01 X-155.78590 Y83.01209
G01 X-155.64750 Y82.84343
G01 X-155.50391 Y82.72629
G01 X-155.32037 Y82.63002
G01 X-155.13198 Y82.57513
G01 X-154.94752 Y82.55750
G01 X-154.76304 Y82.57513
G01 X-154.57465 Y82.63002
G01 X-154.38224 Y82.73287
G01 X-154.23934 Y82.85085
G01 X-154.10912 Y83.01209
G01 X-154.02225 Y83.17576
G01 X-153.96525 Y83.36362
G01 X-153.94600 Y83.55903
G01 X-153.94684 Y87.41005
G01 X-154.23807 Y94.51303
G01 X-154.22476 Y94.54099
G01 X-154.15608 Y94.75438
G01 X-154.13142 Y94.98900
G01 X-154.15608 Y95.22367
G01 X-154.22476 Y95.43703
G01 X-154.25845 Y95.50025
G01 X-154.25842 Y96.01105
G01 X-153.71651 Y96.55295
G01 X-149.80298 Y96.55311
G01 X-149.26100 Y96.01112
G01 X-149.26115 Y95.50023
G01 X-149.29485 Y95.43703
G01 X-149.36354 Y95.22367
G01 X-149.38756 Y94.97727
G01 X-149.36049 Y94.74300
G01 X-149.29064 Y94.53002
G01 X-149.20235 Y94.37597
G01 X-148.32899 Y86.04660
G01 X-148.32902 Y83.55903
G01 X-148.31139 Y83.37455
G01 X-148.25277 Y83.17576
G01 X-148.16590 Y83.01209
G01 X-148.02750 Y82.84343
G01 X-147.88391 Y82.72629
G01 X-147.70037 Y82.63002
G01 X-147.51198 Y82.57513
G01 X-147.32752 Y82.55750
G01 X-147.14304 Y82.57513
G01 X-146.95465 Y82.63002
G01 X-146.77111 Y82.72629
G01 X-146.61934 Y82.85085
G01 X-146.50136 Y82.99375
G01 X-146.40225 Y83.17576
G01 X-146.34525 Y83.36362
G01 X-146.32597 Y83.55900
G01 X-146.32597 Y86.09900
G01 X-146.33098 Y86.19760
G01 X-147.21030 Y94.58476
G01 X-147.15584 Y94.75438
G01 X-147.13118 Y94.98900
G01 X-147.15584 Y95.22367
G01 X-147.22452 Y95.43703
G01 X-147.25818 Y95.50023
G01 X-147.25818 Y96.18199
G01 X-146.88724 Y96.55295
G01 X-142.80274 Y96.55313
G01 X-142.26070 Y96.01112
G01 X-142.26083 Y95.50030
G01 X-142.29461 Y95.43703
G01 X-142.36512 Y95.21204
G01 X-142.38796 Y94.98900
G01 X-142.36512 Y94.76601
G01 X-142.29040 Y94.53002
G01 X-142.17884 Y94.33558
G01 X-142.15710 Y94.30780
G01 X-140.70899 Y86.01226
G01 X-140.70902 Y83.55903
G01 X-140.68977 Y83.36362
G01 X-140.63274 Y83.17576
G01 X-140.54587 Y83.01209
G01 X-140.41565 Y82.85085
G01 X-140.27277 Y82.73287
G01 X-140.08037 Y82.63002
G01 X-139.89198 Y82.57513
G01 X-139.70752 Y82.55750
G01 X-139.52304 Y82.57513
G01 X-139.33462 Y82.63002
G01 X-139.14225 Y82.73287
G01 X-138.99934 Y82.85085
G01 X-138.88136 Y82.99375
G01 X-138.78225 Y83.17576
G01 X-138.72795 Y83.35293
G01 X-138.70600 Y83.55900
G01 X-138.70600 Y86.09900
G01 X-138.72094 Y86.27124
G01 X-140.18545 Y94.66055
G01 X-140.15560 Y94.75438
G01 X-140.13091 Y94.98900
G01 X-140.15560 Y95.22367
G01 X-140.22429 Y95.43703
G01 X-140.25794 Y95.50023
G01 X-140.25791 Y96.01105
G01 X-139.71606 Y96.55293
G01 X-135.80250 Y96.55311
G01 X-135.26052 Y96.01112
G01 X-135.26067 Y95.50023
G01 X-135.29437 Y95.43703
G01 X-135.36306 Y95.22367
G01 X-135.38708 Y95.00076
G01 X-135.36306 Y94.75438
G01 X-135.29016 Y94.53002
G01 X-135.17217 Y94.32570
G01 X-135.11134 Y94.25730
G01 X-133.08899 Y85.97845
G01 X-133.08902 Y83.55900
G01 X-133.06707 Y83.35293
G01 X-133.00804 Y83.16578
G01 X-132.92024 Y83.00261
G01 X-132.80309 Y82.85903
G01 X-132.65277 Y82.73287
G01 X-132.46037 Y82.63002
G01 X-132.27198 Y82.57513
G01 X-132.08752 Y82.55750
G01 X-131.90304 Y82.57513
G01 X-131.71465 Y82.63002
G01 X-131.52224 Y82.73287
G01 X-131.37193 Y82.85903
G01 X-131.25478 Y83.00261
G01 X-131.16698 Y83.16578
G01 X-131.10795 Y83.35293
G01 X-131.08600 Y83.55900
G01 X-131.08600 Y86.09900
G01 X-131.09258 Y86.21198
G01 X-131.11463 Y86.33667
G01 X-133.16397 Y94.72586
G01 X-133.15353 Y94.76601
G01 X-133.13134 Y95.00076
G01 X-133.15536 Y95.22367
G01 X-133.22404 Y95.43703
G01 X-133.25773 Y95.50025
G01 X-133.25773 Y96.21249
G01 X-132.91726 Y96.55293
G01 X-126.32322 Y96.55313
G01 X-125.78124 Y96.01112
G01 X-125.78139 Y95.50025
G01 X-125.81509 Y95.43703
G01 X-125.88378 Y95.22367
G01 X-125.90844 Y94.98900
G01 X-125.88073 Y94.74300
G01 X-125.81088 Y94.53002
G01 X-125.74080 Y94.40757
G01 X-125.46902 Y86.08269
G01 X-125.46902 Y83.55900
G01 X-125.45139 Y83.37455
G01 X-125.39650 Y83.18615
G01 X-125.30590 Y83.01209
G01 X-125.16750 Y82.84343
G01 X-125.02391 Y82.72629
G01 X-124.84037 Y82.63002
G01 X-124.65198 Y82.57513
G01 X-124.46752 Y82.55750
G01 X-124.28304 Y82.57513
G01 X-124.09465 Y82.63002
G01 X-123.91111 Y82.72629
G01 X-123.76752 Y82.84343
G01 X-123.63478 Y83.00261
G01 X-123.54698 Y83.16578
G01 X-123.48525 Y83.36362
G01 X-123.46656 Y83.54798
G01 X-123.46653 Y86.13169
G01 X-123.74162 Y94.55436
G01 X-123.67616 Y94.75408
G01 X-123.65142 Y94.98900
G01 X-123.67608 Y95.22367
G01 X-123.71195 Y95.33601
G01 X-123.58800 Y95.72222
G01 X-122.75726 Y96.55293
G01 X-119.32298 Y96.55311
G01 X-118.78100 Y96.01112
G01 X-118.78115 Y95.50025
G01 X-118.81485 Y95.43703
G01 X-118.88354 Y95.22367
G01 X-118.90756 Y94.97727
G01 X-118.88049 Y94.74300
G01 X-118.81059 Y94.52992
G01 X-118.70965 Y94.35474
G01 X-117.84899 Y86.04734
G01 X-117.84902 Y83.55903
G01 X-117.83139 Y83.37455
G01 X-117.77650 Y83.18615
G01 X-117.68024 Y83.00261
G01 X-117.54750 Y82.84343
G01 X-117.40391 Y82.72629
G01 X-117.22037 Y82.63002
G01 X-117.03198 Y82.57513
G01 X-116.84752 Y82.55750
G01 X-116.64143 Y82.57945
G01 X-116.47465 Y82.63002
G01 X-116.30058 Y82.72062
G01 X-116.14752 Y82.84343
G01 X-116.00912 Y83.01209
G01 X-115.91852 Y83.18615
G01 X-115.86795 Y83.35293
G01 X-115.84600 Y83.55900
G01 X-115.84600 Y86.09900
G01 X-115.85133 Y86.20223
G01 X-116.72235 Y94.60927
G01 X-116.67584 Y94.75438
G01 X-116.65118 Y94.98900
G01 X-116.67584 Y95.22367
G01 X-116.74452 Y95.43703
G01 X-116.77821 Y95.50025
G01 X-116.77818 Y96.01105
G01 X-116.23630 Y96.55293
G01 X-112.32274 Y96.55311
G01 X-111.78076 Y96.01112
G01 X-111.78088 Y95.50023
G01 X-111.81461 Y95.43703
G01 X-111.88512 Y95.21204
G01 X-111.90796 Y94.98900
G01 X-111.88512 Y94.76601
G01 X-111.81040 Y94.53002
G01 X-111.69884 Y94.33558
G01 X-111.67715 Y94.30787
G01 X-110.22899 Y86.01226
G01 X-110.22902 Y83.55903
G01 X-110.20707 Y83.35293
G01 X-110.14804 Y83.16578
G01 X-110.06024 Y83.00261
G01 X-109.92750 Y82.84343
G01 X-109.78391 Y82.72629
G01 X-109.60037 Y82.63002
G01 X-109.41198 Y82.57513
G01 X-109.22752 Y82.55750
G01 X-109.02143 Y82.57945
G01 X-108.85465 Y82.63002
G01 X-108.68058 Y82.72062
G01 X-108.51193 Y82.85903
G01 X-108.39478 Y83.00261
G01 X-108.30698 Y83.16578
G01 X-108.24525 Y83.36362
G01 X-108.22600 Y83.55900
G01 X-108.22643 Y86.10873
G01 X-108.24094 Y86.27124
G01 X-109.70545 Y94.66053
G01 X-109.67560 Y94.75438
G01 X-109.65094 Y94.98900
G01 X-109.67560 Y95.22367
G01 X-109.74429 Y95.43703
G01 X-109.77797 Y95.50025
G01 X-109.77794 Y96.01105
G01 X-109.23603 Y96.55295
G01 X-105.32250 Y96.55311
G01 X-104.78052 Y96.01112
G01 X-104.78067 Y95.50023
G01 X-104.81437 Y95.43703
G01 X-104.88306 Y95.22367
G01 X-104.90708 Y95.00076
G01 X-104.88306 Y94.75438
G01 X-104.81016 Y94.53002
G01 X-104.69217 Y94.32570
G01 X-104.63134 Y94.25730
G01 X-102.60899 Y85.97845
G01 X-102.60902 Y83.55900
G01 X-102.58707 Y83.35293
G01 X-102.52804 Y83.16578
G01 X-102.44024 Y83.00261
G01 X-102.32309 Y82.85903
G01 X-102.16391 Y82.72629
G01 X-101.98037 Y82.63002
G01 X-101.79198 Y82.57513
G01 X-101.60752 Y82.55750
G01 X-101.40143 Y82.57945
G01 X-101.23465 Y82.63002
G01 X-101.06058 Y82.72062
G01 X-100.89193 Y82.85903
G01 X-100.77478 Y83.00261
G01 X-100.68698 Y83.16578
G01 X-100.62525 Y83.36362
G01 X-100.60600 Y83.55900
G01 X-100.60600 Y86.09900
G01 X-100.61258 Y86.21198
G01 X-100.63463 Y86.33667
G01 X-102.68397 Y94.72591
G01 X-102.67353 Y94.76601
G01 X-102.65134 Y95.00076
G01 X-102.67536 Y95.22367
G01 X-102.74405 Y95.43703
G01 X-102.77770 Y95.50023
G01 X-102.77773 Y96.21249
G01 X-102.43726 Y96.55293
G01 X-95.84322 Y96.55313
G01 X-95.30124 Y96.01112
G01 X-95.30139 Y95.50023
G01 X-95.33509 Y95.43703
G01 X-95.40378 Y95.22367
G01 X-95.42844 Y94.98900
G01 X-95.40378 Y94.75438
G01 X-95.33509 Y94.54099
G01 X-95.29900 Y94.47374
G01 X-94.98902 Y86.08092
G01 X-94.98902 Y83.55900
G01 X-94.97139 Y83.37455
G01 X-94.91650 Y83.18615
G01 X-94.82024 Y83.00261
G01 X-94.70309 Y82.85903
G01 X-94.54391 Y82.72629
G01 X-94.38074 Y82.63848
G01 X-94.19359 Y82.57945
G01 X-93.98752 Y82.55750
G01 X-93.80304 Y82.57513
G01 X-93.61465 Y82.63002
G01 X-93.44058 Y82.72062
G01 X-93.27193 Y82.85903
G01 X-93.15478 Y83.00261
G01 X-93.05852 Y83.18615
G01 X-93.00363 Y83.37455
G01 X-92.98600 Y83.55905
G01 X-92.98669 Y86.13598
G01 X-93.29509 Y94.48362
G01 X-93.26476 Y94.54099
G01 X-93.19608 Y94.75438
G01 X-93.17142 Y94.98900
G01 X-93.19608 Y95.22367
G01 X-93.26476 Y95.43703
G01 X-93.29845 Y95.50025
G01 X-93.29842 Y96.01105
G01 X-92.75654 Y96.55293
G01 X-88.84298 Y96.55311
G01 X-88.30100 Y96.01112
G01 X-88.30115 Y95.50023
G01 X-88.33485 Y95.43703
G01 X-88.40354 Y95.22367
G01 X-88.42756 Y94.97727
G01 X-88.40049 Y94.74300
G01 X-88.33064 Y94.53002
G01 X-88.24235 Y94.37600
G01 X-87.40046 Y86.34675
G01 X-87.41367 Y86.29588
G01 X-87.43252 Y86.09900
G01 X-87.43252 Y83.55900
G01 X-87.41205 Y83.35125
G01 X-87.34672 Y83.14147
G01 X-87.25302 Y82.96733
G01 X-87.11240 Y82.79852
G01 X-86.95919 Y82.67351
G01 X-86.78505 Y82.57980
G01 X-86.58599 Y82.51717
G01 X-86.36752 Y82.49400
G01 X-86.17065 Y82.51285
G01 X-85.94997 Y82.57980
G01 X-85.77583 Y82.67351
G01 X-85.62262 Y82.79852
G01 X-85.47631 Y82.97681
G01 X-85.37987 Y83.16185
G01 X-85.32297 Y83.35125
G01 X-85.30250 Y83.55900
G01 X-85.30250 Y86.09900
G01 X-85.32297 Y86.30677
G01 X-85.37987 Y86.49618
G01 X-85.40821 Y86.55379
G01 X-86.25030 Y94.58476
G01 X-86.19584 Y94.75438
G01 X-86.17118 Y94.98900
G01 X-86.19584 Y95.22367
G01 X-86.26452 Y95.43703
G01 X-86.29821 Y95.50025
G01 X-86.29818 Y96.01105
G01 X-85.75630 Y96.55293
G01 X-81.84274 Y96.55311
G01 X-81.30076 Y96.01112
G01 X-81.30088 Y95.50023
G01 X-81.33461 Y95.43703
G01 X-81.40512 Y95.21204
G01 X-81.42796 Y94.98900
G01 X-81.40512 Y94.76601
G01 X-81.33040 Y94.53002
G01 X-81.21884 Y94.33558
G01 X-81.06288 Y94.15870
G01 X-81.00655 Y94.11488
G01 X-79.81249 Y86.02087
G01 X-79.81252 Y83.55900
G01 X-79.79205 Y83.35125
G01 X-79.72672 Y83.14147
G01 X-79.63302 Y82.96733
G01 X-79.49240 Y82.79852
G01 X-79.33919 Y82.67351
G01 X-79.16505 Y82.57980
G01 X-78.96599 Y82.51717
G01 X-78.74752 Y82.49400
G01 X-78.55065 Y82.51285
G01 X-78.32997 Y82.57980
G01 X-78.15583 Y82.67351
G01 X-78.00262 Y82.79852
G01 X-77.85631 Y82.97681
G01 X-77.75987 Y83.16185
G01 X-77.70297 Y83.35125
G01 X-77.68250 Y83.55900
G01 X-77.68280 Y86.10725
G01 X-77.69390 Y86.25445
G01 X-78.96390 Y94.86251
G01 X-79.01130 Y95.05451
G01 X-79.09840 Y95.24417
G01 X-79.22085 Y95.41313
G01 X-79.28166 Y95.47127
G01 X-79.29794 Y95.49990
G01 X-79.29794 Y95.85158
G01 X-78.59660 Y96.55293
G01 X-74.84250 Y96.55311
G01 X-74.30052 Y96.01112
G01 X-74.30067 Y95.50023
G01 X-74.33437 Y95.43703
G01 X-74.40306 Y95.22367
G01 X-74.42708 Y95.00076
G01 X-74.40306 Y94.75438
G01 X-74.33013 Y94.53000
G01 X-74.28093 Y94.44359
G01 X-74.26968 Y94.37338
G01 X-72.18411 Y86.18970
G01 X-72.19252 Y86.09900
G01 X-72.19252 Y83.55900
G01 X-72.16935 Y83.34053
G01 X-72.10672 Y83.14147
G01 X-72.01302 Y82.96733
G01 X-71.88800 Y82.81412
G01 X-71.71919 Y82.67351
G01 X-71.54505 Y82.57980
G01 X-71.34599 Y82.51717
G01 X-71.12752 Y82.49400
G01 X-70.93065 Y82.51285
G01 X-70.70997 Y82.57980
G01 X-70.53583 Y82.67351
G01 X-70.38262 Y82.79852
G01 X-70.23631 Y82.97681
G01 X-70.13987 Y83.16185
G01 X-70.08297 Y83.35125
G01 X-70.06250 Y83.55900
G01 X-70.06250 Y86.09900
G01 X-70.08135 Y86.29588
G01 X-70.13987 Y86.49618
G01 X-70.24612 Y86.69593
G01 X-72.25361 Y94.57320
G01 X-72.19536 Y94.75438
G01 X-72.17070 Y94.98900
G01 X-72.19536 Y95.22367
G01 X-72.26405 Y95.43703
G01 X-72.29773 Y95.50025
G01 X-72.29770 Y96.21254
G01 X-71.95726 Y96.55293
G01 X-65.36325 Y96.55313
G01 X-64.82124 Y96.01112
G01 X-64.82139 Y95.50023
G01 X-64.85509 Y95.43703
G01 X-64.92378 Y95.22367
G01 X-64.94780 Y95.00076
G01 X-64.92378 Y94.75438
G01 X-64.85088 Y94.53002
G01 X-64.73932 Y94.33558
G01 X-64.58336 Y94.15870
G01 X-64.50874 Y94.10178
G01 X-64.50897 Y86.45054
G01 X-64.55205 Y86.30677
G01 X-64.57252 Y86.09900
G01 X-64.57252 Y83.55900
G01 X-64.55367 Y83.36215
G01 X-64.49515 Y83.16185
G01 X-64.39302 Y82.96733
G01 X-64.26800 Y82.81412
G01 X-64.09919 Y82.67351
G01 X-63.92505 Y82.57980
G01 X-63.72599 Y82.51717
G01 X-63.50752 Y82.49400
G01 X-63.31065 Y82.51285
G01 X-63.11034 Y82.57137
G01 X-62.92530 Y82.66782
G01 X-62.74702 Y82.81412
G01 X-62.62200 Y82.96733
G01 X-62.52830 Y83.14147
G01 X-62.46297 Y83.35125
G01 X-62.44306 Y83.54798
G01 X-62.44250 Y86.09900
G01 X-62.46297 Y86.30677
G01 X-62.50600 Y86.45049
G01 X-62.50600 Y94.67661
G01 X-62.52795 Y94.88268
G01 X-62.57852 Y95.04945
G01 X-62.59874 Y95.09116
G01 X-61.13638 Y96.55293
G01 X-58.36298 Y96.55311
G01 X-57.82100 Y96.01112
G01 X-57.82115 Y95.50023
G01 X-57.85485 Y95.43703
G01 X-57.92354 Y95.22367
G01 X-57.94756 Y94.97727
G01 X-57.92049 Y94.74300
G01 X-57.85064 Y94.53002
G01 X-57.76235 Y94.37600
G01 X-56.92046 Y86.34678
G01 X-56.93367 Y86.29588
G01 X-56.95252 Y86.09900
G01 X-56.95252 Y83.55900
G01 X-56.93205 Y83.35125
G01 X-56.86672 Y83.14147
G01 X-56.77302 Y82.96733
G01 X-56.63240 Y82.79852
G01 X-56.47919 Y82.67351
G01 X-56.30505 Y82.57980
G01 X-56.10599 Y82.51717
G01 X-55.88752 Y82.49400
G01 X-55.69065 Y82.51285
G01 X-55.46997 Y82.57980
G01 X-55.29583 Y82.67351
G01 X-55.14262 Y82.79852
G01 X-54.99631 Y82.97681
G01 X-54.89987 Y83.16185
G01 X-54.84297 Y83.35125
G01 X-54.82250 Y83.55900
G01 X-54.82250 Y86.09900
G01 X-54.84297 Y86.30677
G01 X-54.89987 Y86.49618
G01 X-54.92821 Y86.55384
G01 X-55.77033 Y94.58476
G01 X-55.71889 Y94.74300
G01 X-55.70949 Y94.80902
G01 X-55.12534 Y95.60487
G01 X-54.17726 Y96.55293
G01 X-51.36274 Y96.55311
G01 X-50.82076 Y96.01112
G01 X-50.82091 Y95.50025
G01 X-50.85461 Y95.43703
G01 X-50.92330 Y95.22367
G01 X-50.94732 Y95.00076
G01 X-50.92330 Y94.75438
G01 X-50.85040 Y94.53002
G01 X-50.73241 Y94.32570
G01 X-50.57455 Y94.15037
G01 X-50.45459 Y94.06269
G01 X-49.31106 Y86.31063
G01 X-49.33252 Y86.09900
G01 X-49.33252 Y83.55900
G01 X-49.31205 Y83.35125
G01 X-49.24672 Y83.14147
G01 X-49.15302 Y82.96733
G01 X-49.01240 Y82.79852
G01 X-48.85919 Y82.67351
G01 X-48.68505 Y82.57980
G01 X-48.48599 Y82.51717
G01 X-48.26752 Y82.49400
G01 X-48.07065 Y82.51285
G01 X-47.84997 Y82.57980
G01 X-47.67583 Y82.67351
G01 X-47.52262 Y82.79852
G01 X-47.37631 Y82.97681
G01 X-47.27987 Y83.16185
G01 X-47.22297 Y83.35125
G01 X-47.20250 Y83.55900
G01 X-47.20306 Y86.11005
G01 X-47.22566 Y86.31749
G01 X-47.27987 Y86.49618
G01 X-47.32762 Y86.59013
G01 X-48.54674 Y94.85324
G01 X-48.59851 Y95.05392
G01 X-48.67809 Y95.22128
G01 X-48.74296 Y95.30978
G01 X-48.78853 Y95.44803
G01 X-48.81794 Y95.50023
G01 X-48.81794 Y95.85158
G01 X-48.11657 Y96.55295
G01 X-44.36253 Y96.55313
G01 X-43.82052 Y96.01112
G01 X-43.82067 Y95.50023
G01 X-43.85437 Y95.43703
G01 X-43.92306 Y95.22367
G01 X-43.94708 Y95.00076
G01 X-43.92306 Y94.75438
G01 X-43.85016 Y94.53002
G01 X-43.73217 Y94.32570
G01 X-43.67134 Y94.25733
G01 X-41.70310 Y86.19994
G01 X-41.71252 Y86.09900
G01 X-41.71196 Y83.54798
G01 X-41.69205 Y83.35125
G01 X-41.62672 Y83.14147
G01 X-41.53302 Y82.96733
G01 X-41.40800 Y82.81412
G01 X-41.23919 Y82.67351
G01 X-41.04468 Y82.57137
G01 X-40.84437 Y82.51285
G01 X-40.64752 Y82.49400
G01 X-40.45065 Y82.51285
G01 X-40.25034 Y82.57137
G01 X-40.05583 Y82.67351
G01 X-39.88702 Y82.81412
G01 X-39.75631 Y82.97681
G01 X-39.66830 Y83.14147
G01 X-39.60566 Y83.34053
G01 X-39.58306 Y83.54798
G01 X-39.58250 Y86.09900
G01 X-39.60566 Y86.31749
G01 X-39.66386 Y86.50725
G01 X-39.75850 Y86.68003
G01 X-41.54483 Y93.98847
G01 X-34.02826 Y93.98824
G01 X-34.02902 Y83.55900
G01 X-34.01139 Y83.37455
G01 X-33.95650 Y83.18615
G01 X-33.86590 Y83.01209
G01 X-33.73567 Y82.85085
G01 X-33.59277 Y82.73287
G01 X-33.42074 Y82.63848
G01 X-33.23359 Y82.57945
G01 X-33.02752 Y82.55750
G01 X-32.84304 Y82.57513
G01 X-32.65465 Y82.63002
G01 X-32.48058 Y82.72062
G01 X-32.31193 Y82.85903
G01 X-32.18912 Y83.01209
G01 X-32.09852 Y83.18615
G01 X-32.04363 Y83.37455
G01 X-32.02656 Y83.54798
G01 X-32.02600 Y94.45169
G01 X-31.98150 Y94.53002
G01 X-31.90860 Y94.75438
G01 X-31.88394 Y94.98900
G01 X-31.90860 Y95.22367
G01 X-31.97728 Y95.43703
G01 X-32.01094 Y95.50023
G01 X-32.01091 Y96.01105
G01 X-30.22443 Y97.79750
G01 X-24.55228 Y97.79771
G01 X-21.39478 Y94.64003
G01 X-21.35846 Y94.53002
G01 X-21.32897 Y94.47783
G01 X-21.32902 Y83.55900
G01 X-21.31139 Y83.37455
G01 X-21.25650 Y83.18615
G01 X-21.16590 Y83.01209
G01 X-21.03567 Y82.85085
G01 X-20.89277 Y82.73287
G01 X-20.72074 Y82.63848
G01 X-20.53359 Y82.57945
G01 X-20.32752 Y82.55750
G01 X-20.14304 Y82.57513
G01 X-19.95465 Y82.63002
G01 X-19.78058 Y82.72062
G01 X-19.61193 Y82.85903
G01 X-19.48912 Y83.01209
G01 X-19.39852 Y83.18615
G01 X-19.34363 Y83.37455
G01 X-19.32656 Y83.54798
G01 X-19.32603 Y94.47780
G01 X-19.29235 Y94.54099
G01 X-19.22366 Y94.75438
G01 X-19.19900 Y94.98900
G01 X-19.22366 Y95.22367
G01 X-19.29235 Y95.43703
G01 X-19.32600 Y95.50023
G01 X-19.32600 Y96.01105
G01 X-17.53949 Y97.79753
G01 X-14.39228 Y97.79771
G01 X-11.16932 Y94.57475
G01 X-11.20956 Y61.05191
G01 X-11.25304 Y60.90680
G01 X-11.27296 Y60.71005
G01 X-11.25035 Y60.48053
G01 X-11.18771 Y60.28147
G01 X-11.09970 Y60.11681
G01 X-10.95340 Y59.93852
G01 X-10.80019 Y59.81351
G01 X-10.62604 Y59.71980
G01 X-10.40537 Y59.65285
G01 X-10.20852 Y59.63400
G01 X-5.12852 Y59.63400
G01 X-4.91003 Y59.65717
G01 X-4.71097 Y59.71980
G01 X-4.54630 Y59.80782
G01 X-4.36802 Y59.95412
G01 X-4.24300 Y60.10733
G01 X-4.14930 Y60.28147
G01 X-4.08666 Y60.48053
G01 X-4.06157 Y60.68775
G01 X-4.08425 Y60.91823
G01 X-4.14226 Y61.10753
G01 X-4.24091 Y61.29209
G01 X-4.38204 Y61.46143
G01 X-4.53543 Y61.58660
G01 X-4.70980 Y61.68043
G01 X-4.90929 Y61.74327
G01 X-5.12852 Y61.76651
G01 X-9.20397 Y61.76577
G01 X-9.16351 Y94.98781
G01 X-9.17466 Y95.13614
G01 X-9.20997 Y95.28986
G01 X-9.26895 Y95.43617
G01 X-9.35010 Y95.57142
G01 X-9.45757 Y95.69898
G01 X-13.26757 Y99.50896
G01 X-13.38029 Y99.60568
G01 X-13.51382 Y99.68917
G01 X-13.65878 Y99.75074
G01 X-13.81158 Y99.78889
G01 X-13.97752 Y99.80301
G01 X-17.95435 Y99.80301
G01 X-18.13903 Y99.78538
G01 X-18.32793 Y99.73039
G01 X-18.50246 Y99.63961
G01 X-18.66428 Y99.50896
G01 X-21.04553 Y97.12585
G01 X-23.42757 Y99.50896
G01 X-23.54029 Y99.60568
G01 X-23.67382 Y99.68917
G01 X-23.83595 Y99.75633
G01 X-23.98941 Y99.79171
G01 X-24.13752 Y99.80301
G01 X-30.63926 Y99.80301
G01 X-30.82395 Y99.78538
G01 X-31.03367 Y99.72176
G01 X-31.20611 Y99.62709
G01 X-31.34919 Y99.50896
G01 X-33.72236 Y97.13581
G01 X-33.81909 Y97.02311
G01 X-33.91078 Y96.87348
G01 X-33.96974 Y96.72743
G01 X-34.00230 Y96.59182
G01 X-34.01642 Y96.42585
G01 X-34.01568 Y95.99227
G01 X-41.81595 Y95.99227
G01 X-41.81521 Y96.42585
G01 X-41.83723 Y96.63268
G01 X-41.88783 Y96.79946
G01 X-41.97861 Y96.97396
G01 X-42.10170 Y97.12743
G01 X-43.23781 Y98.26436
G01 X-43.35051 Y98.36110
G01 X-43.48407 Y98.44459
G01 X-43.62902 Y98.50616
G01 X-43.78183 Y98.54431
G01 X-43.94777 Y98.55844
G01 X-48.53143 Y98.55844
G01 X-48.71611 Y98.54081
G01 X-48.90501 Y98.48582
G01 X-49.09828 Y98.38252
G01 X-49.24136 Y98.26438
G01 X-49.73971 Y97.76499
G01 X-50.23805 Y98.26436
G01 X-50.35075 Y98.36110
G01 X-50.50039 Y98.45280
G01 X-50.64644 Y98.51175
G01 X-50.79990 Y98.54713
G01 X-50.94801 Y98.55844
G01 X-54.59210 Y98.55844
G01 X-54.77678 Y98.54081
G01 X-54.98648 Y98.47718
G01 X-55.15892 Y98.38252
G01 X-55.29364 Y98.27195
G01 X-56.27017 Y97.29519
G01 X-57.23829 Y98.26436
G01 X-57.35099 Y98.36110
G01 X-57.50063 Y98.45280
G01 X-57.64668 Y98.51175
G01 X-57.78231 Y98.54431
G01 X-57.94825 Y98.55844
G01 X-61.56247 Y98.55788
G01 X-61.75802 Y98.53641
G01 X-61.92480 Y98.48582
G01 X-62.11807 Y98.38252
G01 X-62.26114 Y98.26438
G01 X-63.24986 Y97.27462
G01 X-64.23853 Y98.26436
G01 X-64.35123 Y98.36110
G01 X-64.48479 Y98.44459
G01 X-64.62974 Y98.50616
G01 X-64.78255 Y98.54431
G01 X-64.94849 Y98.55844
G01 X-72.38335 Y98.55788
G01 X-72.57890 Y98.53641
G01 X-72.74565 Y98.48582
G01 X-72.92018 Y98.39504
G01 X-73.08200 Y98.26438
G01 X-73.39993 Y97.94543
G01 X-73.71781 Y98.26436
G01 X-73.84512 Y98.37170
G01 X-73.98015 Y98.45280
G01 X-74.10902 Y98.50616
G01 X-74.27966 Y98.54713
G01 X-74.42777 Y98.55844
G01 X-79.02268 Y98.55788
G01 X-79.21823 Y98.53641
G01 X-79.38501 Y98.48582
G01 X-79.56921 Y98.38922
G01 X-79.72136 Y98.26438
G01 X-80.21971 Y97.76497
G01 X-80.71805 Y98.26436
G01 X-80.84536 Y98.37170
G01 X-80.98039 Y98.45280
G01 X-81.12644 Y98.51175
G01 X-81.27990 Y98.54713
G01 X-81.42801 Y98.55844
G01 X-86.17113 Y98.55844
G01 X-86.35581 Y98.54081
G01 X-86.54471 Y98.48582
G01 X-86.72891 Y98.38922
G01 X-86.88106 Y98.26438
G01 X-87.29968 Y97.84470
G01 X-87.71829 Y98.26436
G01 X-87.84560 Y98.37170
G01 X-87.98063 Y98.45280
G01 X-88.12668 Y98.51175
G01 X-88.28014 Y98.54713
G01 X-88.42825 Y98.55844
G01 X-93.17137 Y98.55844
G01 X-93.35605 Y98.54081
G01 X-93.54495 Y98.48582
G01 X-93.72915 Y98.38922
G01 X-93.88130 Y98.26438
G01 X-94.29992 Y97.84470
G01 X-94.71853 Y98.26436
G01 X-94.84584 Y98.37170
G01 X-94.98087 Y98.45280
G01 X-95.12692 Y98.51175
G01 X-95.28038 Y98.54713
G01 X-95.42849 Y98.55844
G01 X-102.86335 Y98.55788
G01 X-103.05890 Y98.53641
G01 X-103.22565 Y98.48582
G01 X-103.40018 Y98.39504
G01 X-103.56200 Y98.26438
G01 X-103.87993 Y97.94543
G01 X-104.19781 Y98.26436
G01 X-104.32512 Y98.37170
G01 X-104.46015 Y98.45280
G01 X-104.58902 Y98.50616
G01 X-104.75966 Y98.54713
G01 X-104.90777 Y98.55844
G01 X-109.65089 Y98.55844
G01 X-109.85770 Y98.53641
G01 X-110.04530 Y98.47718
G01 X-110.20867 Y98.38922
G01 X-110.36082 Y98.26438
G01 X-110.77944 Y97.84470
G01 X-111.19805 Y98.26436
G01 X-111.32536 Y98.37170
G01 X-111.46039 Y98.45280
G01 X-111.60644 Y98.51175
G01 X-111.74207 Y98.54431
G01 X-111.89897 Y98.55808
G01 X-116.65113 Y98.55844
G01 X-116.83581 Y98.54081
G01 X-117.02471 Y98.48582
G01 X-117.20891 Y98.38922
G01 X-117.36106 Y98.26438
G01 X-117.77968 Y97.84470
G01 X-118.19829 Y98.26436
G01 X-118.32560 Y98.37170
G01 X-118.46063 Y98.45280
G01 X-118.58950 Y98.50616
G01 X-118.76014 Y98.54713
G01 X-118.90825 Y98.55844
G01 X-123.17210 Y98.55844
G01 X-123.35678 Y98.54081
G01 X-123.54568 Y98.48582
G01 X-123.73892 Y98.38252
G01 X-123.88200 Y98.26438
G01 X-124.54029 Y97.60507
G01 X-125.19853 Y98.26436
G01 X-125.32584 Y98.37170
G01 X-125.46087 Y98.45280
G01 X-125.60692 Y98.51175
G01 X-125.76038 Y98.54713
G01 X-125.90849 Y98.55844
G01 X-133.34335 Y98.55788
G01 X-133.53890 Y98.53641
G01 X-133.70565 Y98.48582
G01 X-133.88018 Y98.39504
G01 X-134.04200 Y98.26438
G01 X-134.35993 Y97.94543
G01 X-134.67781 Y98.26436
G01 X-134.80512 Y98.37170
G01 X-134.94015 Y98.45280
G01 X-135.06902 Y98.50616
G01 X-135.23966 Y98.54713
G01 X-135.38777 Y98.55844
G01 X-140.13991 Y98.55808
G01 X-140.29680 Y98.54431
G01 X-140.43241 Y98.51175
G01 X-140.57849 Y98.45280
