( pcb2gcode 2.1.0 )
( Software-independent Gcode )

G94 ( Inches per minute feed rate. )
G20 ( Units == INCHES. )

G90 ( Absolute coordinates. )
G00 S15000 ( RPM spindle speed. )
G64 P0.00040 ( set maximum deviation from commanded toolpath )
G01 F200.00000 ( Feedrate. )


G00 Z1.00000 (Retract to tool change height)
T0
M5      (Spindle stop.)
G04 P1.00000 (Wait for spindle to stop)
(MSG, Change tool bit to mill diameter 0.02000in)
M6      (Tool change.)
M0      (Temporary machine stop.)
M3 ( Spindle on clockwise. )
G04 P1.00000 (Wait for spindle to get up to speed)
G04 P0 ( dwell for no time -- G64 should not smooth over this point )
G00 Z1.00000 ( retract )

G00 X-0.16969 Y2.40500 ( rapid move to begin. )
G01 F100.00000
( Mill infeed pass 1/1 )
G01 Z-0.05000
G04 P0 ( dwell for no time -- G64 should not smooth over this point )
G01 F200.00000
G01 X-0.16969 Y2.40500
G01 X-0.17045 Y2.41330
G01 X-0.17084 Y2.41522
G01 X-0.17297 Y2.42225
G01 X-0.17372 Y2.42406
G01 X-0.17719 Y2.43055
G01 X-0.17827 Y2.43218
G01 X-0.18294 Y2.43786
G01 X-0.18432 Y2.43925
G01 X-0.19080 Y2.44449
G01 X-0.19812 Y2.44846
G01 X-0.19993 Y2.44921
G01 X-0.20697 Y2.45135
G01 X-0.20889 Y2.45173
G01 X-0.21719 Y2.45250
G01 X-0.37213 Y2.45250
G01 X-0.37057 Y3.75495
G01 X-0.37103 Y3.76122
G01 X-0.37255 Y3.76812
G01 X-0.37514 Y3.77470
G01 X-0.37872 Y3.78079
G01 X-0.37965 Y3.78206
G01 X-0.38375 Y3.78682
G01 X-0.53375 Y3.93682
G01 X-0.53850 Y3.94092
G01 X-0.54446 Y3.94471
G01 X-0.55093 Y3.94753
G01 X-0.55776 Y3.94929
G01 X-0.55931 Y3.94954
G01 X-0.56557 Y3.95000
G01 X-0.72214 Y3.95000
G01 X-0.72995 Y3.94928
G01 X-0.73187 Y3.94890
G01 X-0.73844 Y3.94691
G01 X-0.74025 Y3.94616
G01 X-0.74630 Y3.94292
G01 X-0.74793 Y3.94183
G01 X-0.75396 Y3.93682
G01 X-0.84386 Y3.84693
G01 X-0.93375 Y3.93682
G01 X-0.93850 Y3.94092
G01 X-0.94446 Y3.94471
G01 X-0.94585 Y3.94542
G01 X-0.95242 Y3.94801
G01 X-0.95931 Y3.94954
G01 X-0.96557 Y3.95000
G01 X-1.22155 Y3.95000
G01 X-1.22935 Y3.94928
G01 X-1.23128 Y3.94890
G01 X-1.23784 Y3.94691
G01 X-1.23965 Y3.94616
G01 X-1.24570 Y3.94292
G01 X-1.24733 Y3.94183
G01 X-1.25264 Y3.93748
G01 X-1.34733 Y3.84281
G01 X-1.35090 Y3.83864
G01 X-1.35469 Y3.83268
G01 X-1.35540 Y3.83129
G01 X-1.35799 Y3.82472
G01 X-1.35952 Y3.81783
G01 X-1.35998 Y3.81157
G01 X-1.35998 Y3.80000
G01 X-1.65607 Y3.80000
G01 X-1.65612 Y3.81255
G01 X-1.65679 Y3.81938
G01 X-1.65717 Y3.82130
G01 X-1.65917 Y3.82787
G01 X-1.65992 Y3.82968
G01 X-1.66315 Y3.83573
G01 X-1.66424 Y3.83736
G01 X-1.66859 Y3.84266
G01 X-1.71368 Y3.88782
G01 X-1.71843 Y3.89192
G01 X-1.72439 Y3.89571
G01 X-1.73086 Y3.89853
G01 X-1.73769 Y3.90029
G01 X-1.73924 Y3.90054
G01 X-1.74550 Y3.90100
G01 X-1.92596 Y3.90100
G01 X-1.93377 Y3.90028
G01 X-1.93569 Y3.89990
G01 X-1.94226 Y3.89791
G01 X-1.94407 Y3.89716
G01 X-1.95096 Y3.89342
G01 X-1.95778 Y3.88782
G01 X-1.97353 Y3.87207
G01 X-1.98928 Y3.88782
G01 X-1.99403 Y3.89192
G01 X-1.99530 Y3.89284
G01 X-1.99999 Y3.89571
G01 X-2.00646 Y3.89853
G01 X-2.00795 Y3.89901
G01 X-2.01484 Y3.90054
G01 X-2.02110 Y3.90100
G01 X-2.16555 Y3.90095
G01 X-2.17238 Y3.90028
G01 X-2.17430 Y3.89990
G01 X-2.18087 Y3.89791
G01 X-2.18268 Y3.89716
G01 X-2.18873 Y3.89392
G01 X-2.19036 Y3.89283
G01 X-2.19639 Y3.88782
G01 X-2.23064 Y3.85358
G01 X-2.26488 Y3.88782
G01 X-2.26963 Y3.89192
G01 X-2.27559 Y3.89571
G01 X-2.27699 Y3.89642
G01 X-2.28355 Y3.89901
G01 X-2.28889 Y3.90029
G01 X-2.29044 Y3.90054
G01 X-2.29670 Y3.90100
G01 X-2.43953 Y3.90095
G01 X-2.44636 Y3.90028
G01 X-2.44828 Y3.89990
G01 X-2.45485 Y3.89791
G01 X-2.45666 Y3.89716
G01 X-2.46271 Y3.89392
G01 X-2.46434 Y3.89283
G01 X-2.47037 Y3.88782
G01 X-2.50543 Y3.85276
G01 X-2.54048 Y3.88782
G01 X-2.54523 Y3.89192
G01 X-2.54650 Y3.89284
G01 X-2.55259 Y3.89642
G01 X-2.55915 Y3.89901
G01 X-2.56604 Y3.90054
G01 X-2.57230 Y3.90100
G01 X-2.86555 Y3.90095
G01 X-2.87238 Y3.90028
G01 X-2.87430 Y3.89990
G01 X-2.88087 Y3.89791
G01 X-2.88268 Y3.89716
G01 X-2.88873 Y3.89392
G01 X-2.89036 Y3.89283
G01 X-2.89566 Y3.88848
G01 X-2.90504 Y3.87917
G01 X-2.91368 Y3.88782
G01 X-2.91843 Y3.89192
G01 X-2.91970 Y3.89284
G01 X-2.92439 Y3.89571
G01 X-2.93086 Y3.89853
G01 X-2.93235 Y3.89901
G01 X-2.93924 Y3.90054
G01 X-2.94550 Y3.90100
G01 X-3.12596 Y3.90100
G01 X-3.13474 Y3.90014
G01 X-3.14226 Y3.89791
G01 X-3.14407 Y3.89716
G01 X-3.15096 Y3.89342
G01 X-3.15778 Y3.88782
G01 X-3.17353 Y3.87207
G01 X-3.18986 Y3.88835
G01 X-3.19403 Y3.89192
G01 X-3.19999 Y3.89571
G01 X-3.20646 Y3.89853
G01 X-3.20795 Y3.89901
G01 X-3.21484 Y3.90054
G01 X-3.22110 Y3.90100
G01 X-3.40784 Y3.90100
G01 X-3.41565 Y3.90028
G01 X-3.41757 Y3.89990
G01 X-3.42414 Y3.89791
G01 X-3.42595 Y3.89716
G01 X-3.43284 Y3.89342
G01 X-3.43966 Y3.88782
G01 X-3.45227 Y3.87521
G01 X-3.46546 Y3.88835
G01 X-3.46963 Y3.89192
G01 X-3.47559 Y3.89571
G01 X-3.48206 Y3.89853
G01 X-3.48355 Y3.89901
G01 X-3.49044 Y3.90054
G01 X-3.49670 Y3.90100
G01 X-3.68344 Y3.90100
G01 X-3.69125 Y3.90028
G01 X-3.69317 Y3.89990
G01 X-3.69974 Y3.89791
G01 X-3.70155 Y3.89716
G01 X-3.70844 Y3.89342
G01 X-3.71526 Y3.88782
G01 X-3.72787 Y3.87521
G01 X-3.74106 Y3.88835
G01 X-3.74523 Y3.89192
G01 X-3.75119 Y3.89571
G01 X-3.75766 Y3.89853
G01 X-3.75915 Y3.89901
G01 X-3.76604 Y3.90054
G01 X-3.77230 Y3.90100
G01 X-4.06555 Y3.90095
G01 X-4.07238 Y3.90028
G01 X-4.07430 Y3.89990
G01 X-4.08087 Y3.89791
G01 X-4.08268 Y3.89716
G01 X-4.08873 Y3.89392
G01 X-4.09036 Y3.89283
G01 X-4.09566 Y3.88848
G01 X-4.10504 Y3.87917
G01 X-4.11368 Y3.88782
G01 X-4.11843 Y3.89192
G01 X-4.11970 Y3.89284
G01 X-4.12439 Y3.89571
G01 X-4.13086 Y3.89853
G01 X-4.13235 Y3.89901
G01 X-4.13924 Y3.90054
G01 X-4.14550 Y3.90100
G01 X-4.33224 Y3.90100
G01 X-4.34005 Y3.90028
G01 X-4.34197 Y3.89990
G01 X-4.34854 Y3.89791
G01 X-4.35035 Y3.89716
G01 X-4.35640 Y3.89392
G01 X-4.35803 Y3.89283
G01 X-4.36406 Y3.88782
G01 X-4.37667 Y3.87521
G01 X-4.38986 Y3.88835
G01 X-4.39403 Y3.89192
G01 X-4.39999 Y3.89571
G01 X-4.40646 Y3.89853
G01 X-4.40795 Y3.89901
G01 X-4.41484 Y3.90054
G01 X-4.42032 Y3.90097
G01 X-4.60784 Y3.90100
G01 X-4.61565 Y3.90028
G01 X-4.61757 Y3.89990
G01 X-4.62414 Y3.89791
G01 X-4.62595 Y3.89716
G01 X-4.63284 Y3.89342
G01 X-4.63966 Y3.88782
G01 X-4.65227 Y3.87521
G01 X-4.66488 Y3.88782
G01 X-4.66963 Y3.89192
G01 X-4.67090 Y3.89284
G01 X-4.67559 Y3.89571
G01 X-4.68206 Y3.89853
G01 X-4.68355 Y3.89901
G01 X-4.69044 Y3.90054
G01 X-4.69670 Y3.90100
G01 X-4.86457 Y3.90100
G01 X-4.87238 Y3.90028
G01 X-4.87430 Y3.89990
G01 X-4.88087 Y3.89791
G01 X-4.88268 Y3.89716
G01 X-4.88873 Y3.89392
G01 X-4.89036 Y3.89283
G01 X-4.89639 Y3.88782
G01 X-4.91844 Y3.86577
G01 X-4.94048 Y3.88782
G01 X-4.94523 Y3.89192
G01 X-4.94650 Y3.89284
G01 X-4.95259 Y3.89642
G01 X-4.95915 Y3.89901
G01 X-4.96604 Y3.90054
G01 X-4.97230 Y3.90100
G01 X-5.26555 Y3.90095
G01 X-5.27238 Y3.90028
G01 X-5.27430 Y3.89990
G01 X-5.28087 Y3.89791
G01 X-5.28268 Y3.89716
G01 X-5.28873 Y3.89392
G01 X-5.29036 Y3.89283
G01 X-5.29566 Y3.88848
G01 X-5.30504 Y3.87917
G01 X-5.31368 Y3.88782
G01 X-5.31843 Y3.89192
G01 X-5.31970 Y3.89284
G01 X-5.32439 Y3.89571
G01 X-5.33086 Y3.89853
G01 X-5.33235 Y3.89901
G01 X-5.33924 Y3.90054
G01 X-5.34550 Y3.90100
G01 X-5.53302 Y3.90097
G01 X-5.53850 Y3.90054
G01 X-5.54539 Y3.89901
G01 X-5.55196 Y3.89642
G01 X-5.55335 Y3.89571
G01 X-5.55804 Y3.89284
G01 X-5.56348 Y3.88835
G01 X-5.57667 Y3.87521
G01 X-5.58928 Y3.88782
G01 X-5.59531 Y3.89283
G01 X-5.59694 Y3.89392
G01 X-5.60299 Y3.89716
G01 X-5.60481 Y3.89791
G01 X-5.61137 Y3.89990
G01 X-5.61329 Y3.90028
G01 X-5.62012 Y3.90095
G01 X-5.81555 Y3.90095
G01 X-5.82238 Y3.90028
G01 X-5.82430 Y3.89990
G01 X-5.83087 Y3.89791
G01 X-5.83268 Y3.89716
G01 X-5.83873 Y3.89392
G01 X-5.84036 Y3.89283
G01 X-5.84639 Y3.88782
G01 X-5.85564 Y3.87857
G01 X-5.86488 Y3.88782
G01 X-5.86963 Y3.89192
G01 X-5.87090 Y3.89284
G01 X-5.87559 Y3.89571
G01 X-5.88206 Y3.89853
G01 X-5.88355 Y3.89901
G01 X-5.89044 Y3.90054
G01 X-5.89670 Y3.90100
G01 X-6.08344 Y3.90100
G01 X-6.09125 Y3.90028
G01 X-6.09317 Y3.89990
G01 X-6.09974 Y3.89791
G01 X-6.10155 Y3.89716
G01 X-6.10844 Y3.89342
G01 X-6.11526 Y3.88782
G01 X-6.15969 Y3.84339
G01 X-6.16379 Y3.83864
G01 X-6.16758 Y3.83268
G01 X-6.16830 Y3.83129
G01 X-6.17088 Y3.82472
G01 X-6.17216 Y3.81938
G01 X-6.17241 Y3.81783
G01 X-6.17287 Y3.81157
G01 X-6.17287 Y3.77662
G01 X-6.17392 Y3.77436
G01 X-6.17678 Y3.76540
G01 X-6.17787 Y3.75500
G01 X-6.17678 Y3.74460
G01 X-6.17392 Y3.73564
G01 X-6.17307 Y3.73373
G01 X-6.17196 Y3.73180
G01 X-6.16057 Y3.45408
G01 X-6.16052 Y3.30402
G01 X-6.15971 Y3.29622
G01 X-6.15715 Y3.28778
G01 X-6.15349 Y3.28084
G01 X-6.15240 Y3.27921
G01 X-6.14805 Y3.27391
G01 X-6.14666 Y3.27252
G01 X-6.14136 Y3.26817
G01 X-6.13973 Y3.26708
G01 X-6.13368 Y3.26385
G01 X-6.13187 Y3.26309
G01 X-6.12530 Y3.26110
G01 X-6.12338 Y3.26072
G01 X-6.11655 Y3.26005
G01 X-6.11459 Y3.26005
G01 X-6.10776 Y3.26072
G01 X-6.10584 Y3.26110
G01 X-6.09927 Y3.26309
G01 X-6.09746 Y3.26385
G01 X-6.09057 Y3.26758
G01 X-6.08375 Y3.27318
G01 X-6.07874 Y3.27921
G01 X-6.07765 Y3.28084
G01 X-6.07400 Y3.28778
G01 X-6.07167 Y3.29527
G01 X-6.07129 Y3.29719
G01 X-6.07057 Y3.30500
G01 X-6.07061 Y3.45684
G01 X-6.08202 Y3.73512
G01 X-6.07896 Y3.74460
G01 X-6.07787 Y3.75500
G01 X-6.07896 Y3.76540
G01 X-6.08182 Y3.77436
G01 X-6.08287 Y3.77662
G01 X-6.08287 Y3.79293
G01 X-6.06480 Y3.81100
G01 X-5.91534 Y3.81100
G01 X-5.89727 Y3.79293
G01 X-5.89727 Y3.77662
G01 X-5.89832 Y3.77436
G01 X-5.90118 Y3.76540
G01 X-5.90222 Y3.75605
G01 X-5.90222 Y3.75395
G01 X-5.90134 Y3.74564
G01 X-5.90091 Y3.74359
G01 X-5.89795 Y3.73466
G01 X-5.89480 Y3.72910
G01 X-5.86057 Y3.40265
G01 X-5.86057 Y3.30500
G01 X-5.85971 Y3.29622
G01 X-5.85715 Y3.28778
G01 X-5.85349 Y3.28084
G01 X-5.85240 Y3.27921
G01 X-5.84805 Y3.27391
G01 X-5.84666 Y3.27252
G01 X-5.84057 Y3.26758
G01 X-5.83368 Y3.26385
G01 X-5.83187 Y3.26309
G01 X-5.82530 Y3.26110
G01 X-5.82338 Y3.26072
G01 X-5.81655 Y3.26005
G01 X-5.81459 Y3.26005
G01 X-5.80776 Y3.26072
G01 X-5.80584 Y3.26110
G01 X-5.79927 Y3.26309
G01 X-5.79746 Y3.26385
G01 X-5.79057 Y3.26758
G01 X-5.78375 Y3.27318
G01 X-5.77874 Y3.27921
G01 X-5.77765 Y3.28084
G01 X-5.77400 Y3.28778
G01 X-5.77144 Y3.29622
G01 X-5.77057 Y3.30500
G01 X-5.77057 Y3.40500
G01 X-5.77078 Y3.40917
G01 X-5.80529 Y3.73849
G01 X-5.80336 Y3.74460
G01 X-5.80227 Y3.75500
G01 X-5.80336 Y3.76540
G01 X-5.80622 Y3.77436
G01 X-5.80727 Y3.77662
G01 X-5.80727 Y3.79966
G01 X-5.79593 Y3.81100
G01 X-5.63974 Y3.81100
G01 X-5.62167 Y3.79293
G01 X-5.62167 Y3.77662
G01 X-5.62272 Y3.77436
G01 X-5.62558 Y3.76540
G01 X-5.62662 Y3.75605
G01 X-5.62662 Y3.75395
G01 X-5.62574 Y3.74564
G01 X-5.62531 Y3.74359
G01 X-5.62235 Y3.73466
G01 X-5.61726 Y3.72582
G01 X-5.56057 Y3.40110
G01 X-5.56057 Y3.30500
G01 X-5.55971 Y3.29622
G01 X-5.55715 Y3.28778
G01 X-5.55349 Y3.28084
G01 X-5.55240 Y3.27921
G01 X-5.54739 Y3.27318
G01 X-5.54136 Y3.26817
G01 X-5.53973 Y3.26708
G01 X-5.53368 Y3.26385
G01 X-5.53187 Y3.26309
G01 X-5.52530 Y3.26110
G01 X-5.52338 Y3.26072
G01 X-5.51655 Y3.26005
G01 X-5.51459 Y3.26005
G01 X-5.50776 Y3.26072
G01 X-5.50584 Y3.26110
G01 X-5.49927 Y3.26309
G01 X-5.49746 Y3.26385
G01 X-5.49057 Y3.26758
G01 X-5.48375 Y3.27318
G01 X-5.47874 Y3.27921
G01 X-5.47765 Y3.28084
G01 X-5.47442 Y3.28689
G01 X-5.47367 Y3.28870
G01 X-5.47144 Y3.29622
G01 X-5.47057 Y3.30500
G01 X-5.47057 Y3.40500
G01 X-5.47124 Y3.41274
G01 X-5.52866 Y3.74166
G01 X-5.52776 Y3.74460
G01 X-5.52760 Y3.74564
G01 X-5.52673 Y3.75395
G01 X-5.52673 Y3.75605
G01 X-5.52776 Y3.76540
G01 X-5.53062 Y3.77436
G01 X-5.53167 Y3.77662
G01 X-5.53167 Y3.79293
G01 X-5.51360 Y3.81100
G01 X-5.36414 Y3.81100
G01 X-5.34607 Y3.79293
G01 X-5.34607 Y3.77662
G01 X-5.34712 Y3.77436
G01 X-5.34998 Y3.76540
G01 X-5.35102 Y3.75605
G01 X-5.35102 Y3.75395
G01 X-5.34998 Y3.74460
G01 X-5.34675 Y3.73466
G01 X-5.34209 Y3.72649
G01 X-5.34152 Y3.72561
G01 X-5.33970 Y3.72351
G01 X-5.26057 Y3.39958
G01 X-5.26057 Y3.30500
G01 X-5.25985 Y3.29719
G01 X-5.25947 Y3.29527
G01 X-5.25748 Y3.28870
G01 X-5.25673 Y3.28689
G01 X-5.25299 Y3.28000
G01 X-5.24805 Y3.27391
G01 X-5.24666 Y3.27252
G01 X-5.24136 Y3.26817
G01 X-5.23973 Y3.26708
G01 X-5.23368 Y3.26385
G01 X-5.23187 Y3.26309
G01 X-5.22530 Y3.26110
G01 X-5.22338 Y3.26072
G01 X-5.21557 Y3.26000
G01 X-5.20776 Y3.26072
G01 X-5.20584 Y3.26110
G01 X-5.19927 Y3.26309
G01 X-5.19746 Y3.26385
G01 X-5.19057 Y3.26758
G01 X-5.18448 Y3.27252
G01 X-5.18309 Y3.27391
G01 X-5.17874 Y3.27921
G01 X-5.17765 Y3.28084
G01 X-5.17442 Y3.28689
G01 X-5.17367 Y3.28870
G01 X-5.17167 Y3.29527
G01 X-5.17129 Y3.29719
G01 X-5.17057 Y3.30500
G01 X-5.17059 Y3.40560
G01 X-5.17098 Y3.41097
G01 X-5.17186 Y3.41568
G01 X-5.25219 Y3.74452
G01 X-5.25113 Y3.75395
G01 X-5.25113 Y3.75605
G01 X-5.25216 Y3.76540
G01 X-5.25502 Y3.77436
G01 X-5.25607 Y3.77662
G01 X-5.25607 Y3.80086
G01 X-5.24593 Y3.81100
G01 X-4.99094 Y3.81100
G01 X-4.97287 Y3.79293
G01 X-4.97287 Y3.77662
G01 X-4.97392 Y3.77436
G01 X-4.97678 Y3.76540
G01 X-4.97787 Y3.75500
G01 X-4.97694 Y3.74564
G01 X-4.97651 Y3.74359
G01 X-4.97355 Y3.73466
G01 X-4.97123 Y3.73053
G01 X-4.96057 Y3.40425
G01 X-4.96057 Y3.30500
G01 X-4.95985 Y3.29719
G01 X-4.95947 Y3.29527
G01 X-4.95748 Y3.28870
G01 X-4.95673 Y3.28689
G01 X-4.95349 Y3.28084
G01 X-4.95240 Y3.27921
G01 X-4.94805 Y3.27391
G01 X-4.94666 Y3.27252
G01 X-4.94057 Y3.26758
G01 X-4.93279 Y3.26343
G01 X-4.92530 Y3.26110
G01 X-4.92338 Y3.26072
G01 X-4.91557 Y3.26000
G01 X-4.90776 Y3.26072
G01 X-4.90584 Y3.26110
G01 X-4.89835 Y3.26343
G01 X-4.89057 Y3.26758
G01 X-4.88448 Y3.27252
G01 X-4.88309 Y3.27391
G01 X-4.87874 Y3.27921
G01 X-4.87765 Y3.28084
G01 X-4.87442 Y3.28689
G01 X-4.87367 Y3.28870
G01 X-4.87167 Y3.29527
G01 X-4.87129 Y3.29719
G01 X-4.87057 Y3.30500
G01 X-4.87059 Y3.40647
G01 X-4.88139 Y3.73708
G01 X-4.87897 Y3.74458
G01 X-4.87787 Y3.75500
G01 X-4.87880 Y3.76436
G01 X-4.87923 Y3.76641
G01 X-4.87997 Y3.76867
G01 X-4.87605 Y3.78088
G01 X-4.84593 Y3.81100
G01 X-4.71534 Y3.81100
G01 X-4.69727 Y3.79293
G01 X-4.69727 Y3.77662
G01 X-4.69832 Y3.77436
G01 X-4.70118 Y3.76540
G01 X-4.70222 Y3.75605
G01 X-4.70222 Y3.75395
G01 X-4.70134 Y3.74564
G01 X-4.70091 Y3.74359
G01 X-4.69794 Y3.73465
G01 X-4.69430 Y3.72827
G01 X-4.66057 Y3.40268
G01 X-4.66057 Y3.30500
G01 X-4.65985 Y3.29719
G01 X-4.65947 Y3.29527
G01 X-4.65748 Y3.28870
G01 X-4.65673 Y3.28689
G01 X-4.65349 Y3.28084
G01 X-4.65240 Y3.27921
G01 X-4.64805 Y3.27391
G01 X-4.64666 Y3.27252
G01 X-4.64057 Y3.26758
G01 X-4.63279 Y3.26343
G01 X-4.62530 Y3.26110
G01 X-4.62338 Y3.26072
G01 X-4.61557 Y3.26000
G01 X-4.60776 Y3.26072
G01 X-4.60584 Y3.26110
G01 X-4.59835 Y3.26343
G01 X-4.59057 Y3.26758
G01 X-4.58448 Y3.27252
G01 X-4.58309 Y3.27391
G01 X-4.57815 Y3.28000
G01 X-4.57442 Y3.28689
G01 X-4.57367 Y3.28870
G01 X-4.57167 Y3.29527
G01 X-4.57129 Y3.29719
G01 X-4.57057 Y3.30500
G01 X-4.57057 Y3.40500
G01 X-4.57081 Y3.40964
G01 X-4.60498 Y3.73945
G01 X-4.60336 Y3.74460
G01 X-4.60233 Y3.75395
G01 X-4.60233 Y3.75605
G01 X-4.60336 Y3.76540
G01 X-4.60622 Y3.77436
G01 X-4.60727 Y3.77662
G01 X-4.60727 Y3.79293
G01 X-4.58920 Y3.81100
G01 X-4.43974 Y3.81100
G01 X-4.42167 Y3.79293
G01 X-4.42167 Y3.77662
G01 X-4.42272 Y3.77436
G01 X-4.42558 Y3.76540
G01 X-4.42662 Y3.75605
G01 X-4.42662 Y3.75395
G01 X-4.42574 Y3.74564
G01 X-4.42531 Y3.74359
G01 X-4.42235 Y3.73466
G01 X-4.41726 Y3.72582
G01 X-4.36057 Y3.40110
G01 X-4.36057 Y3.30500
G01 X-4.35985 Y3.29719
G01 X-4.35947 Y3.29527
G01 X-4.35748 Y3.28870
G01 X-4.35673 Y3.28689
G01 X-4.35349 Y3.28084
G01 X-4.35240 Y3.27921
G01 X-4.34805 Y3.27391
G01 X-4.34666 Y3.27252
G01 X-4.34057 Y3.26758
G01 X-4.33279 Y3.26343
G01 X-4.32530 Y3.26110
G01 X-4.32338 Y3.26072
G01 X-4.31557 Y3.26000
G01 X-4.30776 Y3.26072
G01 X-4.30584 Y3.26110
G01 X-4.29927 Y3.26309
G01 X-4.29746 Y3.26385
G01 X-4.29057 Y3.26758
G01 X-4.28448 Y3.27252
G01 X-4.28309 Y3.27391
G01 X-4.27874 Y3.27921
G01 X-4.27765 Y3.28084
G01 X-4.27442 Y3.28689
G01 X-4.27367 Y3.28870
G01 X-4.27144 Y3.29622
G01 X-4.27057 Y3.30500
G01 X-4.27057 Y3.40500
G01 X-4.27124 Y3.41274
G01 X-4.32866 Y3.74166
G01 X-4.32776 Y3.74460
G01 X-4.32760 Y3.74564
G01 X-4.32673 Y3.75395
G01 X-4.32673 Y3.75605
G01 X-4.32776 Y3.76540
G01 X-4.33062 Y3.77436
G01 X-4.33167 Y3.77662
G01 X-4.33167 Y3.79293
G01 X-4.31360 Y3.81100
G01 X-4.16414 Y3.81100
G01 X-4.14607 Y3.79293
G01 X-4.14607 Y3.77662
G01 X-4.14712 Y3.77436
G01 X-4.14998 Y3.76540
G01 X-4.15102 Y3.75605
G01 X-4.15102 Y3.75395
G01 X-4.14998 Y3.74460
G01 X-4.14675 Y3.73466
G01 X-4.14209 Y3.72649
G01 X-4.14152 Y3.72561
G01 X-4.13970 Y3.72351
G01 X-4.06057 Y3.39958
G01 X-4.06057 Y3.30500
G01 X-4.05985 Y3.29719
G01 X-4.05947 Y3.29527
G01 X-4.05748 Y3.28870
G01 X-4.05673 Y3.28689
G01 X-4.05299 Y3.28000
G01 X-4.04805 Y3.27391
G01 X-4.04666 Y3.27252
G01 X-4.04136 Y3.26817
G01 X-4.03973 Y3.26708
G01 X-4.03368 Y3.26385
G01 X-4.03187 Y3.26309
G01 X-4.02530 Y3.26110
G01 X-4.02338 Y3.26072
G01 X-4.01557 Y3.26000
G01 X-4.00776 Y3.26072
G01 X-4.00584 Y3.26110
G01 X-3.99927 Y3.26309
G01 X-3.99746 Y3.26385
G01 X-3.99141 Y3.26708
G01 X-3.98978 Y3.26817
G01 X-3.98448 Y3.27252
G01 X-3.98309 Y3.27391
G01 X-3.97815 Y3.28000
G01 X-3.97442 Y3.28689
G01 X-3.97367 Y3.28870
G01 X-3.97167 Y3.29527
G01 X-3.97129 Y3.29719
G01 X-3.97057 Y3.30500
G01 X-3.97057 Y3.40500
G01 X-3.97084 Y3.40978
G01 X-3.97186 Y3.41568
G01 X-4.05219 Y3.74452
G01 X-4.05113 Y3.75395
G01 X-4.05113 Y3.75605
G01 X-4.05216 Y3.76540
G01 X-4.05502 Y3.77436
G01 X-4.05607 Y3.77662
G01 X-4.05607 Y3.80086
G01 X-4.04593 Y3.81100
G01 X-3.79094 Y3.81100
G01 X-3.77287 Y3.79293
G01 X-3.77287 Y3.77662
G01 X-3.77392 Y3.77436
G01 X-3.77678 Y3.76540
G01 X-3.77787 Y3.75500
G01 X-3.77678 Y3.74460
G01 X-3.77392 Y3.73564
G01 X-3.77272 Y3.73312
G01 X-3.76057 Y3.40416
G01 X-3.76057 Y3.30500
G01 X-3.75985 Y3.29719
G01 X-3.75947 Y3.29527
G01 X-3.75748 Y3.28870
G01 X-3.75673 Y3.28689
G01 X-3.75349 Y3.28084
G01 X-3.75240 Y3.27921
G01 X-3.74805 Y3.27391
G01 X-3.74666 Y3.27252
G01 X-3.74057 Y3.26758
G01 X-3.73279 Y3.26343
G01 X-3.72530 Y3.26110
G01 X-3.72338 Y3.26072
G01 X-3.71557 Y3.26000
G01 X-3.70776 Y3.26072
G01 X-3.70584 Y3.26110
G01 X-3.69835 Y3.26343
G01 X-3.69057 Y3.26758
G01 X-3.68448 Y3.27252
G01 X-3.68309 Y3.27391
G01 X-3.67815 Y3.28000
G01 X-3.67442 Y3.28689
G01 X-3.67367 Y3.28870
G01 X-3.67167 Y3.29527
G01 X-3.67129 Y3.29719
G01 X-3.67062 Y3.30402
G01 X-3.67060 Y3.40666
G01 X-3.68268 Y3.73370
G01 X-3.68182 Y3.73564
G01 X-3.67896 Y3.74460
G01 X-3.67787 Y3.75500
G01 X-3.67896 Y3.76540
G01 X-3.68182 Y3.77436
G01 X-3.68287 Y3.77662
G01 X-3.68287 Y3.79293
G01 X-3.66480 Y3.81100
G01 X-3.51534 Y3.81100
G01 X-3.49727 Y3.79293
G01 X-3.49727 Y3.77662
G01 X-3.49832 Y3.77436
G01 X-3.50118 Y3.76540
G01 X-3.50222 Y3.75605
G01 X-3.50222 Y3.75395
G01 X-3.50134 Y3.74564
G01 X-3.50091 Y3.74359
G01 X-3.49795 Y3.73466
G01 X-3.49480 Y3.72910
G01 X-3.46190 Y3.41529
G01 X-3.46230 Y3.41330
G01 X-3.46307 Y3.40500
G01 X-3.46307 Y3.30500
G01 X-3.46216 Y3.29573
G01 X-3.45979 Y3.28775
G01 X-3.45904 Y3.28594
G01 X-3.45557 Y3.27945
G01 X-3.45448 Y3.27782
G01 X-3.44982 Y3.27214
G01 X-3.44843 Y3.27075
G01 X-3.44275 Y3.26609
G01 X-3.44112 Y3.26500
G01 X-3.43375 Y3.26112
G01 X-3.42579 Y3.25865
G01 X-3.42387 Y3.25827
G01 X-3.41655 Y3.25755
G01 X-3.41459 Y3.25755
G01 X-3.40727 Y3.25827
G01 X-3.40535 Y3.25865
G01 X-3.39739 Y3.26112
G01 X-3.39002 Y3.26500
G01 X-3.38839 Y3.26609
G01 X-3.38198 Y3.27141
G01 X-3.37608 Y3.27861
G01 X-3.37211 Y3.28594
G01 X-3.37136 Y3.28775
G01 X-3.36898 Y3.29573
G01 X-3.36812 Y3.30402
G01 X-3.36812 Y3.40598
G01 X-3.36898 Y3.41427
G01 X-3.37136 Y3.42225
G01 X-3.37238 Y3.42457
G01 X-3.40529 Y3.73849
G01 X-3.40336 Y3.74460
G01 X-3.40233 Y3.75395
G01 X-3.40233 Y3.75605
G01 X-3.40320 Y3.76436
G01 X-3.40363 Y3.76641
G01 X-3.40622 Y3.77436
G01 X-3.40727 Y3.77662
G01 X-3.40727 Y3.79293
G01 X-3.38920 Y3.81100
G01 X-3.23974 Y3.81100
G01 X-3.22167 Y3.79293
G01 X-3.22167 Y3.77662
G01 X-3.22272 Y3.77436
G01 X-3.22558 Y3.76540
G01 X-3.22662 Y3.75605
G01 X-3.22662 Y3.75395
G01 X-3.22574 Y3.74564
G01 X-3.22531 Y3.74359
G01 X-3.22272 Y3.73564
G01 X-3.22187 Y3.73373
G01 X-3.21712 Y3.72561
G01 X-3.21087 Y3.71858
G01 X-3.20969 Y3.71749
G01 X-3.16307 Y3.40152
G01 X-3.16307 Y3.30500
G01 X-3.16216 Y3.29573
G01 X-3.15979 Y3.28775
G01 X-3.15904 Y3.28594
G01 X-3.15557 Y3.27945
G01 X-3.15448 Y3.27782
G01 X-3.14982 Y3.27214
G01 X-3.14843 Y3.27075
G01 X-3.14275 Y3.26609
G01 X-3.14112 Y3.26500
G01 X-3.13375 Y3.26112
G01 X-3.12579 Y3.25865
G01 X-3.12387 Y3.25827
G01 X-3.11655 Y3.25755
G01 X-3.11459 Y3.25755
G01 X-3.10727 Y3.25827
G01 X-3.10535 Y3.25865
G01 X-3.09739 Y3.26112
G01 X-3.09002 Y3.26500
G01 X-3.08839 Y3.26609
G01 X-3.08198 Y3.27141
G01 X-3.07608 Y3.27861
G01 X-3.07211 Y3.28594
G01 X-3.07136 Y3.28775
G01 X-3.06898 Y3.29573
G01 X-3.06807 Y3.30500
G01 X-3.06807 Y3.40500
G01 X-3.06858 Y3.41193
G01 X-3.11858 Y3.75083
G01 X-3.12055 Y3.75893
G01 X-3.12121 Y3.76078
G01 X-3.12435 Y3.76742
G01 X-3.12535 Y3.76911
G01 X-3.12973 Y3.77501
G01 X-3.13167 Y3.77704
G01 X-3.13167 Y3.78665
G01 X-3.10732 Y3.81100
G01 X-2.96414 Y3.81100
G01 X-2.94607 Y3.79293
G01 X-2.94607 Y3.77662
G01 X-2.94712 Y3.77436
G01 X-2.94998 Y3.76540
G01 X-2.95102 Y3.75605
G01 X-2.95102 Y3.75395
G01 X-2.94998 Y3.74460
G01 X-2.94712 Y3.73564
G01 X-2.94627 Y3.73373
G01 X-2.94507 Y3.73165
G01 X-2.94468 Y3.72939
G01 X-2.86281 Y3.40814
G01 X-2.86307 Y3.40500
G01 X-2.86307 Y3.30500
G01 X-2.86216 Y3.29573
G01 X-2.85979 Y3.28775
G01 X-2.85904 Y3.28594
G01 X-2.85557 Y3.27945
G01 X-2.85448 Y3.27782
G01 X-2.84982 Y3.27214
G01 X-2.84843 Y3.27075
G01 X-2.84275 Y3.26609
G01 X-2.84112 Y3.26500
G01 X-2.83375 Y3.26112
G01 X-2.82579 Y3.25865
G01 X-2.82387 Y3.25827
G01 X-2.81655 Y3.25755
G01 X-2.81459 Y3.25755
G01 X-2.80727 Y3.25827
G01 X-2.80535 Y3.25865
G01 X-2.79739 Y3.26112
G01 X-2.79002 Y3.26500
G01 X-2.78839 Y3.26609
G01 X-2.78198 Y3.27141
G01 X-2.77666 Y3.27782
G01 X-2.77557 Y3.27945
G01 X-2.77211 Y3.28594
G01 X-2.77136 Y3.28775
G01 X-2.76898 Y3.29573
G01 X-2.76807 Y3.30500
G01 X-2.76812 Y3.40598
G01 X-2.76884 Y3.41330
G01 X-2.76922 Y3.41522
G01 X-2.77136 Y3.42225
G01 X-2.77211 Y3.42406
G01 X-2.77570 Y3.43076
G01 X-2.85411 Y3.73844
G01 X-2.85216 Y3.74460
G01 X-2.85107 Y3.75500
G01 X-2.85216 Y3.76540
G01 X-2.85502 Y3.77436
G01 X-2.85607 Y3.77662
G01 X-2.85607 Y3.80086
G01 X-2.84593 Y3.81100
G01 X-2.59094 Y3.81100
G01 X-2.57287 Y3.79293
G01 X-2.57287 Y3.77662
G01 X-2.57392 Y3.77436
G01 X-2.57678 Y3.76540
G01 X-2.57782 Y3.75605
G01 X-2.57782 Y3.75395
G01 X-2.57678 Y3.74460
G01 X-2.57355 Y3.73466
G01 X-2.56889 Y3.72649
G01 X-2.56766 Y3.72480
G01 X-2.56207 Y3.71858
G01 X-2.56057 Y3.71723
G01 X-2.56057 Y3.41967
G01 X-2.56216 Y3.41427
G01 X-2.56307 Y3.40500
G01 X-2.56307 Y3.30500
G01 X-2.56230 Y3.29670
G01 X-2.56192 Y3.29478
G01 X-2.55979 Y3.28775
G01 X-2.55904 Y3.28594
G01 X-2.55557 Y3.27945
G01 X-2.55448 Y3.27782
G01 X-2.54982 Y3.27214
G01 X-2.54843 Y3.27075
G01 X-2.54275 Y3.26609
G01 X-2.54112 Y3.26500
G01 X-2.53375 Y3.26112
G01 X-2.52579 Y3.25865
G01 X-2.52387 Y3.25827
G01 X-2.51655 Y3.25755
G01 X-2.51459 Y3.25755
G01 X-2.50727 Y3.25827
G01 X-2.50535 Y3.25865
G01 X-2.49739 Y3.26112
G01 X-2.49002 Y3.26500
G01 X-2.48839 Y3.26609
G01 X-2.48198 Y3.27141
G01 X-2.47608 Y3.27861
G01 X-2.47211 Y3.28594
G01 X-2.47136 Y3.28775
G01 X-2.46898 Y3.29573
G01 X-2.46812 Y3.30402
G01 X-2.46807 Y3.40500
G01 X-2.46884 Y3.41330
G01 X-2.46922 Y3.41522
G01 X-2.47057 Y3.41966
G01 X-2.47057 Y3.74270
G01 X-2.47129 Y3.75051
G01 X-2.47167 Y3.75243
G01 X-2.47326 Y3.75765
G01 X-2.41991 Y3.81100
G01 X-2.31534 Y3.81100
G01 X-2.29727 Y3.79293
G01 X-2.29727 Y3.77662
G01 X-2.29832 Y3.77436
G01 X-2.30118 Y3.76540
G01 X-2.30222 Y3.75605
G01 X-2.30222 Y3.75395
G01 X-2.30134 Y3.74564
G01 X-2.30091 Y3.74359
G01 X-2.29795 Y3.73466
G01 X-2.29480 Y3.72911
G01 X-2.26190 Y3.41529
G01 X-2.26230 Y3.41330
G01 X-2.26307 Y3.40500
G01 X-2.26307 Y3.30500
G01 X-2.26216 Y3.29573
G01 X-2.25979 Y3.28775
G01 X-2.25904 Y3.28594
G01 X-2.25507 Y3.27861
G01 X-2.24916 Y3.27141
G01 X-2.24275 Y3.26609
G01 X-2.24112 Y3.26500
G01 X-2.23375 Y3.26112
G01 X-2.22579 Y3.25865
G01 X-2.22387 Y3.25827
G01 X-2.21655 Y3.25755
G01 X-2.21459 Y3.25755
G01 X-2.20727 Y3.25827
G01 X-2.20535 Y3.25865
G01 X-2.19739 Y3.26112
G01 X-2.19002 Y3.26500
G01 X-2.18839 Y3.26609
G01 X-2.18271 Y3.27075
G01 X-2.18132 Y3.27214
G01 X-2.17608 Y3.27861
G01 X-2.17211 Y3.28594
G01 X-2.17136 Y3.28775
G01 X-2.16898 Y3.29573
G01 X-2.16807 Y3.30500
G01 X-2.16812 Y3.40598
G01 X-2.16898 Y3.41427
G01 X-2.17136 Y3.42225
G01 X-2.17238 Y3.42457
G01 X-2.20529 Y3.73849
G01 X-2.20363 Y3.74359
G01 X-2.20318 Y3.74583
G01 X-2.18132 Y3.77561
G01 X-2.14593 Y3.81100
G01 X-2.03974 Y3.81100
G01 X-2.02167 Y3.79293
G01 X-2.02167 Y3.77662
G01 X-2.02272 Y3.77436
G01 X-2.02558 Y3.76540
G01 X-2.02662 Y3.75605
G01 X-2.02662 Y3.75395
G01 X-2.02558 Y3.74460
G01 X-2.02235 Y3.73466
G01 X-2.01769 Y3.72649
G01 X-2.01646 Y3.72480
G01 X-2.01087 Y3.71858
G01 X-2.00931 Y3.71718
G01 X-2.00685 Y3.71540
G01 X-1.96229 Y3.41336
G01 X-1.96307 Y3.40500
G01 X-1.96307 Y3.30500
G01 X-1.96216 Y3.29573
G01 X-1.95979 Y3.28775
G01 X-1.95904 Y3.28594
G01 X-1.95507 Y3.27861
G01 X-1.94916 Y3.27141
G01 X-1.94275 Y3.26609
G01 X-1.94112 Y3.26500
G01 X-1.93375 Y3.26112
G01 X-1.92579 Y3.25865
G01 X-1.92387 Y3.25827
G01 X-1.91655 Y3.25755
G01 X-1.91459 Y3.25755
G01 X-1.90727 Y3.25827
G01 X-1.90535 Y3.25865
G01 X-1.89832 Y3.26079
G01 X-1.89651 Y3.26154
G01 X-1.89002 Y3.26500
G01 X-1.88839 Y3.26609
G01 X-1.88198 Y3.27141
G01 X-1.87666 Y3.27782
G01 X-1.87557 Y3.27945
G01 X-1.87211 Y3.28594
G01 X-1.87136 Y3.28775
G01 X-1.86898 Y3.29573
G01 X-1.86807 Y3.30500
G01 X-1.86807 Y3.40500
G01 X-1.86898 Y3.41427
G01 X-1.87136 Y3.42225
G01 X-1.87211 Y3.42406
G01 X-1.87320 Y3.42611
G01 X-1.92105 Y3.75047
G01 X-1.92291 Y3.75809
G01 X-1.92356 Y3.75993
G01 X-1.92649 Y3.76614
G01 X-1.92750 Y3.76782
G01 X-1.92927 Y3.77021
G01 X-1.93062 Y3.77436
G01 X-1.93167 Y3.77662
G01 X-1.93167 Y3.78665
G01 X-1.90732 Y3.81100
G01 X-1.76414 Y3.81100
G01 X-1.74607 Y3.79293
G01 X-1.74607 Y3.77662
G01 X-1.74712 Y3.77436
G01 X-1.74998 Y3.76540
G01 X-1.75102 Y3.75605
G01 X-1.75102 Y3.75395
G01 X-1.74998 Y3.74460
G01 X-1.74675 Y3.73466
G01 X-1.74209 Y3.72649
G01 X-1.74152 Y3.72561
G01 X-1.73970 Y3.72351
G01 X-1.66277 Y3.40858
G01 X-1.66307 Y3.40500
G01 X-1.66307 Y3.30500
G01 X-1.66230 Y3.29670
G01 X-1.66192 Y3.29478
G01 X-1.65979 Y3.28775
G01 X-1.65904 Y3.28594
G01 X-1.65507 Y3.27861
G01 X-1.64916 Y3.27141
G01 X-1.64275 Y3.26609
G01 X-1.64112 Y3.26500
G01 X-1.63375 Y3.26112
G01 X-1.62579 Y3.25865
G01 X-1.62387 Y3.25827
G01 X-1.61655 Y3.25755
G01 X-1.61459 Y3.25755
G01 X-1.60727 Y3.25827
G01 X-1.60535 Y3.25865
G01 X-1.59832 Y3.26079
G01 X-1.59651 Y3.26154
G01 X-1.59002 Y3.26500
G01 X-1.58839 Y3.26609
G01 X-1.58198 Y3.27141
G01 X-1.57666 Y3.27782
G01 X-1.57557 Y3.27945
G01 X-1.57211 Y3.28594
G01 X-1.57136 Y3.28775
G01 X-1.56898 Y3.29573
G01 X-1.56807 Y3.30500
G01 X-1.56812 Y3.40598
G01 X-1.56884 Y3.41330
G01 X-1.56922 Y3.41522
G01 X-1.57171 Y3.42324
G01 X-1.57533 Y3.42992
G01 X-1.64375 Y3.71000
G01 X-1.36057 Y3.71000
G01 X-1.36057 Y3.30500
G01 X-1.35985 Y3.29719
G01 X-1.35947 Y3.29527
G01 X-1.35715 Y3.28778
G01 X-1.35349 Y3.28084
G01 X-1.35240 Y3.27921
G01 X-1.34739 Y3.27318
G01 X-1.34136 Y3.26817
G01 X-1.33973 Y3.26708
G01 X-1.33279 Y3.26343
G01 X-1.32530 Y3.26110
G01 X-1.32338 Y3.26072
G01 X-1.31557 Y3.26000
G01 X-1.30776 Y3.26072
G01 X-1.30584 Y3.26110
G01 X-1.29835 Y3.26343
G01 X-1.29141 Y3.26708
G01 X-1.28978 Y3.26817
G01 X-1.28375 Y3.27318
G01 X-1.27874 Y3.27921
G01 X-1.27765 Y3.28084
G01 X-1.27442 Y3.28689
G01 X-1.27367 Y3.28870
G01 X-1.27167 Y3.29527
G01 X-1.27129 Y3.29719
G01 X-1.27062 Y3.30402
G01 X-1.27057 Y3.73235
G01 X-1.26930 Y3.73466
G01 X-1.26893 Y3.73564
G01 X-1.26607 Y3.74460
G01 X-1.26498 Y3.75500
G01 X-1.26607 Y3.76540
G01 X-1.26893 Y3.77436
G01 X-1.26998 Y3.77662
G01 X-1.26998 Y3.79293
G01 X-1.20291 Y3.86000
G01 X-0.98421 Y3.86000
G01 X-0.86248 Y3.73827
G01 X-0.86125 Y3.73466
G01 X-0.86057 Y3.73338
G01 X-0.86052 Y3.30402
G01 X-0.85985 Y3.29719
G01 X-0.85947 Y3.29527
G01 X-0.85715 Y3.28778
G01 X-0.85349 Y3.28084
G01 X-0.85240 Y3.27921
G01 X-0.84739 Y3.27318
G01 X-0.84136 Y3.26817
G01 X-0.83973 Y3.26708
G01 X-0.83279 Y3.26343
G01 X-0.82530 Y3.26110
G01 X-0.82338 Y3.26072
G01 X-0.81557 Y3.26000
G01 X-0.80776 Y3.26072
G01 X-0.80584 Y3.26110
G01 X-0.79835 Y3.26343
G01 X-0.79141 Y3.26708
G01 X-0.78978 Y3.26817
G01 X-0.78375 Y3.27318
G01 X-0.77874 Y3.27921
G01 X-0.77765 Y3.28084
G01 X-0.77400 Y3.28778
G01 X-0.77167 Y3.29527
G01 X-0.77129 Y3.29719
G01 X-0.77062 Y3.30402
G01 X-0.77057 Y3.73338
G01 X-0.76952 Y3.73564
G01 X-0.76666 Y3.74460
G01 X-0.76557 Y3.75500
G01 X-0.76666 Y3.76540
G01 X-0.76952 Y3.77436
G01 X-0.77057 Y3.77662
G01 X-0.77057 Y3.79293
G01 X-0.70350 Y3.86000
G01 X-0.58421 Y3.86000
G01 X-0.46059 Y3.73638
G01 X-0.46217 Y2.41972
G01 X-0.46377 Y2.41427
G01 X-0.46464 Y2.40598
G01 X-0.46464 Y2.40402
G01 X-0.46392 Y2.39670
G01 X-0.46353 Y2.39478
G01 X-0.46140 Y2.38775
G01 X-0.46065 Y2.38594
G01 X-0.45718 Y2.37945
G01 X-0.45610 Y2.37782
G01 X-0.45143 Y2.37214
G01 X-0.45005 Y2.37075
G01 X-0.44357 Y2.36551
G01 X-0.43625 Y2.36154
G01 X-0.43444 Y2.36079
G01 X-0.42740 Y2.35865
G01 X-0.42548 Y2.35827
G01 X-0.41719 Y2.35750
G01 X-0.21719 Y2.35750
G01 X-0.20889 Y2.35827
G01 X-0.20697 Y2.35865
G01 X-0.19993 Y2.36079
G01 X-0.19812 Y2.36154
G01 X-0.19080 Y2.36551
G01 X-0.18432 Y2.37075
G01 X-0.18294 Y2.37214
G01 X-0.17769 Y2.37861
G01 X-0.17372 Y2.38594
G01 X-0.17297 Y2.38775
G01 X-0.17084 Y2.39478
G01 X-0.17045 Y2.39670
G01 X-0.16969 Y2.40500
G04 P0 ( dwell for no time -- G64 should not smooth over this point )
G00 Z1.00000 ( retract )

G00 X-0.17019 Y2.10500 ( rapid move to begin. )
G01 F100.00000
( Mill infeed pass 1/1 )
G01 Z-0.05000
G04 P0 ( dwell for no time -- G64 should not smooth over this point )
G01 F200.00000
G01 X-0.17019 Y2.10500
G01 X-0.17057 Y2.10081
G01 X-0.17062 Y1.95402
G01 X-0.17129 Y1.94719
G01 X-0.17167 Y1.94527
G01 X-0.17400 Y1.93778
G01 X-0.17765 Y1.93084
G01 X-0.17874 Y1.92921
G01 X-0.18375 Y1.92318
G01 X-1.81366 Y0.29327
G01 X-1.82048 Y0.28768
G01 X-1.82737 Y0.28394
G01 X-1.82918 Y0.28319
G01 X-1.83575 Y0.28120
G01 X-1.83767 Y0.28081
G01 X-1.84548 Y0.28009
G01 X-2.66557 Y0.28009
G01 X-2.67338 Y0.28081
G01 X-2.67530 Y0.28120
G01 X-2.68187 Y0.28319
G01 X-2.68368 Y0.28394
G01 X-2.68973 Y0.28717
G01 X-2.69136 Y0.28826
G01 X-2.69666 Y0.29261
G01 X-2.69805 Y0.29400
G01 X-2.70299 Y0.30009
G01 X-2.78514 Y0.30009
G01 X-2.78639 Y0.29906
G01 X-2.78812 Y0.29814
G01 X-2.79000 Y0.29757
G01 X-2.79195 Y0.29738
G01 X-2.83919 Y0.29738
G01 X-2.84114 Y0.29757
G01 X-2.84302 Y0.29814
G01 X-2.84475 Y0.29906
G01 X-2.84601 Y0.30009
G01 X-2.88514 Y0.30009
G01 X-2.88639 Y0.29906
G01 X-2.88812 Y0.29814
G01 X-2.89000 Y0.29757
G01 X-2.89195 Y0.29738
G01 X-2.93919 Y0.29738
G01 X-2.94114 Y0.29757
G01 X-2.94302 Y0.29814
G01 X-2.94475 Y0.29906
G01 X-2.94601 Y0.30009
G01 X-2.98514 Y0.30009
G01 X-2.98639 Y0.29906
G01 X-2.98812 Y0.29814
G01 X-2.99000 Y0.29757
G01 X-2.99195 Y0.29738
G01 X-3.03919 Y0.29738
G01 X-3.04114 Y0.29757
G01 X-3.04302 Y0.29814
G01 X-3.04475 Y0.29906
G01 X-3.04601 Y0.30009
G01 X-3.08514 Y0.30009
G01 X-3.08639 Y0.29906
G01 X-3.08812 Y0.29814
G01 X-3.09000 Y0.29757
G01 X-3.09195 Y0.29738
G01 X-3.13919 Y0.29738
G01 X-3.14114 Y0.29757
G01 X-3.14302 Y0.29814
G01 X-3.14475 Y0.29906
G01 X-3.14601 Y0.30009
G01 X-3.18514 Y0.30009
G01 X-3.18639 Y0.29906
G01 X-3.18812 Y0.29814
G01 X-3.19000 Y0.29757
G01 X-3.19195 Y0.29738
G01 X-3.23919 Y0.29738
G01 X-3.24114 Y0.29757
G01 X-3.24302 Y0.29814
G01 X-3.24475 Y0.29906
G01 X-3.24601 Y0.30009
G01 X-3.28514 Y0.30009
G01 X-3.28639 Y0.29906
G01 X-3.28812 Y0.29814
G01 X-3.29000 Y0.29757
G01 X-3.29195 Y0.29738
G01 X-3.33919 Y0.29738
G01 X-3.34114 Y0.29757
G01 X-3.34302 Y0.29814
G01 X-3.34475 Y0.29906
G01 X-3.34601 Y0.30009
G01 X-3.38514 Y0.30009
G01 X-3.38639 Y0.29906
G01 X-3.38812 Y0.29814
G01 X-3.39000 Y0.29757
G01 X-3.39195 Y0.29738
G01 X-3.43919 Y0.29738
G01 X-3.44114 Y0.29757
G01 X-3.44302 Y0.29814
G01 X-3.44475 Y0.29906
G01 X-3.44601 Y0.30009
G01 X-3.48461 Y0.30009
G01 X-3.48639 Y0.29852
G01 X-3.48812 Y0.29760
G01 X-3.49000 Y0.29703
G01 X-3.49195 Y0.29684
G01 X-3.53919 Y0.29684
G01 X-3.54114 Y0.29703
G01 X-3.54302 Y0.29760
G01 X-3.54475 Y0.29852
G01 X-3.54601 Y0.29955
G01 X-3.67057 Y0.29955
G01 X-3.67057 Y0.15500
G01 X-3.67129 Y0.14719
G01 X-3.67167 Y0.14527
G01 X-3.67367 Y0.13870
G01 X-3.67442 Y0.13689
G01 X-3.67815 Y0.13000
G01 X-3.68309 Y0.12391
G01 X-3.68448 Y0.12252
G01 X-3.68978 Y0.11817
G01 X-3.69141 Y0.11708
G01 X-3.69746 Y0.11385
G01 X-3.69927 Y0.11309
G01 X-3.70584 Y0.11110
G01 X-3.70776 Y0.11072
G01 X-3.71557 Y0.11000
G01 X-3.72338 Y0.11072
G01 X-3.72530 Y0.11110
G01 X-3.73187 Y0.11309
G01 X-3.73368 Y0.11385
G01 X-3.74057 Y0.11758
G01 X-3.74666 Y0.12252
G01 X-3.74805 Y0.12391
G01 X-3.75240 Y0.12921
G01 X-3.75349 Y0.13084
G01 X-3.75673 Y0.13689
G01 X-3.75748 Y0.13870
G01 X-3.75947 Y0.14527
G01 X-3.75985 Y0.14719
G01 X-3.76057 Y0.15500
G01 X-3.76057 Y0.34004
G01 X-3.75967 Y0.34878
G01 X-3.82321 Y0.41232
G01 X-3.83919 Y0.41232
G01 X-3.84114 Y0.41251
G01 X-3.84302 Y0.41308
G01 X-3.84475 Y0.41401
G01 X-3.84601 Y0.41504
G01 X-3.98514 Y0.41504
G01 X-3.98639 Y0.41401
G01 X-3.98812 Y0.41308
G01 X-3.99000 Y0.41251
G01 X-3.99195 Y0.41232
G01 X-4.03919 Y0.41232
G01 X-4.04114 Y0.41251
G01 X-4.04302 Y0.41308
G01 X-4.04475 Y0.41401
G01 X-4.04601 Y0.41504
G01 X-4.08514 Y0.41504
G01 X-4.08639 Y0.41401
G01 X-4.08812 Y0.41308
G01 X-4.09000 Y0.41251
G01 X-4.09195 Y0.41232
G01 X-4.13919 Y0.41232
G01 X-4.14114 Y0.41251
G01 X-4.14302 Y0.41308
G01 X-4.14475 Y0.41401
G01 X-4.14601 Y0.41504
G01 X-4.18514 Y0.41504
G01 X-4.18639 Y0.41401
G01 X-4.18812 Y0.41308
G01 X-4.19000 Y0.41251
G01 X-4.19195 Y0.41232
G01 X-4.23919 Y0.41232
G01 X-4.24114 Y0.41251
G01 X-4.24302 Y0.41308
G01 X-4.24475 Y0.41401
G01 X-4.24601 Y0.41504
G01 X-4.28514 Y0.41504
G01 X-4.28639 Y0.41401
G01 X-4.28812 Y0.41308
G01 X-4.29000 Y0.41251
G01 X-4.29195 Y0.41232
G01 X-4.33919 Y0.41232
G01 X-4.34114 Y0.41251
G01 X-4.34302 Y0.41308
G01 X-4.34475 Y0.41401
G01 X-4.34601 Y0.41504
G01 X-4.38514 Y0.41504
G01 X-4.38639 Y0.41401
G01 X-4.38812 Y0.41308
G01 X-4.39000 Y0.41252
G01 X-4.39195 Y0.41232
G01 X-4.40793 Y0.41232
G01 X-4.41797 Y0.40228
G01 X-4.42161 Y0.39930
G01 X-4.42361 Y0.39807
G01 X-4.42719 Y0.39646
G01 X-4.43097 Y0.39542
G01 X-4.43486 Y0.39499
G01 X-4.48514 Y0.39496
G01 X-4.48639 Y0.39393
G01 X-4.48812 Y0.39301
G01 X-4.49000 Y0.39244
G01 X-4.49195 Y0.39224
G01 X-4.53919 Y0.39224
G01 X-4.54114 Y0.39244
G01 X-4.54302 Y0.39301
G01 X-4.54475 Y0.39393
G01 X-4.54601 Y0.39496
G01 X-4.58514 Y0.39496
G01 X-4.58639 Y0.39393
G01 X-4.58812 Y0.39301
G01 X-4.59000 Y0.39244
G01 X-4.59195 Y0.39224
G01 X-4.63919 Y0.39224
G01 X-4.64114 Y0.39244
G01 X-4.64302 Y0.39301
G01 X-4.64475 Y0.39393
G01 X-4.64626 Y0.39517
G01 X-4.64751 Y0.39669
G01 X-4.64843 Y0.39842
G01 X-4.64900 Y0.40029
G01 X-4.64919 Y0.40224
G01 X-4.64919 Y0.43768
G01 X-4.64900 Y0.43963
G01 X-4.64843 Y0.44150
G01 X-4.64751 Y0.44323
G01 X-4.64626 Y0.44475
G01 X-4.64475 Y0.44599
G01 X-4.64302 Y0.44692
G01 X-4.64114 Y0.44749
G01 X-4.63919 Y0.44768
G01 X-4.59195 Y0.44768
G01 X-4.59000 Y0.44749
G01 X-4.58812 Y0.44692
G01 X-4.58639 Y0.44599
G01 X-4.58514 Y0.44496
G01 X-4.54601 Y0.44496
G01 X-4.54475 Y0.44599
G01 X-4.54302 Y0.44692
G01 X-4.54114 Y0.44749
G01 X-4.53919 Y0.44768
G01 X-4.49195 Y0.44768
G01 X-4.49000 Y0.44749
G01 X-4.48812 Y0.44692
G01 X-4.48639 Y0.44599
G01 X-4.48514 Y0.44496
G01 X-4.44919 Y0.44496
G01 X-4.44919 Y0.45776
G01 X-4.44900 Y0.45971
G01 X-4.44843 Y0.46158
G01 X-4.44751 Y0.46331
G01 X-4.44626 Y0.46483
G01 X-4.44475 Y0.46607
G01 X-4.44302 Y0.46699
G01 X-4.44114 Y0.46756
G01 X-4.43919 Y0.46776
G01 X-4.39195 Y0.46776
G01 X-4.39000 Y0.46756
G01 X-4.38812 Y0.46699
G01 X-4.38639 Y0.46607
G01 X-4.38514 Y0.46504
G01 X-4.34600 Y0.46504
G01 X-4.34475 Y0.46607
G01 X-4.34302 Y0.46699
G01 X-4.34114 Y0.46756
G01 X-4.33919 Y0.46776
G01 X-4.29195 Y0.46776
G01 X-4.29000 Y0.46756
G01 X-4.28812 Y0.46699
G01 X-4.28639 Y0.46607
G01 X-4.28514 Y0.46504
G01 X-4.24600 Y0.46504
G01 X-4.24475 Y0.46607
G01 X-4.24302 Y0.46699
G01 X-4.24114 Y0.46756
G01 X-4.23919 Y0.46776
G01 X-4.19195 Y0.46776
G01 X-4.19000 Y0.46756
G01 X-4.18812 Y0.46699
G01 X-4.18639 Y0.46607
G01 X-4.18514 Y0.46504
G01 X-4.14600 Y0.46504
G01 X-4.14475 Y0.46607
G01 X-4.14302 Y0.46699
G01 X-4.14114 Y0.46756
G01 X-4.13919 Y0.46776
G01 X-4.09195 Y0.46776
G01 X-4.09000 Y0.46756
G01 X-4.08812 Y0.46699
G01 X-4.08639 Y0.46607
G01 X-4.08514 Y0.46504
G01 X-4.04600 Y0.46504
G01 X-4.04475 Y0.46607
G01 X-4.04302 Y0.46699
G01 X-4.04114 Y0.46756
G01 X-4.03919 Y0.46776
G01 X-3.99195 Y0.46776
G01 X-3.99000 Y0.46756
G01 X-3.98812 Y0.46699
G01 X-3.98639 Y0.46607
G01 X-3.98514 Y0.46504
G01 X-3.84600 Y0.46504
G01 X-3.84475 Y0.46607
G01 X-3.84302 Y0.46699
G01 X-3.84114 Y0.46756
G01 X-3.83919 Y0.46776
G01 X-3.79195 Y0.46776
G01 X-3.79000 Y0.46756
G01 X-3.78812 Y0.46699
G01 X-3.78639 Y0.46607
G01 X-3.78488 Y0.46483
G01 X-3.78363 Y0.46331
G01 X-3.78271 Y0.46158
G01 X-3.78214 Y0.45971
G01 X-3.78195 Y0.45776
G01 X-3.78195 Y0.44177
G01 X-3.72431 Y0.38413
G01 X-3.71557 Y0.38504
G01 X-3.70679 Y0.38418
G01 X-3.69927 Y0.38195
G01 X-3.69746 Y0.38119
G01 X-3.69057 Y0.37746
G01 X-3.68448 Y0.37252
G01 X-3.68309 Y0.37113
G01 X-3.67815 Y0.36504
G01 X-3.67442 Y0.35815
G01 X-3.67367 Y0.35634
G01 X-3.67162 Y0.34955
G01 X-3.54600 Y0.34955
G01 X-3.54475 Y0.35058
G01 X-3.54302 Y0.35151
G01 X-3.54114 Y0.35208
G01 X-3.53919 Y0.35227
G01 X-3.49195 Y0.35227
G01 X-3.49000 Y0.35208
G01 X-3.48812 Y0.35151
G01 X-3.48639 Y0.35058
G01 X-3.48580 Y0.35009
G01 X-3.44600 Y0.35009
G01 X-3.44475 Y0.35112
G01 X-3.44302 Y0.35205
G01 X-3.44114 Y0.35262
G01 X-3.43919 Y0.35281
G01 X-3.39195 Y0.35281
G01 X-3.39000 Y0.35262
G01 X-3.38812 Y0.35205
G01 X-3.38639 Y0.35112
G01 X-3.38514 Y0.35009
G01 X-3.34600 Y0.35009
G01 X-3.34475 Y0.35112
G01 X-3.34302 Y0.35205
G01 X-3.34114 Y0.35262
G01 X-3.33919 Y0.35281
G01 X-3.29195 Y0.35281
G01 X-3.29000 Y0.35262
G01 X-3.28812 Y0.35205
G01 X-3.28639 Y0.35112
G01 X-3.28514 Y0.35009
G01 X-3.24600 Y0.35009
G01 X-3.24475 Y0.35112
G01 X-3.24302 Y0.35205
G01 X-3.24114 Y0.35262
G01 X-3.23919 Y0.35281
G01 X-3.19195 Y0.35281
G01 X-3.19000 Y0.35262
G01 X-3.18812 Y0.35205
G01 X-3.18639 Y0.35112
G01 X-3.18514 Y0.35009
G01 X-3.14600 Y0.35009
G01 X-3.14475 Y0.35112
G01 X-3.14302 Y0.35205
G01 X-3.14114 Y0.35262
G01 X-3.13919 Y0.35281
G01 X-3.09195 Y0.35281
G01 X-3.09000 Y0.35262
G01 X-3.08812 Y0.35205
G01 X-3.08639 Y0.35112
G01 X-3.08514 Y0.35009
G01 X-3.04600 Y0.35009
G01 X-3.04475 Y0.35112
G01 X-3.04302 Y0.35205
G01 X-3.04114 Y0.35262
G01 X-3.03919 Y0.35281
G01 X-2.99195 Y0.35281
G01 X-2.99000 Y0.35262
G01 X-2.98812 Y0.35205
G01 X-2.98639 Y0.35112
G01 X-2.98514 Y0.35009
G01 X-2.94600 Y0.35009
G01 X-2.94475 Y0.35112
G01 X-2.94302 Y0.35205
G01 X-2.94114 Y0.35262
G01 X-2.93919 Y0.35281
G01 X-2.89195 Y0.35281
G01 X-2.89000 Y0.35262
G01 X-2.88812 Y0.35205
G01 X-2.88639 Y0.35112
G01 X-2.88514 Y0.35009
G01 X-2.84600 Y0.35009
G01 X-2.84475 Y0.35112
G01 X-2.84302 Y0.35205
G01 X-2.84114 Y0.35262
G01 X-2.83919 Y0.35281
G01 X-2.79195 Y0.35281
G01 X-2.79000 Y0.35262
G01 X-2.78812 Y0.35205
G01 X-2.78639 Y0.35112
G01 X-2.78514 Y0.35009
G01 X-2.70299 Y0.35009
G01 X-2.69805 Y0.35619
G01 X-2.69666 Y0.35757
G01 X-2.69136 Y0.36192
G01 X-2.68973 Y0.36301
G01 X-2.68368 Y0.36625
G01 X-2.68187 Y0.36700
G01 X-2.67530 Y0.36899
G01 X-2.67338 Y0.36937
G01 X-2.66557 Y0.37009
G01 X-1.86412 Y0.37009
G01 X-0.26057 Y1.97364
G01 X-0.26057 Y2.08709
G01 X-0.26316 Y2.09523
G01 X-0.26413 Y2.10395
G01 X-0.26413 Y2.10605
G01 X-0.26316 Y2.11477
G01 X-0.26012 Y2.12412
G01 X-0.25521 Y2.13263
G01 X-0.24937 Y2.13919
G01 X-0.24782 Y2.14059
G01 X-0.24069 Y2.14570
G01 X-0.23269 Y2.14932
G01 X-0.23070 Y2.14997
G01 X-0.22210 Y2.15174
G01 X-0.21332 Y2.15180
G01 X-0.21124 Y2.15158
G01 X-0.20367 Y2.14997
G01 X-0.20168 Y2.14932
G01 X-0.19369 Y2.14570
G01 X-0.18655 Y2.14059
G01 X-0.18500 Y2.13919
G01 X-0.17916 Y2.13263
G01 X-0.17472 Y2.12505
G01 X-0.17387 Y2.12314
G01 X-0.17121 Y2.11477
G01 X-0.17019 Y2.10500
G04 P0 ( dwell for no time -- G64 should not smooth over this point )
G00 Z1.00000 ( retract )

G00 X-0.01000 Y1.81557 ( rapid move to begin. )
G01 F100.00000
( Mill infeed pass 1/1 )
G01 Z-0.05000
G04 P0 ( dwell for no time -- G64 should not smooth over this point )
G01 F200.00000
G01 X-0.01000 Y1.81557
G01 X-0.01000 Y2.09443
G01 X-0.01046 Y2.10069
G01 X-0.01071 Y2.10224
G01 X-0.01247 Y2.10907
G01 X-0.01529 Y2.11554
G01 X-0.01816 Y2.12023
G01 X-0.01908 Y2.12150
G01 X-0.02318 Y2.12625
G01 X-0.13375 Y2.23682
G01 X-0.13978 Y2.24183
G01 X-0.14141 Y2.24292
G01 X-0.14746 Y2.24616
G01 X-0.14927 Y2.24691
G01 X-0.15584 Y2.24890
G01 X-0.15776 Y2.24928
G01 X-0.16459 Y2.24995
G01 X-0.31557 Y2.25000
G01 X-0.32338 Y2.24928
G01 X-0.32530 Y2.24890
G01 X-0.33279 Y2.24657
G01 X-0.33973 Y2.24292
G01 X-0.34136 Y2.24183
G01 X-0.34739 Y2.23682
G01 X-0.43052 Y2.15369
G01 X-0.51520 Y2.23830
G01 X-0.51747 Y2.24016
G01 X-0.51910 Y2.24125
G01 X-0.52258 Y2.24306
G01 X-0.52632 Y2.24424
G01 X-0.52824 Y2.24462
G01 X-0.53215 Y2.24496
G01 X-0.93514 Y2.24496
G01 X-0.93639 Y2.24599
G01 X-0.93812 Y2.24692
G01 X-0.94000 Y2.24749
G01 X-0.94195 Y2.24768
G01 X-0.98919 Y2.24768
G01 X-0.99114 Y2.24749
G01 X-0.99302 Y2.24692
G01 X-0.99475 Y2.24599
G01 X-0.99601 Y2.24496
G01 X-1.43514 Y2.24496
G01 X-1.43639 Y2.24599
G01 X-1.43812 Y2.24692
G01 X-1.44000 Y2.24749
G01 X-1.44195 Y2.24768
G01 X-1.48919 Y2.24768
G01 X-1.49114 Y2.24749
G01 X-1.49302 Y2.24692
G01 X-1.49475 Y2.24599
G01 X-1.49601 Y2.24496
G01 X-1.73514 Y2.24496
G01 X-1.73639 Y2.24599
G01 X-1.73812 Y2.24692
G01 X-1.74000 Y2.24749
G01 X-1.74195 Y2.24768
G01 X-1.78919 Y2.24768
G01 X-1.79114 Y2.24749
G01 X-1.79302 Y2.24692
G01 X-1.79475 Y2.24599
G01 X-1.79601 Y2.24496
G01 X-2.03514 Y2.24496
G01 X-2.03639 Y2.24599
G01 X-2.03812 Y2.24692
G01 X-2.04000 Y2.24749
G01 X-2.04195 Y2.24768
G01 X-2.08919 Y2.24768
G01 X-2.09114 Y2.24749
G01 X-2.09302 Y2.24692
G01 X-2.09475 Y2.24599
G01 X-2.09601 Y2.24496
G01 X-2.33514 Y2.24496
G01 X-2.33639 Y2.24599
G01 X-2.33812 Y2.24692
G01 X-2.34000 Y2.24749
G01 X-2.34195 Y2.24768
G01 X-2.38919 Y2.24768
G01 X-2.39114 Y2.24749
G01 X-2.39302 Y2.24692
G01 X-2.39475 Y2.24599
G01 X-2.39601 Y2.24496
G01 X-2.63514 Y2.24496
G01 X-2.63639 Y2.24599
G01 X-2.63812 Y2.24692
G01 X-2.64000 Y2.24749
G01 X-2.64195 Y2.24768
G01 X-2.68919 Y2.24768
G01 X-2.69114 Y2.24749
G01 X-2.69302 Y2.24692
G01 X-2.69475 Y2.24599
G01 X-2.69601 Y2.24496
G01 X-2.93514 Y2.24496
G01 X-2.93639 Y2.24599
G01 X-2.93812 Y2.24692
G01 X-2.94000 Y2.24749
G01 X-2.94195 Y2.24768
G01 X-2.98919 Y2.24768
G01 X-2.99114 Y2.24749
G01 X-2.99302 Y2.24692
G01 X-2.99475 Y2.24599
G01 X-2.99601 Y2.24496
G01 X-3.23514 Y2.24496
G01 X-3.23639 Y2.24599
G01 X-3.23812 Y2.24692
G01 X-3.24000 Y2.24749
G01 X-3.24195 Y2.24768
G01 X-3.28919 Y2.24768
G01 X-3.29114 Y2.24749
G01 X-3.29302 Y2.24692
G01 X-3.29475 Y2.24599
G01 X-3.29601 Y2.24496
G01 X-3.53514 Y2.24496
G01 X-3.53639 Y2.24599
G01 X-3.53812 Y2.24692
G01 X-3.54000 Y2.24749
G01 X-3.54195 Y2.24768
G01 X-3.58919 Y2.24768
G01 X-3.59114 Y2.24749
G01 X-3.59302 Y2.24692
G01 X-3.59475 Y2.24599
G01 X-3.59601 Y2.24496
G01 X-3.83514 Y2.24496
G01 X-3.83639 Y2.24599
G01 X-3.83812 Y2.24692
G01 X-3.84000 Y2.24749
G01 X-3.84195 Y2.24768
G01 X-3.88919 Y2.24768
G01 X-3.89114 Y2.24749
G01 X-3.89302 Y2.24692
G01 X-3.89475 Y2.24599
G01 X-3.89601 Y2.24496
G01 X-4.13514 Y2.24496
G01 X-4.13639 Y2.24599
G01 X-4.13812 Y2.24692
G01 X-4.14000 Y2.24749
G01 X-4.14195 Y2.24768
G01 X-4.18919 Y2.24768
G01 X-4.19114 Y2.24749
G01 X-4.19302 Y2.24692
G01 X-4.19475 Y2.24599
G01 X-4.19601 Y2.24496
G01 X-4.43514 Y2.24496
G01 X-4.43639 Y2.24599
G01 X-4.43812 Y2.24692
G01 X-4.44000 Y2.24749
G01 X-4.44195 Y2.24768
G01 X-4.48919 Y2.24768
G01 X-4.49114 Y2.24749
G01 X-4.49302 Y2.24692
G01 X-4.49475 Y2.24599
G01 X-4.49601 Y2.24496
G01 X-4.73514 Y2.24496
G01 X-4.73639 Y2.24599
G01 X-4.73812 Y2.24692
G01 X-4.74000 Y2.24749
G01 X-4.74195 Y2.24768
G01 X-4.78919 Y2.24768
G01 X-4.79114 Y2.24749
G01 X-4.79302 Y2.24692
G01 X-4.79475 Y2.24599
G01 X-4.79601 Y2.24496
G01 X-5.03514 Y2.24496
G01 X-5.03639 Y2.24599
G01 X-5.03812 Y2.24692
G01 X-5.04000 Y2.24749
G01 X-5.04195 Y2.24768
G01 X-5.08919 Y2.24768
G01 X-5.09114 Y2.24749
G01 X-5.09302 Y2.24692
G01 X-5.09475 Y2.24599
G01 X-5.09601 Y2.24496
G01 X-5.33514 Y2.24496
G01 X-5.33639 Y2.24599
G01 X-5.33812 Y2.24692
G01 X-5.34000 Y2.24749
G01 X-5.34195 Y2.24768
G01 X-5.38919 Y2.24768
G01 X-5.39114 Y2.24749
G01 X-5.39302 Y2.24692
G01 X-5.39475 Y2.24599
G01 X-5.39601 Y2.24496
G01 X-5.63514 Y2.24496
G01 X-5.63639 Y2.24599
G01 X-5.63812 Y2.24692
G01 X-5.64000 Y2.24749
G01 X-5.64195 Y2.24768
G01 X-5.68919 Y2.24768
G01 X-5.69114 Y2.24749
G01 X-5.69302 Y2.24692
G01 X-5.69475 Y2.24599
G01 X-5.69601 Y2.24496
G01 X-5.93514 Y2.24496
G01 X-5.93639 Y2.24599
G01 X-5.93812 Y2.24692
G01 X-5.94000 Y2.24749
G01 X-5.94195 Y2.24768
G01 X-5.98919 Y2.24768
G01 X-5.99114 Y2.24749
G01 X-5.99302 Y2.24692
G01 X-5.99475 Y2.24599
G01 X-5.99601 Y2.24496
G01 X-6.23514 Y2.24496
G01 X-6.23639 Y2.24599
G01 X-6.23812 Y2.24692
G01 X-6.24000 Y2.24749
G01 X-6.24195 Y2.24768
G01 X-6.28919 Y2.24768
G01 X-6.29114 Y2.24749
G01 X-6.29302 Y2.24692
G01 X-6.29475 Y2.24599
G01 X-6.29626 Y2.24475
G01 X-6.29751 Y2.24323
G01 X-6.29843 Y2.24150
G01 X-6.29900 Y2.23963
G01 X-6.29919 Y2.23768
G01 X-6.29919 Y2.20224
G01 X-6.29900 Y2.20029
G01 X-6.29843 Y2.19842
G01 X-6.29751 Y2.19669
G01 X-6.29626 Y2.19517
G01 X-6.29475 Y2.19393
G01 X-6.29302 Y2.19301
G01 X-6.29114 Y2.19244
G01 X-6.28919 Y2.19224
G01 X-6.24195 Y2.19224
G01 X-6.24000 Y2.19244
G01 X-6.23812 Y2.19301
G01 X-6.23639 Y2.19393
G01 X-6.23514 Y2.19496
G01 X-5.99601 Y2.19496
G01 X-5.99475 Y2.19393
G01 X-5.99302 Y2.19301
G01 X-5.99114 Y2.19244
G01 X-5.98919 Y2.19224
G01 X-5.94195 Y2.19224
G01 X-5.94000 Y2.19244
G01 X-5.93812 Y2.19301
G01 X-5.93639 Y2.19393
G01 X-5.93514 Y2.19496
G01 X-5.69601 Y2.19496
G01 X-5.69475 Y2.19393
G01 X-5.69302 Y2.19301
G01 X-5.69114 Y2.19244
G01 X-5.68919 Y2.19224
G01 X-5.64195 Y2.19224
G01 X-5.64000 Y2.19244
G01 X-5.63812 Y2.19301
G01 X-5.63639 Y2.19393
G01 X-5.63514 Y2.19496
G01 X-5.39601 Y2.19496
G01 X-5.39475 Y2.19393
G01 X-5.39302 Y2.19301
G01 X-5.39114 Y2.19244
G01 X-5.38919 Y2.19224
G01 X-5.34195 Y2.19224
G01 X-5.34000 Y2.19244
G01 X-5.33812 Y2.19301
G01 X-5.33639 Y2.19393
G01 X-5.33514 Y2.19496
G01 X-5.09601 Y2.19496
G01 X-5.09475 Y2.19393
G01 X-5.09302 Y2.19301
G01 X-5.09114 Y2.19244
G01 X-5.08919 Y2.19224
G01 X-5.04195 Y2.19224
G01 X-5.04000 Y2.19244
G01 X-5.03812 Y2.19301
G01 X-5.03639 Y2.19393
G01 X-5.03514 Y2.19496
G01 X-4.79601 Y2.19496
G01 X-4.79475 Y2.19393
G01 X-4.79302 Y2.19301
G01 X-4.79114 Y2.19244
G01 X-4.78919 Y2.19224
G01 X-4.74195 Y2.19224
G01 X-4.74000 Y2.19244
G01 X-4.73812 Y2.19301
G01 X-4.73639 Y2.19393
G01 X-4.73514 Y2.19496
G01 X-4.49601 Y2.19496
G01 X-4.49475 Y2.19393
G01 X-4.49302 Y2.19301
G01 X-4.49114 Y2.19244
G01 X-4.48919 Y2.19224
G01 X-4.44195 Y2.19224
G01 X-4.44000 Y2.19244
G01 X-4.43812 Y2.19301
G01 X-4.43639 Y2.19393
G01 X-4.43514 Y2.19496
G01 X-4.19601 Y2.19496
G01 X-4.19475 Y2.19393
G01 X-4.19302 Y2.19301
G01 X-4.19114 Y2.19244
G01 X-4.18919 Y2.19224
G01 X-4.14195 Y2.19224
G01 X-4.14000 Y2.19244
G01 X-4.13812 Y2.19301
G01 X-4.13639 Y2.19393
G01 X-4.13514 Y2.19496
G01 X-3.89601 Y2.19496
G01 X-3.89475 Y2.19393
G01 X-3.89302 Y2.19301
G01 X-3.89114 Y2.19244
G01 X-3.88919 Y2.19224
G01 X-3.84195 Y2.19224
G01 X-3.84000 Y2.19244
G01 X-3.83812 Y2.19301
G01 X-3.83639 Y2.19393
G01 X-3.83514 Y2.19496
G01 X-3.59601 Y2.19496
G01 X-3.59475 Y2.19393
G01 X-3.59302 Y2.19301
G01 X-3.59114 Y2.19244
G01 X-3.58919 Y2.19224
G01 X-3.54195 Y2.19224
G01 X-3.54000 Y2.19244
G01 X-3.53812 Y2.19301
G01 X-3.53639 Y2.19393
G01 X-3.53514 Y2.19496
G01 X-3.29601 Y2.19496
G01 X-3.29475 Y2.19393
G01 X-3.29302 Y2.19301
G01 X-3.29114 Y2.19244
G01 X-3.28919 Y2.19224
G01 X-3.24195 Y2.19224
G01 X-3.24000 Y2.19244
G01 X-3.23812 Y2.19301
G01 X-3.23639 Y2.19393
G01 X-3.23514 Y2.19496
G01 X-2.99601 Y2.19496
G01 X-2.99475 Y2.19393
G01 X-2.99302 Y2.19301
G01 X-2.99114 Y2.19244
G01 X-2.98919 Y2.19224
G01 X-2.94195 Y2.19224
G01 X-2.94000 Y2.19244
G01 X-2.93812 Y2.19301
G01 X-2.93639 Y2.19393
G01 X-2.93514 Y2.19496
G01 X-2.69601 Y2.19496
G01 X-2.69475 Y2.19393
G01 X-2.69302 Y2.19301
G01 X-2.69114 Y2.19244
G01 X-2.68919 Y2.19224
G01 X-2.64195 Y2.19224
G01 X-2.64000 Y2.19244
G01 X-2.63812 Y2.19301
G01 X-2.63639 Y2.19393
G01 X-2.63514 Y2.19496
G01 X-2.39601 Y2.19496
G01 X-2.39475 Y2.19393
G01 X-2.39302 Y2.19301
G01 X-2.39114 Y2.19244
G01 X-2.38919 Y2.19224
G01 X-2.34195 Y2.19224
G01 X-2.34000 Y2.19244
G01 X-2.33812 Y2.19301
G01 X-2.33639 Y2.19393
G01 X-2.33514 Y2.19496
G01 X-2.09601 Y2.19496
G01 X-2.09475 Y2.19393
G01 X-2.09302 Y2.19301
G01 X-2.09114 Y2.19244
G01 X-2.08919 Y2.19224
G01 X-2.04195 Y2.19224
G01 X-2.04000 Y2.19244
G01 X-2.03812 Y2.19301
G01 X-2.03639 Y2.19393
G01 X-2.03514 Y2.19496
G01 X-1.79601 Y2.19496
G01 X-1.79475 Y2.19393
G01 X-1.79302 Y2.19301
G01 X-1.79114 Y2.19244
G01 X-1.78919 Y2.19224
G01 X-1.74195 Y2.19224
G01 X-1.74000 Y2.19244
G01 X-1.73812 Y2.19301
G01 X-1.73639 Y2.19393
G01 X-1.73514 Y2.19496
G01 X-1.49601 Y2.19496
G01 X-1.49475 Y2.19393
G01 X-1.49302 Y2.19301
G01 X-1.49114 Y2.19244
G01 X-1.48919 Y2.19224
G01 X-1.44195 Y2.19224
G01 X-1.44000 Y2.19244
G01 X-1.43812 Y2.19301
G01 X-1.43639 Y2.19393
G01 X-1.43514 Y2.19496
G01 X-0.99601 Y2.19496
G01 X-0.99475 Y2.19393
G01 X-0.99302 Y2.19301
G01 X-0.99114 Y2.19244
G01 X-0.98919 Y2.19224
G01 X-0.94195 Y2.19224
G01 X-0.94000 Y2.19244
G01 X-0.93812 Y2.19301
G01 X-0.93639 Y2.19393
G01 X-0.93514 Y2.19496
G01 X-0.54250 Y2.19496
G01 X-0.46298 Y2.11544
G01 X-0.46332 Y2.11374
G01 X-0.46419 Y2.10500
G01 X-0.46332 Y2.09626
G01 X-0.46289 Y2.09422
G01 X-0.46050 Y2.08686
G01 X-0.45965 Y2.08495
G01 X-0.45521 Y2.07737
G01 X-0.44863 Y2.07007
G01 X-0.44069 Y2.06430
G01 X-0.43171 Y2.06030
G01 X-0.42210 Y2.05826
G01 X-0.41332 Y2.05820
G01 X-0.41124 Y2.05842
G01 X-0.40367 Y2.06003
G01 X-0.40168 Y2.06068
G01 X-0.39369 Y2.06430
G01 X-0.38655 Y2.06941
G01 X-0.38500 Y2.07081
G01 X-0.37982 Y2.07656
G01 X-0.37847 Y2.07846
G01 X-0.29693 Y2.16000
G01 X-0.18421 Y2.16000
G01 X-0.10000 Y2.07579
G01 X-0.10000 Y1.83421
G01 X-1.73421 Y0.20000
G01 X-2.31557 Y0.20000
G01 X-2.32338 Y0.19928
G01 X-2.32530 Y0.19890
G01 X-2.33286 Y0.19650
G01 X-2.34707 Y0.19650
G01 X-2.34902 Y0.19630
G01 X-2.35089 Y0.19573
G01 X-2.35262 Y0.19481
G01 X-2.35414 Y0.19357
G01 X-2.35538 Y0.19205
G01 X-2.35631 Y0.19032
G01 X-2.35687 Y0.18845
G01 X-2.35707 Y0.18650
G01 X-2.35707 Y0.17229
G01 X-2.35947 Y0.16473
G01 X-2.35985 Y0.16281
G01 X-2.36052 Y0.15598
G01 X-2.36052 Y0.15402
G01 X-2.35985 Y0.14719
G01 X-2.35947 Y0.14527
G01 X-2.35707 Y0.13771
G01 X-2.35707 Y0.12350
G01 X-2.35687 Y0.12155
G01 X-2.35631 Y0.11968
G01 X-2.35538 Y0.11795
G01 X-2.35414 Y0.11643
G01 X-2.35262 Y0.11519
G01 X-2.35089 Y0.11427
G01 X-2.34902 Y0.11370
G01 X-2.34707 Y0.11350
G01 X-2.33285 Y0.11350
G01 X-2.32530 Y0.11110
G01 X-2.32338 Y0.11072
G01 X-2.31655 Y0.11005
G01 X-1.71557 Y0.11000
G01 X-1.70776 Y0.11072
G01 X-1.70584 Y0.11110
G01 X-1.69927 Y0.11309
G01 X-1.69746 Y0.11385
G01 X-1.69057 Y0.11758
G01 X-1.68375 Y0.12318
G01 X-0.02318 Y1.78375
G01 X-0.01817 Y1.78978
G01 X-0.01708 Y1.79141
G01 X-0.01342 Y1.79835
G01 X-0.01110 Y1.80584
G01 X-0.01072 Y1.80776
G01 X-0.01000 Y1.81557
G04 P0 ( dwell for no time -- G64 should not smooth over this point )
G00 Z1.00000 ( retract )

G00 X-0.56966 Y2.10500 ( rapid move to begin. )
G01 F100.00000
( Mill infeed pass 1/1 )
G01 Z-0.05000
G04 P0 ( dwell for no time -- G64 should not smooth over this point )
G01 F200.00000
G01 X-0.56966 Y2.10500
G01 X-0.57068 Y2.11477
G01 X-0.57372 Y2.12412
G01 X-0.57863 Y2.13263
G01 X-0.58447 Y2.13919
G01 X-0.58602 Y2.14059
G01 X-0.59228 Y2.14513
G01 X-0.59409 Y2.14618
G01 X-0.60213 Y2.14970
G01 X-0.61071 Y2.15158
G01 X-0.61279 Y2.15180
G01 X-0.62163 Y2.15174
G01 X-0.62963 Y2.15000
G01 X-0.80227 Y2.15000
G01 X-0.81027 Y2.15174
G01 X-0.82015 Y2.15174
G01 X-0.82975 Y2.14970
G01 X-0.83718 Y2.14648
G01 X-0.84390 Y2.14292
G01 X-0.84553 Y2.14183
G01 X-0.85084 Y2.13748
G01 X-0.85222 Y2.13609
G01 X-0.85658 Y2.13079
G01 X-0.85766 Y2.12916
G01 X-0.86132 Y2.12222
G01 X-0.86355 Y2.11504
G01 X-0.93514 Y2.11504
G01 X-0.93639 Y2.11607
G01 X-0.93812 Y2.11699
G01 X-0.94000 Y2.11756
G01 X-0.94195 Y2.11776
G01 X-0.98919 Y2.11776
G01 X-0.99114 Y2.11756
G01 X-0.99302 Y2.11699
G01 X-0.99475 Y2.11607
G01 X-0.99626 Y2.11483
G01 X-0.99751 Y2.11331
G01 X-0.99843 Y2.11158
G01 X-0.99900 Y2.10971
G01 X-0.99919 Y2.10776
G01 X-0.99919 Y2.07232
G01 X-0.99900 Y2.07037
G01 X-0.99843 Y2.06850
G01 X-0.99751 Y2.06677
G01 X-0.99626 Y2.06525
G01 X-0.99475 Y2.06401
G01 X-0.99302 Y2.06308
G01 X-0.99114 Y2.06251
G01 X-0.98919 Y2.06232
G01 X-0.94195 Y2.06232
G01 X-0.94000 Y2.06251
G01 X-0.93812 Y2.06308
G01 X-0.93639 Y2.06401
G01 X-0.93514 Y2.06504
G01 X-0.86057 Y2.06504
G01 X-0.86057 Y1.67364
G01 X-2.01612 Y0.51809
G01 X-2.65956 Y0.51809
G01 X-2.77057 Y0.62910
G01 X-2.77057 Y0.75500
G01 X-2.77129 Y0.76281
G01 X-2.77167 Y0.76473
G01 X-2.77367 Y0.77130
G01 X-2.77442 Y0.77311
G01 X-2.77815 Y0.78000
G01 X-2.78309 Y0.78609
G01 X-2.78448 Y0.78748
G01 X-2.78978 Y0.79183
G01 X-2.79141 Y0.79292
G01 X-2.79746 Y0.79615
G01 X-2.79927 Y0.79691
G01 X-2.80679 Y0.79914
G01 X-2.81557 Y0.80000
G01 X-2.82338 Y0.79928
G01 X-2.82530 Y0.79890
G01 X-2.83187 Y0.79691
G01 X-2.83368 Y0.79615
G01 X-2.83973 Y0.79292
G01 X-2.84136 Y0.79183
G01 X-2.84666 Y0.78748
G01 X-2.84805 Y0.78609
G01 X-2.85299 Y0.78000
G01 X-2.85673 Y0.77311
G01 X-2.85748 Y0.77130
G01 X-2.85971 Y0.76378
G01 X-2.86052 Y0.75598
G01 X-2.86057 Y0.61046
G01 X-2.86011 Y0.60420
G01 X-2.85858 Y0.59731
G01 X-2.85810 Y0.59582
G01 X-2.85528 Y0.58934
G01 X-2.85149 Y0.58339
G01 X-2.84739 Y0.57864
G01 X-2.83978 Y0.57103
G01 X-2.83978 Y0.48267
G01 X-2.84114 Y0.48254
G01 X-2.84302 Y0.48197
G01 X-2.84475 Y0.48105
G01 X-2.84626 Y0.47980
G01 X-2.84751 Y0.47829
G01 X-2.84843 Y0.47656
G01 X-2.84900 Y0.47468
G01 X-2.84919 Y0.47273
G01 X-2.84919 Y0.43730
G01 X-2.84900 Y0.43535
G01 X-2.84843 Y0.43347
G01 X-2.84751 Y0.43174
G01 X-2.84626 Y0.43023
G01 X-2.84475 Y0.42898
G01 X-2.84302 Y0.42806
G01 X-2.84114 Y0.42749
G01 X-2.83919 Y0.42730
G01 X-2.79195 Y0.42730
G01 X-2.79000 Y0.42749
G01 X-2.78812 Y0.42806
G01 X-2.78639 Y0.42898
G01 X-2.78488 Y0.43023
G01 X-2.78363 Y0.43174
G01 X-2.78271 Y0.43347
G01 X-2.78214 Y0.43535
G01 X-2.78195 Y0.43730
G01 X-2.78195 Y0.47273
G01 X-2.78214 Y0.47468
G01 X-2.78271 Y0.47656
G01 X-2.78363 Y0.47829
G01 X-2.78488 Y0.47980
G01 X-2.78639 Y0.48105
G01 X-2.78812 Y0.48197
G01 X-2.78978 Y0.48247
G01 X-2.78978 Y0.52103
G01 X-2.70929 Y0.44061
G01 X-2.70399 Y0.43626
G01 X-2.70236 Y0.43517
G01 X-2.69631 Y0.43193
G01 X-2.69450 Y0.43118
G01 X-2.68793 Y0.42919
G01 X-2.68601 Y0.42881
G01 X-2.67820 Y0.42809
G01 X-1.99748 Y0.42809
G01 X-1.98967 Y0.42881
G01 X-1.98775 Y0.42919
G01 X-1.98118 Y0.43118
G01 X-1.97937 Y0.43194
G01 X-1.97248 Y0.43567
G01 X-1.96566 Y0.44127
G01 X-0.78309 Y1.62391
G01 X-0.77874 Y1.62921
G01 X-0.77765 Y1.63084
G01 X-0.77400 Y1.63778
G01 X-0.77167 Y1.64527
G01 X-0.77129 Y1.64719
G01 X-0.77057 Y1.65500
G01 X-0.77057 Y2.06000
G01 X-0.62962 Y2.06000
G01 X-0.62163 Y2.05826
G01 X-0.61279 Y2.05820
G01 X-0.61071 Y2.05842
G01 X-0.60314 Y2.06003
G01 X-0.60115 Y2.06068
G01 X-0.59409 Y2.06382
G01 X-0.59228 Y2.06487
G01 X-0.58521 Y2.07007
G01 X-0.57863 Y2.07737
G01 X-0.57372 Y2.08588
G01 X-0.57095 Y2.09422
G01 X-0.57052 Y2.09626
G01 X-0.56966 Y2.10500
G04 P0 ( dwell for no time -- G64 should not smooth over this point )
G00 Z1.00000 ( retract )

G00 X-0.56966 Y2.40504 ( rapid move to begin. )
G01 F100.00000
( Mill infeed pass 1/1 )
G01 Z-0.05000
G04 P0 ( dwell for no time -- G64 should not smooth over this point )
G01 F200.00000
G01 X-0.56966 Y2.40504
G01 X-0.57068 Y2.39523
G01 X-0.57334 Y2.38686
G01 X-0.57419 Y2.38495
G01 X-0.57806 Y2.37825
G01 X-0.57929 Y2.37656
G01 X-0.58521 Y2.37007
G01 X-0.59316 Y2.36430
G01 X-0.60213 Y2.36030
G01 X-0.61174 Y2.35826
G01 X-0.62157 Y2.35826
G01 X-0.63118 Y2.36030
G01 X-0.64016 Y2.36430
G01 X-0.64729 Y2.36941
G01 X-0.64884 Y2.37081
G01 X-0.65468 Y2.37737
G01 X-0.65912 Y2.38495
G01 X-0.65997 Y2.38686
G01 X-0.66236 Y2.39422
G01 X-0.66279 Y2.39626
G01 X-0.66360 Y2.40395
G01 X-0.66360 Y2.40605
G01 X-0.66263 Y2.41477
G01 X-0.66057 Y2.42128
G01 X-0.66057 Y3.40103
G01 X-0.71468 Y3.70500
G01 X-0.71787 Y3.70500
G01 X-0.71982 Y3.70519
G01 X-0.72170 Y3.70576
G01 X-0.72343 Y3.70669
G01 X-0.72494 Y3.70793
G01 X-0.72619 Y3.70944
G01 X-0.72711 Y3.71117
G01 X-0.72768 Y3.71305
G01 X-0.72787 Y3.71500
G01 X-0.72787 Y3.79500
G01 X-0.72768 Y3.79695
G01 X-0.72711 Y3.79883
G01 X-0.72619 Y3.80056
G01 X-0.72494 Y3.80207
G01 X-0.72343 Y3.80331
G01 X-0.72170 Y3.80424
G01 X-0.71982 Y3.80481
G01 X-0.71787 Y3.80500
G01 X-0.63787 Y3.80500
G01 X-0.63592 Y3.80481
G01 X-0.63404 Y3.80424
G01 X-0.63232 Y3.80331
G01 X-0.63080 Y3.80207
G01 X-0.62956 Y3.80056
G01 X-0.62863 Y3.79883
G01 X-0.62806 Y3.79695
G01 X-0.62787 Y3.79500
G01 X-0.62787 Y3.73088
G01 X-0.57115 Y3.41201
G01 X-0.57057 Y3.40500
G01 X-0.57057 Y2.41359
G01 X-0.56966 Y2.40504
G04 P0 ( dwell for no time -- G64 should not smooth over this point )
G00 Z1.00000 ( retract )

G00 X-0.76824 Y2.40500 ( rapid move to begin. )
G01 F100.00000
( Mill infeed pass 1/1 )
G01 Z-0.05000
G04 P0 ( dwell for no time -- G64 should not smooth over this point )
G01 F200.00000
G01 X-0.76824 Y2.40500
G01 X-0.76927 Y2.39523
G01 X-0.77230 Y2.38588
G01 X-0.77722 Y2.37737
G01 X-0.78305 Y2.37081
G01 X-0.78460 Y2.36941
G01 X-0.79086 Y2.36487
G01 X-0.79267 Y2.36382
G01 X-0.80072 Y2.36030
G01 X-0.80929 Y2.35842
G01 X-0.81137 Y2.35820
G01 X-0.82015 Y2.35826
G01 X-0.82976 Y2.36030
G01 X-0.83874 Y2.36430
G01 X-0.84669 Y2.37007
G01 X-0.85326 Y2.37737
G01 X-0.85818 Y2.38588
G01 X-0.86121 Y2.39523
G01 X-0.86218 Y2.40395
G01 X-0.86214 Y3.20598
G01 X-0.86146 Y3.21281
G01 X-0.86108 Y3.21473
G01 X-0.85876 Y3.22222
G01 X-0.85460 Y3.23000
G01 X-0.84966 Y3.23609
G01 X-0.84828 Y3.23748
G01 X-0.84219 Y3.24242
G01 X-0.83441 Y3.24657
G01 X-0.82692 Y3.24890
G01 X-0.82499 Y3.24928
G01 X-0.81817 Y3.24995
G01 X-0.81620 Y3.24995
G01 X-0.80938 Y3.24928
G01 X-0.80745 Y3.24890
G01 X-0.79996 Y3.24657
G01 X-0.79218 Y3.24242
G01 X-0.78609 Y3.23748
G01 X-0.78471 Y3.23609
G01 X-0.77977 Y3.23000
G01 X-0.77561 Y3.22222
G01 X-0.77329 Y3.21473
G01 X-0.77291 Y3.21281
G01 X-0.77223 Y3.20598
G01 X-0.77219 Y2.42381
G01 X-0.76927 Y2.41477
G01 X-0.76824 Y2.40500
G04 P0 ( dwell for no time -- G64 should not smooth over this point )
G00 Z1.00000 ( retract )

G00 X-1.56857 Y2.90500 ( rapid move to begin. )
G01 F100.00000
( Mill infeed pass 1/1 )
G01 Z-0.05000
G04 P0 ( dwell for no time -- G64 should not smooth over this point )
G01 F200.00000
G01 X-1.56857 Y2.90500
G01 X-1.56943 Y2.91374
G01 X-1.56987 Y2.91578
G01 X-1.57057 Y2.91794
G01 X-1.57057 Y3.20500
G01 X-1.57129 Y3.21281
G01 X-1.57167 Y3.21473
G01 X-1.57367 Y3.22130
G01 X-1.57442 Y3.22311
G01 X-1.57815 Y3.23000
G01 X-1.58309 Y3.23609
G01 X-1.58448 Y3.23748
G01 X-1.59057 Y3.24242
G01 X-1.59835 Y3.24657
G01 X-1.60584 Y3.24890
G01 X-1.60776 Y3.24928
G01 X-1.61557 Y3.25000
G01 X-1.62338 Y3.24928
G01 X-1.62530 Y3.24890
G01 X-1.63187 Y3.24691
G01 X-1.63368 Y3.24615
G01 X-1.64057 Y3.24242
G01 X-1.64666 Y3.23748
G01 X-1.64805 Y3.23609
G01 X-1.65240 Y3.23079
G01 X-1.65349 Y3.22916
G01 X-1.65673 Y3.22311
G01 X-1.65748 Y3.22130
G01 X-1.65947 Y3.21473
G01 X-1.65985 Y3.21281
G01 X-1.66057 Y3.20500
G01 X-1.66057 Y2.91794
G01 X-1.66127 Y2.91578
G01 X-1.66171 Y2.91374
G01 X-1.66257 Y2.90500
G01 X-1.66154 Y2.89523
G01 X-1.65851 Y2.88588
G01 X-1.65359 Y2.87737
G01 X-1.64702 Y2.87007
G01 X-1.63995 Y2.86487
G01 X-1.63814 Y2.86382
G01 X-1.63107 Y2.86068
G01 X-1.62908 Y2.86003
G01 X-1.62048 Y2.85826
G01 X-1.61066 Y2.85826
G01 X-1.60105 Y2.86030
G01 X-1.59207 Y2.86430
G01 X-1.58412 Y2.87007
G01 X-1.57820 Y2.87656
G01 X-1.57698 Y2.87825
G01 X-1.57311 Y2.88495
G01 X-1.57226 Y2.88686
G01 X-1.56960 Y2.89523
G01 X-1.56857 Y2.90500
G04 P0 ( dwell for no time -- G64 should not smooth over this point )
G00 Z1.00000 ( retract )

G00 X-1.86857 Y2.90500 ( rapid move to begin. )
G01 F100.00000
( Mill infeed pass 1/1 )
G01 Z-0.05000
G04 P0 ( dwell for no time -- G64 should not smooth over this point )
G01 F200.00000
G01 X-1.86857 Y2.90500
G01 X-1.86943 Y2.91374
G01 X-1.86987 Y2.91578
G01 X-1.87057 Y2.91794
G01 X-1.87057 Y3.20500
G01 X-1.87129 Y3.21281
G01 X-1.87167 Y3.21473
G01 X-1.87367 Y3.22130
G01 X-1.87442 Y3.22311
G01 X-1.87815 Y3.23000
G01 X-1.88309 Y3.23609
G01 X-1.88448 Y3.23748
G01 X-1.89057 Y3.24242
G01 X-1.89835 Y3.24657
G01 X-1.90584 Y3.24890
G01 X-1.90776 Y3.24928
G01 X-1.91557 Y3.25000
G01 X-1.92338 Y3.24928
G01 X-1.92530 Y3.24890
G01 X-1.93187 Y3.24691
G01 X-1.93368 Y3.24615
G01 X-1.94057 Y3.24242
G01 X-1.94666 Y3.23748
G01 X-1.94805 Y3.23609
G01 X-1.95240 Y3.23079
G01 X-1.95349 Y3.22916
G01 X-1.95673 Y3.22311
G01 X-1.95748 Y3.22130
G01 X-1.95947 Y3.21473
G01 X-1.95985 Y3.21281
G01 X-1.96057 Y3.20500
G01 X-1.96057 Y2.91794
G01 X-1.96127 Y2.91578
G01 X-1.96171 Y2.91374
G01 X-1.96257 Y2.90500
G01 X-1.96154 Y2.89523
G01 X-1.95851 Y2.88588
G01 X-1.95359 Y2.87737
G01 X-1.94702 Y2.87007
G01 X-1.93995 Y2.86487
G01 X-1.93814 Y2.86382
G01 X-1.93107 Y2.86068
G01 X-1.92908 Y2.86003
G01 X-1.92048 Y2.85826
G01 X-1.91066 Y2.85826
G01 X-1.90105 Y2.86030
G01 X-1.89207 Y2.86430
G01 X-1.88412 Y2.87007
G01 X-1.87821 Y2.87656
G01 X-1.87698 Y2.87825
G01 X-1.87311 Y2.88495
G01 X-1.87226 Y2.88686
G01 X-1.86960 Y2.89523
G01 X-1.86857 Y2.90500
G04 P0 ( dwell for no time -- G64 should not smooth over this point )
G00 Z1.00000 ( retract )

G00 X-2.16857 Y2.90500 ( rapid move to begin. )
G01 F100.00000
( Mill infeed pass 1/1 )
G01 Z-0.05000
G04 P0 ( dwell for no time -- G64 should not smooth over this point )
G01 F200.00000
G01 X-2.16857 Y2.90500
G01 X-2.16943 Y2.91374
G01 X-2.16987 Y2.91578
G01 X-2.17057 Y2.91794
G01 X-2.17057 Y3.20500
G01 X-2.17129 Y3.21281
G01 X-2.17167 Y3.21473
G01 X-2.17367 Y3.22130
G01 X-2.17442 Y3.22311
G01 X-2.17815 Y3.23000
G01 X-2.18309 Y3.23609
G01 X-2.18448 Y3.23748
G01 X-2.19057 Y3.24242
G01 X-2.19835 Y3.24657
G01 X-2.20584 Y3.24890
G01 X-2.20776 Y3.24928
G01 X-2.21557 Y3.25000
G01 X-2.22338 Y3.24928
G01 X-2.22530 Y3.24890
G01 X-2.23187 Y3.24691
G01 X-2.23368 Y3.24615
G01 X-2.24057 Y3.24242
G01 X-2.24666 Y3.23748
G01 X-2.24805 Y3.23609
G01 X-2.25240 Y3.23079
G01 X-2.25349 Y3.22916
G01 X-2.25673 Y3.22311
G01 X-2.25748 Y3.22130
G01 X-2.25947 Y3.21473
G01 X-2.25985 Y3.21281
G01 X-2.26057 Y3.20500
G01 X-2.26057 Y2.91794
G01 X-2.26127 Y2.91578
G01 X-2.26171 Y2.91374
G01 X-2.26257 Y2.90500
G01 X-2.26154 Y2.89523
G01 X-2.25851 Y2.88588
G01 X-2.25359 Y2.87737
G01 X-2.24702 Y2.87007
G01 X-2.23995 Y2.86487
G01 X-2.23814 Y2.86382
G01 X-2.23107 Y2.86068
G01 X-2.22908 Y2.86003
G01 X-2.22048 Y2.85826
G01 X-2.21066 Y2.85826
G01 X-2.20105 Y2.86030
G01 X-2.19207 Y2.86430
G01 X-2.18412 Y2.87007
G01 X-2.17821 Y2.87656
G01 X-2.17698 Y2.87825
G01 X-2.17311 Y2.88495
G01 X-2.17226 Y2.88686
G01 X-2.16960 Y2.89523
G01 X-2.16857 Y2.90500
G04 P0 ( dwell for no time -- G64 should not smooth over this point )
G00 Z1.00000 ( retract )

G00 X-2.46857 Y2.90500 ( rapid move to begin. )
G01 F100.00000
( Mill infeed pass 1/1 )
G01 Z-0.05000
G04 P0 ( dwell for no time -- G64 should not smooth over this point )
G01 F200.00000
G01 X-2.46857 Y2.90500
G01 X-2.46943 Y2.91374
G01 X-2.46987 Y2.91578
G01 X-2.47057 Y2.91794
G01 X-2.47057 Y3.20500
G01 X-2.47129 Y3.21281
G01 X-2.47167 Y3.21473
G01 X-2.47367 Y3.22130
G01 X-2.47442 Y3.22311
G01 X-2.47815 Y3.23000
G01 X-2.48309 Y3.23609
G01 X-2.48448 Y3.23748
G01 X-2.49057 Y3.24242
G01 X-2.49835 Y3.24657
G01 X-2.50584 Y3.24890
G01 X-2.50776 Y3.24928
G01 X-2.51557 Y3.25000
G01 X-2.52338 Y3.24928
G01 X-2.52530 Y3.24890
G01 X-2.53187 Y3.24691
G01 X-2.53368 Y3.24615
G01 X-2.54057 Y3.24242
G01 X-2.54666 Y3.23748
G01 X-2.54805 Y3.23609
G01 X-2.55240 Y3.23079
G01 X-2.55349 Y3.22916
G01 X-2.55673 Y3.22311
G01 X-2.55748 Y3.22130
G01 X-2.55947 Y3.21473
G01 X-2.55985 Y3.21281
G01 X-2.56057 Y3.20500
G01 X-2.56057 Y2.91794
G01 X-2.56127 Y2.91578
G01 X-2.56171 Y2.91374
G01 X-2.56257 Y2.90500
G01 X-2.56154 Y2.89523
G01 X-2.55851 Y2.88588
G01 X-2.55359 Y2.87737
G01 X-2.54702 Y2.87007
G01 X-2.53995 Y2.86487
G01 X-2.53814 Y2.86382
G01 X-2.53107 Y2.86068
G01 X-2.52908 Y2.86003
G01 X-2.52048 Y2.85826
G01 X-2.51066 Y2.85826
G01 X-2.50105 Y2.86030
G01 X-2.49207 Y2.86430
G01 X-2.48412 Y2.87007
G01 X-2.47821 Y2.87656
G01 X-2.47698 Y2.87825
G01 X-2.47311 Y2.88495
G01 X-2.47226 Y2.88686
G01 X-2.46960 Y2.89523
G01 X-2.46857 Y2.90500
G04 P0 ( dwell for no time -- G64 should not smooth over this point )
G00 Z1.00000 ( retract )

G00 X-2.76857 Y2.90500 ( rapid move to begin. )
G01 F100.00000
( Mill infeed pass 1/1 )
G01 Z-0.05000
G04 P0 ( dwell for no time -- G64 should not smooth over this point )
G01 F200.00000
G01 X-2.76857 Y2.90500
G01 X-2.76943 Y2.91374
G01 X-2.76987 Y2.91578
G01 X-2.77057 Y2.91794
G01 X-2.77057 Y3.20500
G01 X-2.77129 Y3.21281
G01 X-2.77167 Y3.21473
G01 X-2.77367 Y3.22130
G01 X-2.77442 Y3.22311
G01 X-2.77815 Y3.23000
G01 X-2.78309 Y3.23609
G01 X-2.78448 Y3.23748
G01 X-2.79057 Y3.24242
G01 X-2.79835 Y3.24657
G01 X-2.80584 Y3.24890
G01 X-2.80776 Y3.24928
G01 X-2.81557 Y3.25000
G01 X-2.82338 Y3.24928
G01 X-2.82530 Y3.24890
G01 X-2.83187 Y3.24691
G01 X-2.83368 Y3.24615
G01 X-2.84057 Y3.24242
G01 X-2.84666 Y3.23748
G01 X-2.84805 Y3.23609
G01 X-2.85240 Y3.23079
G01 X-2.85349 Y3.22916
G01 X-2.85673 Y3.22311
G01 X-2.85748 Y3.22130
G01 X-2.85947 Y3.21473
G01 X-2.85985 Y3.21281
G01 X-2.86057 Y3.20500
G01 X-2.86057 Y2.91794
G01 X-2.86127 Y2.91578
G01 X-2.86171 Y2.91374
G01 X-2.86257 Y2.90500
G01 X-2.86154 Y2.89523
G01 X-2.85851 Y2.88588
G01 X-2.85359 Y2.87737
G01 X-2.84702 Y2.87007
G01 X-2.83995 Y2.86487
G01 X-2.83814 Y2.86382
G01 X-2.83107 Y2.86068
G01 X-2.82908 Y2.86003
G01 X-2.82048 Y2.85826
G01 X-2.81066 Y2.85826
G01 X-2.80105 Y2.86030
G01 X-2.79207 Y2.86430
G01 X-2.78412 Y2.87007
G01 X-2.77821 Y2.87656
G01 X-2.77698 Y2.87825
G01 X-2.77311 Y2.88495
G01 X-2.77226 Y2.88686
G01 X-2.76960 Y2.89523
G01 X-2.76857 Y2.90500
G04 P0 ( dwell for no time -- G64 should not smooth over this point )
G00 Z1.00000 ( retract )

G00 X-3.06857 Y2.90500 ( rapid move to begin. )
G01 F100.00000
( Mill infeed pass 1/1 )
G01 Z-0.05000
G04 P0 ( dwell for no time -- G64 should not smooth over this point )
G01 F200.00000
G01 X-3.06857 Y2.90500
G01 X-3.06943 Y2.91374
G01 X-3.06987 Y2.91578
G01 X-3.07057 Y2.91794
G01 X-3.07057 Y3.20500
G01 X-3.07129 Y3.21281
G01 X-3.07167 Y3.21473
G01 X-3.07367 Y3.22130
G01 X-3.07442 Y3.22311
G01 X-3.07815 Y3.23000
G01 X-3.08309 Y3.23609
G01 X-3.08448 Y3.23748
G01 X-3.09057 Y3.24242
G01 X-3.09835 Y3.24657
G01 X-3.10584 Y3.24890
G01 X-3.10776 Y3.24928
G01 X-3.11557 Y3.25000
G01 X-3.12338 Y3.24928
G01 X-3.12530 Y3.24890
G01 X-3.13187 Y3.24691
G01 X-3.13368 Y3.24615
G01 X-3.14057 Y3.24242
G01 X-3.14666 Y3.23748
G01 X-3.14805 Y3.23609
G01 X-3.15240 Y3.23079
G01 X-3.15349 Y3.22916
G01 X-3.15673 Y3.22311
G01 X-3.15748 Y3.22130
G01 X-3.15947 Y3.21473
G01 X-3.15985 Y3.21281
G01 X-3.16057 Y3.20500
G01 X-3.16057 Y2.91794
G01 X-3.16127 Y2.91578
G01 X-3.16171 Y2.91374
G01 X-3.16257 Y2.90500
G01 X-3.16154 Y2.89523
G01 X-3.15851 Y2.88588
G01 X-3.15359 Y2.87737
G01 X-3.14702 Y2.87007
G01 X-3.13995 Y2.86487
G01 X-3.13814 Y2.86382
G01 X-3.13107 Y2.86068
G01 X-3.12908 Y2.86003
G01 X-3.12048 Y2.85826
G01 X-3.11066 Y2.85826
G01 X-3.10105 Y2.86030
G01 X-3.09207 Y2.86430
G01 X-3.08412 Y2.87007
G01 X-3.07821 Y2.87656
G01 X-3.07698 Y2.87825
G01 X-3.07311 Y2.88495
G01 X-3.07226 Y2.88686
G01 X-3.06960 Y2.89523
G01 X-3.06857 Y2.90500
G04 P0 ( dwell for no time -- G64 should not smooth over this point )
G00 Z1.00000 ( retract )

G00 X-3.36857 Y2.90500 ( rapid move to begin. )
G01 F100.00000
( Mill infeed pass 1/1 )
G01 Z-0.05000
G04 P0 ( dwell for no time -- G64 should not smooth over this point )
G01 F200.00000
G01 X-3.36857 Y2.90500
G01 X-3.36943 Y2.91374
G01 X-3.36987 Y2.91578
G01 X-3.37057 Y2.91794
G01 X-3.37057 Y3.20500
G01 X-3.37129 Y3.21281
G01 X-3.37167 Y3.21473
G01 X-3.37367 Y3.22130
G01 X-3.37442 Y3.22311
G01 X-3.37815 Y3.23000
G01 X-3.38309 Y3.23609
G01 X-3.38448 Y3.23748
G01 X-3.39057 Y3.24242
G01 X-3.39835 Y3.24657
G01 X-3.40584 Y3.24890
G01 X-3.40776 Y3.24928
G01 X-3.41557 Y3.25000
G01 X-3.42338 Y3.24928
G01 X-3.42530 Y3.24890
G01 X-3.43187 Y3.24691
G01 X-3.43368 Y3.24615
G01 X-3.44057 Y3.24242
G01 X-3.44666 Y3.23748
G01 X-3.44805 Y3.23609
G01 X-3.45240 Y3.23079
G01 X-3.45349 Y3.22916
G01 X-3.45673 Y3.22311
G01 X-3.45748 Y3.22130
G01 X-3.45947 Y3.21473
G01 X-3.45985 Y3.21281
G01 X-3.46057 Y3.20500
G01 X-3.46057 Y2.91794
G01 X-3.46127 Y2.91578
G01 X-3.46171 Y2.91374
G01 X-3.46257 Y2.90500
G01 X-3.46154 Y2.89523
G01 X-3.45851 Y2.88588
G01 X-3.45359 Y2.87737
G01 X-3.44702 Y2.87007
G01 X-3.43995 Y2.86487
G01 X-3.43814 Y2.86382
G01 X-3.43107 Y2.86068
G01 X-3.42908 Y2.86003
G01 X-3.42048 Y2.85826
G01 X-3.41066 Y2.85826
G01 X-3.40105 Y2.86030
G01 X-3.39207 Y2.86430
G01 X-3.38412 Y2.87007
G01 X-3.37821 Y2.87656
G01 X-3.37698 Y2.87825
G01 X-3.37311 Y2.88495
G01 X-3.37226 Y2.88686
G01 X-3.36960 Y2.89523
G01 X-3.36857 Y2.90500
G04 P0 ( dwell for no time -- G64 should not smooth over this point )
G00 Z1.00000 ( retract )

G00 X-3.66857 Y2.90500 ( rapid move to begin. )
G01 F100.00000
( Mill infeed pass 1/1 )
G01 Z-0.05000
G04 P0 ( dwell for no time -- G64 should not smooth over this point )
G01 F200.00000
G01 X-3.66857 Y2.90500
G01 X-3.66943 Y2.91374
G01 X-3.66987 Y2.91578
G01 X-3.67057 Y2.91794
G01 X-3.67057 Y3.20500
G01 X-3.67129 Y3.21281
G01 X-3.67167 Y3.21473
G01 X-3.67367 Y3.22130
G01 X-3.67442 Y3.22311
G01 X-3.67815 Y3.23000
G01 X-3.68309 Y3.23609
G01 X-3.68448 Y3.23748
G01 X-3.69057 Y3.24242
G01 X-3.69835 Y3.24657
G01 X-3.70584 Y3.24890
G01 X-3.70776 Y3.24928
G01 X-3.71557 Y3.25000
G01 X-3.72338 Y3.24928
G01 X-3.72530 Y3.24890
G01 X-3.73187 Y3.24691
G01 X-3.73368 Y3.24615
G01 X-3.74057 Y3.24242
G01 X-3.74666 Y3.23748
G01 X-3.74805 Y3.23609
G01 X-3.75240 Y3.23079
G01 X-3.75349 Y3.22916
G01 X-3.75673 Y3.22311
G01 X-3.75748 Y3.22130
G01 X-3.75947 Y3.21473
G01 X-3.75985 Y3.21281
G01 X-3.76057 Y3.20500
G01 X-3.76057 Y2.91794
G01 X-3.76127 Y2.91578
G01 X-3.76171 Y2.91374
G01 X-3.76257 Y2.90500
G01 X-3.76154 Y2.89523
G01 X-3.75851 Y2.88588
G01 X-3.75359 Y2.87737
G01 X-3.74702 Y2.87007
G01 X-3.73995 Y2.86487
G01 X-3.73814 Y2.86382
G01 X-3.73107 Y2.86068
G01 X-3.72908 Y2.86003
G01 X-3.72048 Y2.85826
G01 X-3.71066 Y2.85826
G01 X-3.70105 Y2.86030
G01 X-3.69207 Y2.86430
G01 X-3.68412 Y2.87007
G01 X-3.67821 Y2.87656
G01 X-3.67698 Y2.87825
G01 X-3.67311 Y2.88495
G01 X-3.67226 Y2.88686
G01 X-3.66960 Y2.89523
G01 X-3.66857 Y2.90500
G04 P0 ( dwell for no time -- G64 should not smooth over this point )
G00 Z1.00000 ( retract )

G00 X-3.96857 Y2.90500 ( rapid move to begin. )
G01 F100.00000
( Mill infeed pass 1/1 )
G01 Z-0.05000
G04 P0 ( dwell for no time -- G64 should not smooth over this point )
G01 F200.00000
G01 X-3.96857 Y2.90500
G01 X-3.96943 Y2.91374
G01 X-3.96987 Y2.91578
G01 X-3.97057 Y2.91794
G01 X-3.97057 Y3.20500
G01 X-3.97129 Y3.21281
G01 X-3.97167 Y3.21473
G01 X-3.97367 Y3.22130
G01 X-3.97442 Y3.22311
G01 X-3.97815 Y3.23000
G01 X-3.98309 Y3.23609
G01 X-3.98448 Y3.23748
G01 X-3.99057 Y3.24242
G01 X-3.99835 Y3.24657
G01 X-4.00584 Y3.24890
G01 X-4.00776 Y3.24928
G01 X-4.01557 Y3.25000
G01 X-4.02338 Y3.24928
G01 X-4.02530 Y3.24890
G01 X-4.03187 Y3.24691
G01 X-4.03368 Y3.24615
G01 X-4.04057 Y3.24242
G01 X-4.04666 Y3.23748
G01 X-4.04805 Y3.23609
G01 X-4.05240 Y3.23079
G01 X-4.05349 Y3.22916
G01 X-4.05673 Y3.22311
G01 X-4.05748 Y3.22130
G01 X-4.05947 Y3.21473
G01 X-4.05985 Y3.21281
G01 X-4.06057 Y3.20500
G01 X-4.06057 Y2.91794
G01 X-4.06127 Y2.91578
G01 X-4.06171 Y2.91374
G01 X-4.06257 Y2.90500
G01 X-4.06154 Y2.89523
G01 X-4.05851 Y2.88588
G01 X-4.05359 Y2.87737
G01 X-4.04702 Y2.87007
G01 X-4.03995 Y2.86487
G01 X-4.03814 Y2.86382
G01 X-4.03107 Y2.86068
G01 X-4.02908 Y2.86003
G01 X-4.02048 Y2.85826
G01 X-4.01066 Y2.85826
G01 X-4.00105 Y2.86030
G01 X-3.99207 Y2.86430
G01 X-3.98412 Y2.87007
G01 X-3.97821 Y2.87656
G01 X-3.97698 Y2.87825
G01 X-3.97311 Y2.88495
G01 X-3.97226 Y2.88686
G01 X-3.96960 Y2.89523
G01 X-3.96857 Y2.90500
G04 P0 ( dwell for no time -- G64 should not smooth over this point )
G00 Z1.00000 ( retract )

G00 X-4.26857 Y2.90500 ( rapid move to begin. )
G01 F100.00000
( Mill infeed pass 1/1 )
G01 Z-0.05000
G04 P0 ( dwell for no time -- G64 should not smooth over this point )
G01 F200.00000
G01 X-4.26857 Y2.90500
G01 X-4.26943 Y2.91374
G01 X-4.26987 Y2.91578
G01 X-4.27057 Y2.91794
G01 X-4.27057 Y3.20500
G01 X-4.27129 Y3.21281
G01 X-4.27167 Y3.21473
G01 X-4.27367 Y3.22130
G01 X-4.27442 Y3.22311
G01 X-4.27815 Y3.23000
G01 X-4.28309 Y3.23609
G01 X-4.28448 Y3.23748
G01 X-4.29057 Y3.24242
G01 X-4.29835 Y3.24657
G01 X-4.30584 Y3.24890
G01 X-4.30776 Y3.24928
G01 X-4.31557 Y3.25000
G01 X-4.32338 Y3.24928
G01 X-4.32530 Y3.24890
G01 X-4.33187 Y3.24691
G01 X-4.33368 Y3.24615
G01 X-4.34057 Y3.24242
G01 X-4.34666 Y3.23748
G01 X-4.34805 Y3.23609
G01 X-4.35240 Y3.23079
G01 X-4.35349 Y3.22916
G01 X-4.35673 Y3.22311
G01 X-4.35748 Y3.22130
G01 X-4.35947 Y3.21473
G01 X-4.35985 Y3.21281
G01 X-4.36057 Y3.20500
G01 X-4.36057 Y2.91794
G01 X-4.36127 Y2.91578
G01 X-4.36171 Y2.91374
G01 X-4.36257 Y2.90500
G01 X-4.36154 Y2.89523
G01 X-4.35851 Y2.88588
G01 X-4.35359 Y2.87737
G01 X-4.34702 Y2.87007
G01 X-4.33995 Y2.86487
G01 X-4.33814 Y2.86382
G01 X-4.33107 Y2.86068
G01 X-4.32908 Y2.86003
G01 X-4.32048 Y2.85826
G01 X-4.31066 Y2.85826
G01 X-4.30105 Y2.86030
G01 X-4.29207 Y2.86430
G01 X-4.28412 Y2.87007
G01 X-4.27821 Y2.87656
G01 X-4.27698 Y2.87825
G01 X-4.27311 Y2.88495
G01 X-4.27226 Y2.88686
G01 X-4.26960 Y2.89523
G01 X-4.26857 Y2.90500
G04 P0 ( dwell for no time -- G64 should not smooth over this point )
G00 Z1.00000 ( retract )

G00 X-4.56857 Y2.90500 ( rapid move to begin. )
G01 F100.00000
( Mill infeed pass 1/1 )
G01 Z-0.05000
G04 P0 ( dwell for no time -- G64 should not smooth over this point )
G01 F200.00000
G01 X-4.56857 Y2.90500
G01 X-4.56943 Y2.91374
G01 X-4.56987 Y2.91578
G01 X-4.57057 Y2.91794
G01 X-4.57057 Y3.20500
G01 X-4.57129 Y3.21281
G01 X-4.57167 Y3.21473
G01 X-4.57367 Y3.22130
G01 X-4.57442 Y3.22311
G01 X-4.57815 Y3.23000
G01 X-4.58309 Y3.23609
G01 X-4.58448 Y3.23748
G01 X-4.59057 Y3.24242
G01 X-4.59835 Y3.24657
G01 X-4.60584 Y3.24890
G01 X-4.60776 Y3.24928
G01 X-4.61557 Y3.25000
G01 X-4.62338 Y3.24928
G01 X-4.62530 Y3.24890
G01 X-4.63187 Y3.24691
G01 X-4.63368 Y3.24615
G01 X-4.64057 Y3.24242
G01 X-4.64666 Y3.23748
G01 X-4.64805 Y3.23609
G01 X-4.65240 Y3.23079
G01 X-4.65349 Y3.22916
G01 X-4.65673 Y3.22311
G01 X-4.65748 Y3.22130
G01 X-4.65947 Y3.21473
G01 X-4.65985 Y3.21281
G01 X-4.66057 Y3.20500
G01 X-4.66057 Y2.91794
G01 X-4.66127 Y2.91578
G01 X-4.66171 Y2.91374
G01 X-4.66257 Y2.90500
G01 X-4.66154 Y2.89523
G01 X-4.65851 Y2.88588
G01 X-4.65359 Y2.87737
G01 X-4.64702 Y2.87007
G01 X-4.63995 Y2.86487
G01 X-4.63814 Y2.86382
G01 X-4.63107 Y2.86068
G01 X-4.62908 Y2.86003
G01 X-4.62048 Y2.85826
G01 X-4.61066 Y2.85826
G01 X-4.60105 Y2.86030
G01 X-4.59207 Y2.86430
G01 X-4.58412 Y2.87007
G01 X-4.57821 Y2.87656
G01 X-4.57698 Y2.87825
G01 X-4.57311 Y2.88495
G01 X-4.57226 Y2.88686
G01 X-4.56960 Y2.89523
G01 X-4.56857 Y2.90500
G04 P0 ( dwell for no time -- G64 should not smooth over this point )
G00 Z1.00000 ( retract )

G00 X-4.86857 Y2.90500 ( rapid move to begin. )
G01 F100.00000
( Mill infeed pass 1/1 )
G01 Z-0.05000
G04 P0 ( dwell for no time -- G64 should not smooth over this point )
G01 F200.00000
G01 X-4.86857 Y2.90500
G01 X-4.86943 Y2.91374
G01 X-4.86987 Y2.91578
G01 X-4.87057 Y2.91794
G01 X-4.87057 Y3.20500
G01 X-4.87129 Y3.21281
G01 X-4.87167 Y3.21473
G01 X-4.87367 Y3.22130
G01 X-4.87442 Y3.22311
G01 X-4.87815 Y3.23000
G01 X-4.88309 Y3.23609
G01 X-4.88448 Y3.23748
G01 X-4.89057 Y3.24242
G01 X-4.89835 Y3.24657
G01 X-4.90584 Y3.24890
G01 X-4.90776 Y3.24928
G01 X-4.91557 Y3.25000
G01 X-4.92338 Y3.24928
G01 X-4.92530 Y3.24890
G01 X-4.93187 Y3.24691
G01 X-4.93368 Y3.24615
G01 X-4.94057 Y3.24242
G01 X-4.94666 Y3.23748
G01 X-4.94805 Y3.23609
G01 X-4.95240 Y3.23079
G01 X-4.95349 Y3.22916
G01 X-4.95673 Y3.22311
G01 X-4.95748 Y3.22130
G01 X-4.95947 Y3.21473
G01 X-4.95985 Y3.21281
G01 X-4.96057 Y3.20500
G01 X-4.96057 Y2.91794
G01 X-4.96127 Y2.91578
G01 X-4.96171 Y2.91374
G01 X-4.96257 Y2.90500
G01 X-4.96154 Y2.89523
G01 X-4.95851 Y2.88588
G01 X-4.95359 Y2.87737
G01 X-4.94702 Y2.87007
G01 X-4.93995 Y2.86487
G01 X-4.93814 Y2.86382
G01 X-4.93107 Y2.86068
G01 X-4.92908 Y2.86003
G01 X-4.92048 Y2.85826
G01 X-4.91066 Y2.85826
G01 X-4.90105 Y2.86030
G01 X-4.89207 Y2.86430
G01 X-4.88412 Y2.87007
G01 X-4.87821 Y2.87656
G01 X-4.87698 Y2.87825
G01 X-4.87311 Y2.88495
G01 X-4.87226 Y2.88686
G01 X-4.86960 Y2.89523
G01 X-4.86857 Y2.90500
G04 P0 ( dwell for no time -- G64 should not smooth over this point )
G00 Z1.00000 ( retract )

G00 X-5.16857 Y2.90500 ( rapid move to begin. )
G01 F100.00000
( Mill infeed pass 1/1 )
G01 Z-0.05000
G04 P0 ( dwell for no time -- G64 should not smooth over this point )
G01 F200.00000
G01 X-5.16857 Y2.90500
G01 X-5.16943 Y2.91374
G01 X-5.16987 Y2.91578
G01 X-5.17057 Y2.91794
G01 X-5.17057 Y3.20500
G01 X-5.17129 Y3.21281
G01 X-5.17167 Y3.21473
G01 X-5.17367 Y3.22130
G01 X-5.17442 Y3.22311
G01 X-5.17815 Y3.23000
G01 X-5.18309 Y3.23609
G01 X-5.18448 Y3.23748
G01 X-5.19057 Y3.24242
G01 X-5.19835 Y3.24657
G01 X-5.20584 Y3.24890
G01 X-5.20776 Y3.24928
G01 X-5.21557 Y3.25000
G01 X-5.22338 Y3.24928
G01 X-5.22530 Y3.24890
G01 X-5.23187 Y3.24691
G01 X-5.23368 Y3.24615
G01 X-5.24057 Y3.24242
G01 X-5.24666 Y3.23748
G01 X-5.24805 Y3.23609
G01 X-5.25240 Y3.23079
G01 X-5.25349 Y3.22916
G01 X-5.25673 Y3.22311
G01 X-5.25748 Y3.22130
G01 X-5.25947 Y3.21473
G01 X-5.25985 Y3.21281
G01 X-5.26057 Y3.20500
G01 X-5.26057 Y2.91794
G01 X-5.26127 Y2.91578
G01 X-5.26171 Y2.91374
G01 X-5.26257 Y2.90500
G01 X-5.26154 Y2.89523
G01 X-5.25851 Y2.88588
G01 X-5.25359 Y2.87737
G01 X-5.24702 Y2.87007
G01 X-5.23995 Y2.86487
G01 X-5.23814 Y2.86382
G01 X-5.23107 Y2.86068
G01 X-5.22908 Y2.86003
G01 X-5.22048 Y2.85826
G01 X-5.21066 Y2.85826
G01 X-5.20105 Y2.86030
G01 X-5.19207 Y2.86430
G01 X-5.18412 Y2.87007
G01 X-5.17821 Y2.87656
G01 X-5.17698 Y2.87825
G01 X-5.17311 Y2.88495
G01 X-5.17226 Y2.88686
G01 X-5.16960 Y2.89523
G01 X-5.16857 Y2.90500
G04 P0 ( dwell for no time -- G64 should not smooth over this point )
G00 Z1.00000 ( retract )

G00 X-5.46857 Y2.90500 ( rapid move to begin. )
G01 F100.00000
( Mill infeed pass 1/1 )
G01 Z-0.05000
G04 P0 ( dwell for no time -- G64 should not smooth over this point )
G01 F200.00000
G01 X-5.46857 Y2.90500
G01 X-5.46943 Y2.91374
G01 X-5.46987 Y2.91578
G01 X-5.47057 Y2.91794
G01 X-5.47057 Y3.20500
G01 X-5.47144 Y3.21378
G01 X-5.47400 Y3.22222
G01 X-5.47765 Y3.22916
G01 X-5.47874 Y3.23079
G01 X-5.48375 Y3.23682
G01 X-5.49057 Y3.24242
G01 X-5.49746 Y3.24615
G01 X-5.49927 Y3.24691
G01 X-5.50584 Y3.24890
G01 X-5.50776 Y3.24928
G01 X-5.51459 Y3.24995
G01 X-5.51655 Y3.24995
G01 X-5.52338 Y3.24928
G01 X-5.52530 Y3.24890
G01 X-5.53187 Y3.24691
G01 X-5.53368 Y3.24615
G01 X-5.53973 Y3.24292
G01 X-5.54136 Y3.24183
G01 X-5.54666 Y3.23748
G01 X-5.54805 Y3.23609
G01 X-5.55240 Y3.23079
G01 X-5.55349 Y3.22916
G01 X-5.55673 Y3.22311
G01 X-5.55748 Y3.22130
G01 X-5.55947 Y3.21473
G01 X-5.55985 Y3.21281
G01 X-5.56057 Y3.20500
G01 X-5.56057 Y2.91794
G01 X-5.56127 Y2.91578
G01 X-5.56171 Y2.91374
G01 X-5.56257 Y2.90500
G01 X-5.56154 Y2.89523
G01 X-5.55851 Y2.88588
G01 X-5.55359 Y2.87737
G01 X-5.54702 Y2.87007
G01 X-5.53995 Y2.86487
G01 X-5.53814 Y2.86382
G01 X-5.53107 Y2.86068
G01 X-5.52908 Y2.86003
G01 X-5.52048 Y2.85826
G01 X-5.51066 Y2.85826
G01 X-5.50105 Y2.86030
G01 X-5.49207 Y2.86430
G01 X-5.48412 Y2.87007
G01 X-5.47820 Y2.87656
G01 X-5.47698 Y2.87825
G01 X-5.47311 Y2.88495
G01 X-5.47226 Y2.88686
G01 X-5.46960 Y2.89523
G01 X-5.46857 Y2.90500
G04 P0 ( dwell for no time -- G64 should not smooth over this point )
G00 Z1.00000 ( retract )

G00 X-5.76857 Y2.90500 ( rapid move to begin. )
G01 F100.00000
( Mill infeed pass 1/1 )
G01 Z-0.05000
G04 P0 ( dwell for no time -- G64 should not smooth over this point )
G01 F200.00000
G01 X-5.76857 Y2.90500
G01 X-5.76960 Y2.89523
G01 X-5.77226 Y2.88686
G01 X-5.77311 Y2.88495
G01 X-5.77698 Y2.87825
G01 X-5.77821 Y2.87656
G01 X-5.78412 Y2.87007
G01 X-5.79207 Y2.86430
G01 X-5.80105 Y2.86030
G01 X-5.81066 Y2.85826
G01 X-5.82048 Y2.85826
G01 X-5.82908 Y2.86003
G01 X-5.83107 Y2.86068
G01 X-5.83814 Y2.86382
G01 X-5.83995 Y2.86487
G01 X-5.84702 Y2.87007
G01 X-5.85359 Y2.87737
G01 X-5.85851 Y2.88588
G01 X-5.86154 Y2.89523
G01 X-5.86257 Y2.90500
G01 X-5.86171 Y2.91374
G01 X-5.86127 Y2.91578
G01 X-5.86057 Y2.91794
G01 X-5.86057 Y3.20500
G01 X-5.85985 Y3.21281
G01 X-5.85947 Y3.21473
G01 X-5.85748 Y3.22130
G01 X-5.85673 Y3.22311
G01 X-5.85349 Y3.22916
G01 X-5.85240 Y3.23079
G01 X-5.84805 Y3.23609
G01 X-5.84666 Y3.23748
G01 X-5.84136 Y3.24183
G01 X-5.83973 Y3.24292
G01 X-5.83368 Y3.24615
G01 X-5.83187 Y3.24691
G01 X-5.82530 Y3.24890
G01 X-5.82338 Y3.24928
G01 X-5.81655 Y3.24995
G01 X-5.81459 Y3.24995
G01 X-5.80776 Y3.24928
G01 X-5.80584 Y3.24890
G01 X-5.79927 Y3.24691
G01 X-5.79746 Y3.24615
G01 X-5.79057 Y3.24242
G01 X-5.78375 Y3.23682
G01 X-5.77874 Y3.23079
G01 X-5.77765 Y3.22916
G01 X-5.77400 Y3.22222
G01 X-5.77144 Y3.21378
G01 X-5.77057 Y3.20500
G01 X-5.77057 Y2.91794
G01 X-5.76987 Y2.91578
G01 X-5.76943 Y2.91374
G01 X-5.76857 Y2.90500
G04 P0 ( dwell for no time -- G64 should not smooth over this point )
G00 Z1.00000 ( retract )

G00 X-6.06857 Y2.90500 ( rapid move to begin. )
G01 F100.00000
( Mill infeed pass 1/1 )
G01 Z-0.05000
G04 P0 ( dwell for no time -- G64 should not smooth over this point )
G01 F200.00000
G01 X-6.06857 Y2.90500
G01 X-6.06960 Y2.89523
G01 X-6.07226 Y2.88686
G01 X-6.07311 Y2.88495
G01 X-6.07698 Y2.87825
G01 X-6.07821 Y2.87656
G01 X-6.08412 Y2.87007
G01 X-6.09207 Y2.86430
G01 X-6.10105 Y2.86030
G01 X-6.11066 Y2.85826
G01 X-6.12048 Y2.85826
G01 X-6.12908 Y2.86003
G01 X-6.13107 Y2.86068
G01 X-6.13814 Y2.86382
G01 X-6.13995 Y2.86487
G01 X-6.14702 Y2.87007
G01 X-6.15359 Y2.87737
G01 X-6.15851 Y2.88588
G01 X-6.16154 Y2.89523
G01 X-6.16257 Y2.90500
G01 X-6.16171 Y2.91374
G01 X-6.16127 Y2.91578
G01 X-6.16057 Y2.91794
G01 X-6.16057 Y3.20500
G01 X-6.15985 Y3.21281
G01 X-6.15947 Y3.21473
G01 X-6.15748 Y3.22130
G01 X-6.15673 Y3.22311
G01 X-6.15349 Y3.22916
G01 X-6.15240 Y3.23079
G01 X-6.14805 Y3.23609
G01 X-6.14666 Y3.23748
G01 X-6.14136 Y3.24183
G01 X-6.13973 Y3.24292
G01 X-6.13368 Y3.24615
G01 X-6.13187 Y3.24691
G01 X-6.12530 Y3.24890
G01 X-6.12338 Y3.24928
G01 X-6.11655 Y3.24995
G01 X-6.11459 Y3.24995
G01 X-6.10776 Y3.24928
G01 X-6.10584 Y3.24890
G01 X-6.09927 Y3.24691
G01 X-6.09746 Y3.24615
G01 X-6.09057 Y3.24242
G01 X-6.08375 Y3.23682
G01 X-6.07874 Y3.23079
G01 X-6.07765 Y3.22916
G01 X-6.07400 Y3.22222
G01 X-6.07144 Y3.21378
G01 X-6.07057 Y3.20500
G01 X-6.07057 Y2.91794
G01 X-6.06987 Y2.91578
G01 X-6.06943 Y2.91374
G01 X-6.06857 Y2.90500
G04 P0 ( dwell for no time -- G64 should not smooth over this point )
G00 Z1.00000 ( retract )

G00 X-6.06857 Y2.40500 ( rapid move to begin. )
G01 F100.00000
( Mill infeed pass 1/1 )
G01 Z-0.05000
G04 P0 ( dwell for no time -- G64 should not smooth over this point )
G01 F200.00000
G01 X-6.06857 Y2.40500
G01 X-6.06943 Y2.41374
G01 X-6.06987 Y2.41578
G01 X-6.07057 Y2.41794
G01 X-6.07057 Y2.59206
G01 X-6.06987 Y2.59422
G01 X-6.06943 Y2.59626
G01 X-6.06857 Y2.60500
G01 X-6.06960 Y2.61477
G01 X-6.07226 Y2.62314
G01 X-6.07311 Y2.62505
G01 X-6.07755 Y2.63263
G01 X-6.08394 Y2.63975
G01 X-6.22057 Y2.86746
G01 X-6.22057 Y3.73338
G01 X-6.21952 Y3.73564
G01 X-6.21666 Y3.74460
G01 X-6.21563 Y3.75395
G01 X-6.21563 Y3.75605
G01 X-6.21666 Y3.76540
G01 X-6.21989 Y3.77534
G01 X-6.22512 Y3.78439
G01 X-6.23211 Y3.79216
G01 X-6.24057 Y3.79830
G01 X-6.25012 Y3.80255
G01 X-6.26034 Y3.80473
G01 X-6.27080 Y3.80473
G01 X-6.28102 Y3.80255
G01 X-6.28964 Y3.79878
G01 X-6.29145 Y3.79773
G01 X-6.29821 Y3.79282
G01 X-6.29977 Y3.79142
G01 X-6.30602 Y3.78439
G01 X-6.31125 Y3.77534
G01 X-6.31448 Y3.76540
G01 X-6.31557 Y3.75500
G01 X-6.31448 Y3.74460
G01 X-6.31162 Y3.73564
G01 X-6.31057 Y3.73338
G01 X-6.31057 Y2.85500
G01 X-6.30996 Y2.84783
G01 X-6.30964 Y2.84606
G01 X-6.30796 Y2.83999
G01 X-6.30733 Y2.83831
G01 X-6.30416 Y2.83185
G01 X-6.16091 Y2.59310
G01 X-6.16057 Y2.59206
G01 X-6.16057 Y2.41794
G01 X-6.16127 Y2.41578
G01 X-6.16171 Y2.41374
G01 X-6.16257 Y2.40500
G01 X-6.16154 Y2.39523
G01 X-6.15888 Y2.38686
G01 X-6.15803 Y2.38495
G01 X-6.15359 Y2.37737
G01 X-6.14776 Y2.37081
G01 X-6.14621 Y2.36941
G01 X-6.13995 Y2.36487
G01 X-6.13814 Y2.36382
G01 X-6.13009 Y2.36030
G01 X-6.12048 Y2.35826
G01 X-6.11066 Y2.35826
G01 X-6.10206 Y2.36003
G01 X-6.10007 Y2.36068
G01 X-6.09300 Y2.36382
G01 X-6.09119 Y2.36487
G01 X-6.08412 Y2.37007
G01 X-6.07755 Y2.37737
G01 X-6.07263 Y2.38588
G01 X-6.06987 Y2.39422
G01 X-6.06943 Y2.39626
G01 X-6.06857 Y2.40500
G04 P0 ( dwell for no time -- G64 should not smooth over this point )
G00 Z1.00000 ( retract )

G00 X-5.76857 Y2.40500 ( rapid move to begin. )
G01 F100.00000
( Mill infeed pass 1/1 )
G01 Z-0.05000
G04 P0 ( dwell for no time -- G64 should not smooth over this point )
G01 F200.00000
G01 X-5.76857 Y2.40500
G01 X-5.76943 Y2.41374
G01 X-5.76987 Y2.41578
G01 X-5.77057 Y2.41794
G01 X-5.77057 Y2.59206
G01 X-5.76987 Y2.59422
G01 X-5.76943 Y2.59626
G01 X-5.76857 Y2.60500
G01 X-5.76960 Y2.61477
G01 X-5.77226 Y2.62314
G01 X-5.77311 Y2.62505
G01 X-5.77755 Y2.63263
G01 X-5.78394 Y2.63974
G01 X-5.92057 Y2.86746
G01 X-5.92057 Y3.40500
G01 X-5.94368 Y3.73668
G01 X-5.94116 Y3.74460
G01 X-5.94013 Y3.75395
G01 X-5.94013 Y3.75605
G01 X-5.94116 Y3.76540
G01 X-5.94439 Y3.77534
G01 X-5.94962 Y3.78439
G01 X-5.95661 Y3.79216
G01 X-5.96507 Y3.79830
G01 X-5.97462 Y3.80255
G01 X-5.98484 Y3.80473
G01 X-5.99425 Y3.80478
G01 X-5.99633 Y3.80456
G01 X-6.00552 Y3.80255
G01 X-6.01507 Y3.79830
G01 X-6.02353 Y3.79216
G01 X-6.02986 Y3.78520
G01 X-6.03109 Y3.78351
G01 X-6.03527 Y3.77627
G01 X-6.03612 Y3.77436
G01 X-6.03898 Y3.76540
G01 X-6.04007 Y3.75500
G01 X-6.03914 Y3.74564
G01 X-6.03871 Y3.74359
G01 X-6.03575 Y3.73466
G01 X-6.03347 Y3.73061
G01 X-6.01057 Y3.40343
G01 X-6.01057 Y2.85500
G01 X-6.00996 Y2.84783
G01 X-6.00964 Y2.84606
G01 X-6.00796 Y2.83999
G01 X-6.00733 Y2.83831
G01 X-6.00416 Y2.83185
G01 X-5.86091 Y2.59310
G01 X-5.86057 Y2.59206
G01 X-5.86057 Y2.41794
G01 X-5.86127 Y2.41578
G01 X-5.86171 Y2.41374
G01 X-5.86257 Y2.40500
G01 X-5.86154 Y2.39523
G01 X-5.85888 Y2.38686
G01 X-5.85803 Y2.38495
G01 X-5.85359 Y2.37737
G01 X-5.84776 Y2.37081
G01 X-5.84621 Y2.36941
G01 X-5.83995 Y2.36487
G01 X-5.83814 Y2.36382
G01 X-5.83009 Y2.36030
G01 X-5.82048 Y2.35826
G01 X-5.81066 Y2.35826
G01 X-5.80206 Y2.36003
G01 X-5.80007 Y2.36068
G01 X-5.79300 Y2.36382
G01 X-5.79119 Y2.36487
G01 X-5.78412 Y2.37007
G01 X-5.77755 Y2.37737
G01 X-5.77263 Y2.38588
G01 X-5.76987 Y2.39422
G01 X-5.76943 Y2.39626
G01 X-5.76857 Y2.40500
G04 P0 ( dwell for no time -- G64 should not smooth over this point )
G00 Z1.00000 ( retract )

G00 X-5.46857 Y2.40500 ( rapid move to begin. )
G01 F100.00000
( Mill infeed pass 1/1 )
G01 Z-0.05000
G04 P0 ( dwell for no time -- G64 should not smooth over this point )
G01 F200.00000
G01 X-5.46857 Y2.40500
G01 X-5.46943 Y2.41374
G01 X-5.46987 Y2.41578
G01 X-5.47057 Y2.41794
G01 X-5.47057 Y2.59206
G01 X-5.46987 Y2.59422
G01 X-5.46943 Y2.59626
G01 X-5.46857 Y2.60500
G01 X-5.46960 Y2.61477
G01 X-5.47226 Y2.62314
G01 X-5.47311 Y2.62505
G01 X-5.47755 Y2.63263
G01 X-5.48394 Y2.63975
G01 X-5.62057 Y2.86746
G01 X-5.62057 Y3.40500
G01 X-5.62095 Y3.41066
G01 X-5.66767 Y3.73793
G01 X-5.66556 Y3.74460
G01 X-5.66452 Y3.75395
G01 X-5.66452 Y3.75605
G01 X-5.66556 Y3.76540
G01 X-5.66879 Y3.77534
G01 X-5.67402 Y3.78439
G01 X-5.68101 Y3.79216
G01 X-5.68859 Y3.79773
G01 X-5.69040 Y3.79878
G01 X-5.69804 Y3.80218
G01 X-5.70003 Y3.80282
G01 X-5.70924 Y3.80473
G01 X-5.71865 Y3.80478
G01 X-5.72073 Y3.80456
G01 X-5.72992 Y3.80255
G01 X-5.73947 Y3.79830
G01 X-5.74793 Y3.79216
G01 X-5.75426 Y3.78520
G01 X-5.75549 Y3.78351
G01 X-5.75967 Y3.77627
G01 X-5.76052 Y3.77436
G01 X-5.76338 Y3.76540
G01 X-5.76447 Y3.75500
G01 X-5.76354 Y3.74564
G01 X-5.76311 Y3.74359
G01 X-5.76015 Y3.73466
G01 X-5.75743 Y3.72985
G01 X-5.71057 Y3.40180
G01 X-5.71057 Y2.85500
G01 X-5.70996 Y2.84783
G01 X-5.70964 Y2.84606
G01 X-5.70796 Y2.83999
G01 X-5.70733 Y2.83831
G01 X-5.70416 Y2.83185
G01 X-5.56091 Y2.59310
G01 X-5.56057 Y2.59206
G01 X-5.56057 Y2.41794
G01 X-5.56127 Y2.41578
G01 X-5.56171 Y2.41374
G01 X-5.56257 Y2.40500
G01 X-5.56154 Y2.39523
G01 X-5.55888 Y2.38686
G01 X-5.55803 Y2.38495
G01 X-5.55359 Y2.37737
G01 X-5.54776 Y2.37081
G01 X-5.54621 Y2.36941
G01 X-5.53995 Y2.36487
G01 X-5.53814 Y2.36382
G01 X-5.53009 Y2.36030
G01 X-5.52048 Y2.35826
G01 X-5.51066 Y2.35826
G01 X-5.50206 Y2.36003
G01 X-5.50007 Y2.36068
G01 X-5.49300 Y2.36382
G01 X-5.49119 Y2.36487
G01 X-5.48412 Y2.37007
G01 X-5.47755 Y2.37737
G01 X-5.47311 Y2.38495
G01 X-5.47226 Y2.38686
G01 X-5.46960 Y2.39523
G01 X-5.46857 Y2.40500
G04 P0 ( dwell for no time -- G64 should not smooth over this point )
G00 Z1.00000 ( retract )

G00 X-5.16857 Y2.40500 ( rapid move to begin. )
G01 F100.00000
( Mill infeed pass 1/1 )
G01 Z-0.05000
G04 P0 ( dwell for no time -- G64 should not smooth over this point )
G01 F200.00000
G01 X-5.16857 Y2.40500
G01 X-5.16943 Y2.41374
G01 X-5.16987 Y2.41578
G01 X-5.17057 Y2.41794
G01 X-5.17057 Y2.59206
G01 X-5.16987 Y2.59422
G01 X-5.16943 Y2.59626
G01 X-5.16857 Y2.60500
G01 X-5.16960 Y2.61477
G01 X-5.17226 Y2.62314
G01 X-5.17311 Y2.62505
G01 X-5.17755 Y2.63263
G01 X-5.18394 Y2.63975
G01 X-5.32057 Y2.86746
G01 X-5.32057 Y3.40500
G01 X-5.32087 Y3.41006
G01 X-5.32149 Y3.41407
G01 X-5.38978 Y3.74584
G01 X-5.38887 Y3.75500
G01 X-5.38980 Y3.76436
G01 X-5.39023 Y3.76641
G01 X-5.39319 Y3.77534
G01 X-5.39842 Y3.78439
G01 X-5.40541 Y3.79216
G01 X-5.41299 Y3.79773
G01 X-5.41480 Y3.79878
G01 X-5.42244 Y3.80218
G01 X-5.42443 Y3.80282
G01 X-5.43364 Y3.80473
G01 X-5.44305 Y3.80478
G01 X-5.44513 Y3.80456
G01 X-5.45432 Y3.80255
G01 X-5.46387 Y3.79830
G01 X-5.47233 Y3.79216
G01 X-5.47866 Y3.78520
G01 X-5.47989 Y3.78351
G01 X-5.48407 Y3.77627
G01 X-5.48492 Y3.77436
G01 X-5.48778 Y3.76540
G01 X-5.48887 Y3.75500
G01 X-5.48778 Y3.74460
G01 X-5.48492 Y3.73564
G01 X-5.48407 Y3.73373
G01 X-5.47989 Y3.72649
G01 X-5.47866 Y3.72480
G01 X-5.47694 Y3.72288
G01 X-5.41057 Y3.40042
G01 X-5.41057 Y2.85500
G01 X-5.40996 Y2.84783
G01 X-5.40964 Y2.84606
G01 X-5.40796 Y2.83999
G01 X-5.40733 Y2.83831
G01 X-5.40416 Y2.83185
G01 X-5.26091 Y2.59310
G01 X-5.26057 Y2.59206
G01 X-5.26057 Y2.41794
G01 X-5.26127 Y2.41578
G01 X-5.26171 Y2.41374
G01 X-5.26257 Y2.40500
G01 X-5.26154 Y2.39523
G01 X-5.25888 Y2.38686
G01 X-5.25803 Y2.38495
G01 X-5.25359 Y2.37737
G01 X-5.24776 Y2.37081
G01 X-5.24621 Y2.36941
G01 X-5.23995 Y2.36487
G01 X-5.23814 Y2.36382
G01 X-5.23009 Y2.36030
G01 X-5.22048 Y2.35826
G01 X-5.21066 Y2.35826
G01 X-5.20206 Y2.36003
G01 X-5.20007 Y2.36068
G01 X-5.19300 Y2.36382
G01 X-5.19119 Y2.36487
G01 X-5.18412 Y2.37007
G01 X-5.17755 Y2.37737
G01 X-5.17263 Y2.38588
G01 X-5.16987 Y2.39422
G01 X-5.16943 Y2.39626
G01 X-5.16857 Y2.40500
G04 P0 ( dwell for no time -- G64 should not smooth over this point )
G00 Z1.00000 ( retract )

G00 X-4.86857 Y2.40500 ( rapid move to begin. )
G01 F100.00000
( Mill infeed pass 1/1 )
G01 Z-0.05000
G04 P0 ( dwell for no time -- G64 should not smooth over this point )
G01 F200.00000
G01 X-4.86857 Y2.40500
G01 X-4.86943 Y2.41374
G01 X-4.86987 Y2.41578
G01 X-4.87057 Y2.41794
G01 X-4.87057 Y2.59206
G01 X-4.86987 Y2.59422
G01 X-4.86943 Y2.59626
G01 X-4.86857 Y2.60500
G01 X-4.86960 Y2.61477
G01 X-4.87226 Y2.62314
G01 X-4.87311 Y2.62505
G01 X-4.87755 Y2.63263
G01 X-4.88394 Y2.63975
G01 X-5.02057 Y2.86746
G01 X-5.02057 Y3.73338
G01 X-5.01952 Y3.73564
G01 X-5.01666 Y3.74460
G01 X-5.01563 Y3.75395
G01 X-5.01563 Y3.75605
G01 X-5.01666 Y3.76540
G01 X-5.01989 Y3.77534
G01 X-5.02512 Y3.78439
G01 X-5.03211 Y3.79216
G01 X-5.04057 Y3.79830
G01 X-5.05012 Y3.80255
G01 X-5.06034 Y3.80473
G01 X-5.07080 Y3.80473
G01 X-5.08102 Y3.80255
G01 X-5.08964 Y3.79878
G01 X-5.09145 Y3.79773
G01 X-5.09821 Y3.79282
G01 X-5.09977 Y3.79142
G01 X-5.10602 Y3.78439
G01 X-5.11125 Y3.77534
G01 X-5.11448 Y3.76540
G01 X-5.11557 Y3.75500
G01 X-5.11448 Y3.74460
G01 X-5.11162 Y3.73564
G01 X-5.11057 Y3.73338
G01 X-5.11057 Y2.85500
G01 X-5.10996 Y2.84783
G01 X-5.10964 Y2.84606
G01 X-5.10796 Y2.83999
G01 X-5.10733 Y2.83831
G01 X-5.10416 Y2.83185
G01 X-4.96091 Y2.59310
G01 X-4.96057 Y2.59206
G01 X-4.96057 Y2.41794
G01 X-4.96127 Y2.41578
G01 X-4.96171 Y2.41374
G01 X-4.96257 Y2.40500
G01 X-4.96154 Y2.39523
G01 X-4.95888 Y2.38686
G01 X-4.95803 Y2.38495
G01 X-4.95359 Y2.37737
G01 X-4.94776 Y2.37081
G01 X-4.94621 Y2.36941
G01 X-4.93995 Y2.36487
G01 X-4.93814 Y2.36382
G01 X-4.93009 Y2.36030
G01 X-4.92048 Y2.35826
G01 X-4.91066 Y2.35826
G01 X-4.90206 Y2.36003
G01 X-4.90007 Y2.36068
G01 X-4.89300 Y2.36382
G01 X-4.89119 Y2.36487
G01 X-4.88412 Y2.37007
G01 X-4.87755 Y2.37737
G01 X-4.87263 Y2.38588
G01 X-4.86987 Y2.39422
G01 X-4.86943 Y2.39626
G01 X-4.86857 Y2.40500
G04 P0 ( dwell for no time -- G64 should not smooth over this point )
G00 Z1.00000 ( retract )

G00 X-4.56807 Y2.40500 ( rapid move to begin. )
G01 F100.00000
( Mill infeed pass 1/1 )
G01 Z-0.05000
G04 P0 ( dwell for no time -- G64 should not smooth over this point )
G01 F200.00000
G01 X-4.56807 Y2.40500
G01 X-4.56898 Y2.39573
G01 X-4.57136 Y2.38775
G01 X-4.57211 Y2.38594
G01 X-4.57557 Y2.37945
G01 X-4.57666 Y2.37782
G01 X-4.58198 Y2.37141
G01 X-4.58839 Y2.36609
G01 X-4.59002 Y2.36500
G01 X-4.59739 Y2.36112
G01 X-4.60535 Y2.35865
G01 X-4.60727 Y2.35827
G01 X-4.61459 Y2.35755
G01 X-4.61655 Y2.35755
G01 X-4.62387 Y2.35827
G01 X-4.62579 Y2.35865
G01 X-4.63375 Y2.36112
G01 X-4.64112 Y2.36500
G01 X-4.64275 Y2.36609
G01 X-4.64843 Y2.37075
G01 X-4.64982 Y2.37214
G01 X-4.65448 Y2.37782
G01 X-4.65557 Y2.37945
G01 X-4.65904 Y2.38594
G01 X-4.65979 Y2.38775
G01 X-4.66192 Y2.39478
G01 X-4.66230 Y2.39670
G01 X-4.66307 Y2.40500
G01 X-4.66307 Y2.59670
G01 X-4.80416 Y2.83185
G01 X-4.80733 Y2.83831
G01 X-4.80796 Y2.83999
G01 X-4.80964 Y2.84606
G01 X-4.80996 Y2.84783
G01 X-4.81057 Y2.85500
G01 X-4.81057 Y3.40343
G01 X-4.83347 Y3.73061
G01 X-4.83575 Y3.73466
G01 X-4.83871 Y3.74359
G01 X-4.83914 Y3.74564
G01 X-4.84007 Y3.75500
G01 X-4.83898 Y3.76540
G01 X-4.83612 Y3.77436
G01 X-4.83527 Y3.77627
G01 X-4.83109 Y3.78351
G01 X-4.82986 Y3.78520
G01 X-4.82353 Y3.79216
G01 X-4.81507 Y3.79830
G01 X-4.80552 Y3.80255
G01 X-4.79633 Y3.80456
G01 X-4.79425 Y3.80478
G01 X-4.78484 Y3.80473
G01 X-4.77462 Y3.80255
G01 X-4.76507 Y3.79830
G01 X-4.75661 Y3.79216
G01 X-4.74962 Y3.78439
G01 X-4.74439 Y3.77534
G01 X-4.74116 Y3.76540
G01 X-4.74013 Y3.75605
G01 X-4.74013 Y3.75395
G01 X-4.74116 Y3.74460
G01 X-4.74368 Y3.73669
G01 X-4.72057 Y3.40500
G01 X-4.72057 Y2.86746
G01 X-4.58454 Y2.64075
G01 X-4.58271 Y2.63925
G01 X-4.58132 Y2.63786
G01 X-4.57608 Y2.63139
G01 X-4.57211 Y2.62406
G01 X-4.57136 Y2.62225
G01 X-4.56898 Y2.61427
G01 X-4.56807 Y2.60500
G01 X-4.56807 Y2.40500
G04 P0 ( dwell for no time -- G64 should not smooth over this point )
G00 Z1.00000 ( retract )

G00 X-4.26807 Y2.40500 ( rapid move to begin. )
G01 F100.00000
( Mill infeed pass 1/1 )
G01 Z-0.05000
G04 P0 ( dwell for no time -- G64 should not smooth over this point )
G01 F200.00000
G01 X-4.26807 Y2.40500
G01 X-4.26898 Y2.39573
G01 X-4.27136 Y2.38775
G01 X-4.27211 Y2.38594
G01 X-4.27557 Y2.37945
G01 X-4.27666 Y2.37782
G01 X-4.28198 Y2.37141
G01 X-4.28839 Y2.36609
G01 X-4.29002 Y2.36500
G01 X-4.29739 Y2.36112
G01 X-4.30535 Y2.35865
G01 X-4.30727 Y2.35827
G01 X-4.31459 Y2.35755
G01 X-4.31655 Y2.35755
G01 X-4.32387 Y2.35827
G01 X-4.32579 Y2.35865
G01 X-4.33375 Y2.36112
G01 X-4.34112 Y2.36500
G01 X-4.34275 Y2.36609
G01 X-4.34843 Y2.37075
G01 X-4.34982 Y2.37214
G01 X-4.35448 Y2.37782
G01 X-4.35557 Y2.37945
G01 X-4.35904 Y2.38594
G01 X-4.35979 Y2.38775
G01 X-4.36192 Y2.39478
G01 X-4.36230 Y2.39670
G01 X-4.36307 Y2.40500
G01 X-4.36307 Y2.59670
G01 X-4.50416 Y2.83185
G01 X-4.50733 Y2.83831
G01 X-4.50796 Y2.83999
G01 X-4.50964 Y2.84606
G01 X-4.50996 Y2.84783
G01 X-4.51057 Y2.85500
G01 X-4.51057 Y3.40180
G01 X-4.55744 Y3.72986
G01 X-4.56015 Y3.73466
G01 X-4.56311 Y3.74359
G01 X-4.56354 Y3.74564
G01 X-4.56447 Y3.75500
G01 X-4.56338 Y3.76540
G01 X-4.56052 Y3.77436
G01 X-4.55967 Y3.77627
G01 X-4.55549 Y3.78351
G01 X-4.55426 Y3.78520
G01 X-4.54793 Y3.79216
G01 X-4.53947 Y3.79830
G01 X-4.52992 Y3.80255
G01 X-4.52073 Y3.80456
G01 X-4.51865 Y3.80478
G01 X-4.50924 Y3.80473
G01 X-4.50003 Y3.80282
G01 X-4.49804 Y3.80218
G01 X-4.49040 Y3.79878
G01 X-4.48859 Y3.79773
G01 X-4.48101 Y3.79216
G01 X-4.47402 Y3.78439
G01 X-4.46879 Y3.77534
G01 X-4.46556 Y3.76540
G01 X-4.46453 Y3.75605
G01 X-4.46453 Y3.75395
G01 X-4.46556 Y3.74460
G01 X-4.46768 Y3.73793
G01 X-4.42095 Y3.41066
G01 X-4.42057 Y3.40500
G01 X-4.42057 Y2.86746
G01 X-4.28454 Y2.64075
G01 X-4.28271 Y2.63925
G01 X-4.28132 Y2.63786
G01 X-4.27608 Y2.63139
G01 X-4.27211 Y2.62406
G01 X-4.27136 Y2.62225
G01 X-4.26898 Y2.61427
G01 X-4.26807 Y2.60500
G01 X-4.26807 Y2.40500
G04 P0 ( dwell for no time -- G64 should not smooth over this point )
G00 Z1.00000 ( retract )

G00 X-3.96807 Y2.40500 ( rapid move to begin. )
G01 F100.00000
( Mill infeed pass 1/1 )
G01 Z-0.05000
G04 P0 ( dwell for no time -- G64 should not smooth over this point )
G01 F200.00000
G01 X-3.96807 Y2.40500
G01 X-3.96898 Y2.39573
G01 X-3.97136 Y2.38775
G01 X-3.97211 Y2.38594
G01 X-3.97557 Y2.37945
G01 X-3.97666 Y2.37782
G01 X-3.98198 Y2.37141
G01 X-3.98839 Y2.36609
G01 X-3.99002 Y2.36500
G01 X-3.99739 Y2.36112
G01 X-4.00535 Y2.35865
G01 X-4.00727 Y2.35827
G01 X-4.01459 Y2.35755
G01 X-4.01655 Y2.35755
G01 X-4.02387 Y2.35827
G01 X-4.02579 Y2.35865
G01 X-4.03375 Y2.36112
G01 X-4.04112 Y2.36500
G01 X-4.04275 Y2.36609
G01 X-4.04843 Y2.37075
G01 X-4.04982 Y2.37214
G01 X-4.05448 Y2.37782
G01 X-4.05557 Y2.37945
G01 X-4.05904 Y2.38594
G01 X-4.05979 Y2.38775
G01 X-4.06192 Y2.39478
G01 X-4.06230 Y2.39670
G01 X-4.06307 Y2.40500
G01 X-4.06307 Y2.59670
G01 X-4.20416 Y2.83185
G01 X-4.20733 Y2.83831
G01 X-4.20796 Y2.83999
G01 X-4.20964 Y2.84606
G01 X-4.20996 Y2.84783
G01 X-4.21057 Y2.85500
G01 X-4.21057 Y3.40034
G01 X-4.27848 Y3.72459
G01 X-4.27989 Y3.72649
G01 X-4.28407 Y3.73373
G01 X-4.28492 Y3.73564
G01 X-4.28778 Y3.74460
G01 X-4.28887 Y3.75500
G01 X-4.28778 Y3.76540
G01 X-4.28492 Y3.77436
G01 X-4.28407 Y3.77627
G01 X-4.27989 Y3.78351
G01 X-4.27866 Y3.78520
G01 X-4.27233 Y3.79216
G01 X-4.26387 Y3.79830
G01 X-4.25432 Y3.80255
G01 X-4.24513 Y3.80456
G01 X-4.24305 Y3.80478
G01 X-4.23364 Y3.80473
G01 X-4.22443 Y3.80282
G01 X-4.22244 Y3.80218
G01 X-4.21480 Y3.79878
G01 X-4.21299 Y3.79773
G01 X-4.20541 Y3.79216
G01 X-4.19842 Y3.78439
G01 X-4.19319 Y3.77534
G01 X-4.19023 Y3.76641
G01 X-4.18980 Y3.76436
G01 X-4.18887 Y3.75500
G01 X-4.18980 Y3.74564
G01 X-4.19040 Y3.74309
G01 X-4.12153 Y3.41422
G01 X-4.12088 Y3.41015
G01 X-4.12057 Y3.40500
G01 X-4.12057 Y2.86746
G01 X-3.98454 Y2.64075
G01 X-3.98271 Y2.63925
G01 X-3.98132 Y2.63786
G01 X-3.97608 Y2.63139
G01 X-3.97211 Y2.62406
G01 X-3.97136 Y2.62225
G01 X-3.96898 Y2.61427
G01 X-3.96807 Y2.60500
G01 X-3.96807 Y2.40500
G04 P0 ( dwell for no time -- G64 should not smooth over this point )
G00 Z1.00000 ( retract )

G00 X-3.66807 Y2.40500 ( rapid move to begin. )
G01 F100.00000
( Mill infeed pass 1/1 )
G01 Z-0.05000
G04 P0 ( dwell for no time -- G64 should not smooth over this point )
G01 F200.00000
G01 X-3.66807 Y2.40500
G01 X-3.66898 Y2.39573
G01 X-3.67136 Y2.38775
G01 X-3.67211 Y2.38594
G01 X-3.67557 Y2.37945
G01 X-3.67666 Y2.37782
G01 X-3.68198 Y2.37141
G01 X-3.68839 Y2.36609
G01 X-3.69002 Y2.36500
G01 X-3.69739 Y2.36112
G01 X-3.70535 Y2.35865
G01 X-3.70727 Y2.35827
G01 X-3.71459 Y2.35755
G01 X-3.71655 Y2.35755
G01 X-3.72387 Y2.35827
G01 X-3.72579 Y2.35865
G01 X-3.73375 Y2.36112
G01 X-3.74112 Y2.36500
G01 X-3.74275 Y2.36609
G01 X-3.74843 Y2.37075
G01 X-3.74982 Y2.37214
G01 X-3.75448 Y2.37782
G01 X-3.75557 Y2.37945
G01 X-3.75904 Y2.38594
G01 X-3.75979 Y2.38775
G01 X-3.76192 Y2.39478
G01 X-3.76230 Y2.39670
G01 X-3.76307 Y2.40500
G01 X-3.76307 Y2.59670
G01 X-3.90416 Y2.83185
G01 X-3.90733 Y2.83831
G01 X-3.90796 Y2.83999
G01 X-3.90964 Y2.84606
G01 X-3.90996 Y2.84783
G01 X-3.91057 Y2.85500
G01 X-3.91057 Y3.73338
G01 X-3.91162 Y3.73564
G01 X-3.91448 Y3.74460
G01 X-3.91557 Y3.75500
G01 X-3.91448 Y3.76540
G01 X-3.91125 Y3.77534
G01 X-3.90602 Y3.78439
G01 X-3.89977 Y3.79142
G01 X-3.89821 Y3.79282
G01 X-3.89145 Y3.79773
G01 X-3.88964 Y3.79878
G01 X-3.88102 Y3.80255
G01 X-3.87080 Y3.80473
