( pcb2gcode 2.1.0 )
( Software-independent Gcode )

G94 ( Inches per minute feed rate. )
G20 ( Units == INCHES. )

G90 ( Absolute coordinates. )
G00 S15000 ( RPM spindle speed. )
G01 F1000.00000 ( Feedrate. )


G00 Z0.05000 (Retract to tool change height)
G04 P0.00000 (Wait for spindle to stop)
(MSG, Change tool bit to mill diameter 0.02600in)
G04 P0.00000 (Wait for spindle to get up to speed)
G04 P0 ( dwell for no time -- G64 should not smooth over this point )
G00 Z0.05000 ( retract )

G00 X-0.17269 Y2.41100 ( rapid move to begin. )
G01 F100.00000
( Mill infeed pass 1/1 )
G01 Z-0.00500
G04 P0 ( dwell for no time -- G64 should not smooth over this point )
G01 F1000.00000
G01 X-0.17269 Y2.41100
G01 X-0.17275 Y2.40973
G01 X-0.17347 Y2.40241
G01 X-0.17397 Y2.39991
G01 X-0.17610 Y2.39288
G01 X-0.17653 Y2.39167
G01 X-0.17707 Y2.39052
G01 X-0.18054 Y2.38404
G01 X-0.18120 Y2.38294
G01 X-0.18196 Y2.38192
G01 X-0.18662 Y2.37624
G01 X-0.18842 Y2.37443
G01 X-0.19410 Y2.36977
G01 X-0.19513 Y2.36901
G01 X-0.19622 Y2.36835
G01 X-0.20271 Y2.36489
G01 X-0.20386 Y2.36434
G01 X-0.20506 Y2.36391
G01 X-0.21210 Y2.36178
G01 X-0.21459 Y2.36128
G01 X-0.22191 Y2.36056
G01 X-0.22319 Y2.36050
G01 X-0.42319 Y2.36050
G01 X-0.42446 Y2.36056
G01 X-0.43178 Y2.36128
G01 X-0.43427 Y2.36178
G01 X-0.44131 Y2.36391
G01 X-0.44251 Y2.36434
G01 X-0.44366 Y2.36489
G01 X-0.45015 Y2.36835
G01 X-0.45124 Y2.36901
G01 X-0.45227 Y2.36977
G01 X-0.45795 Y2.37443
G01 X-0.45975 Y2.37624
G01 X-0.46441 Y2.38192
G01 X-0.46517 Y2.38294
G01 X-0.46583 Y2.38404
G01 X-0.46930 Y2.39052
G01 X-0.46984 Y2.39167
G01 X-0.47027 Y2.39288
G01 X-0.47240 Y2.39991
G01 X-0.47290 Y2.40241
G01 X-0.47362 Y2.40973
G01 X-0.47369 Y2.41100
G01 X-0.47362 Y2.41227
G01 X-0.47290 Y2.41959
G01 X-0.47271 Y2.42085
G01 X-0.47240 Y2.42209
G01 X-0.47117 Y2.42617
G01 X-0.46959 Y3.74114
G01 X-0.59145 Y3.86300
G01 X-0.70826 Y3.86300
G01 X-0.77357 Y3.79769
G01 X-0.77357 Y3.78338
G01 X-0.77315 Y3.78256
G01 X-0.77267 Y3.78129
G01 X-0.77008 Y3.77333
G01 X-0.76973 Y3.77202
G01 X-0.76952 Y3.77068
G01 X-0.76864 Y3.76236
G01 X-0.76857 Y3.76100
G01 X-0.76864 Y3.75964
G01 X-0.76952 Y3.75132
G01 X-0.76973 Y3.74998
G01 X-0.77008 Y3.74867
G01 X-0.77267 Y3.74071
G01 X-0.77315 Y3.73944
G01 X-0.77357 Y3.73862
G01 X-0.77357 Y3.31100
G01 X-0.77363 Y3.30973
G01 X-0.77431 Y3.30290
G01 X-0.77480 Y3.30040
G01 X-0.77679 Y3.29383
G01 X-0.77722 Y3.29263
G01 X-0.77777 Y3.29148
G01 X-0.78100 Y3.28543
G01 X-0.78242 Y3.28331
G01 X-0.78677 Y3.27800
G01 X-0.78763 Y3.27706
G01 X-0.78858 Y3.27620
G01 X-0.79388 Y3.27185
G01 X-0.79600 Y3.27043
G01 X-0.80205 Y3.26720
G01 X-0.80320 Y3.26665
G01 X-0.80440 Y3.26622
G01 X-0.81097 Y3.26423
G01 X-0.81347 Y3.26374
G01 X-0.82030 Y3.26306
G01 X-0.82157 Y3.26300
G01 X-0.82285 Y3.26306
G01 X-0.82967 Y3.26374
G01 X-0.83217 Y3.26423
G01 X-0.83874 Y3.26622
G01 X-0.83994 Y3.26665
G01 X-0.84109 Y3.26720
G01 X-0.84714 Y3.27043
G01 X-0.84926 Y3.27185
G01 X-0.85457 Y3.27620
G01 X-0.85551 Y3.27706
G01 X-0.85637 Y3.27800
G01 X-0.86072 Y3.28331
G01 X-0.86214 Y3.28543
G01 X-0.86537 Y3.29148
G01 X-0.86592 Y3.29263
G01 X-0.86635 Y3.29383
G01 X-0.86834 Y3.30040
G01 X-0.86884 Y3.30290
G01 X-0.86951 Y3.30973
G01 X-0.86957 Y3.31100
G01 X-0.86957 Y3.73862
G01 X-0.86999 Y3.73944
G01 X-0.87048 Y3.74071
G01 X-0.87111 Y3.74265
G01 X-0.99145 Y3.86300
G01 X-1.20766 Y3.86300
G01 X-1.27298 Y3.79769
G01 X-1.27298 Y3.78338
G01 X-1.27256 Y3.78256
G01 X-1.27207 Y3.78129
G01 X-1.26949 Y3.77333
G01 X-1.26914 Y3.77202
G01 X-1.26892 Y3.77068
G01 X-1.26805 Y3.76236
G01 X-1.26798 Y3.76100
G01 X-1.26805 Y3.75964
G01 X-1.26892 Y3.75132
G01 X-1.26914 Y3.74998
G01 X-1.26949 Y3.74867
G01 X-1.27207 Y3.74071
G01 X-1.27256 Y3.73944
G01 X-1.27318 Y3.73823
G01 X-1.27357 Y3.73755
G01 X-1.27357 Y3.31100
G01 X-1.27363 Y3.30973
G01 X-1.27431 Y3.30290
G01 X-1.27480 Y3.30040
G01 X-1.27679 Y3.29383
G01 X-1.27722 Y3.29263
G01 X-1.27777 Y3.29148
G01 X-1.28100 Y3.28543
G01 X-1.28242 Y3.28331
G01 X-1.28677 Y3.27800
G01 X-1.28763 Y3.27706
G01 X-1.28858 Y3.27620
G01 X-1.29388 Y3.27185
G01 X-1.29600 Y3.27043
G01 X-1.30205 Y3.26720
G01 X-1.30320 Y3.26665
G01 X-1.30440 Y3.26622
G01 X-1.31097 Y3.26423
G01 X-1.31347 Y3.26374
G01 X-1.32030 Y3.26306
G01 X-1.32157 Y3.26300
G01 X-1.32285 Y3.26306
G01 X-1.32967 Y3.26374
G01 X-1.33217 Y3.26423
G01 X-1.33874 Y3.26622
G01 X-1.33994 Y3.26665
G01 X-1.34109 Y3.26720
G01 X-1.34714 Y3.27043
G01 X-1.34926 Y3.27185
G01 X-1.35457 Y3.27620
G01 X-1.35551 Y3.27706
G01 X-1.35637 Y3.27800
G01 X-1.36072 Y3.28331
G01 X-1.36214 Y3.28543
G01 X-1.36537 Y3.29148
G01 X-1.36592 Y3.29263
G01 X-1.36635 Y3.29383
G01 X-1.36834 Y3.30040
G01 X-1.36884 Y3.30290
G01 X-1.36951 Y3.30973
G01 X-1.36957 Y3.31100
G01 X-1.36957 Y3.71300
G01 X-1.64593 Y3.71300
G01 X-1.57859 Y3.43734
G01 X-1.57546 Y3.43148
G01 X-1.57449 Y3.42912
G01 X-1.57235 Y3.42209
G01 X-1.57204 Y3.42085
G01 X-1.57185 Y3.41959
G01 X-1.57113 Y3.41227
G01 X-1.57107 Y3.41100
G01 X-1.57107 Y3.31100
G01 X-1.57113 Y3.30973
G01 X-1.57185 Y3.30241
G01 X-1.57204 Y3.30115
G01 X-1.57235 Y3.29991
G01 X-1.57449 Y3.29288
G01 X-1.57546 Y3.29052
G01 X-1.57893 Y3.28404
G01 X-1.57958 Y3.28294
G01 X-1.58034 Y3.28192
G01 X-1.58500 Y3.27624
G01 X-1.58586 Y3.27529
G01 X-1.58681 Y3.27443
G01 X-1.59249 Y3.26977
G01 X-1.59461 Y3.26835
G01 X-1.60109 Y3.26489
G01 X-1.60225 Y3.26434
G01 X-1.60345 Y3.26391
G01 X-1.61048 Y3.26178
G01 X-1.61298 Y3.26128
G01 X-1.62030 Y3.26056
G01 X-1.62157 Y3.26050
G01 X-1.62285 Y3.26056
G01 X-1.63016 Y3.26128
G01 X-1.63266 Y3.26178
G01 X-1.63970 Y3.26391
G01 X-1.64090 Y3.26434
G01 X-1.64205 Y3.26489
G01 X-1.64853 Y3.26835
G01 X-1.65065 Y3.26977
G01 X-1.65633 Y3.27443
G01 X-1.65728 Y3.27529
G01 X-1.65814 Y3.27624
G01 X-1.66280 Y3.28192
G01 X-1.66356 Y3.28294
G01 X-1.66422 Y3.28404
G01 X-1.66768 Y3.29052
G01 X-1.66866 Y3.29288
G01 X-1.67079 Y3.29991
G01 X-1.67110 Y3.30115
G01 X-1.67129 Y3.30241
G01 X-1.67201 Y3.30973
G01 X-1.67207 Y3.31100
G01 X-1.67207 Y3.41100
G01 X-1.67201 Y3.41227
G01 X-1.67180 Y3.41436
G01 X-1.74844 Y3.72806
G01 X-1.74909 Y3.72879
G01 X-1.74995 Y3.72985
G01 X-1.75069 Y3.73099
G01 X-1.75487 Y3.73823
G01 X-1.75549 Y3.73944
G01 X-1.75598 Y3.74071
G01 X-1.75856 Y3.74867
G01 X-1.75891 Y3.74998
G01 X-1.75913 Y3.75132
G01 X-1.76000 Y3.75964
G01 X-1.76007 Y3.76100
G01 X-1.76000 Y3.76236
G01 X-1.75913 Y3.77068
G01 X-1.75891 Y3.77202
G01 X-1.75856 Y3.77333
G01 X-1.75598 Y3.78129
G01 X-1.75549 Y3.78256
G01 X-1.75507 Y3.78338
G01 X-1.75507 Y3.79769
G01 X-1.77138 Y3.81400
G01 X-1.91208 Y3.81400
G01 X-1.93467 Y3.79141
G01 X-1.93467 Y3.78338
G01 X-1.93425 Y3.78256
G01 X-1.93377 Y3.78129
G01 X-1.93257 Y3.77761
G01 X-1.93109 Y3.77561
G01 X-1.92978 Y3.77342
G01 X-1.92685 Y3.76721
G01 X-1.92599 Y3.76481
G01 X-1.92433 Y3.75816
G01 X-1.92409 Y3.75691
G01 X-1.87631 Y3.43306
G01 X-1.87546 Y3.43148
G01 X-1.87449 Y3.42912
G01 X-1.87235 Y3.42209
G01 X-1.87204 Y3.42085
G01 X-1.87185 Y3.41959
G01 X-1.87113 Y3.41227
G01 X-1.87107 Y3.41100
G01 X-1.87107 Y3.31100
G01 X-1.87113 Y3.30973
G01 X-1.87185 Y3.30241
G01 X-1.87204 Y3.30115
G01 X-1.87235 Y3.29991
G01 X-1.87449 Y3.29288
G01 X-1.87546 Y3.29052
G01 X-1.87893 Y3.28404
G01 X-1.87958 Y3.28294
G01 X-1.88034 Y3.28192
G01 X-1.88501 Y3.27624
G01 X-1.88586 Y3.27529
G01 X-1.88681 Y3.27443
G01 X-1.89249 Y3.26977
G01 X-1.89461 Y3.26835
G01 X-1.90109 Y3.26489
G01 X-1.90225 Y3.26434
G01 X-1.90345 Y3.26391
G01 X-1.91048 Y3.26178
G01 X-1.91298 Y3.26128
G01 X-1.92030 Y3.26056
G01 X-1.92157 Y3.26050
G01 X-1.92285 Y3.26056
G01 X-1.93016 Y3.26128
G01 X-1.93266 Y3.26178
G01 X-1.93970 Y3.26391
G01 X-1.94090 Y3.26434
G01 X-1.94205 Y3.26489
G01 X-1.94853 Y3.26835
G01 X-1.95065 Y3.26977
G01 X-1.95633 Y3.27443
G01 X-1.95728 Y3.27529
G01 X-1.95814 Y3.27624
G01 X-1.96280 Y3.28192
G01 X-1.96356 Y3.28294
G01 X-1.96422 Y3.28404
G01 X-1.96768 Y3.29052
G01 X-1.96866 Y3.29288
G01 X-1.97079 Y3.29991
G01 X-1.97110 Y3.30115
G01 X-1.97129 Y3.30241
G01 X-1.97201 Y3.30973
G01 X-1.97207 Y3.31100
G01 X-1.97207 Y3.41100
G01 X-1.97201 Y3.41227
G01 X-1.97132 Y3.41931
G01 X-2.01564 Y3.71971
G01 X-2.01708 Y3.72076
G01 X-2.01813 Y3.72161
G01 X-2.01910 Y3.72258
G01 X-2.02469 Y3.72879
G01 X-2.02555 Y3.72985
G01 X-2.02629 Y3.73099
G01 X-2.03047 Y3.73823
G01 X-2.03109 Y3.73944
G01 X-2.03158 Y3.74071
G01 X-2.03416 Y3.74867
G01 X-2.03451 Y3.74998
G01 X-2.03473 Y3.75132
G01 X-2.03560 Y3.75964
G01 X-2.03567 Y3.76100
G01 X-2.03560 Y3.76236
G01 X-2.03473 Y3.77068
G01 X-2.03451 Y3.77202
G01 X-2.03416 Y3.77333
G01 X-2.03158 Y3.78129
G01 X-2.03109 Y3.78256
G01 X-2.03067 Y3.78338
G01 X-2.03067 Y3.79769
G01 X-2.04698 Y3.81400
G01 X-2.15069 Y3.81400
G01 X-2.18504 Y3.77965
G01 X-2.20632 Y3.75065
G01 X-2.20643 Y3.74998
G01 X-2.20678 Y3.74867
G01 X-2.20824 Y3.74417
G01 X-2.17545 Y3.43147
G01 X-2.17492 Y3.43033
G01 X-2.17449 Y3.42912
G01 X-2.17235 Y3.42209
G01 X-2.17204 Y3.42085
G01 X-2.17185 Y3.41959
G01 X-2.17113 Y3.41227
G01 X-2.17107 Y3.41100
G01 X-2.17107 Y3.31100
G01 X-2.17113 Y3.30973
G01 X-2.17185 Y3.30241
G01 X-2.17204 Y3.30115
G01 X-2.17235 Y3.29991
G01 X-2.17449 Y3.29288
G01 X-2.17546 Y3.29052
G01 X-2.17893 Y3.28404
G01 X-2.17958 Y3.28294
G01 X-2.18034 Y3.28192
G01 X-2.18501 Y3.27624
G01 X-2.18586 Y3.27529
G01 X-2.18681 Y3.27443
G01 X-2.19249 Y3.26977
G01 X-2.19461 Y3.26835
G01 X-2.20109 Y3.26489
G01 X-2.20225 Y3.26434
G01 X-2.20345 Y3.26391
G01 X-2.21048 Y3.26178
G01 X-2.21298 Y3.26128
G01 X-2.22030 Y3.26056
G01 X-2.22157 Y3.26050
G01 X-2.22285 Y3.26056
G01 X-2.23016 Y3.26128
G01 X-2.23266 Y3.26178
G01 X-2.23970 Y3.26391
G01 X-2.24090 Y3.26434
G01 X-2.24205 Y3.26489
G01 X-2.24853 Y3.26835
G01 X-2.25065 Y3.26977
G01 X-2.25633 Y3.27443
G01 X-2.25728 Y3.27529
G01 X-2.25814 Y3.27624
G01 X-2.26280 Y3.28192
G01 X-2.26356 Y3.28294
G01 X-2.26422 Y3.28404
G01 X-2.26768 Y3.29052
G01 X-2.26866 Y3.29288
G01 X-2.27079 Y3.29991
G01 X-2.27110 Y3.30115
G01 X-2.27129 Y3.30241
G01 X-2.27201 Y3.30973
G01 X-2.27207 Y3.31100
G01 X-2.27207 Y3.41100
G01 X-2.27201 Y3.41227
G01 X-2.27129 Y3.41959
G01 X-2.27110 Y3.42085
G01 X-2.27094 Y3.42151
G01 X-2.30372 Y3.73416
G01 X-2.30607 Y3.73823
G01 X-2.30669 Y3.73944
G01 X-2.30718 Y3.74071
G01 X-2.30976 Y3.74867
G01 X-2.31011 Y3.74998
G01 X-2.31033 Y3.75132
G01 X-2.31120 Y3.75964
G01 X-2.31127 Y3.76100
G01 X-2.31120 Y3.76236
G01 X-2.31033 Y3.77068
G01 X-2.31011 Y3.77202
G01 X-2.30976 Y3.77333
G01 X-2.30718 Y3.78129
G01 X-2.30669 Y3.78256
G01 X-2.30627 Y3.78338
G01 X-2.30627 Y3.79769
G01 X-2.32258 Y3.81400
G01 X-2.42467 Y3.81400
G01 X-2.47587 Y3.76280
G01 X-2.47480 Y3.75930
G01 X-2.47431 Y3.75680
G01 X-2.47363 Y3.74997
G01 X-2.47357 Y3.74870
G01 X-2.47357 Y3.42611
G01 X-2.47235 Y3.42209
G01 X-2.47204 Y3.42085
G01 X-2.47185 Y3.41959
G01 X-2.47113 Y3.41227
G01 X-2.47107 Y3.41100
G01 X-2.47107 Y3.31100
G01 X-2.47113 Y3.30973
G01 X-2.47185 Y3.30241
G01 X-2.47204 Y3.30115
G01 X-2.47235 Y3.29991
G01 X-2.47449 Y3.29288
G01 X-2.47546 Y3.29052
G01 X-2.47893 Y3.28404
G01 X-2.47958 Y3.28294
G01 X-2.48034 Y3.28192
G01 X-2.48501 Y3.27624
G01 X-2.48586 Y3.27529
G01 X-2.48681 Y3.27443
G01 X-2.49249 Y3.26977
G01 X-2.49461 Y3.26835
G01 X-2.50109 Y3.26489
G01 X-2.50225 Y3.26434
G01 X-2.50345 Y3.26391
G01 X-2.51048 Y3.26178
G01 X-2.51298 Y3.26128
G01 X-2.52030 Y3.26056
G01 X-2.52157 Y3.26050
G01 X-2.52285 Y3.26056
G01 X-2.53016 Y3.26128
G01 X-2.53266 Y3.26178
G01 X-2.53970 Y3.26391
G01 X-2.54090 Y3.26434
G01 X-2.54205 Y3.26489
G01 X-2.54853 Y3.26835
G01 X-2.55065 Y3.26977
G01 X-2.55633 Y3.27443
G01 X-2.55728 Y3.27529
G01 X-2.55814 Y3.27624
G01 X-2.56280 Y3.28192
G01 X-2.56356 Y3.28294
G01 X-2.56422 Y3.28404
G01 X-2.56768 Y3.29052
G01 X-2.56866 Y3.29288
G01 X-2.57079 Y3.29991
G01 X-2.57110 Y3.30115
G01 X-2.57129 Y3.30241
G01 X-2.57201 Y3.30973
G01 X-2.57207 Y3.31100
G01 X-2.57207 Y3.41100
G01 X-2.57201 Y3.41227
G01 X-2.57129 Y3.41959
G01 X-2.57110 Y3.42085
G01 X-2.57079 Y3.42209
G01 X-2.56957 Y3.42611
G01 X-2.56957 Y3.72185
G01 X-2.57030 Y3.72258
G01 X-2.57589 Y3.72879
G01 X-2.57675 Y3.72985
G01 X-2.57749 Y3.73099
G01 X-2.58167 Y3.73823
G01 X-2.58229 Y3.73944
G01 X-2.58278 Y3.74071
G01 X-2.58536 Y3.74867
G01 X-2.58571 Y3.74998
G01 X-2.58593 Y3.75132
G01 X-2.58680 Y3.75964
G01 X-2.58687 Y3.76100
G01 X-2.58680 Y3.76236
G01 X-2.58593 Y3.77068
G01 X-2.58571 Y3.77202
G01 X-2.58536 Y3.77333
G01 X-2.58278 Y3.78129
G01 X-2.58229 Y3.78256
G01 X-2.58187 Y3.78338
G01 X-2.58187 Y3.79769
G01 X-2.59818 Y3.81400
G01 X-2.85069 Y3.81400
G01 X-2.85907 Y3.80562
G01 X-2.85907 Y3.78338
G01 X-2.85865 Y3.78256
G01 X-2.85817 Y3.78129
G01 X-2.85558 Y3.77333
G01 X-2.85523 Y3.77202
G01 X-2.85502 Y3.77068
G01 X-2.85414 Y3.76236
G01 X-2.85407 Y3.76100
G01 X-2.85414 Y3.75964
G01 X-2.85502 Y3.75132
G01 X-2.85523 Y3.74998
G01 X-2.85558 Y3.74867
G01 X-2.85699 Y3.74434
G01 X-2.77889 Y3.43790
G01 X-2.77546 Y3.43148
G01 X-2.77449 Y3.42912
G01 X-2.77235 Y3.42209
G01 X-2.77204 Y3.42085
G01 X-2.77185 Y3.41959
G01 X-2.77113 Y3.41227
G01 X-2.77107 Y3.41100
G01 X-2.77107 Y3.31100
G01 X-2.77113 Y3.30973
G01 X-2.77185 Y3.30241
G01 X-2.77204 Y3.30115
G01 X-2.77235 Y3.29991
G01 X-2.77449 Y3.29288
G01 X-2.77546 Y3.29052
G01 X-2.77893 Y3.28404
G01 X-2.77958 Y3.28294
G01 X-2.78034 Y3.28192
G01 X-2.78501 Y3.27624
G01 X-2.78586 Y3.27529
G01 X-2.78681 Y3.27443
G01 X-2.79249 Y3.26977
G01 X-2.79461 Y3.26835
G01 X-2.80109 Y3.26489
G01 X-2.80225 Y3.26434
G01 X-2.80345 Y3.26391
G01 X-2.81048 Y3.26178
G01 X-2.81298 Y3.26128
G01 X-2.82030 Y3.26056
G01 X-2.82157 Y3.26050
G01 X-2.82285 Y3.26056
G01 X-2.83016 Y3.26128
G01 X-2.83266 Y3.26178
G01 X-2.83970 Y3.26391
G01 X-2.84090 Y3.26434
G01 X-2.84205 Y3.26489
G01 X-2.84853 Y3.26835
G01 X-2.85065 Y3.26977
G01 X-2.85633 Y3.27443
G01 X-2.85728 Y3.27529
G01 X-2.85814 Y3.27624
G01 X-2.86280 Y3.28192
G01 X-2.86356 Y3.28294
G01 X-2.86422 Y3.28404
G01 X-2.86768 Y3.29052
G01 X-2.86866 Y3.29288
G01 X-2.87079 Y3.29991
G01 X-2.87110 Y3.30115
G01 X-2.87129 Y3.30241
G01 X-2.87201 Y3.30973
G01 X-2.87207 Y3.31100
G01 X-2.87207 Y3.41100
G01 X-2.87201 Y3.41227
G01 X-2.87185 Y3.41391
G01 X-2.95358 Y3.73465
G01 X-2.95384 Y3.73590
G01 X-2.95395 Y3.73664
G01 X-2.95487 Y3.73823
G01 X-2.95549 Y3.73944
G01 X-2.95598 Y3.74071
G01 X-2.95856 Y3.74867
G01 X-2.95891 Y3.74998
G01 X-2.95913 Y3.75132
G01 X-2.96000 Y3.75964
G01 X-2.96007 Y3.76100
G01 X-2.96000 Y3.76236
G01 X-2.95913 Y3.77068
G01 X-2.95891 Y3.77202
G01 X-2.95856 Y3.77333
G01 X-2.95598 Y3.78129
G01 X-2.95549 Y3.78256
G01 X-2.95507 Y3.78338
G01 X-2.95507 Y3.79769
G01 X-2.97138 Y3.81400
G01 X-3.11208 Y3.81400
G01 X-3.13467 Y3.79141
G01 X-3.13467 Y3.78433
G01 X-3.13413 Y3.78379
G01 X-3.13332 Y3.78280
G01 X-3.12894 Y3.77689
G01 X-3.12824 Y3.77583
G01 X-3.12763 Y3.77470
G01 X-3.12450 Y3.76806
G01 X-3.12364 Y3.76565
G01 X-3.12186 Y3.75852
G01 X-3.12161 Y3.75727
G01 X-3.07161 Y3.41837
G01 X-3.07151 Y3.41742
G01 X-3.07111 Y3.41195
G01 X-3.07107 Y3.41100
G01 X-3.07107 Y3.31100
G01 X-3.07113 Y3.30973
G01 X-3.07185 Y3.30241
G01 X-3.07204 Y3.30115
G01 X-3.07235 Y3.29991
G01 X-3.07449 Y3.29288
G01 X-3.07546 Y3.29052
G01 X-3.07893 Y3.28404
G01 X-3.07958 Y3.28294
G01 X-3.08034 Y3.28192
G01 X-3.08501 Y3.27624
G01 X-3.08586 Y3.27529
G01 X-3.08681 Y3.27443
G01 X-3.09249 Y3.26977
G01 X-3.09461 Y3.26835
G01 X-3.10109 Y3.26489
G01 X-3.10225 Y3.26434
G01 X-3.10345 Y3.26391
G01 X-3.11048 Y3.26178
G01 X-3.11298 Y3.26128
G01 X-3.12030 Y3.26056
G01 X-3.12157 Y3.26050
G01 X-3.12285 Y3.26056
G01 X-3.13016 Y3.26128
G01 X-3.13266 Y3.26178
G01 X-3.13970 Y3.26391
G01 X-3.14090 Y3.26434
G01 X-3.14205 Y3.26489
G01 X-3.14853 Y3.26835
G01 X-3.15065 Y3.26977
G01 X-3.15633 Y3.27443
G01 X-3.15728 Y3.27529
G01 X-3.15814 Y3.27624
G01 X-3.16280 Y3.28192
G01 X-3.16356 Y3.28294
G01 X-3.16422 Y3.28404
G01 X-3.16768 Y3.29052
G01 X-3.16866 Y3.29288
G01 X-3.17079 Y3.29991
G01 X-3.17110 Y3.30115
G01 X-3.17129 Y3.30241
G01 X-3.17201 Y3.30973
G01 X-3.17207 Y3.31100
G01 X-3.17207 Y3.40729
G01 X-3.21850 Y3.72198
G01 X-3.21910 Y3.72258
G01 X-3.22469 Y3.72879
G01 X-3.22555 Y3.72985
G01 X-3.22629 Y3.73099
G01 X-3.23047 Y3.73823
G01 X-3.23109 Y3.73944
G01 X-3.23158 Y3.74071
G01 X-3.23416 Y3.74867
G01 X-3.23451 Y3.74998
G01 X-3.23473 Y3.75132
G01 X-3.23560 Y3.75964
G01 X-3.23567 Y3.76100
G01 X-3.23560 Y3.76236
G01 X-3.23473 Y3.77068
G01 X-3.23451 Y3.77202
G01 X-3.23416 Y3.77333
G01 X-3.23158 Y3.78129
G01 X-3.23109 Y3.78256
G01 X-3.23067 Y3.78338
G01 X-3.23067 Y3.79769
G01 X-3.24698 Y3.81400
G01 X-3.39396 Y3.81400
G01 X-3.41027 Y3.79769
G01 X-3.41027 Y3.78338
G01 X-3.40985 Y3.78256
G01 X-3.40937 Y3.78129
G01 X-3.40678 Y3.77333
G01 X-3.40643 Y3.77202
G01 X-3.40622 Y3.77068
G01 X-3.40534 Y3.76236
G01 X-3.40527 Y3.76100
G01 X-3.40534 Y3.75964
G01 X-3.40622 Y3.75132
G01 X-3.40643 Y3.74998
G01 X-3.40678 Y3.74867
G01 X-3.40824 Y3.74417
G01 X-3.37545 Y3.43146
G01 X-3.37492 Y3.43033
G01 X-3.37449 Y3.42912
G01 X-3.37235 Y3.42209
G01 X-3.37204 Y3.42085
G01 X-3.37185 Y3.41959
G01 X-3.37113 Y3.41227
G01 X-3.37107 Y3.41100
G01 X-3.37107 Y3.31100
G01 X-3.37113 Y3.30973
G01 X-3.37185 Y3.30241
G01 X-3.37204 Y3.30115
G01 X-3.37235 Y3.29991
G01 X-3.37449 Y3.29288
G01 X-3.37546 Y3.29052
G01 X-3.37893 Y3.28404
G01 X-3.37958 Y3.28294
G01 X-3.38034 Y3.28192
G01 X-3.38501 Y3.27624
G01 X-3.38586 Y3.27529
G01 X-3.38681 Y3.27443
G01 X-3.39249 Y3.26977
G01 X-3.39461 Y3.26835
G01 X-3.40109 Y3.26489
G01 X-3.40225 Y3.26434
G01 X-3.40345 Y3.26391
G01 X-3.41048 Y3.26178
G01 X-3.41298 Y3.26128
G01 X-3.42030 Y3.26056
G01 X-3.42157 Y3.26050
G01 X-3.42285 Y3.26056
G01 X-3.43016 Y3.26128
G01 X-3.43266 Y3.26178
G01 X-3.43970 Y3.26391
G01 X-3.44090 Y3.26434
G01 X-3.44205 Y3.26489
G01 X-3.44853 Y3.26835
G01 X-3.45065 Y3.26977
G01 X-3.45633 Y3.27443
G01 X-3.45728 Y3.27529
G01 X-3.45814 Y3.27624
G01 X-3.46280 Y3.28192
G01 X-3.46356 Y3.28294
G01 X-3.46422 Y3.28404
G01 X-3.46768 Y3.29052
G01 X-3.46866 Y3.29288
G01 X-3.47079 Y3.29991
G01 X-3.47110 Y3.30115
G01 X-3.47129 Y3.30241
G01 X-3.47201 Y3.30973
G01 X-3.47207 Y3.31100
G01 X-3.47207 Y3.41100
G01 X-3.47201 Y3.41227
G01 X-3.47129 Y3.41959
G01 X-3.47110 Y3.42085
G01 X-3.47094 Y3.42151
G01 X-3.50372 Y3.73416
G01 X-3.50607 Y3.73823
G01 X-3.50669 Y3.73944
G01 X-3.50718 Y3.74071
G01 X-3.50976 Y3.74867
G01 X-3.51011 Y3.74998
G01 X-3.51033 Y3.75132
G01 X-3.51120 Y3.75964
G01 X-3.51127 Y3.76100
G01 X-3.51120 Y3.76236
G01 X-3.51033 Y3.77068
G01 X-3.51011 Y3.77202
G01 X-3.50976 Y3.77333
G01 X-3.50718 Y3.78129
G01 X-3.50669 Y3.78256
G01 X-3.50627 Y3.78338
G01 X-3.50627 Y3.79769
G01 X-3.52258 Y3.81400
G01 X-3.66956 Y3.81400
G01 X-3.68587 Y3.79769
G01 X-3.68587 Y3.78338
G01 X-3.68545 Y3.78256
G01 X-3.68497 Y3.78129
G01 X-3.68238 Y3.77333
G01 X-3.68203 Y3.77202
G01 X-3.68182 Y3.77068
G01 X-3.68094 Y3.76236
G01 X-3.68087 Y3.76100
G01 X-3.68094 Y3.75964
G01 X-3.68182 Y3.75132
G01 X-3.68203 Y3.74998
G01 X-3.68238 Y3.74867
G01 X-3.68497 Y3.74071
G01 X-3.68545 Y3.73944
G01 X-3.68566 Y3.73904
G01 X-3.67360 Y3.41277
G01 X-3.67360 Y3.41253
G01 X-3.67357 Y3.41124
G01 X-3.67357 Y3.41100
G01 X-3.67357 Y3.31100
G01 X-3.67363 Y3.30973
G01 X-3.67431 Y3.30290
G01 X-3.67480 Y3.30040
G01 X-3.67679 Y3.29383
G01 X-3.67777 Y3.29148
G01 X-3.68100 Y3.28543
G01 X-3.68166 Y3.28433
G01 X-3.68242 Y3.28331
G01 X-3.68677 Y3.27800
G01 X-3.68858 Y3.27620
G01 X-3.69388 Y3.27185
G01 X-3.69490 Y3.27109
G01 X-3.69600 Y3.27043
G01 X-3.70205 Y3.26720
G01 X-3.70440 Y3.26622
G01 X-3.71097 Y3.26423
G01 X-3.71347 Y3.26374
G01 X-3.72030 Y3.26306
G01 X-3.72157 Y3.26300
G01 X-3.72285 Y3.26306
G01 X-3.72967 Y3.26374
G01 X-3.73217 Y3.26423
G01 X-3.73874 Y3.26622
G01 X-3.74109 Y3.26720
G01 X-3.74714 Y3.27043
G01 X-3.74824 Y3.27109
G01 X-3.74926 Y3.27185
G01 X-3.75457 Y3.27620
G01 X-3.75637 Y3.27800
G01 X-3.76072 Y3.28331
G01 X-3.76148 Y3.28433
G01 X-3.76214 Y3.28543
G01 X-3.76537 Y3.29148
G01 X-3.76635 Y3.29383
G01 X-3.76834 Y3.30040
G01 X-3.76884 Y3.30290
G01 X-3.76951 Y3.30973
G01 X-3.76957 Y3.31100
G01 X-3.76957 Y3.41010
G01 X-3.78169 Y3.73827
G01 X-3.78229 Y3.73944
G01 X-3.78278 Y3.74071
G01 X-3.78536 Y3.74867
G01 X-3.78571 Y3.74998
G01 X-3.78593 Y3.75132
G01 X-3.78680 Y3.75964
G01 X-3.78687 Y3.76100
G01 X-3.78680 Y3.76236
G01 X-3.78593 Y3.77068
G01 X-3.78571 Y3.77202
G01 X-3.78536 Y3.77333
G01 X-3.78278 Y3.78129
G01 X-3.78229 Y3.78256
G01 X-3.78187 Y3.78338
G01 X-3.78187 Y3.79769
G01 X-3.79818 Y3.81400
G01 X-4.05069 Y3.81400
G01 X-4.05907 Y3.80562
G01 X-4.05907 Y3.78338
G01 X-4.05865 Y3.78256
G01 X-4.05817 Y3.78129
G01 X-4.05558 Y3.77333
G01 X-4.05523 Y3.77202
G01 X-4.05502 Y3.77068
G01 X-4.05414 Y3.76236
G01 X-4.05407 Y3.76100
G01 X-4.05414 Y3.75964
G01 X-4.05502 Y3.75132
G01 X-4.05513 Y3.75063
G01 X-3.97494 Y3.42239
G01 X-3.97478 Y3.42163
G01 X-3.97403 Y3.41751
G01 X-3.97385 Y3.41596
G01 X-3.97359 Y3.41178
G01 X-3.97357 Y3.41100
G01 X-3.97357 Y3.31100
G01 X-3.97363 Y3.30973
G01 X-3.97431 Y3.30290
G01 X-3.97449 Y3.30164
G01 X-3.97480 Y3.30040
G01 X-3.97679 Y3.29383
G01 X-3.97777 Y3.29148
G01 X-3.98100 Y3.28543
G01 X-3.98166 Y3.28433
G01 X-3.98242 Y3.28331
G01 X-3.98677 Y3.27800
G01 X-3.98858 Y3.27620
G01 X-3.99388 Y3.27185
G01 X-3.99490 Y3.27109
G01 X-3.99600 Y3.27043
G01 X-4.00205 Y3.26720
G01 X-4.00440 Y3.26622
G01 X-4.01097 Y3.26423
G01 X-4.01347 Y3.26374
G01 X-4.02030 Y3.26306
G01 X-4.02157 Y3.26300
G01 X-4.02285 Y3.26306
G01 X-4.02967 Y3.26374
G01 X-4.03217 Y3.26423
G01 X-4.03874 Y3.26622
G01 X-4.04109 Y3.26720
G01 X-4.04714 Y3.27043
G01 X-4.04824 Y3.27109
G01 X-4.04926 Y3.27185
G01 X-4.05457 Y3.27620
G01 X-4.05637 Y3.27800
G01 X-4.06072 Y3.28331
G01 X-4.06148 Y3.28433
G01 X-4.06214 Y3.28543
G01 X-4.06537 Y3.29148
G01 X-4.06635 Y3.29383
G01 X-4.06834 Y3.30040
G01 X-4.06884 Y3.30290
G01 X-4.06951 Y3.30973
G01 X-4.06957 Y3.31100
G01 X-4.06957 Y3.40522
G01 X-4.14844 Y3.72806
G01 X-4.14909 Y3.72879
G01 X-4.14995 Y3.72985
G01 X-4.15069 Y3.73099
G01 X-4.15487 Y3.73823
G01 X-4.15549 Y3.73944
G01 X-4.15598 Y3.74071
G01 X-4.15856 Y3.74867
G01 X-4.15891 Y3.74998
G01 X-4.15913 Y3.75132
G01 X-4.16000 Y3.75964
G01 X-4.16007 Y3.76100
G01 X-4.16000 Y3.76236
G01 X-4.15913 Y3.77068
G01 X-4.15891 Y3.77202
G01 X-4.15856 Y3.77333
G01 X-4.15598 Y3.78129
G01 X-4.15549 Y3.78256
G01 X-4.15507 Y3.78338
G01 X-4.15507 Y3.79769
G01 X-4.17138 Y3.81400
G01 X-4.31836 Y3.81400
G01 X-4.33467 Y3.79769
G01 X-4.33467 Y3.78338
G01 X-4.33425 Y3.78256
G01 X-4.33377 Y3.78129
G01 X-4.33118 Y3.77333
G01 X-4.33083 Y3.77202
G01 X-4.33062 Y3.77068
G01 X-4.32974 Y3.76236
G01 X-4.32967 Y3.76100
G01 X-4.32974 Y3.75964
G01 X-4.33062 Y3.75132
G01 X-4.33083 Y3.74998
G01 X-4.33118 Y3.74867
G01 X-4.33158 Y3.74744
G01 X-4.27429 Y3.41925
G01 X-4.27414 Y3.41814
G01 X-4.27362 Y3.41212
G01 X-4.27357 Y3.41100
G01 X-4.27357 Y3.31100
G01 X-4.27363 Y3.30973
G01 X-4.27431 Y3.30290
G01 X-4.27449 Y3.30164
G01 X-4.27480 Y3.30040
G01 X-4.27679 Y3.29383
G01 X-4.27777 Y3.29148
G01 X-4.28100 Y3.28543
G01 X-4.28166 Y3.28433
G01 X-4.28242 Y3.28331
G01 X-4.28677 Y3.27800
G01 X-4.28858 Y3.27620
G01 X-4.29388 Y3.27185
G01 X-4.29490 Y3.27109
G01 X-4.29600 Y3.27043
G01 X-4.30205 Y3.26720
G01 X-4.30440 Y3.26622
G01 X-4.31097 Y3.26423
G01 X-4.31347 Y3.26374
G01 X-4.32030 Y3.26306
G01 X-4.32157 Y3.26300
G01 X-4.32285 Y3.26306
G01 X-4.32967 Y3.26374
G01 X-4.33217 Y3.26423
G01 X-4.33874 Y3.26622
G01 X-4.34109 Y3.26720
G01 X-4.34714 Y3.27043
G01 X-4.34824 Y3.27109
G01 X-4.34926 Y3.27185
G01 X-4.35457 Y3.27620
G01 X-4.35637 Y3.27800
G01 X-4.36072 Y3.28331
G01 X-4.36148 Y3.28433
G01 X-4.36214 Y3.28543
G01 X-4.36537 Y3.29148
G01 X-4.36635 Y3.29383
G01 X-4.36834 Y3.30040
G01 X-4.36884 Y3.30290
G01 X-4.36951 Y3.30973
G01 X-4.36957 Y3.31100
G01 X-4.36957 Y3.40684
G01 X-4.42611 Y3.73071
G01 X-4.42629 Y3.73099
G01 X-4.43047 Y3.73823
G01 X-4.43109 Y3.73944
G01 X-4.43158 Y3.74071
G01 X-4.43416 Y3.74867
G01 X-4.43451 Y3.74998
G01 X-4.43473 Y3.75132
G01 X-4.43560 Y3.75964
G01 X-4.43567 Y3.76100
G01 X-4.43560 Y3.76236
G01 X-4.43473 Y3.77068
G01 X-4.43451 Y3.77202
G01 X-4.43416 Y3.77333
G01 X-4.43158 Y3.78129
G01 X-4.43109 Y3.78256
G01 X-4.43067 Y3.78338
G01 X-4.43067 Y3.79769
G01 X-4.44698 Y3.81400
G01 X-4.59396 Y3.81400
G01 X-4.61027 Y3.79769
G01 X-4.61027 Y3.78338
G01 X-4.60985 Y3.78256
G01 X-4.60937 Y3.78129
G01 X-4.60678 Y3.77333
G01 X-4.60643 Y3.77202
G01 X-4.60622 Y3.77068
G01 X-4.60534 Y3.76236
G01 X-4.60527 Y3.76100
G01 X-4.60534 Y3.75964
G01 X-4.60622 Y3.75132
G01 X-4.60643 Y3.74998
G01 X-4.60678 Y3.74867
G01 X-4.60793 Y3.74513
G01 X-4.57383 Y3.41595
G01 X-4.57377 Y3.41528
G01 X-4.57359 Y3.41167
G01 X-4.57357 Y3.41100
G01 X-4.57357 Y3.31100
G01 X-4.57363 Y3.30973
G01 X-4.57431 Y3.30290
G01 X-4.57480 Y3.30040
G01 X-4.57679 Y3.29383
G01 X-4.57777 Y3.29148
G01 X-4.58100 Y3.28543
G01 X-4.58166 Y3.28433
G01 X-4.58242 Y3.28331
G01 X-4.58677 Y3.27800
G01 X-4.58858 Y3.27620
G01 X-4.59388 Y3.27185
G01 X-4.59490 Y3.27109
G01 X-4.59600 Y3.27043
G01 X-4.60205 Y3.26720
G01 X-4.60440 Y3.26622
G01 X-4.61097 Y3.26423
G01 X-4.61347 Y3.26374
G01 X-4.62030 Y3.26306
G01 X-4.62157 Y3.26300
G01 X-4.62285 Y3.26306
G01 X-4.62967 Y3.26374
G01 X-4.63217 Y3.26423
G01 X-4.63874 Y3.26622
G01 X-4.64109 Y3.26720
G01 X-4.64714 Y3.27043
G01 X-4.64824 Y3.27109
G01 X-4.64926 Y3.27185
G01 X-4.65457 Y3.27620
G01 X-4.65637 Y3.27800
G01 X-4.66072 Y3.28331
G01 X-4.66148 Y3.28433
G01 X-4.66214 Y3.28543
G01 X-4.66537 Y3.29148
G01 X-4.66635 Y3.29383
G01 X-4.66834 Y3.30040
G01 X-4.66884 Y3.30290
G01 X-4.66951 Y3.30973
G01 X-4.66957 Y3.31100
G01 X-4.66957 Y3.40852
G01 X-4.70322 Y3.73329
G01 X-4.70607 Y3.73823
G01 X-4.70669 Y3.73944
G01 X-4.70718 Y3.74071
G01 X-4.70976 Y3.74867
G01 X-4.71011 Y3.74998
G01 X-4.71033 Y3.75132
G01 X-4.71120 Y3.75964
G01 X-4.71127 Y3.76100
G01 X-4.71120 Y3.76236
G01 X-4.71033 Y3.77068
G01 X-4.71011 Y3.77202
G01 X-4.70976 Y3.77333
G01 X-4.70718 Y3.78129
G01 X-4.70669 Y3.78256
G01 X-4.70627 Y3.78338
G01 X-4.70627 Y3.79769
G01 X-4.72258 Y3.81400
G01 X-4.85069 Y3.81400
G01 X-4.87942 Y3.78527
G01 X-4.88282 Y3.77468
G01 X-4.88238 Y3.77333
G01 X-4.88203 Y3.77202
G01 X-4.88182 Y3.77068
G01 X-4.88094 Y3.76236
G01 X-4.88087 Y3.76100
G01 X-4.88094 Y3.75964
G01 X-4.88182 Y3.75132
G01 X-4.88203 Y3.74998
G01 X-4.88238 Y3.74867
G01 X-4.88437 Y3.74254
G01 X-4.87360 Y3.41257
G01 X-4.87359 Y3.41235
G01 X-4.87357 Y3.41121
G01 X-4.87357 Y3.41100
G01 X-4.87357 Y3.31100
G01 X-4.87363 Y3.30973
G01 X-4.87431 Y3.30290
G01 X-4.87449 Y3.30164
G01 X-4.87480 Y3.30040
G01 X-4.87679 Y3.29383
G01 X-4.87777 Y3.29148
G01 X-4.88100 Y3.28543
G01 X-4.88166 Y3.28433
G01 X-4.88242 Y3.28331
G01 X-4.88677 Y3.27800
G01 X-4.88858 Y3.27620
G01 X-4.89388 Y3.27185
G01 X-4.89490 Y3.27109
G01 X-4.89600 Y3.27043
G01 X-4.90205 Y3.26720
G01 X-4.90440 Y3.26622
G01 X-4.91097 Y3.26423
G01 X-4.91347 Y3.26374
G01 X-4.92030 Y3.26306
G01 X-4.92157 Y3.26300
G01 X-4.92285 Y3.26306
G01 X-4.92967 Y3.26374
G01 X-4.93217 Y3.26423
G01 X-4.93874 Y3.26622
G01 X-4.94109 Y3.26720
G01 X-4.94714 Y3.27043
G01 X-4.94824 Y3.27109
G01 X-4.94926 Y3.27185
G01 X-4.95457 Y3.27620
G01 X-4.95637 Y3.27800
G01 X-4.96072 Y3.28331
G01 X-4.96148 Y3.28433
G01 X-4.96214 Y3.28543
G01 X-4.96537 Y3.29148
G01 X-4.96635 Y3.29383
G01 X-4.96834 Y3.30040
G01 X-4.96884 Y3.30290
G01 X-4.96951 Y3.30973
G01 X-4.96957 Y3.31100
G01 X-4.96957 Y3.41021
G01 X-4.98020 Y3.73568
G01 X-4.98167 Y3.73823
G01 X-4.98229 Y3.73944
G01 X-4.98278 Y3.74071
G01 X-4.98536 Y3.74867
G01 X-4.98571 Y3.74998
G01 X-4.98593 Y3.75132
G01 X-4.98680 Y3.75964
G01 X-4.98687 Y3.76100
G01 X-4.98680 Y3.76236
G01 X-4.98593 Y3.77068
G01 X-4.98571 Y3.77202
G01 X-4.98536 Y3.77333
G01 X-4.98278 Y3.78129
G01 X-4.98229 Y3.78256
G01 X-4.98187 Y3.78338
G01 X-4.98187 Y3.79769
G01 X-4.99818 Y3.81400
G01 X-5.25069 Y3.81400
G01 X-5.25907 Y3.80562
G01 X-5.25907 Y3.78338
G01 X-5.25865 Y3.78256
G01 X-5.25817 Y3.78129
G01 X-5.25558 Y3.77333
G01 X-5.25523 Y3.77202
G01 X-5.25502 Y3.77068
G01 X-5.25414 Y3.76236
G01 X-5.25407 Y3.76100
G01 X-5.25414 Y3.75964
G01 X-5.25502 Y3.75132
G01 X-5.25513 Y3.75063
G01 X-5.17494 Y3.42239
G01 X-5.17478 Y3.42163
G01 X-5.17403 Y3.41751
G01 X-5.17385 Y3.41596
G01 X-5.17359 Y3.41178
G01 X-5.17357 Y3.41100
G01 X-5.17357 Y3.31100
G01 X-5.17363 Y3.30973
G01 X-5.17431 Y3.30290
G01 X-5.17480 Y3.30040
G01 X-5.17679 Y3.29383
G01 X-5.17777 Y3.29148
G01 X-5.18100 Y3.28543
G01 X-5.18166 Y3.28433
G01 X-5.18242 Y3.28331
G01 X-5.18677 Y3.27800
G01 X-5.18858 Y3.27620
G01 X-5.19388 Y3.27185
G01 X-5.19490 Y3.27109
G01 X-5.19600 Y3.27043
G01 X-5.20205 Y3.26720
G01 X-5.20440 Y3.26622
G01 X-5.21097 Y3.26423
G01 X-5.21347 Y3.26374
G01 X-5.22030 Y3.26306
G01 X-5.22157 Y3.26300
G01 X-5.22285 Y3.26306
G01 X-5.22967 Y3.26374
G01 X-5.23217 Y3.26423
G01 X-5.23874 Y3.26622
G01 X-5.24109 Y3.26720
G01 X-5.24714 Y3.27043
G01 X-5.24824 Y3.27109
G01 X-5.24926 Y3.27185
G01 X-5.25457 Y3.27620
G01 X-5.25637 Y3.27800
G01 X-5.26072 Y3.28331
G01 X-5.26148 Y3.28433
G01 X-5.26214 Y3.28543
G01 X-5.26537 Y3.29148
G01 X-5.26635 Y3.29383
G01 X-5.26834 Y3.30040
G01 X-5.26884 Y3.30290
G01 X-5.26951 Y3.30973
G01 X-5.26957 Y3.31100
G01 X-5.26957 Y3.40522
G01 X-5.34844 Y3.72806
G01 X-5.34909 Y3.72879
G01 X-5.34995 Y3.72985
G01 X-5.35069 Y3.73099
G01 X-5.35487 Y3.73823
G01 X-5.35549 Y3.73944
G01 X-5.35598 Y3.74071
G01 X-5.35856 Y3.74867
G01 X-5.35891 Y3.74998
G01 X-5.35913 Y3.75132
G01 X-5.36000 Y3.75964
G01 X-5.36007 Y3.76100
G01 X-5.36000 Y3.76236
G01 X-5.35913 Y3.77068
G01 X-5.35891 Y3.77202
G01 X-5.35856 Y3.77333
G01 X-5.35598 Y3.78129
G01 X-5.35549 Y3.78256
G01 X-5.35507 Y3.78338
G01 X-5.35507 Y3.79769
G01 X-5.37138 Y3.81400
G01 X-5.51836 Y3.81400
G01 X-5.53467 Y3.79769
G01 X-5.53467 Y3.78338
G01 X-5.53425 Y3.78256
G01 X-5.53377 Y3.78129
G01 X-5.53118 Y3.77333
G01 X-5.53083 Y3.77202
G01 X-5.53062 Y3.77068
G01 X-5.52974 Y3.76236
G01 X-5.52967 Y3.76100
G01 X-5.52974 Y3.75964
G01 X-5.53062 Y3.75132
G01 X-5.53083 Y3.74998
G01 X-5.53118 Y3.74867
G01 X-5.53158 Y3.74745
G01 X-5.47429 Y3.41925
G01 X-5.47414 Y3.41814
G01 X-5.47362 Y3.41212
G01 X-5.47357 Y3.41100
G01 X-5.47357 Y3.31100
G01 X-5.47363 Y3.30973
G01 X-5.47431 Y3.30290
G01 X-5.47480 Y3.30040
G01 X-5.47679 Y3.29383
G01 X-5.47722 Y3.29263
G01 X-5.47777 Y3.29148
G01 X-5.48100 Y3.28543
G01 X-5.48242 Y3.28331
G01 X-5.48677 Y3.27800
G01 X-5.48763 Y3.27706
G01 X-5.48858 Y3.27620
G01 X-5.49388 Y3.27185
G01 X-5.49490 Y3.27109
G01 X-5.49600 Y3.27043
G01 X-5.50205 Y3.26720
G01 X-5.50320 Y3.26665
G01 X-5.50440 Y3.26622
G01 X-5.51097 Y3.26423
G01 X-5.51221 Y3.26392
G01 X-5.51347 Y3.26374
G01 X-5.52030 Y3.26306
G01 X-5.52285 Y3.26306
G01 X-5.52967 Y3.26374
G01 X-5.53093 Y3.26392
G01 X-5.53217 Y3.26423
G01 X-5.53874 Y3.26622
G01 X-5.53994 Y3.26665
G01 X-5.54109 Y3.26720
G01 X-5.54714 Y3.27043
G01 X-5.54824 Y3.27109
G01 X-5.54926 Y3.27185
G01 X-5.55457 Y3.27620
G01 X-5.55551 Y3.27706
G01 X-5.55637 Y3.27800
G01 X-5.56072 Y3.28331
G01 X-5.56214 Y3.28543
G01 X-5.56537 Y3.29148
G01 X-5.56592 Y3.29263
G01 X-5.56635 Y3.29383
G01 X-5.56834 Y3.30040
G01 X-5.56884 Y3.30290
G01 X-5.56951 Y3.30973
G01 X-5.56957 Y3.31100
G01 X-5.56957 Y3.40684
G01 X-5.62611 Y3.73071
G01 X-5.62629 Y3.73099
G01 X-5.63047 Y3.73823
G01 X-5.63109 Y3.73944
G01 X-5.63158 Y3.74071
G01 X-5.63416 Y3.74867
G01 X-5.63451 Y3.74998
G01 X-5.63472 Y3.75132
G01 X-5.63560 Y3.75964
G01 X-5.63567 Y3.76100
G01 X-5.63560 Y3.76236
G01 X-5.63472 Y3.77068
G01 X-5.63451 Y3.77202
G01 X-5.63416 Y3.77333
G01 X-5.63158 Y3.78129
G01 X-5.63109 Y3.78256
G01 X-5.63067 Y3.78338
G01 X-5.63067 Y3.79769
G01 X-5.64698 Y3.81400
G01 X-5.80069 Y3.81400
G01 X-5.81027 Y3.80442
G01 X-5.81027 Y3.78338
G01 X-5.80985 Y3.78256
G01 X-5.80936 Y3.78129
G01 X-5.80678 Y3.77333
G01 X-5.80643 Y3.77202
G01 X-5.80622 Y3.77068
G01 X-5.80534 Y3.76236
G01 X-5.80527 Y3.76100
G01 X-5.80534 Y3.75964
G01 X-5.80622 Y3.75132
G01 X-5.80643 Y3.74998
G01 X-5.80678 Y3.74867
G01 X-5.80824 Y3.74417
G01 X-5.77383 Y3.41601
G01 X-5.77378 Y3.41533
G01 X-5.77359 Y3.41168
G01 X-5.77357 Y3.41100
G01 X-5.77357 Y3.31100
G01 X-5.77363 Y3.30973
G01 X-5.77431 Y3.30290
G01 X-5.77480 Y3.30040
G01 X-5.77679 Y3.29383
G01 X-5.77722 Y3.29263
G01 X-5.77777 Y3.29148
G01 X-5.78100 Y3.28543
G01 X-5.78242 Y3.28331
G01 X-5.78677 Y3.27800
G01 X-5.78763 Y3.27706
G01 X-5.78858 Y3.27620
G01 X-5.79388 Y3.27185
G01 X-5.79490 Y3.27109
G01 X-5.79600 Y3.27043
G01 X-5.80205 Y3.26720
G01 X-5.80320 Y3.26665
G01 X-5.80440 Y3.26622
G01 X-5.81097 Y3.26423
G01 X-5.81221 Y3.26392
G01 X-5.81347 Y3.26374
G01 X-5.82030 Y3.26306
G01 X-5.82285 Y3.26306
G01 X-5.82967 Y3.26374
G01 X-5.83094 Y3.26392
G01 X-5.83217 Y3.26423
G01 X-5.83874 Y3.26622
G01 X-5.83994 Y3.26665
G01 X-5.84109 Y3.26720
G01 X-5.84714 Y3.27043
G01 X-5.84824 Y3.27109
G01 X-5.84926 Y3.27185
G01 X-5.85457 Y3.27620
G01 X-5.85551 Y3.27706
G01 X-5.85637 Y3.27800
G01 X-5.86072 Y3.28331
G01 X-5.86214 Y3.28543
G01 X-5.86537 Y3.29148
G01 X-5.86592 Y3.29263
G01 X-5.86635 Y3.29383
G01 X-5.86834 Y3.30040
G01 X-5.86884 Y3.30290
G01 X-5.86951 Y3.30973
G01 X-5.86957 Y3.31100
G01 X-5.86957 Y3.40849
G01 X-5.90372 Y3.73416
G01 X-5.90607 Y3.73823
G01 X-5.90669 Y3.73944
G01 X-5.90718 Y3.74071
G01 X-5.90976 Y3.74867
G01 X-5.91011 Y3.74998
G01 X-5.91033 Y3.75132
G01 X-5.91120 Y3.75964
G01 X-5.91127 Y3.76100
G01 X-5.91120 Y3.76236
G01 X-5.91033 Y3.77068
G01 X-5.91011 Y3.77202
G01 X-5.90976 Y3.77333
G01 X-5.90718 Y3.78129
G01 X-5.90669 Y3.78256
G01 X-5.90627 Y3.78338
G01 X-5.90627 Y3.79769
G01 X-5.92258 Y3.81400
G01 X-6.06956 Y3.81400
G01 X-6.08587 Y3.79769
G01 X-6.08587 Y3.78338
G01 X-6.08545 Y3.78256
G01 X-6.08497 Y3.78129
G01 X-6.08238 Y3.77333
G01 X-6.08203 Y3.77202
G01 X-6.08182 Y3.77068
G01 X-6.08094 Y3.76236
G01 X-6.08087 Y3.76100
G01 X-6.08094 Y3.75964
G01 X-6.08182 Y3.75132
G01 X-6.08203 Y3.74998
G01 X-6.08238 Y3.74867
G01 X-6.08497 Y3.74071
G01 X-6.08500 Y3.74064
G01 X-6.07361 Y3.46297
G01 X-6.07360 Y3.46270
G01 X-6.07357 Y3.46127
G01 X-6.07357 Y3.46100
G01 X-6.07357 Y3.31100
G01 X-6.07363 Y3.30973
G01 X-6.07431 Y3.30290
G01 X-6.07480 Y3.30040
G01 X-6.07679 Y3.29383
G01 X-6.07722 Y3.29263
G01 X-6.07777 Y3.29148
G01 X-6.08100 Y3.28543
G01 X-6.08242 Y3.28331
G01 X-6.08677 Y3.27800
G01 X-6.08763 Y3.27706
G01 X-6.08858 Y3.27620
G01 X-6.09388 Y3.27185
G01 X-6.09490 Y3.27109
G01 X-6.09600 Y3.27043
G01 X-6.10205 Y3.26720
G01 X-6.10320 Y3.26665
G01 X-6.10440 Y3.26622
G01 X-6.11097 Y3.26423
G01 X-6.11221 Y3.26392
G01 X-6.11347 Y3.26374
G01 X-6.12030 Y3.26306
G01 X-6.12285 Y3.26306
G01 X-6.12967 Y3.26374
G01 X-6.13094 Y3.26392
G01 X-6.13217 Y3.26423
G01 X-6.13874 Y3.26622
G01 X-6.13994 Y3.26665
G01 X-6.14109 Y3.26720
G01 X-6.14714 Y3.27043
G01 X-6.14824 Y3.27109
G01 X-6.14926 Y3.27185
G01 X-6.15457 Y3.27620
G01 X-6.15551 Y3.27706
G01 X-6.15637 Y3.27800
G01 X-6.16072 Y3.28331
G01 X-6.16214 Y3.28543
G01 X-6.16537 Y3.29148
G01 X-6.16592 Y3.29263
G01 X-6.16635 Y3.29383
G01 X-6.16834 Y3.30040
G01 X-6.16884 Y3.30290
G01 X-6.16951 Y3.30973
G01 X-6.16957 Y3.31100
G01 X-6.16957 Y3.46001
G01 X-6.18092 Y3.73694
G01 X-6.18167 Y3.73823
G01 X-6.18229 Y3.73944
G01 X-6.18278 Y3.74071
G01 X-6.18536 Y3.74867
G01 X-6.18571 Y3.74998
G01 X-6.18593 Y3.75132
G01 X-6.18680 Y3.75964
G01 X-6.18687 Y3.76100
G01 X-6.18680 Y3.76236
G01 X-6.18593 Y3.77068
G01 X-6.18571 Y3.77202
G01 X-6.18536 Y3.77333
G01 X-6.18278 Y3.78129
G01 X-6.18229 Y3.78256
G01 X-6.18187 Y3.78338
G01 X-6.18187 Y3.81757
G01 X-6.18183 Y3.81859
G01 X-6.18140 Y3.82406
G01 X-6.18108 Y3.82608
G01 X-6.17980 Y3.83142
G01 X-6.17917 Y3.83336
G01 X-6.17707 Y3.83843
G01 X-6.17614 Y3.84025
G01 X-6.17327 Y3.84493
G01 X-6.17207 Y3.84658
G01 X-6.16851 Y3.85076
G01 X-6.16781 Y3.85151
G01 X-6.12338 Y3.89594
G01 X-6.12243 Y3.89680
G01 X-6.11713 Y3.90115
G01 X-6.11611 Y3.90191
G01 X-6.11501 Y3.90257
G01 X-6.10896 Y3.90580
G01 X-6.10781 Y3.90635
G01 X-6.10661 Y3.90678
G01 X-6.10004 Y3.90877
G01 X-6.09880 Y3.90908
G01 X-6.09754 Y3.90927
G01 X-6.09071 Y3.90994
G01 X-6.08944 Y3.91000
G01 X-5.90270 Y3.91000
G01 X-5.90168 Y3.90996
G01 X-5.89621 Y3.90953
G01 X-5.89419 Y3.90921
G01 X-5.88885 Y3.90793
G01 X-5.88691 Y3.90730
G01 X-5.88184 Y3.90520
G01 X-5.88002 Y3.90427
G01 X-5.87534 Y3.90140
G01 X-5.87369 Y3.90020
G01 X-5.86951 Y3.89663
G01 X-5.86876 Y3.89594
G01 X-5.86164 Y3.88882
G01 X-5.85451 Y3.89594
G01 X-5.85357 Y3.89680
G01 X-5.84826 Y3.90115
G01 X-5.84724 Y3.90191
G01 X-5.84614 Y3.90257
G01 X-5.84009 Y3.90580
G01 X-5.83894 Y3.90635
G01 X-5.83774 Y3.90678
G01 X-5.83117 Y3.90877
G01 X-5.82993 Y3.90908
G01 X-5.82867 Y3.90927
G01 X-5.82184 Y3.90994
G01 X-5.82057 Y3.91000
G01 X-5.62710 Y3.91000
G01 X-5.62583 Y3.90994
G01 X-5.61900 Y3.90927
G01 X-5.61774 Y3.90908
G01 X-5.61650 Y3.90877
G01 X-5.60993 Y3.90678
G01 X-5.60873 Y3.90635
G01 X-5.60758 Y3.90580
G01 X-5.60153 Y3.90257
G01 X-5.60043 Y3.90191
G01 X-5.59941 Y3.90115
G01 X-5.59411 Y3.89680
G01 X-5.59316 Y3.89594
G01 X-5.58267 Y3.88545
G01 X-5.57218 Y3.89594
G01 X-5.57143 Y3.89663
G01 X-5.56725 Y3.90020
G01 X-5.56560 Y3.90140
G01 X-5.56092 Y3.90427
G01 X-5.55910 Y3.90520
G01 X-5.55403 Y3.90730
G01 X-5.55209 Y3.90793
G01 X-5.54675 Y3.90921
G01 X-5.54473 Y3.90953
G01 X-5.53926 Y3.90996
G01 X-5.53824 Y3.91000
G01 X-5.35150 Y3.91000
G01 X-5.35048 Y3.90996
G01 X-5.34501 Y3.90953
G01 X-5.34299 Y3.90921
G01 X-5.33765 Y3.90793
G01 X-5.33571 Y3.90730
G01 X-5.33064 Y3.90520
G01 X-5.32882 Y3.90427
G01 X-5.32414 Y3.90140
G01 X-5.32249 Y3.90020
G01 X-5.31831 Y3.89663
G01 X-5.31756 Y3.89594
G01 X-5.31104 Y3.88942
G01 X-5.30451 Y3.89594
G01 X-5.30357 Y3.89680
G01 X-5.29826 Y3.90115
G01 X-5.29614 Y3.90257
G01 X-5.29009 Y3.90580
G01 X-5.28774 Y3.90678
G01 X-5.28117 Y3.90877
G01 X-5.27867 Y3.90927
G01 X-5.27184 Y3.90994
G01 X-5.27057 Y3.91000
G01 X-4.97830 Y3.91000
G01 X-4.97728 Y3.90996
G01 X-4.97181 Y3.90953
G01 X-4.96979 Y3.90921
G01 X-4.96445 Y3.90793
G01 X-4.96251 Y3.90730
G01 X-4.95744 Y3.90520
G01 X-4.95562 Y3.90427
G01 X-4.95094 Y3.90140
G01 X-4.94929 Y3.90020
G01 X-4.94511 Y3.89663
G01 X-4.94436 Y3.89594
G01 X-4.92444 Y3.87602
G01 X-4.90451 Y3.89594
G01 X-4.90357 Y3.89680
G01 X-4.89826 Y3.90115
G01 X-4.89614 Y3.90257
G01 X-4.89009 Y3.90580
G01 X-4.88774 Y3.90678
G01 X-4.88117 Y3.90877
G01 X-4.87867 Y3.90927
G01 X-4.87184 Y3.90994
G01 X-4.87057 Y3.91000
G01 X-4.70270 Y3.91000
G01 X-4.70168 Y3.90996
G01 X-4.69621 Y3.90953
G01 X-4.69419 Y3.90921
G01 X-4.68885 Y3.90793
G01 X-4.68691 Y3.90730
G01 X-4.68184 Y3.90520
G01 X-4.68002 Y3.90427
G01 X-4.67534 Y3.90140
G01 X-4.67369 Y3.90020
G01 X-4.66951 Y3.89663
G01 X-4.66876 Y3.89594
G01 X-4.65827 Y3.88545
G01 X-4.64778 Y3.89594
G01 X-4.64683 Y3.89680
G01 X-4.64153 Y3.90115
G01 X-4.64051 Y3.90191
G01 X-4.63941 Y3.90257
G01 X-4.63336 Y3.90580
G01 X-4.63101 Y3.90678
G01 X-4.62444 Y3.90877
G01 X-4.62320 Y3.90908
G01 X-4.62194 Y3.90927
G01 X-4.61511 Y3.90994
G01 X-4.61384 Y3.91000
G01 X-4.42710 Y3.91000
G01 X-4.42608 Y3.90996
G01 X-4.42061 Y3.90953
G01 X-4.41859 Y3.90921
G01 X-4.41325 Y3.90793
G01 X-4.41131 Y3.90730
G01 X-4.40624 Y3.90520
G01 X-4.40442 Y3.90427
G01 X-4.39974 Y3.90140
G01 X-4.39809 Y3.90020
G01 X-4.39391 Y3.89663
G01 X-4.39316 Y3.89594
G01 X-4.38267 Y3.88545
G01 X-4.37218 Y3.89594
G01 X-4.37123 Y3.89680
G01 X-4.36593 Y3.90115
G01 X-4.36381 Y3.90257
G01 X-4.35776 Y3.90580
G01 X-4.35541 Y3.90678
G01 X-4.34884 Y3.90877
G01 X-4.34760 Y3.90908
G01 X-4.34634 Y3.90927
G01 X-4.33951 Y3.90994
G01 X-4.33824 Y3.91000
G01 X-4.15150 Y3.91000
G01 X-4.15048 Y3.90996
G01 X-4.14501 Y3.90953
G01 X-4.14299 Y3.90921
G01 X-4.13765 Y3.90793
G01 X-4.13571 Y3.90730
G01 X-4.13064 Y3.90520
G01 X-4.12882 Y3.90427
G01 X-4.12414 Y3.90140
G01 X-4.12249 Y3.90020
G01 X-4.11831 Y3.89663
G01 X-4.11756 Y3.89594
G01 X-4.11104 Y3.88942
G01 X-4.10451 Y3.89594
G01 X-4.10357 Y3.89680
G01 X-4.09826 Y3.90115
G01 X-4.09614 Y3.90257
G01 X-4.09009 Y3.90580
G01 X-4.08774 Y3.90678
G01 X-4.08117 Y3.90877
G01 X-4.07867 Y3.90927
G01 X-4.07184 Y3.90994
G01 X-4.07057 Y3.91000
G01 X-3.77830 Y3.91000
G01 X-3.77728 Y3.90996
G01 X-3.77181 Y3.90953
G01 X-3.76979 Y3.90921
G01 X-3.76445 Y3.90793
G01 X-3.76251 Y3.90730
G01 X-3.75744 Y3.90520
G01 X-3.75562 Y3.90427
G01 X-3.75094 Y3.90140
G01 X-3.74929 Y3.90020
G01 X-3.74511 Y3.89663
G01 X-3.74436 Y3.89594
G01 X-3.73387 Y3.88545
G01 X-3.72338 Y3.89594
G01 X-3.72243 Y3.89680
G01 X-3.71713 Y3.90115
G01 X-3.71611 Y3.90191
G01 X-3.71501 Y3.90257
G01 X-3.70896 Y3.90580
G01 X-3.70661 Y3.90678
G01 X-3.70004 Y3.90877
G01 X-3.69880 Y3.90908
G01 X-3.69754 Y3.90927
G01 X-3.69071 Y3.90994
G01 X-3.68944 Y3.91000
G01 X-3.50270 Y3.91000
G01 X-3.50168 Y3.90996
G01 X-3.49621 Y3.90953
G01 X-3.49419 Y3.90921
G01 X-3.48885 Y3.90793
G01 X-3.48691 Y3.90730
G01 X-3.48184 Y3.90520
G01 X-3.48002 Y3.90427
G01 X-3.47534 Y3.90140
G01 X-3.47369 Y3.90020
G01 X-3.46951 Y3.89663
G01 X-3.46876 Y3.89594
G01 X-3.45827 Y3.88545
G01 X-3.44778 Y3.89594
G01 X-3.44683 Y3.89680
G01 X-3.44153 Y3.90115
G01 X-3.44051 Y3.90191
G01 X-3.43941 Y3.90257
G01 X-3.43336 Y3.90580
G01 X-3.43101 Y3.90678
G01 X-3.42444 Y3.90877
G01 X-3.42320 Y3.90908
G01 X-3.42194 Y3.90927
G01 X-3.41511 Y3.90994
G01 X-3.41384 Y3.91000
G01 X-3.22710 Y3.91000
G01 X-3.22608 Y3.90996
G01 X-3.22061 Y3.90953
G01 X-3.21859 Y3.90921
G01 X-3.21325 Y3.90793
G01 X-3.21131 Y3.90730
G01 X-3.20624 Y3.90520
G01 X-3.20442 Y3.90427
G01 X-3.19974 Y3.90140
G01 X-3.19809 Y3.90020
G01 X-3.19391 Y3.89663
G01 X-3.19316 Y3.89594
G01 X-3.17953 Y3.88231
G01 X-3.16590 Y3.89594
G01 X-3.16496 Y3.89680
G01 X-3.15965 Y3.90115
G01 X-3.15863 Y3.90191
G01 X-3.15753 Y3.90257
G01 X-3.15148 Y3.90580
G01 X-3.14913 Y3.90678
G01 X-3.14256 Y3.90877
G01 X-3.14133 Y3.90908
G01 X-3.14006 Y3.90927
G01 X-3.13324 Y3.90994
G01 X-3.13196 Y3.91000
G01 X-2.95150 Y3.91000
G01 X-2.95048 Y3.90996
G01 X-2.94501 Y3.90953
G01 X-2.94299 Y3.90921
G01 X-2.93765 Y3.90793
G01 X-2.93571 Y3.90730
G01 X-2.93064 Y3.90520
G01 X-2.92882 Y3.90427
G01 X-2.92414 Y3.90140
G01 X-2.92249 Y3.90020
G01 X-2.91831 Y3.89663
G01 X-2.91756 Y3.89594
G01 X-2.91104 Y3.88942
G01 X-2.90451 Y3.89594
G01 X-2.90357 Y3.89680
G01 X-2.89826 Y3.90115
G01 X-2.89614 Y3.90257
G01 X-2.89009 Y3.90580
G01 X-2.88774 Y3.90678
G01 X-2.88117 Y3.90877
G01 X-2.87867 Y3.90927
G01 X-2.87184 Y3.90994
G01 X-2.87057 Y3.91000
G01 X-2.57830 Y3.91000
G01 X-2.57728 Y3.90996
G01 X-2.57181 Y3.90953
G01 X-2.56979 Y3.90921
G01 X-2.56445 Y3.90793
G01 X-2.56251 Y3.90730
G01 X-2.55744 Y3.90520
G01 X-2.55562 Y3.90427
G01 X-2.55094 Y3.90140
G01 X-2.54929 Y3.90020
G01 X-2.54511 Y3.89663
G01 X-2.54436 Y3.89594
G01 X-2.51143 Y3.86301
G01 X-2.47849 Y3.89594
G01 X-2.47755 Y3.89680
G01 X-2.47224 Y3.90115
G01 X-2.47012 Y3.90257
G01 X-2.46407 Y3.90580
G01 X-2.46172 Y3.90678
G01 X-2.45515 Y3.90877
G01 X-2.45265 Y3.90927
G01 X-2.44583 Y3.90994
G01 X-2.44455 Y3.91000
G01 X-2.30270 Y3.91000
G01 X-2.30168 Y3.90996
G01 X-2.29621 Y3.90953
G01 X-2.29419 Y3.90921
G01 X-2.28885 Y3.90793
G01 X-2.28691 Y3.90730
G01 X-2.28184 Y3.90520
G01 X-2.28002 Y3.90427
G01 X-2.27534 Y3.90140
G01 X-2.27369 Y3.90020
G01 X-2.26951 Y3.89663
G01 X-2.26876 Y3.89594
G01 X-2.23664 Y3.86382
G01 X-2.20451 Y3.89594
G01 X-2.20357 Y3.89680
G01 X-2.19826 Y3.90115
G01 X-2.19614 Y3.90257
G01 X-2.19009 Y3.90580
G01 X-2.18774 Y3.90678
G01 X-2.18117 Y3.90877
G01 X-2.17867 Y3.90927
G01 X-2.17184 Y3.90994
G01 X-2.17057 Y3.91000
G01 X-2.02710 Y3.91000
G01 X-2.02608 Y3.90996
G01 X-2.02061 Y3.90953
G01 X-2.01859 Y3.90921
G01 X-2.01325 Y3.90793
G01 X-2.01131 Y3.90730
G01 X-2.00624 Y3.90520
G01 X-2.00442 Y3.90427
G01 X-1.99974 Y3.90140
G01 X-1.99809 Y3.90020
G01 X-1.99391 Y3.89663
G01 X-1.99316 Y3.89594
G01 X-1.97953 Y3.88231
G01 X-1.96590 Y3.89594
G01 X-1.96496 Y3.89680
G01 X-1.95965 Y3.90115
G01 X-1.95863 Y3.90191
G01 X-1.95753 Y3.90257
G01 X-1.95148 Y3.90580
G01 X-1.94913 Y3.90678
G01 X-1.94256 Y3.90877
G01 X-1.94133 Y3.90908
G01 X-1.94006 Y3.90927
G01 X-1.93324 Y3.90994
G01 X-1.93196 Y3.91000
G01 X-1.75150 Y3.91000
G01 X-1.75048 Y3.90996
G01 X-1.74501 Y3.90953
G01 X-1.74299 Y3.90921
G01 X-1.73765 Y3.90793
G01 X-1.73571 Y3.90730
G01 X-1.73064 Y3.90520
G01 X-1.72882 Y3.90427
G01 X-1.72414 Y3.90140
G01 X-1.72249 Y3.90020
G01 X-1.71831 Y3.89663
G01 X-1.71756 Y3.89594
G01 X-1.67313 Y3.85151
G01 X-1.67227 Y3.85056
G01 X-1.66792 Y3.84526
G01 X-1.66650 Y3.84314
G01 X-1.66327 Y3.83709
G01 X-1.66229 Y3.83474
G01 X-1.66030 Y3.82817
G01 X-1.65981 Y3.82567
G01 X-1.65913 Y3.81884
G01 X-1.65907 Y3.81757
G01 X-1.65907 Y3.80900
G01 X-1.36898 Y3.80900
G01 X-1.36898 Y3.81757
G01 X-1.36894 Y3.81859
G01 X-1.36851 Y3.82406
G01 X-1.36819 Y3.82608
G01 X-1.36690 Y3.83142
G01 X-1.36627 Y3.83336
G01 X-1.36417 Y3.83843
G01 X-1.36325 Y3.84025
G01 X-1.36038 Y3.84493
G01 X-1.35918 Y3.84658
G01 X-1.35561 Y3.85076
G01 X-1.35492 Y3.85151
G01 X-1.26149 Y3.94494
G01 X-1.26054 Y3.94580
G01 X-1.25524 Y3.95015
G01 X-1.25312 Y3.95157
G01 X-1.24707 Y3.95480
G01 X-1.24471 Y3.95578
G01 X-1.23815 Y3.95777
G01 X-1.23565 Y3.95826
G01 X-1.22882 Y3.95894
G01 X-1.22755 Y3.95900
G01 X-0.97157 Y3.95900
G01 X-0.97055 Y3.95896
G01 X-0.96508 Y3.95853
G01 X-0.96306 Y3.95821
G01 X-0.95772 Y3.95693
G01 X-0.95578 Y3.95630
G01 X-0.95071 Y3.95420
G01 X-0.94889 Y3.95327
G01 X-0.94421 Y3.95040
G01 X-0.94256 Y3.94920
G01 X-0.93838 Y3.94563
G01 X-0.93763 Y3.94494
G01 X-0.84986 Y3.85717
G01 X-0.76208 Y3.94494
G01 X-0.76113 Y3.94580
G01 X-0.75583 Y3.95015
G01 X-0.75371 Y3.95157
G01 X-0.74766 Y3.95480
G01 X-0.74531 Y3.95578
G01 X-0.73874 Y3.95777
G01 X-0.73624 Y3.95826
G01 X-0.72941 Y3.95894
G01 X-0.72814 Y3.95900
G01 X-0.57157 Y3.95900
G01 X-0.57055 Y3.95896
G01 X-0.56508 Y3.95853
G01 X-0.56306 Y3.95821
G01 X-0.55772 Y3.95693
G01 X-0.55578 Y3.95630
G01 X-0.55071 Y3.95420
G01 X-0.54889 Y3.95327
G01 X-0.54421 Y3.95040
G01 X-0.54256 Y3.94920
G01 X-0.53838 Y3.94563
G01 X-0.53763 Y3.94494
G01 X-0.38763 Y3.79494
G01 X-0.38694 Y3.79419
G01 X-0.38336 Y3.79001
G01 X-0.38216 Y3.78835
G01 X-0.37929 Y3.78366
G01 X-0.37836 Y3.78184
G01 X-0.37626 Y3.77676
G01 X-0.37563 Y3.77482
G01 X-0.37435 Y3.76947
G01 X-0.37404 Y3.76745
G01 X-0.37361 Y3.76196
G01 X-0.37357 Y3.76094
G01 X-0.37512 Y2.46150
G01 X-0.22319 Y2.46150
G01 X-0.22191 Y2.46144
G01 X-0.21459 Y2.46072
G01 X-0.21210 Y2.46022
G01 X-0.20506 Y2.45809
G01 X-0.20386 Y2.45766
G01 X-0.20271 Y2.45711
G01 X-0.19622 Y2.45365
G01 X-0.19513 Y2.45299
G01 X-0.19410 Y2.45223
G01 X-0.18842 Y2.44757
G01 X-0.18662 Y2.44576
G01 X-0.18196 Y2.44008
G01 X-0.18120 Y2.43906
G01 X-0.18054 Y2.43796
G01 X-0.17707 Y2.43148
G01 X-0.17653 Y2.43033
G01 X-0.17610 Y2.42912
G01 X-0.17397 Y2.42209
G01 X-0.17347 Y2.41959
G01 X-0.17275 Y2.41227
G01 X-0.17269 Y2.41100
G04 P0 ( dwell for no time -- G64 should not smooth over this point )
G00 Z0.05000 ( retract )

G00 X-0.17319 Y2.11100 ( rapid move to begin. )
G01 F100.00000
( Mill infeed pass 1/1 )
G01 Z-0.00500
G04 P0 ( dwell for no time -- G64 should not smooth over this point )
G01 F1000.00000
G01 X-0.17319 Y2.11100
G01 X-0.17326 Y2.10964
G01 X-0.17357 Y2.10665
G01 X-0.17357 Y1.96100
G01 X-0.17363 Y1.95973
G01 X-0.17431 Y1.95290
G01 X-0.17480 Y1.95040
G01 X-0.17679 Y1.94383
G01 X-0.17722 Y1.94263
G01 X-0.17777 Y1.94148
G01 X-0.18100 Y1.93543
G01 X-0.18242 Y1.93331
G01 X-0.18677 Y1.92800
G01 X-0.18763 Y1.92706
G01 X-1.81754 Y0.29715
G01 X-1.81848 Y0.29630
G01 X-1.82379 Y0.29194
G01 X-1.82481 Y0.29118
G01 X-1.82590 Y0.29053
G01 X-1.83196 Y0.28729
G01 X-1.83431 Y0.28632
G01 X-1.84088 Y0.28433
G01 X-1.84338 Y0.28383
G01 X-1.85020 Y0.28316
G01 X-1.85148 Y0.28309
G01 X-2.67157 Y0.28309
G01 X-2.67285 Y0.28316
G01 X-2.67967 Y0.28383
G01 X-2.68217 Y0.28433
G01 X-2.68874 Y0.28632
G01 X-2.69109 Y0.28729
G01 X-2.69714 Y0.29053
G01 X-2.69824 Y0.29118
G01 X-2.69926 Y0.29194
G01 X-2.70457 Y0.29630
G01 X-2.70637 Y0.29810
G01 X-2.71047 Y0.30309
G01 X-2.79009 Y0.30309
G01 X-2.79073 Y0.30257
G01 X-2.79297 Y0.30137
G01 X-2.79541 Y0.30063
G01 X-2.79795 Y0.30038
G01 X-2.84519 Y0.30038
G01 X-2.84773 Y0.30063
G01 X-2.85017 Y0.30137
G01 X-2.85242 Y0.30257
G01 X-2.85306 Y0.30309
G01 X-2.89009 Y0.30309
G01 X-2.89073 Y0.30257
G01 X-2.89297 Y0.30137
G01 X-2.89541 Y0.30063
G01 X-2.89795 Y0.30038
G01 X-2.94519 Y0.30038
G01 X-2.94773 Y0.30063
G01 X-2.95017 Y0.30137
G01 X-2.95242 Y0.30257
G01 X-2.95306 Y0.30309
G01 X-2.99009 Y0.30309
G01 X-2.99073 Y0.30257
G01 X-2.99297 Y0.30137
G01 X-2.99541 Y0.30063
G01 X-2.99795 Y0.30038
G01 X-3.04519 Y0.30038
G01 X-3.04773 Y0.30063
G01 X-3.05017 Y0.30137
G01 X-3.05242 Y0.30257
G01 X-3.05306 Y0.30309
G01 X-3.09009 Y0.30309
G01 X-3.09073 Y0.30257
G01 X-3.09297 Y0.30137
G01 X-3.09541 Y0.30063
G01 X-3.09795 Y0.30038
G01 X-3.14519 Y0.30038
G01 X-3.14773 Y0.30063
G01 X-3.15017 Y0.30137
G01 X-3.15242 Y0.30257
G01 X-3.15306 Y0.30309
G01 X-3.19009 Y0.30309
G01 X-3.19073 Y0.30257
G01 X-3.19297 Y0.30137
G01 X-3.19541 Y0.30063
G01 X-3.19795 Y0.30038
G01 X-3.24519 Y0.30038
G01 X-3.24773 Y0.30063
G01 X-3.25017 Y0.30137
G01 X-3.25242 Y0.30257
G01 X-3.25306 Y0.30309
G01 X-3.29009 Y0.30309
G01 X-3.29073 Y0.30257
G01 X-3.29297 Y0.30137
G01 X-3.29541 Y0.30063
G01 X-3.29795 Y0.30038
G01 X-3.34519 Y0.30038
G01 X-3.34773 Y0.30063
G01 X-3.35017 Y0.30137
G01 X-3.35242 Y0.30257
G01 X-3.35306 Y0.30309
G01 X-3.39009 Y0.30309
G01 X-3.39073 Y0.30257
G01 X-3.39297 Y0.30137
G01 X-3.39541 Y0.30063
G01 X-3.39795 Y0.30038
G01 X-3.44519 Y0.30038
G01 X-3.44773 Y0.30063
G01 X-3.45017 Y0.30137
G01 X-3.45242 Y0.30257
G01 X-3.45306 Y0.30309
G01 X-3.48943 Y0.30309
G01 X-3.49073 Y0.30203
G01 X-3.49297 Y0.30083
G01 X-3.49541 Y0.30009
G01 X-3.49795 Y0.29984
G01 X-3.54519 Y0.29984
G01 X-3.54773 Y0.30009
G01 X-3.55017 Y0.30083
G01 X-3.55242 Y0.30203
G01 X-3.55306 Y0.30255
G01 X-3.67357 Y0.30255
G01 X-3.67357 Y0.17442
G01 X-3.67302 Y0.17271
G01 X-3.67266 Y0.17140
G01 X-3.67245 Y0.17005
G01 X-3.67164 Y0.16236
G01 X-3.67157 Y0.16100
G01 X-3.67150 Y0.15964
G01 X-3.67069 Y0.15195
G01 X-3.67048 Y0.15060
G01 X-3.67013 Y0.14929
G01 X-3.66774 Y0.14193
G01 X-3.66725 Y0.14066
G01 X-3.66663 Y0.13945
G01 X-3.66276 Y0.13275
G01 X-3.66202 Y0.13161
G01 X-3.66117 Y0.13055
G01 X-3.65599 Y0.12480
G01 X-3.65503 Y0.12384
G01 X-3.65397 Y0.12299
G01 X-3.64771 Y0.11844
G01 X-3.64657 Y0.11770
G01 X-3.64536 Y0.11708
G01 X-3.63829 Y0.11393
G01 X-3.63702 Y0.11345
G01 X-3.63571 Y0.11309
G01 X-3.62814 Y0.11149
G01 X-3.62680 Y0.11127
G01 X-3.62544 Y0.11120
G01 X-3.61770 Y0.11120
G01 X-3.61634 Y0.11127
G01 X-3.61500 Y0.11149
G01 X-3.60743 Y0.11309
G01 X-3.60612 Y0.11345
G01 X-3.60485 Y0.11393
G01 X-3.59778 Y0.11708
G01 X-3.59657 Y0.11770
G01 X-3.59543 Y0.11844
G01 X-3.58917 Y0.12299
G01 X-3.58811 Y0.12384
G01 X-3.58715 Y0.12480
G01 X-3.58198 Y0.13055
G01 X-3.58112 Y0.13161
G01 X-3.58038 Y0.13275
G01 X-3.57651 Y0.13945
G01 X-3.57589 Y0.14066
G01 X-3.57541 Y0.14193
G01 X-3.57302 Y0.14929
G01 X-3.57266 Y0.15060
G01 X-3.57245 Y0.15195
G01 X-3.57164 Y0.15964
G01 X-3.57157 Y0.16100
G01 X-3.57150 Y0.16236
G01 X-3.57069 Y0.17005
G01 X-3.57048 Y0.17140
G01 X-3.57013 Y0.17271
G01 X-3.56774 Y0.18007
G01 X-3.56725 Y0.18134
G01 X-3.56663 Y0.18255
G01 X-3.56276 Y0.18925
G01 X-3.56202 Y0.19039
G01 X-3.56117 Y0.19145
G01 X-3.55599 Y0.19720
G01 X-3.55503 Y0.19816
G01 X-3.55397 Y0.19901
G01 X-3.54771 Y0.20356
G01 X-3.54657 Y0.20430
G01 X-3.54536 Y0.20492
G01 X-3.53829 Y0.20807
G01 X-3.53702 Y0.20855
G01 X-3.53571 Y0.20891
G01 X-3.52814 Y0.21051
G01 X-3.52680 Y0.21073
G01 X-3.52544 Y0.21080
G01 X-3.51770 Y0.21080
G01 X-3.51634 Y0.21073
G01 X-3.51500 Y0.21051
G01 X-3.50743 Y0.20891
G01 X-3.50612 Y0.20855
G01 X-3.50485 Y0.20807
G01 X-3.49778 Y0.20492
G01 X-3.49657 Y0.20430
G01 X-3.49543 Y0.20356
G01 X-3.48917 Y0.19901
G01 X-3.48811 Y0.19816
G01 X-3.48715 Y0.19720
G01 X-3.48198 Y0.19145
G01 X-3.48112 Y0.19039
G01 X-3.48038 Y0.18925
G01 X-3.47651 Y0.18255
G01 X-3.47589 Y0.18134
G01 X-3.47541 Y0.18007
G01 X-3.47302 Y0.17271
G01 X-3.47266 Y0.17140
G01 X-3.47245 Y0.17005
G01 X-3.47164 Y0.16236
G01 X-3.47157 Y0.16100
G01 X-3.47150 Y0.15964
G01 X-3.47069 Y0.15195
G01 X-3.47048 Y0.15060
G01 X-3.47013 Y0.14929
G01 X-3.46774 Y0.14193
G01 X-3.46725 Y0.14066
G01 X-3.46663 Y0.13945
G01 X-3.46276 Y0.13275
G01 X-3.46202 Y0.13161
G01 X-3.46117 Y0.13055
G01 X-3.45599 Y0.12480
G01 X-3.45503 Y0.12384
G01 X-3.45397 Y0.12299
G01 X-3.44771 Y0.11844
G01 X-3.44657 Y0.11770
G01 X-3.44536 Y0.11708
G01 X-3.43829 Y0.11393
G01 X-3.43702 Y0.11345
G01 X-3.43571 Y0.11309
G01 X-3.42814 Y0.11149
G01 X-3.42680 Y0.11127
G01 X-3.42544 Y0.11120
G01 X-3.41770 Y0.11120
G01 X-3.41634 Y0.11127
G01 X-3.41500 Y0.11149
G01 X-3.40743 Y0.11309
G01 X-3.40612 Y0.11345
G01 X-3.40485 Y0.11393
G01 X-3.39778 Y0.11708
G01 X-3.39657 Y0.11770
G01 X-3.39543 Y0.11844
G01 X-3.38917 Y0.12299
G01 X-3.38811 Y0.12384
G01 X-3.38715 Y0.12480
G01 X-3.38198 Y0.13055
G01 X-3.38112 Y0.13161
G01 X-3.38038 Y0.13275
G01 X-3.37651 Y0.13945
G01 X-3.37589 Y0.14066
G01 X-3.37541 Y0.14193
G01 X-3.37302 Y0.14929
G01 X-3.37266 Y0.15060
G01 X-3.37245 Y0.15195
G01 X-3.37164 Y0.15964
G01 X-3.37157 Y0.16100
G01 X-3.37150 Y0.16236
G01 X-3.37069 Y0.17005
G01 X-3.37048 Y0.17140
G01 X-3.37013 Y0.17271
G01 X-3.36774 Y0.18007
G01 X-3.36725 Y0.18134
G01 X-3.36663 Y0.18255
G01 X-3.36276 Y0.18925
G01 X-3.36202 Y0.19039
G01 X-3.36117 Y0.19145
G01 X-3.35599 Y0.19720
G01 X-3.35503 Y0.19816
G01 X-3.35397 Y0.19901
G01 X-3.34771 Y0.20356
G01 X-3.34657 Y0.20430
G01 X-3.34536 Y0.20492
G01 X-3.33829 Y0.20807
G01 X-3.33702 Y0.20855
G01 X-3.33571 Y0.20891
G01 X-3.32814 Y0.21051
G01 X-3.32680 Y0.21073
G01 X-3.32544 Y0.21080
G01 X-3.31770 Y0.21080
G01 X-3.31634 Y0.21073
G01 X-3.31500 Y0.21051
G01 X-3.30743 Y0.20891
G01 X-3.30612 Y0.20855
G01 X-3.30485 Y0.20807
G01 X-3.29778 Y0.20492
G01 X-3.29657 Y0.20430
G01 X-3.29543 Y0.20356
G01 X-3.28917 Y0.19901
G01 X-3.28811 Y0.19816
G01 X-3.28715 Y0.19720
G01 X-3.28198 Y0.19145
G01 X-3.28112 Y0.19039
G01 X-3.28038 Y0.18925
G01 X-3.27651 Y0.18255
G01 X-3.27589 Y0.18134
G01 X-3.27541 Y0.18007
G01 X-3.27302 Y0.17271
G01 X-3.27266 Y0.17140
G01 X-3.27245 Y0.17005
G01 X-3.27164 Y0.16236
G01 X-3.27157 Y0.16100
G01 X-3.27150 Y0.15964
G01 X-3.27069 Y0.15195
G01 X-3.27048 Y0.15060
G01 X-3.27013 Y0.14929
G01 X-3.26774 Y0.14193
G01 X-3.26725 Y0.14066
G01 X-3.26663 Y0.13945
G01 X-3.26276 Y0.13275
G01 X-3.26202 Y0.13161
G01 X-3.26117 Y0.13055
G01 X-3.25599 Y0.12480
G01 X-3.25503 Y0.12384
G01 X-3.25397 Y0.12299
G01 X-3.24771 Y0.11844
G01 X-3.24657 Y0.11770
G01 X-3.24536 Y0.11708
G01 X-3.23829 Y0.11393
G01 X-3.23702 Y0.11345
G01 X-3.23571 Y0.11309
G01 X-3.22814 Y0.11149
G01 X-3.22680 Y0.11127
G01 X-3.22544 Y0.11120
G01 X-3.21770 Y0.11120
G01 X-3.21634 Y0.11127
G01 X-3.21500 Y0.11149
G01 X-3.20743 Y0.11309
G01 X-3.20612 Y0.11345
G01 X-3.20485 Y0.11393
G01 X-3.19778 Y0.11708
G01 X-3.19657 Y0.11770
G01 X-3.19543 Y0.11844
G01 X-3.18917 Y0.12299
G01 X-3.18811 Y0.12384
G01 X-3.18715 Y0.12480
G01 X-3.18198 Y0.13055
G01 X-3.18112 Y0.13161
G01 X-3.18038 Y0.13275
G01 X-3.17651 Y0.13945
G01 X-3.17589 Y0.14066
G01 X-3.17541 Y0.14193
G01 X-3.17302 Y0.14929
G01 X-3.17266 Y0.15060
G01 X-3.17245 Y0.15195
G01 X-3.17164 Y0.15964
G01 X-3.17157 Y0.16100
G01 X-3.17150 Y0.16236
G01 X-3.17069 Y0.17005
G01 X-3.17048 Y0.17140
G01 X-3.17013 Y0.17271
G01 X-3.16774 Y0.18007
G01 X-3.16725 Y0.18134
G01 X-3.16663 Y0.18255
G01 X-3.16276 Y0.18925
G01 X-3.16202 Y0.19039
G01 X-3.16117 Y0.19145
G01 X-3.15599 Y0.19720
G01 X-3.15503 Y0.19816
G01 X-3.15397 Y0.19901
G01 X-3.14771 Y0.20356
G01 X-3.14657 Y0.20430
G01 X-3.14536 Y0.20492
G01 X-3.13829 Y0.20807
G01 X-3.13702 Y0.20855
G01 X-3.13571 Y0.20891
G01 X-3.12814 Y0.21051
G01 X-3.12680 Y0.21073
G01 X-3.12544 Y0.21080
G01 X-3.11770 Y0.21080
G01 X-3.11634 Y0.21073
G01 X-3.11500 Y0.21051
G01 X-3.10743 Y0.20891
G01 X-3.10612 Y0.20855
G01 X-3.10485 Y0.20807
G01 X-3.09778 Y0.20492
G01 X-3.09657 Y0.20430
G01 X-3.09543 Y0.20356
G01 X-3.08917 Y0.19901
G01 X-3.08811 Y0.19816
G01 X-3.08715 Y0.19720
G01 X-3.08198 Y0.19145
G01 X-3.08112 Y0.19039
G01 X-3.08038 Y0.18925
G01 X-3.07651 Y0.18255
G01 X-3.07589 Y0.18134
G01 X-3.07541 Y0.18007
G01 X-3.07302 Y0.17271
G01 X-3.07266 Y0.17140
G01 X-3.07245 Y0.17005
G01 X-3.07164 Y0.16236
G01 X-3.07157 Y0.16100
G01 X-3.07150 Y0.15964
G01 X-3.07069 Y0.15195
G01 X-3.07048 Y0.15060
G01 X-3.07013 Y0.14929
G01 X-3.06774 Y0.14193
G01 X-3.06725 Y0.14066
G01 X-3.06663 Y0.13945
G01 X-3.06276 Y0.13275
G01 X-3.06202 Y0.13161
G01 X-3.06117 Y0.13055
G01 X-3.05599 Y0.12480
G01 X-3.05503 Y0.12384
G01 X-3.05397 Y0.12299
G01 X-3.04771 Y0.11844
G01 X-3.04657 Y0.11770
G01 X-3.04536 Y0.11708
G01 X-3.03829 Y0.11393
G01 X-3.03702 Y0.11345
G01 X-3.03571 Y0.11309
G01 X-3.02814 Y0.11149
G01 X-3.02680 Y0.11127
G01 X-3.02544 Y0.11120
G01 X-3.01770 Y0.11120
G01 X-3.01634 Y0.11127
G01 X-3.01500 Y0.11149
G01 X-3.00743 Y0.11309
G01 X-3.00612 Y0.11345
G01 X-3.00485 Y0.11393
G01 X-2.99778 Y0.11708
G01 X-2.99657 Y0.11770
G01 X-2.99543 Y0.11844
G01 X-2.98917 Y0.12299
G01 X-2.98811 Y0.12384
G01 X-2.98715 Y0.12480
G01 X-2.98198 Y0.13055
G01 X-2.98112 Y0.13161
G01 X-2.98038 Y0.13275
G01 X-2.97651 Y0.13945
G01 X-2.97589 Y0.14066
G01 X-2.97541 Y0.14193
G01 X-2.97302 Y0.14929
G01 X-2.97266 Y0.15060
G01 X-2.97245 Y0.15195
G01 X-2.97164 Y0.15964
G01 X-2.97157 Y0.16100
G01 X-2.97150 Y0.16236
G01 X-2.97069 Y0.17005
G01 X-2.97048 Y0.17140
G01 X-2.97013 Y0.17271
G01 X-2.96774 Y0.18007
G01 X-2.96725 Y0.18134
G01 X-2.96663 Y0.18255
G01 X-2.96276 Y0.18925
G01 X-2.96202 Y0.19039
G01 X-2.96117 Y0.19145
G01 X-2.95599 Y0.19720
G01 X-2.95503 Y0.19816
G01 X-2.95397 Y0.19901
G01 X-2.94771 Y0.20356
G01 X-2.94657 Y0.20430
G01 X-2.94536 Y0.20492
G01 X-2.93829 Y0.20807
G01 X-2.93702 Y0.20855
G01 X-2.93571 Y0.20891
G01 X-2.92814 Y0.21051
G01 X-2.92680 Y0.21073
G01 X-2.92544 Y0.21080
G01 X-2.91770 Y0.21080
G01 X-2.91634 Y0.21073
G01 X-2.91500 Y0.21051
G01 X-2.90743 Y0.20891
G01 X-2.90612 Y0.20855
G01 X-2.90485 Y0.20807
G01 X-2.89778 Y0.20492
G01 X-2.89657 Y0.20430
G01 X-2.89543 Y0.20356
G01 X-2.88917 Y0.19901
G01 X-2.88811 Y0.19816
G01 X-2.88715 Y0.19720
G01 X-2.88198 Y0.19145
G01 X-2.88112 Y0.19039
G01 X-2.88038 Y0.18925
G01 X-2.87651 Y0.18255
G01 X-2.87589 Y0.18134
G01 X-2.87541 Y0.18007
G01 X-2.87302 Y0.17271
G01 X-2.87266 Y0.17140
G01 X-2.87245 Y0.17005
G01 X-2.87164 Y0.16236
G01 X-2.87157 Y0.16100
G01 X-2.87150 Y0.15964
G01 X-2.87069 Y0.15195
G01 X-2.87048 Y0.15060
G01 X-2.87013 Y0.14929
G01 X-2.86774 Y0.14193
G01 X-2.86725 Y0.14066
G01 X-2.86663 Y0.13945
G01 X-2.86276 Y0.13275
G01 X-2.86202 Y0.13161
G01 X-2.86117 Y0.13055
G01 X-2.85599 Y0.12480
G01 X-2.85503 Y0.12384
G01 X-2.85397 Y0.12299
G01 X-2.84771 Y0.11844
G01 X-2.84657 Y0.11770
G01 X-2.84536 Y0.11708
G01 X-2.83829 Y0.11393
G01 X-2.83702 Y0.11345
G01 X-2.83571 Y0.11309
G01 X-2.82814 Y0.11149
G01 X-2.82680 Y0.11127
G01 X-2.82544 Y0.11120
G01 X-2.81770 Y0.11120
G01 X-2.81634 Y0.11127
G01 X-2.81500 Y0.11149
G01 X-2.80743 Y0.11309
G01 X-2.80612 Y0.11345
G01 X-2.80485 Y0.11393
G01 X-2.79778 Y0.11708
G01 X-2.79657 Y0.11770
G01 X-2.79543 Y0.11844
G01 X-2.78917 Y0.12299
G01 X-2.78811 Y0.12384
G01 X-2.78715 Y0.12480
G01 X-2.78198 Y0.13055
G01 X-2.78112 Y0.13161
G01 X-2.78038 Y0.13275
G01 X-2.77651 Y0.13945
G01 X-2.77589 Y0.14066
G01 X-2.77541 Y0.14193
G01 X-2.77302 Y0.14929
G01 X-2.77266 Y0.15060
G01 X-2.77245 Y0.15195
G01 X-2.77164 Y0.15964
G01 X-2.77157 Y0.16100
G01 X-2.77150 Y0.16236
G01 X-2.77069 Y0.17005
G01 X-2.77048 Y0.17140
G01 X-2.77013 Y0.17271
G01 X-2.76774 Y0.18007
G01 X-2.76725 Y0.18134
G01 X-2.76663 Y0.18255
G01 X-2.76276 Y0.18925
G01 X-2.76202 Y0.19039
G01 X-2.76117 Y0.19145
G01 X-2.75599 Y0.19720
G01 X-2.75503 Y0.19816
G01 X-2.75397 Y0.19901
G01 X-2.74771 Y0.20356
G01 X-2.74657 Y0.20430
G01 X-2.74536 Y0.20492
G01 X-2.73829 Y0.20807
G01 X-2.73702 Y0.20855
G01 X-2.73571 Y0.20891
G01 X-2.72814 Y0.21051
G01 X-2.72680 Y0.21073
G01 X-2.72544 Y0.21080
G01 X-2.71770 Y0.21080
G01 X-2.71634 Y0.21073
G01 X-2.71500 Y0.21051
G01 X-2.70743 Y0.20891
G01 X-2.70612 Y0.20855
G01 X-2.70485 Y0.20807
G01 X-2.69778 Y0.20492
G01 X-2.69657 Y0.20430
G01 X-2.69543 Y0.20356
G01 X-2.68917 Y0.19901
G01 X-2.68811 Y0.19816
G01 X-2.68715 Y0.19720
G01 X-2.68198 Y0.19145
G01 X-2.68112 Y0.19039
G01 X-2.68038 Y0.18925
G01 X-2.67651 Y0.18255
G01 X-2.67589 Y0.18134
G01 X-2.67541 Y0.18007
G01 X-2.67302 Y0.17271
G01 X-2.67266 Y0.17140
G01 X-2.67245 Y0.17005
G01 X-2.67164 Y0.16236
G01 X-2.67157 Y0.16100
G01 X-2.67150 Y0.15964
G01 X-2.67069 Y0.15195
G01 X-2.67048 Y0.15060
G01 X-2.67013 Y0.14929
G01 X-2.66774 Y0.14193
G01 X-2.66725 Y0.14066
G01 X-2.66663 Y0.13945
G01 X-2.66276 Y0.13275
G01 X-2.66202 Y0.13161
G01 X-2.66117 Y0.13055
G01 X-2.65599 Y0.12480
G01 X-2.65503 Y0.12384
G01 X-2.65397 Y0.12299
G01 X-2.64771 Y0.11844
G01 X-2.64657 Y0.11770
G01 X-2.64536 Y0.11708
G01 X-2.63829 Y0.11393
G01 X-2.63702 Y0.11345
G01 X-2.63571 Y0.11309
G01 X-2.62814 Y0.11149
G01 X-2.62680 Y0.11127
G01 X-2.62544 Y0.11120
G01 X-2.61770 Y0.11120
G01 X-2.61634 Y0.11127
G01 X-2.61500 Y0.11149
G01 X-2.60743 Y0.11309
G01 X-2.60612 Y0.11345
G01 X-2.60485 Y0.11393
G01 X-2.59778 Y0.11708
G01 X-2.59657 Y0.11770
G01 X-2.59543 Y0.11844
G01 X-2.58917 Y0.12299
G01 X-2.58811 Y0.12384
G01 X-2.58715 Y0.12480
G01 X-2.58198 Y0.13055
G01 X-2.58112 Y0.13161
G01 X-2.58038 Y0.13275
G01 X-2.57651 Y0.13945
G01 X-2.57589 Y0.14066
G01 X-2.57541 Y0.14193
G01 X-2.57302 Y0.14929
G01 X-2.57266 Y0.15060
G01 X-2.57245 Y0.15195
G01 X-2.57164 Y0.15964
G01 X-2.57157 Y0.16100
G01 X-2.57150 Y0.16236
G01 X-2.57069 Y0.17005
G01 X-2.57048 Y0.17140
G01 X-2.57013 Y0.17271
G01 X-2.56774 Y0.18007
G01 X-2.56725 Y0.18134
G01 X-2.56663 Y0.18255
G01 X-2.56276 Y0.18925
G01 X-2.56202 Y0.19039
G01 X-2.56117 Y0.19145
G01 X-2.55599 Y0.19720
G01 X-2.55503 Y0.19816
G01 X-2.55397 Y0.19901
G01 X-2.54771 Y0.20356
G01 X-2.54657 Y0.20430
G01 X-2.54536 Y0.20492
G01 X-2.53829 Y0.20807
G01 X-2.53702 Y0.20855
G01 X-2.53571 Y0.20891
G01 X-2.52814 Y0.21051
G01 X-2.52680 Y0.21073
G01 X-2.52544 Y0.21080
G01 X-2.51770 Y0.21080
G01 X-2.51634 Y0.21073
G01 X-2.51500 Y0.21051
G01 X-2.50743 Y0.20891
G01 X-2.50612 Y0.20855
G01 X-2.50485 Y0.20807
G01 X-2.49778 Y0.20492
G01 X-2.49657 Y0.20430
G01 X-2.49543 Y0.20356
G01 X-2.48917 Y0.19901
G01 X-2.48811 Y0.19816
G01 X-2.48715 Y0.19720
G01 X-2.48198 Y0.19145
G01 X-2.48112 Y0.19039
G01 X-2.48038 Y0.18925
G01 X-2.47651 Y0.18255
G01 X-2.47589 Y0.18134
G01 X-2.47541 Y0.18007
G01 X-2.47302 Y0.17271
G01 X-2.47266 Y0.17140
G01 X-2.47245 Y0.17005
G01 X-2.47164 Y0.16236
G01 X-2.47157 Y0.16100
G01 X-2.47150 Y0.15964
G01 X-2.47069 Y0.15195
G01 X-2.47048 Y0.15060
G01 X-2.47013 Y0.14929
G01 X-2.46774 Y0.14193
G01 X-2.46725 Y0.14066
G01 X-2.46663 Y0.13945
G01 X-2.46276 Y0.13275
G01 X-2.46202 Y0.13161
G01 X-2.46117 Y0.13055
G01 X-2.45599 Y0.12480
G01 X-2.45503 Y0.12384
G01 X-2.45397 Y0.12299
G01 X-2.44771 Y0.11844
G01 X-2.44657 Y0.11770
G01 X-2.44536 Y0.11708
G01 X-2.43829 Y0.11393
G01 X-2.43702 Y0.11345
G01 X-2.43571 Y0.11309
G01 X-2.42814 Y0.11149
G01 X-2.42680 Y0.11127
G01 X-2.42544 Y0.11120
G01 X-2.41770 Y0.11120
G01 X-2.41634 Y0.11127
G01 X-2.41500 Y0.11149
G01 X-2.40743 Y0.11309
G01 X-2.40612 Y0.11345
G01 X-2.40485 Y0.11393
G01 X-2.39778 Y0.11708
G01 X-2.39657 Y0.11770
G01 X-2.39543 Y0.11844
G01 X-2.38917 Y0.12299
G01 X-2.38811 Y0.12384
G01 X-2.38715 Y0.12480
G01 X-2.38198 Y0.13055
G01 X-2.38112 Y0.13161
G01 X-2.38038 Y0.13275
G01 X-2.37651 Y0.13945
G01 X-2.37589 Y0.14066
G01 X-2.37541 Y0.14193
G01 X-2.37302 Y0.14929
G01 X-2.37266 Y0.15060
G01 X-2.37245 Y0.15195
G01 X-2.37164 Y0.15964
G01 X-2.37161 Y0.16032
G01 X-2.37161 Y0.16168
G01 X-2.37164 Y0.16236
G01 X-2.37245 Y0.17005
G01 X-2.37266 Y0.17140
G01 X-2.37302 Y0.17271
G01 X-2.37541 Y0.18007
G01 X-2.37589 Y0.18134
G01 X-2.37651 Y0.18255
G01 X-2.38038 Y0.18925
G01 X-2.38112 Y0.19039
G01 X-2.38198 Y0.19145
G01 X-2.38715 Y0.19720
G01 X-2.38811 Y0.19816
G01 X-2.38917 Y0.19901
G01 X-2.39543 Y0.20356
G01 X-2.39657 Y0.20430
G01 X-2.39778 Y0.20492
G01 X-2.40485 Y0.20807
G01 X-2.40612 Y0.20855
G01 X-2.40743 Y0.20891
G01 X-2.41500 Y0.21051
G01 X-2.41634 Y0.21073
G01 X-2.41770 Y0.21080
G01 X-2.42544 Y0.21080
G01 X-2.42680 Y0.21073
G01 X-2.42814 Y0.21051
G01 X-2.43571 Y0.20891
G01 X-2.43702 Y0.20855
G01 X-2.43829 Y0.20807
G01 X-2.44536 Y0.20492
G01 X-2.44657 Y0.20430
G01 X-2.44771 Y0.20356
G01 X-2.45397 Y0.19901
G01 X-2.45503 Y0.19816
G01 X-2.45599 Y0.19720
G01 X-2.46117 Y0.19145
G01 X-2.46202 Y0.19039
G01 X-2.46276 Y0.18925
G01 X-2.46663 Y0.18255
G01 X-2.46725 Y0.18134
G01 X-2.46774 Y0.18007
G01 X-2.47013 Y0.17271
G01 X-2.47048 Y0.17140
G01 X-2.47069 Y0.17005
G01 X-2.47150 Y0.16236
G01 X-2.47157 Y0.16100
G01 X-2.47164 Y0.15964
G01 X-2.47245 Y0.15195
G01 X-2.47266 Y0.15060
G01 X-2.47302 Y0.14929
G01 X-2.47541 Y0.14193
G01 X-2.47589 Y0.14066
G01 X-2.47651 Y0.13945
G01 X-2.48038 Y0.13275
G01 X-2.48112 Y0.13161
G01 X-2.48198 Y0.13055
G01 X-2.48715 Y0.12480
G01 X-2.48811 Y0.12384
G01 X-2.48917 Y0.12299
G01 X-2.49543 Y0.11844
G01 X-2.49657 Y0.11770
G01 X-2.49778 Y0.11708
G01 X-2.50485 Y0.11393
G01 X-2.50612 Y0.11345
G01 X-2.50743 Y0.11309
G01 X-2.51500 Y0.11149
G01 X-2.51634 Y0.11127
G01 X-2.51770 Y0.11120
G01 X-2.52544 Y0.11120
G01 X-2.52680 Y0.11127
G01 X-2.52814 Y0.11149
G01 X-2.53571 Y0.11309
G01 X-2.53702 Y0.11345
G01 X-2.53829 Y0.11393
G01 X-2.54536 Y0.11708
G01 X-2.54657 Y0.11770
G01 X-2.54771 Y0.11844
G01 X-2.55397 Y0.12299
G01 X-2.55503 Y0.12384
G01 X-2.55599 Y0.12480
G01 X-2.56117 Y0.13055
G01 X-2.56202 Y0.13161
G01 X-2.56276 Y0.13275
G01 X-2.56663 Y0.13945
G01 X-2.56725 Y0.14066
G01 X-2.56774 Y0.14193
G01 X-2.57013 Y0.14929
G01 X-2.57048 Y0.15060
G01 X-2.57069 Y0.15195
G01 X-2.57150 Y0.15964
G01 X-2.57157 Y0.16100
G01 X-2.57164 Y0.16236
G01 X-2.57245 Y0.17005
G01 X-2.57266 Y0.17140
G01 X-2.57302 Y0.17271
G01 X-2.57541 Y0.18007
G01 X-2.57589 Y0.18134
G01 X-2.57651 Y0.18255
G01 X-2.58038 Y0.18925
G01 X-2.58112 Y0.19039
G01 X-2.58198 Y0.19145
G01 X-2.58715 Y0.19720
G01 X-2.58811 Y0.19816
G01 X-2.58917 Y0.19901
G01 X-2.59543 Y0.20356
G01 X-2.59657 Y0.20430
G01 X-2.59778 Y0.20492
G01 X-2.60485 Y0.20807
G01 X-2.60612 Y0.20855
G01 X-2.60743 Y0.20891
G01 X-2.61500 Y0.21051
G01 X-2.61634 Y0.21073
G01 X-2.61770 Y0.21080
G01 X-2.62544 Y0.21080
G01 X-2.62680 Y0.21073
G01 X-2.62814 Y0.21051
G01 X-2.63571 Y0.20891
G01 X-2.63702 Y0.20855
G01 X-2.63829 Y0.20807
G01 X-2.64536 Y0.20492
G01 X-2.64657 Y0.20430
G01 X-2.64771 Y0.20356
G01 X-2.65397 Y0.19901
G01 X-2.65503 Y0.19816
G01 X-2.65599 Y0.19720
G01 X-2.66117 Y0.19145
G01 X-2.66202 Y0.19039
G01 X-2.66276 Y0.18925
G01 X-2.66663 Y0.18255
G01 X-2.66725 Y0.18134
G01 X-2.66774 Y0.18007
G01 X-2.67013 Y0.17271
G01 X-2.67048 Y0.17140
G01 X-2.67069 Y0.17005
G01 X-2.67150 Y0.16236
G01 X-2.67157 Y0.16100
G01 X-2.67164 Y0.15964
G01 X-2.67245 Y0.15195
G01 X-2.67266 Y0.15060
G01 X-2.67302 Y0.14929
G01 X-2.67541 Y0.14193
G01 X-2.67589 Y0.14066
G01 X-2.67651 Y0.13945
G01 X-2.68038 Y0.13275
G01 X-2.68112 Y0.13161
G01 X-2.68198 Y0.13055
G01 X-2.68715 Y0.12480
G01 X-2.68811 Y0.12384
G01 X-2.68917 Y0.12299
G01 X-2.69543 Y0.11844
G01 X-2.69657 Y0.11770
G01 X-2.69778 Y0.11708
G01 X-2.70485 Y0.11393
G01 X-2.70612 Y0.11345
G01 X-2.70743 Y0.11309
G01 X-2.71500 Y0.11149
G01 X-2.71634 Y0.11127
G01 X-2.71770 Y0.11120
G01 X-2.72544 Y0.11120
G01 X-2.72680 Y0.11127
G01 X-2.72814 Y0.11149
G01 X-2.73571 Y0.11309
G01 X-2.73702 Y0.11345
G01 X-2.73829 Y0.11393
G01 X-2.74536 Y0.11708
G01 X-2.74657 Y0.11770
G01 X-2.74771 Y0.11844
G01 X-2.75397 Y0.12299
G01 X-2.75503 Y0.12384
G01 X-2.75599 Y0.12480
G01 X-2.76117 Y0.13055
G01 X-2.76202 Y0.13161
G01 X-2.76276 Y0.13275
G01 X-2.76663 Y0.13945
G01 X-2.76725 Y0.14066
G01 X-2.76774 Y0.14193
G01 X-2.77013 Y0.14929
G01 X-2.77048 Y0.15060
G01 X-2.77069 Y0.15195
G01 X-2.77150 Y0.15964
G01 X-2.77157 Y0.16100
G01 X-2.77164 Y0.16236
G01 X-2.77245 Y0.17005
G01 X-2.77266 Y0.17140
G01 X-2.77302 Y0.17271
G01 X-2.77541 Y0.18007
G01 X-2.77589 Y0.18134
G01 X-2.77651 Y0.18255
G01 X-2.78038 Y0.18925
G01 X-2.78112 Y0.19039
G01 X-2.78198 Y0.19145
G01 X-2.78715 Y0.19720
G01 X-2.78811 Y0.19816
G01 X-2.78917 Y0.19901
G01 X-2.79543 Y0.20356
G01 X-2.79657 Y0.20430
G01 X-2.79778 Y0.20492
G01 X-2.80485 Y0.20807
G01 X-2.80612 Y0.20855
G01 X-2.80743 Y0.20891
G01 X-2.81500 Y0.21051
G01 X-2.81634 Y0.21073
G01 X-2.81770 Y0.21080
G01 X-2.82544 Y0.21080
G01 X-2.82680 Y0.21073
G01 X-2.82814 Y0.21051
G01 X-2.83571 Y0.20891
G01 X-2.83702 Y0.20855
G01 X-2.83829 Y0.20807
G01 X-2.84536 Y0.20492
G01 X-2.84657 Y0.20430
G01 X-2.84771 Y0.20356
G01 X-2.85397 Y0.19901
G01 X-2.85503 Y0.19816
G01 X-2.85599 Y0.19720
G01 X-2.86117 Y0.19145
G01 X-2.86202 Y0.19039
G01 X-2.86276 Y0.18925
G01 X-2.86663 Y0.18255
G01 X-2.86725 Y0.18134
G01 X-2.86774 Y0.18007
G01 X-2.87013 Y0.17271
G01 X-2.87048 Y0.17140
G01 X-2.87069 Y0.17005
G01 X-2.87150 Y0.16236
G01 X-2.87157 Y0.16100
G01 X-2.87164 Y0.15964
G01 X-2.87245 Y0.15195
G01 X-2.87266 Y0.15060
G01 X-2.87302 Y0.14929
G01 X-2.87541 Y0.14193
G01 X-2.87589 Y0.14066
G01 X-2.87651 Y0.13945
G01 X-2.88038 Y0.13275
G01 X-2.88112 Y0.13161
G01 X-2.88198 Y0.13055
G01 X-2.88715 Y0.12480
G01 X-2.88811 Y0.12384
G01 X-2.88917 Y0.12299
G01 X-2.89543 Y0.11844
G01 X-2.89657 Y0.11770
G01 X-2.89778 Y0.11708
G01 X-2.90485 Y0.11393
G01 X-2.90612 Y0.11345
G01 X-2.90743 Y0.11309
G01 X-2.91500 Y0.11149
G01 X-2.91634 Y0.11127
G01 X-2.91770 Y0.11120
G01 X-2.92544 Y0.11120
G01 X-2.92680 Y0.11127
G01 X-2.92814 Y0.11149
G01 X-2.93571 Y0.11309
G01 X-2.93702 Y0.11345
G01 X-2.93829 Y0.11393
G01 X-2.94536 Y0.11708
G01 X-2.94657 Y0.11770
G01 X-2.94771 Y0.11844
G01 X-2.95397 Y0.12299
G01 X-2.95503 Y0.12384
G01 X-2.95599 Y0.12480
G01 X-2.96117 Y0.13055
G01 X-2.96202 Y0.13161
G01 X-2.96276 Y0.13275
G01 X-2.96663 Y0.13945
G01 X-2.96725 Y0.14066
G01 X-2.96774 Y0.14193
G01 X-2.97013 Y0.14929
G01 X-2.97048 Y0.15060
G01 X-2.97069 Y0.15195
G01 X-2.97150 Y0.15964
G01 X-2.97157 Y0.16100
G01 X-2.97164 Y0.16236
G01 X-2.97245 Y0.17005
G01 X-2.97266 Y0.17140
G01 X-2.97302 Y0.17271
G01 X-2.97541 Y0.18007
G01 X-2.97589 Y0.18134
G01 X-2.97651 Y0.18255
G01 X-2.98038 Y0.18925
G01 X-2.98112 Y0.19039
G01 X-2.98198 Y0.19145
G01 X-2.98715 Y0.19720
G01 X-2.98811 Y0.19816
G01 X-2.98917 Y0.19901
G01 X-2.99543 Y0.20356
G01 X-2.99657 Y0.20430
G01 X-2.99778 Y0.20492
G01 X-3.00485 Y0.20807
G01 X-3.00612 Y0.20855
G01 X-3.00743 Y0.20891
G01 X-3.01500 Y0.21051
G01 X-3.01634 Y0.21073
G01 X-3.01770 Y0.21080
G01 X-3.02544 Y0.21080
G01 X-3.02680 Y0.21073
G01 X-3.02814 Y0.21051
G01 X-3.03571 Y0.20891
G01 X-3.03702 Y0.20855
G01 X-3.03829 Y0.20807
G01 X-3.04536 Y0.20492
G01 X-3.04657 Y0.20430
G01 X-3.04771 Y0.20356
G01 X-3.05397 Y0.19901
G01 X-3.05503 Y0.19816
G01 X-3.05599 Y0.19720
G01 X-3.06117 Y0.19145
G01 X-3.06202 Y0.19039
G01 X-3.06276 Y0.18925
G01 X-3.06663 Y0.18255
G01 X-3.06725 Y0.18134
G01 X-3.06774 Y0.18007
G01 X-3.07013 Y0.17271
G01 X-3.07048 Y0.17140
G01 X-3.07069 Y0.17005
G01 X-3.07150 Y0.16236
G01 X-3.07157 Y0.16100
G01 X-3.07164 Y0.15964
G01 X-3.07245 Y0.15195
G01 X-3.07266 Y0.15060
G01 X-3.07302 Y0.14929
G01 X-3.07541 Y0.14193
G01 X-3.07589 Y0.14066
G01 X-3.07651 Y0.13945
G01 X-3.08038 Y0.13275
G01 X-3.08112 Y0.13161
G01 X-3.08198 Y0.13055
G01 X-3.08715 Y0.12480
G01 X-3.08811 Y0.12384
G01 X-3.08917 Y0.12299
G01 X-3.09543 Y0.11844
G01 X-3.09657 Y0.11770
G01 X-3.09778 Y0.11708
G01 X-3.10485 Y0.11393
G01 X-3.10612 Y0.11345
G01 X-3.10743 Y0.11309
G01 X-3.11500 Y0.11149
G01 X-3.11634 Y0.11127
G01 X-3.11770 Y0.11120
G01 X-3.12544 Y0.11120
G01 X-3.12680 Y0.11127
G01 X-3.12814 Y0.11149
G01 X-3.13571 Y0.11309
G01 X-3.13702 Y0.11345
G01 X-3.13829 Y0.11393
G01 X-3.14536 Y0.11708
G01 X-3.14657 Y0.11770
G01 X-3.14771 Y0.11844
G01 X-3.15397 Y0.12299
G01 X-3.15503 Y0.12384
G01 X-3.15599 Y0.12480
G01 X-3.16117 Y0.13055
G01 X-3.16202 Y0.13161
G01 X-3.16276 Y0.13275
G01 X-3.16663 Y0.13945
G01 X-3.16725 Y0.14066
G01 X-3.16774 Y0.14193
G01 X-3.17013 Y0.14929
G01 X-3.17048 Y0.15060
G01 X-3.17069 Y0.15195
G01 X-3.17150 Y0.15964
G01 X-3.17157 Y0.16100
G01 X-3.17164 Y0.16236
G01 X-3.17245 Y0.17005
G01 X-3.17266 Y0.17140
G01 X-3.17302 Y0.17271
G01 X-3.17541 Y0.18007
G01 X-3.17589 Y0.18134
G01 X-3.17651 Y0.18255
G01 X-3.18038 Y0.18925
G01 X-3.18112 Y0.19039
G01 X-3.18198 Y0.19145
G01 X-3.18715 Y0.19720
G01 X-3.18811 Y0.19816
G01 X-3.18917 Y0.19901
G01 X-3.19543 Y0.20356
G01 X-3.19657 Y0.20430
G01 X-3.19778 Y0.20492
G01 X-3.20485 Y0.20807
G01 X-3.20612 Y0.20855
G01 X-3.20743 Y0.20891
G01 X-3.21500 Y0.21051
G01 X-3.21634 Y0.21073
G01 X-3.21770 Y0.21080
G01 X-3.22544 Y0.21080
G01 X-3.22680 Y0.21073
G01 X-3.22814 Y0.21051
G01 X-3.23571 Y0.20891
G01 X-3.23702 Y0.20855
G01 X-3.23829 Y0.20807
G01 X-3.24536 Y0.20492
G01 X-3.24657 Y0.20430
G01 X-3.24771 Y0.20356
G01 X-3.25397 Y0.19901
G01 X-3.25503 Y0.19816
G01 X-3.25599 Y0.19720
G01 X-3.26117 Y0.19145
G01 X-3.26202 Y0.19039
G01 X-3.26276 Y0.18925
G01 X-3.26663 Y0.18255
G01 X-3.26725 Y0.18134
G01 X-3.26774 Y0.18007
G01 X-3.27013 Y0.17271
G01 X-3.27048 Y0.17140
G01 X-3.27069 Y0.17005
G01 X-3.27150 Y0.16236
G01 X-3.27157 Y0.16100
G01 X-3.27164 Y0.15964
G01 X-3.27245 Y0.15195
G01 X-3.27266 Y0.15060
G01 X-3.27302 Y0.14929
G01 X-3.27541 Y0.14193
G01 X-3.27589 Y0.14066
G01 X-3.27651 Y0.13945
G01 X-3.28038 Y0.13275
G01 X-3.28112 Y0.13161
G01 X-3.28198 Y0.13055
G01 X-3.28715 Y0.12480
G01 X-3.28811 Y0.12384
G01 X-3.28917 Y0.12299
G01 X-3.29543 Y0.11844
G01 X-3.29657 Y0.11770
G01 X-3.29778 Y0.11708
G01 X-3.30485 Y0.11393
G01 X-3.30612 Y0.11345
G01 X-3.30743 Y0.11309
G01 X-3.31500 Y0.11149
G01 X-3.31634 Y0.11127
G01 X-3.31770 Y0.11120
G01 X-3.32544 Y0.11120
G01 X-3.32680 Y0.11127
G01 X-3.32814 Y0.11149
G01 X-3.33571 Y0.11309
G01 X-3.33702 Y0.11345
G01 X-3.33829 Y0.11393
G01 X-3.34536 Y0.11708
G01 X-3.34657 Y0.11770
G01 X-3.34771 Y0.11844
G01 X-3.35397 Y0.12299
G01 X-3.35503 Y0.12384
G01 X-3.35599 Y0.12480
G01 X-3.36117 Y0.13055
G01 X-3.36202 Y0.13161
G01 X-3.36276 Y0.13275
G01 X-3.36663 Y0.13945
G01 X-3.36725 Y0.14066
G01 X-3.36774 Y0.14193
G01 X-3.37013 Y0.14929
G01 X-3.37048 Y0.15060
G01 X-3.37069 Y0.15195
G01 X-3.37150 Y0.15964
G01 X-3.37157 Y0.16100
G01 X-3.37164 Y0.16236
G01 X-3.37245 Y0.17005
G01 X-3.37266 Y0.17140
G01 X-3.37302 Y0.17271
G01 X-3.37541 Y0.18007
G01 X-3.37589 Y0.18134
G01 X-3.37651 Y0.18255
G01 X-3.38038 Y0.18925
G01 X-3.38112 Y0.19039
G01 X-3.38198 Y0.19145
G01 X-3.38715 Y0.19720
G01 X-3.38811 Y0.19816
G01 X-3.38917 Y0.19901
G01 X-3.39543 Y0.20356
G01 X-3.39657 Y0.20430
G01 X-3.39778 Y0.20492
G01 X-3.40485 Y0.20807
G01 X-3.40612 Y0.20855
G01 X-3.40743 Y0.20891
G01 X-3.41500 Y0.21051
G01 X-3.41634 Y0.21073
G01 X-3.41770 Y0.21080
G01 X-3.42544 Y0.21080
G01 X-3.42680 Y0.21073
G01 X-3.42814 Y0.21051
G01 X-3.43571 Y0.20891
G01 X-3.43702 Y0.20855
G01 X-3.43829 Y0.20807
G01 X-3.44536 Y0.20492
G01 X-3.44657 Y0.20430
G01 X-3.44771 Y0.20356
G01 X-3.45397 Y0.19901
G01 X-3.45503 Y0.19816
G01 X-3.45599 Y0.19720
G01 X-3.46117 Y0.19145
G01 X-3.46202 Y0.19039
G01 X-3.46276 Y0.18925
G01 X-3.46663 Y0.18255
G01 X-3.46725 Y0.18134
G01 X-3.46774 Y0.18007
G01 X-3.47013 Y0.17271
G01 X-3.47048 Y0.17140
G01 X-3.47069 Y0.17005
G01 X-3.47150 Y0.16236
G01 X-3.47157 Y0.16100
G01 X-3.47164 Y0.15964
G01 X-3.47245 Y0.15195
G01 X-3.47266 Y0.15060
G01 X-3.47302 Y0.14929
G01 X-3.47541 Y0.14193
G01 X-3.47589 Y0.14066
G01 X-3.47651 Y0.13945
G01 X-3.48038 Y0.13275
G01 X-3.48112 Y0.13161
G01 X-3.48198 Y0.13055
G01 X-3.48715 Y0.12480
G01 X-3.48811 Y0.12384
G01 X-3.48917 Y0.12299
G01 X-3.49543 Y0.11844
G01 X-3.49657 Y0.11770
G01 X-3.49778 Y0.11708
G01 X-3.50485 Y0.11393
G01 X-3.50612 Y0.11345
G01 X-3.50743 Y0.11309
G01 X-3.51500 Y0.11149
G01 X-3.51634 Y0.11127
G01 X-3.51770 Y0.11120
G01 X-3.52544 Y0.11120
G01 X-3.52680 Y0.11127
G01 X-3.52814 Y0.11149
G01 X-3.53571 Y0.11309
G01 X-3.53702 Y0.11345
G01 X-3.53829 Y0.11393
G01 X-3.54536 Y0.11708
G01 X-3.54657 Y0.11770
G01 X-3.54771 Y0.11844
G01 X-3.55397 Y0.12299
G01 X-3.55503 Y0.12384
G01 X-3.55599 Y0.12480
G01 X-3.56117 Y0.13055
G01 X-3.56202 Y0.13161
G01 X-3.56276 Y0.13275
G01 X-3.56663 Y0.13945
G01 X-3.56725 Y0.14066
G01 X-3.56774 Y0.14193
G01 X-3.57013 Y0.14929
G01 X-3.57048 Y0.15060
G01 X-3.57069 Y0.15195
G01 X-3.57150 Y0.15964
G01 X-3.57157 Y0.16100
G01 X-3.57164 Y0.16236
G01 X-3.57245 Y0.17005
G01 X-3.57266 Y0.17140
G01 X-3.57302 Y0.17271
G01 X-3.57541 Y0.18007
G01 X-3.57589 Y0.18134
G01 X-3.57651 Y0.18255
G01 X-3.58038 Y0.18925
G01 X-3.58112 Y0.19039
G01 X-3.58198 Y0.19145
G01 X-3.58715 Y0.19720
G01 X-3.58811 Y0.19816
G01 X-3.58917 Y0.19901
G01 X-3.59543 Y0.20356
G01 X-3.59657 Y0.20430
G01 X-3.59778 Y0.20492
G01 X-3.60485 Y0.20807
G01 X-3.60612 Y0.20855
G01 X-3.60743 Y0.20891
G01 X-3.61500 Y0.21051
G01 X-3.61634 Y0.21073
G01 X-3.61770 Y0.21080
G01 X-3.62544 Y0.21080
G01 X-3.62680 Y0.21073
G01 X-3.62814 Y0.21051
G01 X-3.63571 Y0.20891
G01 X-3.63702 Y0.20855
G01 X-3.63829 Y0.20807
G01 X-3.64536 Y0.20492
G01 X-3.64657 Y0.20430
G01 X-3.64771 Y0.20356
G01 X-3.65397 Y0.19901
G01 X-3.65503 Y0.19816
G01 X-3.65599 Y0.19720
G01 X-3.66117 Y0.19145
G01 X-3.66202 Y0.19039
G01 X-3.66276 Y0.18925
G01 X-3.66663 Y0.18255
G01 X-3.66725 Y0.18134
G01 X-3.66774 Y0.18007
G01 X-3.67013 Y0.17271
G01 X-3.67048 Y0.17140
G01 X-3.67069 Y0.17005
G01 X-3.67150 Y0.16236
G01 X-3.67157 Y0.16100
G01 X-3.67164 Y0.15964
G01 X-3.67245 Y0.15195
G01 X-3.67266 Y0.15060
G01 X-3.67302 Y0.14929
G01 X-3.67541 Y0.14193
G01 X-3.67589 Y0.14066
G01 X-3.67651 Y0.13945
G01 X-3.68038 Y0.13275
G01 X-3.68112 Y0.13161
G01 X-3.68198 Y0.13055
G01 X-3.68715 Y0.12480
G01 X-3.68811 Y0.12384
G01 X-3.68917 Y0.12299
G01 X-3.69543 Y0.11844
G01 X-3.69657 Y0.11770
G01 X-3.69778 Y0.11708
G01 X-3.70485 Y0.11393
G01 X-3.70612 Y0.11345
G01 X-3.70743 Y0.11309
G01 X-3.71500 Y0.11149
G01 X-3.71634 Y0.11127
G01 X-3.71770 Y0.11120
G01 X-3.72544 Y0.11120
G01 X-3.72680 Y0.11127
G01 X-3.72814 Y0.11149
G01 X-3.73571 Y0.11309
G01 X-3.73702 Y0.11345
G01 X-3.73829 Y0.11393
G01 X-3.74536 Y0.11708
G01 X-3.74657 Y0.11770
G01 X-3.74771 Y0.11844
G01 X-3.75397 Y0.12299
G01 X-3.75503 Y0.12384
G01 X-3.75599 Y0.12480
G01 X-3.76117 Y0.13055
G01 X-3.76202 Y0.13161
G01 X-3.76276 Y0.13275
G01 X-3.76663 Y0.13945
G01 X-3.76725 Y0.14066
G01 X-3.76774 Y0.14193
G01 X-3.77013 Y0.14929
G01 X-3.77048 Y0.15060
G01 X-3.77069 Y0.15195
G01 X-3.77150 Y0.15964
G01 X-3.77157 Y0.16100
G01 X-3.77164 Y0.16236
G01 X-3.77245 Y0.17005
G01 X-3.77266 Y0.17140
G01 X-3.77302 Y0.17271
G01 X-3.77541 Y0.18007
G01 X-3.77589 Y0.18134
G01 X-3.77651 Y0.18255
G01 X-3.78038 Y0.18925
G01 X-3.78112 Y0.19039
G01 X-3.78198 Y0.19145
G01 X-3.78715 Y0.19720
G01 X-3.78811 Y0.19816
G01 X-3.78917 Y0.19901
G01 X-3.79543 Y0.20356
G01 X-3.79657 Y0.20430
G01 X-3.79778 Y0.20492
G01 X-3.80485 Y0.20807
G01 X-3.80612 Y0.20855
G01 X-3.80743 Y0.20891
G01 X-3.81500 Y0.21051
G01 X-3.81634 Y0.21073
G01 X-3.81770 Y0.21080
G01 X-3.82544 Y0.21080
G01 X-3.82680 Y0.21073
G01 X-3.82814 Y0.21051
G01 X-3.83571 Y0.20891
G01 X-3.83702 Y0.20855
G01 X-3.83829 Y0.20807
G01 X-3.84536 Y0.20492
G01 X-3.84657 Y0.20430
G01 X-3.84771 Y0.20356
G01 X-3.85397 Y0.19901
G01 X-3.85503 Y0.19816
G01 X-3.85599 Y0.19720
G01 X-3.86117 Y0.19145
G01 X-3.86202 Y0.19039
G01 X-3.86276 Y0.18925
G01 X-3.86663 Y0.18255
G01 X-3.86725 Y0.18134
G01 X-3.86774 Y0.18007
G01 X-3.87013 Y0.17271
G01 X-3.87048 Y0.17140
G01 X-3.87069 Y0.17005
G01 X-3.87150 Y0.16236
G01 X-3.87157 Y0.16100
G01 X-3.87164 Y0.15964
G01 X-3.87245 Y0.15195
G01 X-3.87266 Y0.15060
G01 X-3.87302 Y0.14929
G01 X-3.87541 Y0.14193
G01 X-3.87589 Y0.14066
G01 X-3.87651 Y0.13945
G01 X-3.88038 Y0.13275
G01 X-3.88112 Y0.13161
G01 X-3.88198 Y0.13055
G01 X-3.88715 Y0.12480
G01 X-3.88811 Y0.12384
G01 X-3.88917 Y0.12299
G01 X-3.89543 Y0.11844
G01 X-3.89657 Y0.11770
G01 X-3.89778 Y0.11708
G01 X-3.90485 Y0.11393
G01 X-3.90612 Y0.11345
G01 X-3.90743 Y0.11309
G01 X-3.91500 Y0.11149
G01 X-3.91634 Y0.11127
G01 X-3.91770 Y0.11120
G01 X-3.92544 Y0.11120
G01 X-3.92680 Y0.11127
G01 X-3.92814 Y0.11149
G01 X-3.93571 Y0.11309
G01 X-3.93702 Y0.11345
G01 X-3.93829 Y0.11393
G01 X-3.94536 Y0.11708
G01 X-3.94657 Y0.11770
G01 X-3.94771 Y0.11844
G01 X-3.95397 Y0.12299
G01 X-3.95503 Y0.12384
G01 X-3.95599 Y0.12480
G01 X-3.96117 Y0.13055
G01 X-3.96202 Y0.13161
G01 X-3.96276 Y0.13275
G01 X-3.96663 Y0.13945
G01 X-3.96725 Y0.14066
G01 X-3.96774 Y0.14193
G01 X-3.97013 Y0.14929
G01 X-3.97048 Y0.15060
G01 X-3.97069 Y0.15195
G01 X-3.97150 Y0.15964
G01 X-3.97157 Y0.16100
G01 X-3.97164 Y0.16236
G01 X-3.97245 Y0.17005
G01 X-3.97266 Y0.17140
G01 X-3.97302 Y0.17271
G01 X-3.97541 Y0.18007
G01 X-3.97589 Y0.18134
G01 X-3.97651 Y0.18255
G01 X-3.98038 Y0.18925
G01 X-3.98112 Y0.19039
G01 X-3.98198 Y0.19145
G01 X-3.98715 Y0.19720
G01 X-3.98811 Y0.19816
G01 X-3.98917 Y0.19901
G01 X-3.99543 Y0.20356
G01 X-3.99657 Y0.20430
G01 X-3.99778 Y0.20492
G01 X-4.00485 Y0.20807
G01 X-4.00612 Y0.20855
G01 X-4.00743 Y0.20891
G01 X-4.01500 Y0.21051
G01 X-4.01634 Y0.21073
G01 X-4.01770 Y0.21080
G01 X-4.02544 Y0.21080
G01 X-4.02680 Y0.21073
G01 X-4.02814 Y0.21051
G01 X-4.03571 Y0.20891
G01 X-4.03702 Y0.20855
G01 X-4.03829 Y0.20807
G01 X-4.04536 Y0.20492
G01 X-4.04657 Y0.20430
G01 X-4.04771 Y0.20356
G01 X-4.05397 Y0.19901
G01 X-4.05503 Y0.19816
G01 X-4.05599 Y0.19720
G01 X-4.06117 Y0.19145
G01 X-4.06202 Y0.19039
G01 X-4.06276 Y0.18925
G01 X-4.06663 Y0.18255
G01 X-4.06725 Y0.18134
G01 X-4.06774 Y0.18007
G01 X-4.07013 Y0.17271
G01 X-4.07048 Y0.17140
G01 X-4.07069 Y0.17005
G01 X-4.07150 Y0.16236
G01 X-4.07157 Y0.16100
G01 X-4.07164 Y0.15964
G01 X-4.07245 Y0.15195
G01 X-4.07266 Y0.15060
G01 X-4.07302 Y0.14929
G01 X-4.07541 Y0.14193
G01 X-4.07589 Y0.14066
G01 X-4.07651 Y0.13945
G01 X-4.08038 Y0.13275
G01 X-4.08112 Y0.13161
G01 X-4.08198 Y0.13055
G01 X-4.08715 Y0.12480
G01 X-4.08811 Y0.12384
G01 X-4.08917 Y0.12299
G01 X-4.09543 Y0.11844
G01 X-4.09657 Y0.11770
G01 X-4.09778 Y0.11708
G01 X-4.10485 Y0.11393
G01 X-4.10612 Y0.11345
G01 X-4.10743 Y0.11309
G01 X-4.11500 Y0.11149
G01 X-4.11634 Y0.11127
G01 X-4.11770 Y0.11120
G01 X-4.12544 Y0.11120
G01 X-4.12680 Y0.11127
G01 X-4.12814 Y0.11149
G01 X-4.13571 Y0.11309
G01 X-4.13702 Y0.11345
G01 X-4.13829 Y0.11393
G01 X-4.14536 Y0.11708
G01 X-4.14657 Y0.11770
G01 X-4.14771 Y0.11844
G01 X-4.15397 Y0.12299
G01 X-4.15503 Y0.12384
G01 X-4.15599 Y0.12480
G01 X-4.16117 Y0.13055
G01 X-4.16202 Y0.13161
G01 X-4.16276 Y0.13275
G01 X-4.16663 Y0.13945
G01 X-4.16725 Y0.14066
G01 X-4.16774 Y0.14193
G01 X-4.17013 Y0.14929
G01 X-4.17048 Y0.15060
G01 X-4.17069 Y0.15195
G01 X-4.17150 Y0.15964
G01 X-4.17157 Y0.16100
G01 X-4.17164 Y0.16236
G01 X-4.17245 Y0.17005
G01 X-4.17266 Y0.17140
G01 X-4.17302 Y0.17271
G01 X-4.17541 Y0.18007
G01 X-4.17589 Y0.18134
G01 X-4.17651 Y0.18255
G01 X-4.18038 Y0.18925
G01 X-4.18112 Y0.19039
G01 X-4.18198 Y0.19145
G01 X-4.18715 Y0.19720
G01 X-4.18811 Y0.19816
G01 X-4.18917 Y0.19901
G01 X-4.19543 Y0.20356
G01 X-4.19657 Y0.20430
G01 X-4.19778 Y0.20492
G01 X-4.20485 Y0.20807
G01 X-4.20612 Y0.20855
G01 X-4.20743 Y0.20891
G01 X-4.21500 Y0.21051
G01 X-4.21634 Y0.21073
G01 X-4.21770 Y0.21080
G01 X-4.22544 Y0.21080
G01 X-4.22680 Y0.21073
G01 X-4.22814 Y0.21051
G01 X-4.23571 Y0.20891
G01 X-4.23702 Y0.20855
G01 X-4.23829 Y0.20807
G01 X-4.24536 Y0.20492
G01 X-4.24657 Y0.20430
G01 X-4.24771 Y0.20356
G01 X-4.25397 Y0.19901
G01 X-4.25503 Y0.19816
G01 X-4.25599 Y0.19720
G01 X-4.26117 Y0.19145
G01 X-4.26202 Y0.19039
G01 X-4.26276 Y0.18925
G01 X-4.26663 Y0.18255
G01 X-4.26725 Y0.18134
G01 X-4.26774 Y0.18007
G01 X-4.27013 Y0.17271
G01 X-4.27048 Y0.17140
G01 X-4.27069 Y0.17005
G01 X-4.27150 Y0.16236
G01 X-4.27157 Y0.16100
G01 X-4.27164 Y0.15964
G01 X-4.27245 Y0.15195
G01 X-4.27266 Y0.15060
G01 X-4.27302 Y0.14929
G01 X-4.27541 Y0.14193
G01 X-4.27589 Y0.14066
G01 X-4.27651 Y0.13945
G01 X-4.28038 Y0.13275
G01 X-4.28112 Y0.13161
G01 X-4.28198 Y0.13055
G01 X-4.28715 Y0.12480
G01 X-4.28811 Y0.12384
G01 X-4.28917 Y0.12299
G01 X-4.29543 Y0.11844
G01 X-4.29657 Y0.11770
G01 X-4.29778 Y0.11708
G01 X-4.30485 Y0.11393
G01 X-4.30612 Y0.11345
G01 X-4.30743 Y0.11309
G01 X-4.31500 Y0.11149
G01 X-4.31634 Y0.11127
G01 X-4.31770 Y0.11120
G01 X-4.32544 Y0.11120
G01 X-4.32680 Y0.11127
G01 X-4.32814 Y0.11149
G01 X-4.33571 Y0.11309
G01 X-4.33702 Y0.11345
G01 X-4.33829 Y0.11393
G01 X-4.34536 Y0.11708
G01 X-4.34657 Y0.11770
G01 X-4.34771 Y0.11844
G01 X-4.35397 Y0.12299
G01 X-4.35503 Y0.12384
G01 X-4.35599 Y0.12480
G01 X-4.36117 Y0.13055
G01 X-4.36202 Y0.13161
G01 X-4.36276 Y0.13275
G01 X-4.36663 Y0.13945
G01 X-4.36725 Y0.14066
G01 X-4.36774 Y0.14193
G01 X-4.37013 Y0.14929
G01 X-4.37048 Y0.15060
G01 X-4.37069 Y0.15195
G01 X-4.37150 Y0.15964
G01 X-4.37157 Y0.16100
G01 X-4.37164 Y0.16236
G01 X-4.37245 Y0.17005
G01 X-4.37266 Y0.17140
G01 X-4.37302 Y0.17271
G01 X-4.37541 Y0.18007
G01 X-4.37589 Y0.18134
G01 X-4.37651 Y0.18255
G01 X-4.38038 Y0.18925
G01 X-4.38112 Y0.19039
G01 X-4.38198 Y0.19145
G01 X-4.38715 Y0.19720
G01 X-4.38811 Y0.19816
G01 X-4.38917 Y0.19901
G01 X-4.39543 Y0.20356
G01 X-4.39657 Y0.20430
G01 X-4.39778 Y0.20492
G01 X-4.40485 Y0.20807
G01 X-4.40612 Y0.20855
G01 X-4.40743 Y0.20891
G01 X-4.41500 Y0.21051
G01 X-4.41634 Y0.21073
G01 X-4.41770 Y0.21080
G01 X-4.42544 Y0.21080
G01 X-4.42680 Y0.21073
G01 X-4.42814 Y0.21051
G01 X-4.43571 Y0.20891
G01 X-4.43702 Y0.20855
G01 X-4.43829 Y0.20807
G01 X-4.44536 Y0.20492
G01 X-4.44657 Y0.20430
G01 X-4.44771 Y0.20356
G01 X-4.45397 Y0.19901
G01 X-4.45503 Y0.19816
G01 X-4.45599 Y0.19720
G01 X-4.46117 Y0.19145
G01 X-4.46202 Y0.19039
G01 X-4.46276 Y0.18925
G01 X-4.46663 Y0.18255
G01 X-4.46725 Y0.18134
G01 X-4.46774 Y0.18007
G01 X-4.47013 Y0.17271
G01 X-4.47048 Y0.17140
G01 X-4.47069 Y0.17005
G01 X-4.47150 Y0.16236
G01 X-4.47157 Y0.16100
G01 X-4.47164 Y0.15964
G01 X-4.47245 Y0.15195
G01 X-4.47266 Y0.15060
G01 X-4.47302 Y0.14929
G01 X-4.47357 Y0.14758
G01 X-4.47357 Y0.11646
G01 X-4.47363 Y0.11518
G01 X-4.47431 Y0.10836
G01 X-4.47480 Y0.10586
G01 X-4.47679 Y0.09929
G01 X-4.47777 Y0.09694
G01 X-4.48100 Y0.09089
G01 X-4.48242 Y0.08877
G01 X-4.48677 Y0.08346
G01 X-4.48763 Y0.08252
G01 X-4.54309 Y0.02706
G01 X-4.54384 Y0.02637
G01 X-4.54801 Y0.02280
G01 X-4.54966 Y0.02160
G01 X-4.55435 Y0.01873
G01 X-4.55616 Y0.01781
G01 X-4.56124 Y0.01570
G01 X-4.56318 Y0.01507
G01 X-4.56852 Y0.01379
G01 X-4.57053 Y0.01347
G01 X-4.57601 Y0.01304
G01 X-4.57703 Y0.01300
G01 X-4.82157 Y0.01300
G01 X-4.82285 Y0.01306
G01 X-4.82967 Y0.01374
G01 X-4.83217 Y0.01423
G01 X-4.83874 Y0.01622
G01 X-4.84109 Y0.01720
G01 X-4.84714 Y0.02043
G01 X-4.84824 Y0.02109
G01 X-4.84926 Y0.02185
G01 X-4.85457 Y0.02620
G01 X-4.85551 Y0.02706
G01 X-6.15551 Y1.32706
G01 X-6.15637 Y1.32801
G01 X-6.16072 Y1.33331
G01 X-6.16214 Y1.33543
G01 X-6.16537 Y1.34148
G01 X-6.16592 Y1.34263
G01 X-6.16635 Y1.34383
G01 X-6.16834 Y1.35040
G01 X-6.16884 Y1.35290
G01 X-6.16951 Y1.35973
G01 X-6.16957 Y1.36100
G01 X-6.16957 Y2.06812
G01 X-6.23999 Y2.06812
G01 X-6.24073 Y2.06751
G01 X-6.24297 Y2.06631
G01 X-6.24541 Y2.06557
G01 X-6.24795 Y2.06532
G01 X-6.29519 Y2.06532
G01 X-6.29773 Y2.06557
G01 X-6.30017 Y2.06631
G01 X-6.30242 Y2.06751
G01 X-6.30439 Y2.06913
G01 X-6.30600 Y2.07110
G01 X-6.30720 Y2.07335
G01 X-6.30794 Y2.07579
G01 X-6.30819 Y2.07832
G01 X-6.30819 Y2.11376
G01 X-6.30794 Y2.11629
G01 X-6.30720 Y2.11873
G01 X-6.30600 Y2.12098
G01 X-6.30439 Y2.12295
G01 X-6.30242 Y2.12457
G01 X-6.30017 Y2.12577
G01 X-6.29773 Y2.12651
G01 X-6.29519 Y2.12676
G01 X-6.24795 Y2.12676
G01 X-6.24541 Y2.12651
G01 X-6.24297 Y2.12577
G01 X-6.24073 Y2.12457
G01 X-6.24018 Y2.12412
G01 X-6.16967 Y2.12412
G01 X-6.16774 Y2.13007
G01 X-6.16725 Y2.13134
G01 X-6.16663 Y2.13255
G01 X-6.16276 Y2.13925
G01 X-6.16202 Y2.14039
G01 X-6.16117 Y2.14145
G01 X-6.15599 Y2.14720
G01 X-6.15503 Y2.14816
G01 X-6.15397 Y2.14901
G01 X-6.14771 Y2.15356
G01 X-6.14657 Y2.15430
G01 X-6.14536 Y2.15492
G01 X-6.13829 Y2.15807
G01 X-6.13702 Y2.15855
G01 X-6.13571 Y2.15891
G01 X-6.12814 Y2.16051
G01 X-6.12680 Y2.16073
G01 X-6.12544 Y2.16080
G01 X-6.11770 Y2.16080
G01 X-6.11634 Y2.16073
G01 X-6.11500 Y2.16051
G01 X-6.10743 Y2.15891
G01 X-6.10612 Y2.15855
G01 X-6.10485 Y2.15807
G01 X-6.09778 Y2.15492
G01 X-6.09657 Y2.15430
G01 X-6.09543 Y2.15356
G01 X-6.08917 Y2.14901
G01 X-6.08811 Y2.14816
G01 X-6.08715 Y2.14720
G01 X-6.08198 Y2.14145
G01 X-6.08112 Y2.14039
G01 X-6.08038 Y2.13925
G01 X-6.07651 Y2.13255
G01 X-6.07589 Y2.13134
G01 X-6.07541 Y2.13007
G01 X-6.07302 Y2.12271
G01 X-6.07266 Y2.12140
G01 X-6.07245 Y2.12005
G01 X-6.07164 Y2.11236
G01 X-6.07157 Y2.11100
G01 X-6.07164 Y2.10964
G01 X-6.07245 Y2.10195
G01 X-6.07266 Y2.10060
G01 X-6.07302 Y2.09929
G01 X-6.07357 Y2.09758
G01 X-6.07357 Y1.38088
G01 X-4.80169 Y0.10900
G01 X-4.59691 Y0.10900
G01 X-4.56957 Y0.13634
G01 X-4.56957 Y0.14758
G01 X-4.57013 Y0.14929
G01 X-4.57048 Y0.15060
G01 X-4.57069 Y0.15195
G01 X-4.57150 Y0.15964
G01 X-4.57157 Y0.16100
G01 X-4.57164 Y0.16236
G01 X-4.57245 Y0.17005
G01 X-4.57266 Y0.17140
G01 X-4.57302 Y0.17271
G01 X-4.57541 Y0.18007
G01 X-4.57589 Y0.18134
G01 X-4.57651 Y0.18255
G01 X-4.58038 Y0.18925
G01 X-4.58112 Y0.19039
G01 X-4.58198 Y0.19145
G01 X-4.58715 Y0.19720
G01 X-4.58811 Y0.19816
G01 X-4.58917 Y0.19901
G01 X-4.59357 Y0.20221
G01 X-4.59357 Y0.26613
G01 X-4.59297 Y0.26631
G01 X-4.59073 Y0.26751
G01 X-4.58876 Y0.26913
G01 X-4.58714 Y0.27110
G01 X-4.58594 Y0.27335
G01 X-4.58520 Y0.27579
G01 X-4.58495 Y0.27832
G01 X-4.58495 Y0.31376
G01 X-4.58520 Y0.31629
G01 X-4.58594 Y0.31873
G01 X-4.58714 Y0.32098
G01 X-4.58876 Y0.32295
G01 X-4.59073 Y0.32457
G01 X-4.59297 Y0.32577
G01 X-4.59541 Y0.32651
G01 X-4.59795 Y0.32676
G01 X-4.64519 Y0.32676
G01 X-4.64773 Y0.32651
G01 X-4.65017 Y0.32577
G01 X-4.65242 Y0.32457
G01 X-4.65439 Y0.32295
G01 X-4.65600 Y0.32098
G01 X-4.65720 Y0.31873
G01 X-4.65794 Y0.31629
G01 X-4.65819 Y0.31376
G01 X-4.65819 Y0.27832
G01 X-4.65794 Y0.27579
G01 X-4.65720 Y0.27335
G01 X-4.65600 Y0.27110
G01 X-4.65439 Y0.26913
G01 X-4.65242 Y0.26751
G01 X-4.65017 Y0.26631
G01 X-4.64957 Y0.26613
G01 X-4.64957 Y0.25688
G01 X-5.77357 Y1.38088
G01 X-5.77357 Y2.09758
G01 X-5.77302 Y2.09929
G01 X-5.77266 Y2.10060
G01 X-5.77245 Y2.10195
G01 X-5.77164 Y2.10964
G01 X-5.77157 Y2.11100
G01 X-5.77164 Y2.11236
G01 X-5.77245 Y2.12005
G01 X-5.77266 Y2.12140
G01 X-5.77302 Y2.12271
G01 X-5.77541 Y2.13007
G01 X-5.77589 Y2.13134
G01 X-5.77651 Y2.13255
G01 X-5.78038 Y2.13925
G01 X-5.78112 Y2.14039
G01 X-5.78198 Y2.14145
G01 X-5.78715 Y2.14720
G01 X-5.78811 Y2.14816
G01 X-5.78917 Y2.14901
G01 X-5.79543 Y2.15356
G01 X-5.79657 Y2.15430
G01 X-5.79778 Y2.15492
G01 X-5.80485 Y2.15807
G01 X-5.80612 Y2.15855
G01 X-5.80743 Y2.15891
G01 X-5.81500 Y2.16051
G01 X-5.81634 Y2.16073
G01 X-5.81770 Y2.16080
G01 X-5.82544 Y2.16080
G01 X-5.82680 Y2.16073
G01 X-5.82814 Y2.16051
G01 X-5.83571 Y2.15891
G01 X-5.83702 Y2.15855
G01 X-5.83829 Y2.15807
G01 X-5.84536 Y2.15492
G01 X-5.84657 Y2.15430
G01 X-5.84771 Y2.15356
G01 X-5.85397 Y2.14901
G01 X-5.85503 Y2.14816
G01 X-5.85599 Y2.14720
G01 X-5.86117 Y2.14145
G01 X-5.86202 Y2.14039
G01 X-5.86276 Y2.13925
G01 X-5.86663 Y2.13255
G01 X-5.86725 Y2.13134
G01 X-5.86774 Y2.13007
G01 X-5.86967 Y2.12411
G01 X-5.94018 Y2.12411
G01 X-5.94073 Y2.12457
G01 X-5.94297 Y2.12577
G01 X-5.94541 Y2.12651
G01 X-5.94795 Y2.12676
G01 X-5.99519 Y2.12676
G01 X-5.99773 Y2.12651
G01 X-6.00017 Y2.12577
G01 X-6.00242 Y2.12457
G01 X-6.00439 Y2.12295
G01 X-6.00600 Y2.12098
G01 X-6.00720 Y2.11873
G01 X-6.00794 Y2.11629
G01 X-6.00819 Y2.11376
G01 X-6.00819 Y2.07832
G01 X-6.00794 Y2.07579
G01 X-6.00720 Y2.07335
G01 X-6.00600 Y2.07110
G01 X-6.00439 Y2.06913
G01 X-6.00242 Y2.06751
G01 X-6.00017 Y2.06631
G01 X-5.99773 Y2.06557
G01 X-5.99519 Y2.06532
G01 X-5.94795 Y2.06532
G01 X-5.94541 Y2.06557
G01 X-5.94297 Y2.06631
G01 X-5.94073 Y2.06751
G01 X-5.93999 Y2.06812
G01 X-5.86957 Y2.06812
G01 X-5.86957 Y1.36100
G01 X-5.86951 Y1.35973
G01 X-5.86884 Y1.35290
G01 X-5.86834 Y1.35040
G01 X-5.86635 Y1.34383
G01 X-5.86592 Y1.34263
G01 X-5.86537 Y1.34148
G01 X-5.86214 Y1.33543
G01 X-5.86072 Y1.33331
G01 X-5.85637 Y1.32801
G01 X-5.85551 Y1.32706
G01 X-4.66489 Y0.13644
G01 X-4.66276 Y0.13275
G01 X-4.66202 Y0.13161
G01 X-4.66117 Y0.13055
G01 X-4.65599 Y0.12480
G01 X-4.65503 Y0.12384
G01 X-4.65397 Y0.12299
G01 X-4.64771 Y0.11844
G01 X-4.64657 Y0.11770
G01 X-4.64536 Y0.11708
G01 X-4.63829 Y0.11393
G01 X-4.63702 Y0.11345
G01 X-4.63571 Y0.11309
G01 X-4.62814 Y0.11149
G01 X-4.62680 Y0.11127
G01 X-4.62544 Y0.11120
G01 X-4.61770 Y0.11120
G01 X-4.61634 Y0.11127
G01 X-4.61500 Y0.11149
G01 X-4.60743 Y0.11309
G01 X-4.60612 Y0.11345
G01 X-4.60485 Y0.11393
G01 X-4.59778 Y0.11708
G01 X-4.59657 Y0.11770
G01 X-4.59543 Y0.11844
G01 X-4.58917 Y0.12299
G01 X-4.58811 Y0.12384
G01 X-4.58715 Y0.12480
G01 X-4.58198 Y0.13055
G01 X-4.58112 Y0.13161
G01 X-4.58038 Y0.13275
G01 X-4.57651 Y0.13945
G01 X-4.57589 Y0.14066
G01 X-4.57541 Y0.14193
G01 X-4.57302 Y0.14929
G01 X-4.57266 Y0.15060
G01 X-4.57245 Y0.15195
G01 X-4.57164 Y0.15964
G01 X-4.57157 Y0.16100
G01 X-4.57150 Y0.16236
G01 X-4.57069 Y0.17005
G01 X-4.57048 Y0.17140
G01 X-4.57013 Y0.17271
G01 X-4.56774 Y0.18007
G01 X-4.56725 Y0.18134
G01 X-4.56663 Y0.18255
G01 X-4.56276 Y0.18925
G01 X-4.56202 Y0.19039
G01 X-4.56117 Y0.19145
G01 X-4.55599 Y0.19720
G01 X-4.55503 Y0.19816
G01 X-4.55397 Y0.19901
G01 X-4.54957 Y0.20221
G01 X-4.54957 Y0.26613
G01 X-4.55017 Y0.26631
G01 X-4.55242 Y0.26751
G01 X-4.55439 Y0.26913
G01 X-4.55600 Y0.27110
G01 X-4.55720 Y0.27335
G01 X-4.55794 Y0.27579
G01 X-4.55819 Y0.27832
G01 X-4.55819 Y0.31376
G01 X-4.55794 Y0.31629
G01 X-4.55720 Y0.31873
G01 X-4.55600 Y0.32098
G01 X-4.55439 Y0.32295
G01 X-4.55242 Y0.32457
G01 X-4.55017 Y0.32577
G01 X-4.54773 Y0.32651
G01 X-4.54519 Y0.32676
G01 X-4.49795 Y0.32676
G01 X-4.49541 Y0.32651
G01 X-4.49297 Y0.32577
G01 X-4.49073 Y0.32457
G01 X-4.48876 Y0.32295
G01 X-4.48714 Y0.32098
G01 X-4.48594 Y0.31873
G01 X-4.48520 Y0.31629
G01 X-4.48495 Y0.31376
G01 X-4.48495 Y0.27832
G01 X-4.48520 Y0.27579
G01 X-4.48594 Y0.27335
G01 X-4.48714 Y0.27110
G01 X-4.48876 Y0.26913
G01 X-4.49073 Y0.26751
G01 X-4.49297 Y0.26631
G01 X-4.49357 Y0.26613
G01 X-4.49357 Y0.20221
G01 X-4.48917 Y0.19901
G01 X-4.48811 Y0.19816
G01 X-4.48715 Y0.19720
G01 X-4.48198 Y0.19145
G01 X-4.48112 Y0.19039
G01 X-4.48038 Y0.18925
G01 X-4.47651 Y0.18255
G01 X-4.47589 Y0.18134
G01 X-4.47541 Y0.18007
G01 X-4.47302 Y0.17271
G01 X-4.47266 Y0.17140
G01 X-4.47245 Y0.17005
G01 X-4.47164 Y0.16236
G01 X-4.47157 Y0.16100
G01 X-4.47150 Y0.15964
G01 X-4.47069 Y0.15195
G01 X-4.47048 Y0.15060
G01 X-4.47013 Y0.14929
G01 X-4.46774 Y0.14193
G01 X-4.46725 Y0.14066
G01 X-4.46663 Y0.13945
G01 X-4.46276 Y0.13275
G01 X-4.46202 Y0.13161
G01 X-4.46117 Y0.13055
G01 X-4.45599 Y0.12480
G01 X-4.45503 Y0.12384
G01 X-4.45397 Y0.12299
G01 X-4.44771 Y0.11844
G01 X-4.44657 Y0.11770
G01 X-4.44536 Y0.11708
G01 X-4.43829 Y0.11393
G01 X-4.43702 Y0.11345
G01 X-4.43571 Y0.11309
G01 X-4.42814 Y0.11149
G01 X-4.42680 Y0.11127
G01 X-4.42544 Y0.11120
G01 X-4.41770 Y0.11120
G01 X-4.41634 Y0.11127
G01 X-4.41500 Y0.11149
G01 X-4.40743 Y0.11309
G01 X-4.40612 Y0.11345
G01 X-4.40485 Y0.11393
G01 X-4.39778 Y0.11708
G01 X-4.39657 Y0.11770
G01 X-4.39543 Y0.11844
G01 X-4.38917 Y0.12299
G01 X-4.38811 Y0.12384
G01 X-4.38715 Y0.12480
G01 X-4.38198 Y0.13055
G01 X-4.38112 Y0.13161
G01 X-4.38038 Y0.13275
G01 X-4.37651 Y0.13945
G01 X-4.37589 Y0.14066
G01 X-4.37541 Y0.14193
G01 X-4.37302 Y0.14929
G01 X-4.37266 Y0.15060
G01 X-4.37245 Y0.15195
G01 X-4.37164 Y0.15964
G01 X-4.37157 Y0.16100
G01 X-4.37150 Y0.16236
G01 X-4.37069 Y0.17005
G01 X-4.37048 Y0.17140
G01 X-4.37013 Y0.17271
G01 X-4.36774 Y0.18007
G01 X-4.36725 Y0.18134
G01 X-4.36663 Y0.18255
G01 X-4.36276 Y0.18925
G01 X-4.36202 Y0.19039
G01 X-4.36117 Y0.19145
G01 X-4.35599 Y0.19720
G01 X-4.35503 Y0.19816
G01 X-4.35397 Y0.19901
G01 X-4.34771 Y0.20356
G01 X-4.34657 Y0.20430
G01 X-4.34536 Y0.20492
G01 X-4.33829 Y0.20807
G01 X-4.33702 Y0.20855
G01 X-4.33571 Y0.20891
G01 X-4.32814 Y0.21051
G01 X-4.32680 Y0.21073
G01 X-4.32544 Y0.21080
G01 X-4.31770 Y0.21080
G01 X-4.31634 Y0.21073
G01 X-4.31500 Y0.21051
G01 X-4.30743 Y0.20891
G01 X-4.30612 Y0.20855
G01 X-4.30485 Y0.20807
G01 X-4.29778 Y0.20492
G01 X-4.29657 Y0.20430
G01 X-4.29543 Y0.20356
G01 X-4.28917 Y0.19901
G01 X-4.28811 Y0.19816
G01 X-4.28715 Y0.19720
G01 X-4.28198 Y0.19145
G01 X-4.28112 Y0.19039
G01 X-4.28038 Y0.18925
G01 X-4.27651 Y0.18255
G01 X-4.27589 Y0.18134
G01 X-4.27541 Y0.18007
G01 X-4.27302 Y0.17271
G01 X-4.27266 Y0.17140
G01 X-4.27245 Y0.17005
G01 X-4.27164 Y0.16236
G01 X-4.27157 Y0.16100
G01 X-4.27150 Y0.15964
G01 X-4.27069 Y0.15195
G01 X-4.27048 Y0.15060
G01 X-4.27013 Y0.14929
G01 X-4.26774 Y0.14193
G01 X-4.26725 Y0.14066
G01 X-4.26663 Y0.13945
G01 X-4.26276 Y0.13275
G01 X-4.26202 Y0.13161
G01 X-4.26117 Y0.13055
G01 X-4.25599 Y0.12480
G01 X-4.25503 Y0.12384
G01 X-4.25397 Y0.12299
G01 X-4.24771 Y0.11844
G01 X-4.24657 Y0.11770
G01 X-4.24536 Y0.11708
G01 X-4.23829 Y0.11393
G01 X-4.23702 Y0.11345
G01 X-4.23571 Y0.11309
G01 X-4.22814 Y0.11149
G01 X-4.22680 Y0.11127
G01 X-4.22544 Y0.11120
G01 X-4.21770 Y0.11120
G01 X-4.21634 Y0.11127
G01 X-4.21500 Y0.11149
G01 X-4.20743 Y0.11309
G01 X-4.20612 Y0.11345
G01 X-4.20485 Y0.11393
G01 X-4.19778 Y0.11708
G01 X-4.19657 Y0.11770
G01 X-4.19543 Y0.11844
G01 X-4.18917 Y0.12299
G01 X-4.18811 Y0.12384
G01 X-4.18715 Y0.12480
G01 X-4.18198 Y0.13055
G01 X-4.18112 Y0.13161
G01 X-4.18038 Y0.13275
G01 X-4.17651 Y0.13945
G01 X-4.17589 Y0.14066
G01 X-4.17541 Y0.14193
G01 X-4.17302 Y0.14929
G01 X-4.17266 Y0.15060
G01 X-4.17245 Y0.15195
G01 X-4.17164 Y0.15964
G01 X-4.17157 Y0.16100
G01 X-4.17150 Y0.16236
G01 X-4.17069 Y0.17005
G01 X-4.17048 Y0.17140
G01 X-4.17013 Y0.17271
G01 X-4.16774 Y0.18007
G01 X-4.16725 Y0.18134
G01 X-4.16663 Y0.18255
G01 X-4.16276 Y0.18925
G01 X-4.16202 Y0.19039
G01 X-4.16117 Y0.19145
G01 X-4.15599 Y0.19720
G01 X-4.15503 Y0.19816
G01 X-4.15397 Y0.19901
G01 X-4.14771 Y0.20356
G01 X-4.14657 Y0.20430
G01 X-4.14536 Y0.20492
G01 X-4.13829 Y0.20807
G01 X-4.13702 Y0.20855
G01 X-4.13571 Y0.20891
G01 X-4.12814 Y0.21051
G01 X-4.12680 Y0.21073
G01 X-4.12544 Y0.21080
G01 X-4.11770 Y0.21080
G01 X-4.11634 Y0.21073
G01 X-4.11500 Y0.21051
G01 X-4.10743 Y0.20891
G01 X-4.10612 Y0.20855
G01 X-4.10485 Y0.20807
G01 X-4.09778 Y0.20492
G01 X-4.09657 Y0.20430
G01 X-4.09543 Y0.20356
G01 X-4.08917 Y0.19901
G01 X-4.08811 Y0.19816
G01 X-4.08715 Y0.19720
G01 X-4.08198 Y0.19145
G01 X-4.08112 Y0.19039
G01 X-4.08038 Y0.18925
G01 X-4.07651 Y0.18255
G01 X-4.07589 Y0.18134
G01 X-4.07541 Y0.18007
G01 X-4.07302 Y0.17271
G01 X-4.07266 Y0.17140
G01 X-4.07245 Y0.17005
G01 X-4.07164 Y0.16236
G01 X-4.07157 Y0.16100
G01 X-4.07150 Y0.15964
G01 X-4.07069 Y0.15195
G01 X-4.07048 Y0.15060
G01 X-4.07013 Y0.14929
G01 X-4.06774 Y0.14193
G01 X-4.06725 Y0.14066
G01 X-4.06663 Y0.13945
G01 X-4.06276 Y0.13275
G01 X-4.06202 Y0.13161
G01 X-4.06117 Y0.13055
G01 X-4.05599 Y0.12480
G01 X-4.05503 Y0.12384
G01 X-4.05397 Y0.12299
G01 X-4.04771 Y0.11844
G01 X-4.04657 Y0.11770
G01 X-4.04536 Y0.11708
G01 X-4.03829 Y0.11393
G01 X-4.03702 Y0.11345
G01 X-4.03571 Y0.11309
G01 X-4.02814 Y0.11149
G01 X-4.02680 Y0.11127
G01 X-4.02544 Y0.11120
G01 X-4.01770 Y0.11120
G01 X-4.01634 Y0.11127
G01 X-4.01500 Y0.11149
G01 X-4.00743 Y0.11309
G01 X-4.00612 Y0.11345
G01 X-4.00485 Y0.11393
G01 X-3.99778 Y0.11708
G01 X-3.99657 Y0.11770
G01 X-3.99543 Y0.11844
G01 X-3.98917 Y0.12299
G01 X-3.98811 Y0.12384
G01 X-3.98715 Y0.12480
G01 X-3.98198 Y0.13055
G01 X-3.98112 Y0.13161
G01 X-3.98038 Y0.13275
G01 X-3.97651 Y0.13945
G01 X-3.97589 Y0.14066
G01 X-3.97541 Y0.14193
G01 X-3.97302 Y0.14929
G01 X-3.97266 Y0.15060
G01 X-3.97245 Y0.15195
G01 X-3.97164 Y0.15964
G01 X-3.97157 Y0.16100
G01 X-3.97150 Y0.16236
G01 X-3.97069 Y0.17005
G01 X-3.97048 Y0.17140
G01 X-3.97013 Y0.17271
G01 X-3.96774 Y0.18007
G01 X-3.96725 Y0.18134
G01 X-3.96663 Y0.18255
G01 X-3.96276 Y0.18925
G01 X-3.96202 Y0.19039
G01 X-3.96117 Y0.19145
G01 X-3.95599 Y0.19720
G01 X-3.95503 Y0.19816
G01 X-3.95397 Y0.19901
G01 X-3.94771 Y0.20356
G01 X-3.94657 Y0.20430
G01 X-3.94536 Y0.20492
G01 X-3.93829 Y0.20807
G01 X-3.93702 Y0.20855
G01 X-3.93571 Y0.20891
G01 X-3.92814 Y0.21051
G01 X-3.92680 Y0.21073
G01 X-3.92544 Y0.21080
G01 X-3.91770 Y0.21080
G01 X-3.91634 Y0.21073
G01 X-3.91500 Y0.21051
G01 X-3.90743 Y0.20891
G01 X-3.90612 Y0.20855
G01 X-3.90485 Y0.20807
G01 X-3.89778 Y0.20492
G01 X-3.89657 Y0.20430
G01 X-3.89543 Y0.20356
G01 X-3.88917 Y0.19901
G01 X-3.88811 Y0.19816
G01 X-3.88715 Y0.19720
G01 X-3.88198 Y0.19145
G01 X-3.88112 Y0.19039
G01 X-3.88038 Y0.18925
G01 X-3.87651 Y0.18255
G01 X-3.87589 Y0.18134
G01 X-3.87541 Y0.18007
G01 X-3.87302 Y0.17271
G01 X-3.87266 Y0.17140
G01 X-3.87245 Y0.17005
G01 X-3.87164 Y0.16236
G01 X-3.87157 Y0.16100
G01 X-3.87150 Y0.15964
G01 X-3.87069 Y0.15195
G01 X-3.87048 Y0.15060
G01 X-3.87013 Y0.14929
G01 X-3.86774 Y0.14193
G01 X-3.86725 Y0.14066
G01 X-3.86663 Y0.13945
G01 X-3.86276 Y0.13275
G01 X-3.86202 Y0.13161
G01 X-3.86117 Y0.13055
G01 X-3.85599 Y0.12480
G01 X-3.85503 Y0.12384
G01 X-3.85397 Y0.12299
G01 X-3.84771 Y0.11844
G01 X-3.84657 Y0.11770
G01 X-3.84536 Y0.11708
G01 X-3.83829 Y0.11393
G01 X-3.83702 Y0.11345
G01 X-3.83571 Y0.11309
G01 X-3.82814 Y0.11149
G01 X-3.82680 Y0.11127
G01 X-3.82544 Y0.11120
G01 X-3.81770 Y0.11120
G01 X-3.81634 Y0.11127
G01 X-3.81500 Y0.11149
G01 X-3.80743 Y0.11309
G01 X-3.80612 Y0.11345
G01 X-3.80485 Y0.11393
G01 X-3.79778 Y0.11708
G01 X-3.79657 Y0.11770
G01 X-3.79543 Y0.11844
G01 X-3.78917 Y0.12299
G01 X-3.78811 Y0.12384
G01 X-3.78715 Y0.12480
G01 X-3.78198 Y0.13055
G01 X-3.78112 Y0.13161
G01 X-3.78038 Y0.13275
G01 X-3.77651 Y0.13945
G01 X-3.77589 Y0.14066
G01 X-3.77541 Y0.14193
G01 X-3.77302 Y0.14929
G01 X-3.77266 Y0.15060
G01 X-3.77245 Y0.15195
G01 X-3.77164 Y0.15964
G01 X-3.77157 Y0.16100
G01 X-3.77150 Y0.16236
