( pcb2gcode 2.1.0 )
( Software-independent Gcode )

G94 ( Inches per minute feed rate. )
G20 ( Units == INCHES. )

G90 ( Absolute coordinates. )
G00 S30000 ( RPM spindle speed. )
G01 F100.00000 ( Feedrate. )


G00 Z0.05000 (Retract to tool change height)
G04 P0.00000 (Wait for spindle to stop)
(MSG, Change tool bit to mill diameter 0.02600in)
G04 P0.00000 (Wait for spindle to get up to speed)
G04 P0 ( dwell for no time -- G64 should not smooth over this point )
G00 Z0.05000 ( retract )

G00 X-2.56922 Y4.06066 ( rapid move to begin. )
G01 F100.00000
( Mill infeed pass 1/1 )
G01 Z-0.00500
G04 P0 ( dwell for no time -- G64 should not smooth over this point )
G01 F100.00000
G01 X-2.56922 Y4.06066
G01 X-2.57997 Y4.12169
G01 X-2.57997 Y4.27597
G01 X-2.57616 Y4.27978
G01 X-2.57997 Y4.27597
G01 X-2.61987 Y4.27597
G01 X-2.62620 Y4.28094
G01 X-2.61987 Y4.27597
G01 X-2.58671 Y4.14025
G01 X-2.58673 Y4.14024
G01 X-2.58671 Y4.14025
G01 X-2.58553 Y4.13781
G01 X-2.58136 Y4.12628
G01 X-2.57997 Y4.12169
G04 P0 ( dwell for no time -- G64 should not smooth over this point )
G00 Z0.05000 ( retract )

G00 X-3.40662 Y4.11850 ( rapid move to begin. )
G01 F100.00000
( Mill infeed pass 1/1 )
G01 Z-0.00500
G04 P0 ( dwell for no time -- G64 should not smooth over this point )
G01 F100.00000
G01 X-3.40662 Y4.11850
G01 X-3.40415 Y4.08314
G01 X-3.40415 Y4.08312
G01 X-3.40356 Y4.08911
G01 X-3.40355 Y4.08918
G01 X-3.40350 Y4.08918
G01 X-3.40355 Y4.08918
G01 X-3.40661 Y4.11839
G01 X-3.43074 Y4.39443
G01 X-3.43080 Y4.39462
G01 X-3.43252 Y4.40153
G01 X-3.43357 Y4.40689
G01 X-3.43357 Y4.40998
G01 X-3.43357 Y4.41652
G01 X-3.43357 Y4.42493
G01 X-3.43357 Y4.43101
G01 X-3.43357 Y4.43942
G01 X-3.43357 Y4.44596
G01 X-3.43357 Y4.45435
G01 X-3.43363 Y4.45473
G01 X-3.43382 Y4.45589
G01 X-3.43725 Y4.46079
G01 X-3.43731 Y4.46087
G01 X-3.44557 Y4.46565
G01 X-3.45000 Y4.46791
G01 X-3.45119 Y4.46851
G01 X-3.45118 Y4.46853
G01 X-3.45119 Y4.46851
G01 X-3.45012 Y4.46797
G01 X-3.45012 Y4.46797
G01 X-3.45000 Y4.46791
G01 X-3.44907 Y4.46676
G01 X-3.44759 Y4.46448
G01 X-3.44341 Y4.45724
G01 X-3.44217 Y4.45481
G01 X-3.44120 Y4.45227
G01 X-3.43861 Y4.44432
G01 X-3.43791 Y4.44169
G01 X-3.43748 Y4.43900
G01 X-3.43661 Y4.43069
G01 X-3.43647 Y4.42797
G01 X-3.43661 Y4.42525
G01 X-3.43748 Y4.41693
G01 X-3.43791 Y4.41425
G01 X-3.43861 Y4.41162
G01 X-3.43990 Y4.40767
G01 X-3.44007 Y4.40768
G01 X-3.43990 Y4.40767
G01 X-3.41712 Y4.08223
G01 X-3.41707 Y4.08132
G01 X-3.41698 Y4.07888
G01 X-3.41697 Y4.07797
G01 X-3.41697 Y3.54486
G01 X-3.41744 Y3.54473
G01 X-3.41697 Y3.54486
G01 X-3.28456 Y3.32419
G01 X-3.28461 Y3.32416
G01 X-3.28456 Y3.32419
G01 X-3.28135 Y3.32098
G01 X-3.27669 Y3.31530
G01 X-3.27517 Y3.31325
G01 X-3.27386 Y3.31106
G01 X-3.27039 Y3.30458
G01 X-3.26844 Y3.29987
G01 X-3.26631 Y3.29283
G01 X-3.26569 Y3.29036
G01 X-3.26531 Y3.28783
G01 X-3.26459 Y3.28052
G01 X-3.26447 Y3.27797
G01 X-3.26447 Y3.07797
G01 X-3.26459 Y3.07542
G01 X-3.26531 Y3.06810
G01 X-3.26569 Y3.06558
G01 X-3.26631 Y3.06311
G01 X-3.26844 Y3.05607
G01 X-3.27039 Y3.05136
G01 X-3.27386 Y3.04488
G01 X-3.27517 Y3.04269
G01 X-3.27669 Y3.04064
G01 X-3.28135 Y3.03496
G01 X-3.28307 Y3.03307
G01 X-3.28496 Y3.03135
G01 X-3.29064 Y3.02669
G01 X-3.29488 Y3.02386
G01 X-3.30136 Y3.02039
G01 X-3.30367 Y3.01930
G01 X-3.30607 Y3.01844
G01 X-3.31310 Y3.01631
G01 X-3.31810 Y3.01531
G01 X-3.32542 Y3.01459
G01 X-3.32797 Y3.01447
G01 X-3.33052 Y3.01459
G01 X-3.33783 Y3.01531
G01 X-3.34283 Y3.01631
G01 X-3.34987 Y3.01844
G01 X-3.35227 Y3.01930
G01 X-3.35457 Y3.02039
G01 X-3.36106 Y3.02386
G01 X-3.36530 Y3.02669
G01 X-3.37098 Y3.03135
G01 X-3.37287 Y3.03307
G01 X-3.37458 Y3.03496
G01 X-3.37925 Y3.04064
G01 X-3.38077 Y3.04269
G01 X-3.38208 Y3.04488
G01 X-3.38554 Y3.05136
G01 X-3.38749 Y3.05607
G01 X-3.38963 Y3.06311
G01 X-3.39025 Y3.06558
G01 X-3.39062 Y3.06810
G01 X-3.39134 Y3.07542
G01 X-3.39147 Y3.07797
G01 X-3.39147 Y3.26524
G01 X-3.39100 Y3.26537
G01 X-3.39147 Y3.26524
G01 X-3.53028 Y3.49658
G01 X-3.53139 Y3.49864
G01 X-3.53413 Y3.50431
G01 X-3.53578 Y3.50869
G01 X-3.53746 Y3.51476
G01 X-3.53830 Y3.51936
G01 X-3.53886 Y3.52563
G01 X-3.53897 Y3.52797
G01 X-3.53896 Y4.07584
G01 X-3.56158 Y4.39879
G01 X-3.56138 Y4.39884
G01 X-3.56158 Y4.39879
G01 X-3.56276 Y4.40112
G01 X-3.56374 Y4.40367
G01 X-3.56632 Y4.41162
G01 X-3.56690 Y4.41379
G01 X-3.56690 Y4.41379
G01 X-3.56697 Y4.41433
G01 X-3.56697 Y4.41433
G01 X-3.56690 Y4.41379
G01 X-3.56664 Y4.41152
G01 X-3.56531 Y4.40315
G01 X-3.56425 Y4.39799
G01 X-3.55397 Y4.10395
G01 X-3.55397 Y4.09694
G01 X-3.55400 Y4.09693
G01 X-3.55397 Y4.09694
G01 X-3.55387 Y4.09661
G01 X-3.55342 Y4.09482
G01 X-3.55323 Y4.09340
G01 X-3.55342 Y4.09482
G01 X-3.55367 Y4.09667
G01 X-3.55372 Y4.09697
G01 X-3.55397 Y4.10394
G01 X-3.55323 Y4.09340
G01 X-3.55323 Y4.09340
G01 X-3.55265 Y4.08908
G01 X-3.55203 Y4.08175
G01 X-3.55181 Y4.07797
G01 X-3.55172 Y4.07539
G01 X-3.55172 Y3.97797
G01 X-3.55181 Y3.97416
G01 X-3.55197 Y3.97098
G01 X-3.55197 Y3.97097
G01 X-3.55217 Y3.96681
G01 X-3.55294 Y3.95905
G01 X-3.55402 Y3.95170
G01 X-3.55567 Y3.94349
G01 X-3.55751 Y3.93614
G01 X-3.56024 Y3.92714
G01 X-3.56066 Y3.92597
G01 X-3.56402 Y3.92601
G01 X-3.57045 Y3.92601
G01 X-3.57190 Y3.92603
G01 X-3.57475 Y3.92608
G01 X-3.58081 Y3.92630
G01 X-3.58382 Y3.92636
G01 X-3.59037 Y3.92636
G01 X-3.59106 Y3.92637
G01 X-3.59266 Y3.92640
G01 X-3.59106 Y3.92637
G01 X-3.58673 Y3.92282
G01 X-3.58312 Y3.91921
G01 X-3.57877 Y3.91391
G01 X-3.57725 Y3.91186
G01 X-3.57594 Y3.90967
G01 X-3.57270 Y3.90362
G01 X-3.57075 Y3.89891
G01 X-3.56876 Y3.89234
G01 X-3.56777 Y3.88735
G01 X-3.56709 Y3.88052
G01 X-3.56697 Y3.87797
G01 X-3.56697 Y3.59339
G01 X-3.56699 Y3.59339
G01 X-3.56697 Y3.59339
G01 X-3.56634 Y3.59107
G01 X-3.56592 Y3.58838
G01 X-3.56511 Y3.58069
G01 X-3.56497 Y3.57797
G01 X-3.56511 Y3.57525
G01 X-3.56592 Y3.56756
G01 X-3.56634 Y3.56487
G01 X-3.56705 Y3.56224
G01 X-3.56944 Y3.55489
G01 X-3.57041 Y3.55234
G01 X-3.57165 Y3.54992
G01 X-3.57552 Y3.54322
G01 X-3.57700 Y3.54094
G01 X-3.57871 Y3.53882
G01 X-3.58389 Y3.53308
G01 X-3.58581 Y3.53115
G01 X-3.58793 Y3.52944
G01 X-3.59419 Y3.52489
G01 X-3.59647 Y3.52341
G01 X-3.59889 Y3.52217
G01 X-3.60596 Y3.51903
G01 X-3.60850 Y3.51805
G01 X-3.61113 Y3.51735
G01 X-3.61869 Y3.51574
G01 X-3.62138 Y3.51531
G01 X-3.62410 Y3.51517
G01 X-3.63184 Y3.51517
G01 X-3.63455 Y3.51531
G01 X-3.63724 Y3.51574
G01 X-3.64481 Y3.51735
G01 X-3.64744 Y3.51805
G01 X-3.64998 Y3.51903
G01 X-3.65704 Y3.52217
G01 X-3.65947 Y3.52341
G01 X-3.66175 Y3.52489
G01 X-3.66801 Y3.52944
G01 X-3.67012 Y3.53115
G01 X-3.67205 Y3.53308
G01 X-3.67722 Y3.53882
G01 X-3.67894 Y3.54094
G01 X-3.68042 Y3.54322
G01 X-3.68429 Y3.54992
G01 X-3.68552 Y3.55234
G01 X-3.68650 Y3.55489
G01 X-3.68889 Y3.56224
G01 X-3.68959 Y3.56487
G01 X-3.69002 Y3.56756
G01 X-3.69083 Y3.57525
G01 X-3.69097 Y3.57797
G01 X-3.69083 Y3.58069
G01 X-3.69002 Y3.58838
G01 X-3.68959 Y3.59107
G01 X-3.68897 Y3.59339
G01 X-3.68894 Y3.59339
G01 X-3.68897 Y3.59339
G01 X-3.68897 Y3.87797
G01 X-3.68884 Y3.88052
G01 X-3.68817 Y3.88735
G01 X-3.68780 Y3.88987
G01 X-3.68718 Y3.89234
G01 X-3.68518 Y3.89891
G01 X-3.68323 Y3.90362
G01 X-3.68000 Y3.90967
G01 X-3.67869 Y3.91186
G01 X-3.67717 Y3.91391
G01 X-3.67282 Y3.91921
G01 X-3.66921 Y3.92282
G01 X-3.66488 Y3.92637
G01 X-3.66327 Y3.92640
G01 X-3.66488 Y3.92637
G01 X-3.66557 Y3.92636
G01 X-3.67212 Y3.92636
G01 X-3.67512 Y3.92630
G01 X-3.68119 Y3.92608
G01 X-3.68402 Y3.92604
G01 X-3.68463 Y3.92671
G01 X-3.68930 Y3.93239
G01 X-3.69158 Y3.93547
G01 X-3.69354 Y3.93875
G01 X-3.69701 Y3.94523
G01 X-3.69993 Y3.95230
G01 X-3.70207 Y3.95933
G01 X-3.70300 Y3.96304
G01 X-3.70356 Y3.96683
G01 X-3.70397 Y3.97096
G01 X-3.70412 Y3.97416
G01 X-3.70414 Y3.97416
G01 X-3.70412 Y3.97416
G01 X-3.70397 Y3.97096
G01 X-3.70376 Y3.96681
G01 X-3.70300 Y3.95905
G01 X-3.70191 Y3.95170
G01 X-3.70193 Y3.95170
G01 X-3.70191 Y3.95170
G01 X-3.70027 Y3.94349
G01 X-3.69843 Y3.93614
G01 X-3.69844 Y3.93614
G01 X-3.69843 Y3.93614
G01 X-3.69569 Y3.92714
G01 X-3.69527 Y3.92597
G01 X-3.69191 Y3.92601
G01 X-3.68549 Y3.92601
G01 X-3.68403 Y3.92603
G01 X-3.68119 Y3.92608
G01 X-3.67512 Y3.92630
G01 X-3.67212 Y3.92636
G01 X-3.66557 Y3.92636
G01 X-3.66488 Y3.92637
G01 X-3.66327 Y3.92640
G01 X-3.65963 Y3.92653
G01 X-3.65783 Y3.92656
G01 X-3.65128 Y3.92656
G01 X-3.65006 Y3.92658
G01 X-3.64737 Y3.92665
G01 X-3.64633 Y3.92667
G01 X-3.63969 Y3.92667
G01 X-3.63916 Y3.92667
G01 X-3.63671 Y3.92672
G01 X-3.63622 Y3.92672
G01 X-3.62932 Y3.92672
G01 X-3.62661 Y3.92672
G01 X-3.61972 Y3.92672
G01 X-3.61923 Y3.92672
G01 X-3.61678 Y3.92667
G01 X-3.61625 Y3.92667
G01 X-3.60961 Y3.92667
G01 X-3.60856 Y3.92665
G01 X-3.60588 Y3.92658
G01 X-3.60466 Y3.92656
G01 X-3.59811 Y3.92656
G01 X-3.59630 Y3.92653
G01 X-3.59266 Y3.92640
G01 X-3.59111 Y3.92637
G01 X-3.59064 Y3.92669
G01 X-3.58496 Y3.93135
G01 X-3.58307 Y3.93307
G01 X-3.58135 Y3.93496
G01 X-3.57669 Y3.94064
G01 X-3.57517 Y3.94269
G01 X-3.57386 Y3.94488
G01 X-3.57039 Y3.95136
G01 X-3.56844 Y3.95607
G01 X-3.56631 Y3.96311
G01 X-3.56569 Y3.96558
G01 X-3.56531 Y3.96810
G01 X-3.56459 Y3.97542
G01 X-3.56447 Y3.97797
G01 X-3.56447 Y4.07797
G01 X-3.56459 Y4.08052
G01 X-3.56531 Y4.08783
G01 X-3.56569 Y4.09036
G01 X-3.56631 Y4.09283
G01 X-3.56697 Y4.09501
G01 X-3.56705 Y4.09500
G01 X-3.56697 Y4.09501
G01 X-3.56697 Y4.41433
G01 X-3.56697 Y4.41433
G01 X-3.56697 Y4.41434
G01 X-3.56713 Y4.41567
G01 X-3.56723 Y4.41696
G01 X-3.56734 Y4.41819
G01 X-3.56803 Y4.42502
G01 X-3.56806 Y4.42528
G01 X-3.56812 Y4.42589
G01 X-3.56620 Y4.43047
G01 X-3.56238 Y4.43847
G01 X-3.56028 Y4.44236
G01 X-3.55579 Y4.44969
G01 X-3.55370 Y4.45272
G01 X-3.54857 Y4.45941
G01 X-3.54643 Y4.46192
G01 X-3.54067 Y4.46799
G01 X-3.53833 Y4.47021
G01 X-3.53195 Y4.47566
G01 X-3.52962 Y4.47748
G01 X-3.52913 Y4.47758
G01 X-3.52077 Y4.47936
G01 X-3.51777 Y4.47984
G01 X-3.50940 Y4.48072
G01 X-3.50665 Y4.48086
G01 X-3.49829 Y4.48086
G01 X-3.49553 Y4.48072
G01 X-3.48717 Y4.47984
G01 X-3.48417 Y4.47936
G01 X-3.47580 Y4.47758
G01 X-3.47228 Y4.47664
G01 X-3.46391 Y4.47392
G01 X-3.45955 Y4.47224
G01 X-3.45119 Y4.46851
G01 X-3.45000 Y4.46791
G01 X-3.44557 Y4.46565
G01 X-3.43731 Y4.46087
G01 X-3.43708 Y4.46113
G01 X-3.43731 Y4.46087
G01 X-3.43725 Y4.46079
G01 X-3.43382 Y4.45589
G01 X-3.43323 Y4.45608
G01 X-3.43382 Y4.45589
G01 X-3.43363 Y4.45473
G01 X-3.43357 Y4.45435
G01 X-3.43357 Y4.44596
G01 X-3.43357 Y4.43942
G01 X-3.43357 Y4.43101
G01 X-3.43357 Y4.42493
G01 X-3.43357 Y4.41652
G01 X-3.43357 Y4.40998
G01 X-3.43357 Y4.40689
G01 X-3.43364 Y4.40688
G01 X-3.43357 Y4.40689
G01 X-3.43252 Y4.40153
G01 X-3.43080 Y4.39462
G01 X-3.43074 Y4.39443
G01 X-3.43071 Y4.39444
G01 X-3.43074 Y4.39443
G01 X-3.40663 Y4.11854
G01 X-3.40662 Y4.11850
G01 X-3.40406 Y4.08920
G01 X-3.40405 Y4.08920
G01 X-3.40406 Y4.08920
G01 X-3.40406 Y4.08915
G01 X-3.40415 Y4.08314
G01 X-3.40415 Y4.08312
G01 X-3.40418 Y4.08178
G01 X-3.40418 Y4.08177
G01 X-3.40422 Y4.07932
G01 X-3.40422 Y4.07797
G01 X-3.40422 Y3.97797
G01 X-3.40412 Y3.97416
G01 X-3.40397 Y3.97098
G01 X-3.40397 Y3.97098
G01 X-3.40397 Y3.97096
G01 X-3.40376 Y3.96681
G01 X-3.40377 Y3.96681
G01 X-3.40376 Y3.96681
G01 X-3.40300 Y3.95905
G01 X-3.40191 Y3.95170
G01 X-3.40027 Y3.94349
G01 X-3.40028 Y3.94349
G01 X-3.40027 Y3.94349
G01 X-3.39843 Y3.93614
G01 X-3.39569 Y3.92714
G01 X-3.39527 Y3.92597
G01 X-3.39191 Y3.92601
G01 X-3.38549 Y3.92601
G01 X-3.38403 Y3.92603
G01 X-3.38119 Y3.92608
G01 X-3.37512 Y3.92630
G01 X-3.37212 Y3.92636
G01 X-3.36557 Y3.92636
G01 X-3.36488 Y3.92637
G01 X-3.36327 Y3.92640
G01 X-3.35963 Y3.92653
G01 X-3.35783 Y3.92656
G01 X-3.35128 Y3.92656
G01 X-3.35006 Y3.92658
G01 X-3.34737 Y3.92665
G01 X-3.34633 Y3.92667
G01 X-3.33969 Y3.92667
G01 X-3.33916 Y3.92667
G01 X-3.33671 Y3.92672
G01 X-3.33622 Y3.92672
G01 X-3.32932 Y3.92672
G01 X-3.32661 Y3.92672
G01 X-3.31972 Y3.92672
G01 X-3.31923 Y3.92672
G01 X-3.31678 Y3.92667
G01 X-3.31625 Y3.92667
G01 X-3.30961 Y3.92667
G01 X-3.30856 Y3.92665
G01 X-3.30588 Y3.92658
G01 X-3.30466 Y3.92656
G01 X-3.29811 Y3.92656
G01 X-3.29630 Y3.92653
G01 X-3.29266 Y3.92640
G01 X-3.29106 Y3.92637
G01 X-3.29037 Y3.92636
G01 X-3.28382 Y3.92636
G01 X-3.28081 Y3.92630
G01 X-3.27475 Y3.92608
G01 X-3.27192 Y3.92604
G01 X-3.27130 Y3.92671
G01 X-3.26664 Y3.93239
G01 X-3.26436 Y3.93547
G01 X-3.26239 Y3.93875
G01 X-3.25893 Y3.94523
G01 X-3.25600 Y3.95230
G01 X-3.25387 Y3.95933
G01 X-3.25294 Y3.96304
G01 X-3.25238 Y3.96683
G01 X-3.25197 Y3.97096
G01 X-3.25197 Y3.97097
G01 X-3.25181 Y3.97416
G01 X-3.25197 Y3.97097
G01 X-3.25197 Y3.97097
G01 X-3.25197 Y3.52797
G01 X-3.25181 Y3.52446
G01 X-3.25124 Y3.51819
G01 X-3.24999 Y3.51129
G01 X-3.24831 Y3.50522
G01 X-3.24583 Y3.49865
G01 X-3.24309 Y3.49299
G01 X-3.24142 Y3.48990
G01 X-3.10447 Y3.26164
G01 X-3.10400 Y3.26177
G01 X-3.10447 Y3.26164
G01 X-3.10447 Y3.07797
G01 X-3.10428 Y3.07415
G01 X-3.10356 Y3.06683
G01 X-3.10300 Y3.06304
G01 X-3.10207 Y3.05933
G01 X-3.09993 Y3.05230
G01 X-3.09701 Y3.04523
G01 X-3.09354 Y3.03875
G01 X-3.09158 Y3.03547
G01 X-3.08930 Y3.03239
G01 X-3.08463 Y3.02671
G01 X-3.08206 Y3.02388
G01 X-3.07923 Y3.02131
G01 X-3.07354 Y3.01664
G01 X-3.06719 Y3.01239
G01 X-3.06070 Y3.00893
G01 X-3.05724 Y3.00729
G01 X-3.05364 Y3.00600
G01 X-3.04660 Y3.00387
G01 X-3.03911 Y3.00238
G01 X-3.03179 Y3.00166
G01 X-3.02797 Y3.00147
G01 X-3.02415 Y3.00166
G01 X-3.01683 Y3.00238
G01 X-3.00933 Y3.00387
G01 X-3.00230 Y3.00600
G01 X-2.99869 Y3.00729
G01 X-2.99523 Y3.00893
G01 X-2.98875 Y3.01239
G01 X-2.98239 Y3.01664
G01 X-2.97671 Y3.02131
G01 X-2.97387 Y3.02388
G01 X-2.97130 Y3.02671
G01 X-2.96664 Y3.03239
G01 X-2.96436 Y3.03547
G01 X-2.96239 Y3.03875
G01 X-2.95893 Y3.04523
G01 X-2.95600 Y3.05230
G01 X-2.95387 Y3.05933
G01 X-2.95294 Y3.06304
G01 X-2.95238 Y3.06683
G01 X-2.95166 Y3.07415
G01 X-2.95147 Y3.07797
G01 X-2.95147 Y3.27797
G01 X-2.95166 Y3.28179
G01 X-2.95238 Y3.28911
G01 X-2.95294 Y3.29289
G01 X-2.95387 Y3.29661
G01 X-2.95600 Y3.30364
G01 X-2.95893 Y3.31070
G01 X-2.96239 Y3.31719
G01 X-2.96436 Y3.32047
G01 X-2.96664 Y3.32354
G01 X-2.97130 Y3.32923
G01 X-2.97410 Y3.33203
G01 X-2.97415 Y3.33200
G01 X-2.97410 Y3.33203
G01 X-3.10397 Y3.54847
G01 X-3.10444 Y3.54834
G01 X-3.10397 Y3.54847
G01 X-3.10397 Y3.97097
G01 X-3.10397 Y3.97098
G01 X-3.10397 Y3.97097
G01 X-3.10376 Y3.96681
G01 X-3.10377 Y3.96681
G01 X-3.10378 Y3.96681
G01 X-3.10377 Y3.96681
G01 X-3.10376 Y3.96681
G01 X-3.10300 Y3.95905
G01 X-3.10191 Y3.95170
G01 X-3.10027 Y3.94349
G01 X-3.10028 Y3.94349
G01 X-3.10027 Y3.94349
G01 X-3.09843 Y3.93614
G01 X-3.09569 Y3.92714
G01 X-3.09527 Y3.92597
G01 X-3.09191 Y3.92601
G01 X-3.08549 Y3.92601
G01 X-3.08403 Y3.92603
G01 X-3.08119 Y3.92608
G01 X-3.07512 Y3.92630
G01 X-3.07212 Y3.92636
G01 X-3.06557 Y3.92636
G01 X-3.06488 Y3.92637
G01 X-3.06327 Y3.92640
G01 X-3.05963 Y3.92653
G01 X-3.05783 Y3.92656
G01 X-3.05128 Y3.92656
G01 X-3.05006 Y3.92658
G01 X-3.04737 Y3.92665
G01 X-3.04633 Y3.92667
G01 X-3.03969 Y3.92667
G01 X-3.03916 Y3.92667
G01 X-3.03671 Y3.92672
G01 X-3.03622 Y3.92672
G01 X-3.02932 Y3.92672
G01 X-3.02661 Y3.92672
G01 X-3.01972 Y3.92672
G01 X-3.01923 Y3.92672
G01 X-3.01678 Y3.92667
G01 X-3.01625 Y3.92667
G01 X-3.00961 Y3.92667
G01 X-3.00856 Y3.92665
G01 X-3.00588 Y3.92658
G01 X-3.00466 Y3.92656
G01 X-2.99811 Y3.92656
G01 X-2.99630 Y3.92653
G01 X-2.99266 Y3.92640
G01 X-2.99106 Y3.92637
G01 X-2.99037 Y3.92636
G01 X-2.98382 Y3.92636
G01 X-2.98081 Y3.92630
G01 X-2.97475 Y3.92608
G01 X-2.97192 Y3.92604
G01 X-2.97130 Y3.92671
G01 X-2.96664 Y3.93239
G01 X-2.96436 Y3.93547
G01 X-2.96239 Y3.93875
G01 X-2.95893 Y3.94523
G01 X-2.95600 Y3.95230
G01 X-2.95387 Y3.95933
G01 X-2.95294 Y3.96304
G01 X-2.95238 Y3.96683
G01 X-2.95197 Y3.97097
G01 X-2.95197 Y3.97097
G01 X-2.95197 Y3.97098
G01 X-2.95197 Y3.97097
G01 X-2.95197 Y3.97097
G01 X-2.95197 Y3.52797
G01 X-2.95181 Y3.52446
G01 X-2.95124 Y3.51819
G01 X-2.94999 Y3.51129
G01 X-2.94831 Y3.50522
G01 X-2.94583 Y3.49865
G01 X-2.94309 Y3.49299
G01 X-2.94142 Y3.48990
G01 X-2.80447 Y3.26164
G01 X-2.80400 Y3.26177
G01 X-2.80447 Y3.26164
G01 X-2.80447 Y3.07797
G01 X-2.80428 Y3.07415
G01 X-2.80356 Y3.06683
G01 X-2.80300 Y3.06304
G01 X-2.80207 Y3.05933
G01 X-2.79993 Y3.05230
G01 X-2.79701 Y3.04523
G01 X-2.79354 Y3.03875
G01 X-2.79158 Y3.03547
G01 X-2.78930 Y3.03239
G01 X-2.78463 Y3.02671
G01 X-2.78206 Y3.02388
G01 X-2.77923 Y3.02131
G01 X-2.77354 Y3.01664
G01 X-2.76719 Y3.01239
G01 X-2.76070 Y3.00893
G01 X-2.75724 Y3.00729
G01 X-2.75364 Y3.00600
G01 X-2.74660 Y3.00387
G01 X-2.73911 Y3.00238
G01 X-2.73179 Y3.00166
G01 X-2.72797 Y3.00147
G01 X-2.72415 Y3.00166
G01 X-2.71683 Y3.00238
G01 X-2.70933 Y3.00387
G01 X-2.70230 Y3.00600
G01 X-2.69869 Y3.00729
G01 X-2.69523 Y3.00893
G01 X-2.68875 Y3.01239
G01 X-2.68239 Y3.01664
G01 X-2.67671 Y3.02131
G01 X-2.67387 Y3.02388
G01 X-2.67130 Y3.02671
G01 X-2.66664 Y3.03239
G01 X-2.66436 Y3.03547
G01 X-2.66239 Y3.03875
G01 X-2.65893 Y3.04523
G01 X-2.65600 Y3.05230
G01 X-2.65387 Y3.05933
G01 X-2.65294 Y3.06304
G01 X-2.65238 Y3.06683
G01 X-2.65166 Y3.07415
G01 X-2.65147 Y3.07797
G01 X-2.65147 Y3.27797
G01 X-2.65166 Y3.28179
G01 X-2.65238 Y3.28911
G01 X-2.65294 Y3.29289
G01 X-2.65387 Y3.29661
G01 X-2.65600 Y3.30364
G01 X-2.65893 Y3.31070
G01 X-2.66239 Y3.31719
G01 X-2.66436 Y3.32047
G01 X-2.66664 Y3.32354
G01 X-2.67130 Y3.32923
G01 X-2.67410 Y3.33203
G01 X-2.67415 Y3.33200
G01 X-2.67410 Y3.33203
G01 X-2.80397 Y3.54847
G01 X-2.80444 Y3.54834
G01 X-2.80397 Y3.54847
G01 X-2.80397 Y3.97098
G01 X-2.80397 Y3.97098
G01 X-2.80412 Y3.97416
G01 X-2.80422 Y3.97797
G01 X-2.80422 Y4.07797
G01 X-2.80422 Y4.07924
G01 X-2.80418 Y4.07924
G01 X-2.80422 Y4.07924
G01 X-2.80432 Y4.07997
G01 X-2.80484 Y4.08356
G01 X-2.80552 Y4.08745
G01 X-2.80623 Y4.09100
G01 X-2.80664 Y4.09291
G01 X-2.87314 Y4.38612
G01 X-2.87311 Y4.38612
G01 X-2.87314 Y4.38612
G01 X-2.87398 Y4.38821
G01 X-2.87700 Y4.39612
G01 X-2.87899 Y4.40228
G01 X-2.87901 Y4.40228
G01 X-2.87899 Y4.40228
G01 X-2.88115 Y4.41038
G01 X-2.88237 Y4.41604
G01 X-2.88246 Y4.41603
G01 X-2.88237 Y4.41604
G01 X-2.88237 Y4.41652
G01 X-2.88237 Y4.42493
G01 X-2.88237 Y4.43101
G01 X-2.88237 Y4.43942
G01 X-2.88237 Y4.44596
G01 X-2.88237 Y4.45435
G01 X-2.88243 Y4.45473
G01 X-2.88262 Y4.45589
G01 X-2.88203 Y4.45608
G01 X-2.88262 Y4.45589
G01 X-2.88605 Y4.46079
G01 X-2.88611 Y4.46087
G01 X-2.88588 Y4.46113
G01 X-2.88611 Y4.46087
G01 X-2.89437 Y4.46565
G01 X-2.89880 Y4.46791
G01 X-2.89892 Y4.46797
G01 X-2.89892 Y4.46797
G01 X-2.89999 Y4.46851
G01 X-2.90835 Y4.47224
G01 X-2.91271 Y4.47392
G01 X-2.91271 Y4.47394
G01 X-2.91271 Y4.47392
G01 X-2.92108 Y4.47664
G01 X-2.92107 Y4.47665
G01 X-2.92108 Y4.47664
G01 X-2.92460 Y4.47758
G01 X-2.92460 Y4.47760
G01 X-2.92460 Y4.47758
G01 X-2.93296 Y4.47936
G01 X-2.93296 Y4.47938
G01 X-2.93296 Y4.47936
G01 X-2.93597 Y4.47984
G01 X-2.93597 Y4.47985
G01 X-2.93597 Y4.47984
G01 X-2.94433 Y4.48072
G01 X-2.94433 Y4.48073
G01 X-2.94433 Y4.48072
G01 X-2.94709 Y4.48086
G01 X-2.94709 Y4.48087
G01 X-2.94709 Y4.48086
G01 X-2.95545 Y4.48086
G01 X-2.95545 Y4.48087
G01 X-2.95545 Y4.48086
G01 X-2.95820 Y4.48072
G01 X-2.96657 Y4.47984
G01 X-2.96657 Y4.47985
G01 X-2.96657 Y4.47984
G01 X-2.96957 Y4.47936
G01 X-2.97793 Y4.47758
G01 X-2.97794 Y4.47760
G01 X-2.97793 Y4.47758
G01 X-2.98146 Y4.47664
G01 X-2.98982 Y4.47392
G01 X-2.98983 Y4.47393
G01 X-2.98982 Y4.47392
G01 X-2.99418 Y4.47224
G01 X-3.00255 Y4.46851
G01 X-3.00255 Y4.46853
G01 X-3.00255 Y4.46851
G01 X-3.00361 Y4.46797
G01 X-3.00361 Y4.46797
G01 X-3.00374 Y4.46790
G01 X-3.00816 Y4.46565
G01 X-3.01136 Y4.46380
G01 X-3.01160 Y4.46407
G01 X-3.01136 Y4.46380
G01 X-3.01453 Y4.45967
G01 X-3.01832 Y4.45415
G01 X-3.01983 Y4.45167
G01 X-3.02065 Y4.45189
G01 X-3.01983 Y4.45167
G01 X-3.01953 Y4.44825
G01 X-3.01937 Y4.44570
G01 X-3.01889 Y4.44096
G01 X-3.01865 Y4.43926
G01 X-3.01824 Y4.43532
G01 X-3.01792 Y4.43077
G01 X-3.01770 Y4.42838
G01 X-3.01740 Y4.42581
G01 X-3.01733 Y4.42523
G01 X-3.01628 Y4.41693
G01 X-3.01602 Y4.41546
G01 X-3.01575 Y4.41395
G01 X-3.01532 Y4.41156
G01 X-3.01534 Y4.41155
G01 X-3.01532 Y4.41156
G01 X-3.01340 Y4.40339
G01 X-3.01179 Y4.39785
G01 X-3.01180 Y4.39785
G01 X-3.01179 Y4.39785
G01 X-3.00899 Y4.38981
G01 X-3.00896 Y4.38972
G01 X-3.00893 Y4.38972
G01 X-3.00896 Y4.38972
G01 X-2.95866 Y4.10764
G01 X-2.95867 Y4.10764
G01 X-2.95866 Y4.10764
G01 X-2.95738 Y4.10322
G01 X-2.95556 Y4.09609
G01 X-2.95410 Y4.08894
G01 X-2.95408 Y4.08894
G01 X-2.95410 Y4.08894
G01 X-2.95298 Y4.08166
G01 X-2.95251 Y4.07797
G01 X-2.95172 Y4.07033
G01 X-2.95169 Y4.07033
G01 X-2.95172 Y4.07033
G01 X-2.95172 Y3.97797
G01 X-2.95181 Y3.97416
G01 X-2.95197 Y3.97098
G01 X-2.95197 Y3.97098
G01 X-2.95197 Y3.97097
G01 X-2.95197 Y3.97097
G01 X-2.95217 Y3.96681
G01 X-2.95216 Y3.96681
G01 X-2.95217 Y3.96681
G01 X-2.95294 Y3.95905
G01 X-2.95402 Y3.95170
G01 X-2.95567 Y3.94349
G01 X-2.95566 Y3.94349
G01 X-2.95567 Y3.94349
G01 X-2.95751 Y3.93614
G01 X-2.96024 Y3.92714
G01 X-2.96066 Y3.92597
G01 X-2.96402 Y3.92601
G01 X-2.97045 Y3.92601
G01 X-2.97190 Y3.92603
G01 X-2.97475 Y3.92608
G01 X-2.98081 Y3.92630
G01 X-2.98382 Y3.92636
G01 X-2.99037 Y3.92636
G01 X-2.99106 Y3.92637
G01 X-2.99266 Y3.92640
G01 X-2.99630 Y3.92653
G01 X-2.99811 Y3.92656
G01 X-3.00466 Y3.92656
G01 X-3.00588 Y3.92658
G01 X-3.00856 Y3.92665
G01 X-3.00961 Y3.92667
G01 X-3.01625 Y3.92667
G01 X-3.01678 Y3.92667
G01 X-3.01923 Y3.92672
G01 X-3.01972 Y3.92672
G01 X-3.02661 Y3.92672
G01 X-3.02932 Y3.92672
G01 X-3.03622 Y3.92672
G01 X-3.03671 Y3.92672
G01 X-3.03916 Y3.92667
G01 X-3.03969 Y3.92667
G01 X-3.04633 Y3.92667
G01 X-3.04737 Y3.92665
G01 X-3.05006 Y3.92658
G01 X-3.05128 Y3.92656
G01 X-3.05783 Y3.92656
G01 X-3.05963 Y3.92653
G01 X-3.06327 Y3.92640
G01 X-3.06488 Y3.92637
G01 X-3.06557 Y3.92636
G01 X-3.07212 Y3.92636
G01 X-3.07512 Y3.92630
G01 X-3.08119 Y3.92608
G01 X-3.08402 Y3.92604
G01 X-3.08463 Y3.92671
G01 X-3.08930 Y3.93239
G01 X-3.09158 Y3.93547
G01 X-3.09354 Y3.93875
G01 X-3.09701 Y3.94523
G01 X-3.09993 Y3.95230
G01 X-3.10207 Y3.95933
G01 X-3.10300 Y3.96304
G01 X-3.10356 Y3.96683
G01 X-3.10397 Y3.97098
G01 X-3.10412 Y3.97416
G01 X-3.10422 Y3.97797
G01 X-3.10422 Y4.07797
G01 X-3.10422 Y4.08066
G01 X-3.10421 Y4.08179
G01 X-3.10420 Y4.08263
G01 X-3.10390 Y4.08564
G01 X-3.10387 Y4.08564
G01 X-3.10390 Y4.08564
G01 X-3.11183 Y4.13937
G01 X-3.10468 Y4.08821
G01 X-3.10440 Y4.08552
G01 X-3.10420 Y4.08263
G01 X-3.10421 Y4.08179
G01 X-3.10420 Y4.08263
G01 X-3.10420 Y4.08263
G01 X-3.10416 Y4.08553
G01 X-3.10415 Y4.08564
G01 X-3.10412 Y4.08564
G01 X-3.10415 Y4.08564
G01 X-3.10448 Y4.08824
G01 X-3.11183 Y4.13937
G01 X-3.11183 Y4.13938
G01 X-3.11183 Y4.13940
G01 X-3.11185 Y4.13950
G01 X-3.11183 Y4.13940
G01 X-3.11184 Y4.13942
G01 X-3.11185 Y4.13950
G01 X-3.14558 Y4.37435
G01 X-3.14547 Y4.37438
G01 X-3.14558 Y4.37435
G01 X-3.14832 Y4.38024
G01 X-3.15117 Y4.38729
G01 X-3.15394 Y4.39534
G01 X-3.15395 Y4.39534
G01 X-3.15394 Y4.39534
G01 X-3.15581 Y4.40189
G01 X-3.15770 Y4.41007
G01 X-3.15797 Y4.41128
G01 X-3.15806 Y4.41127
G01 X-3.15797 Y4.41128
G01 X-3.15797 Y4.41652
G01 X-3.15797 Y4.42493
G01 X-3.15797 Y4.43101
G01 X-3.15797 Y4.43942
G01 X-3.15797 Y4.44596
G01 X-3.15797 Y4.45435
G01 X-3.15803 Y4.45473
G01 X-3.15822 Y4.45589
G01 X-3.15763 Y4.45608
G01 X-3.15822 Y4.45589
G01 X-3.16165 Y4.46079
G01 X-3.16171 Y4.46087
G01 X-3.16148 Y4.46113
G01 X-3.16171 Y4.46087
G01 X-3.16998 Y4.46564
G01 X-3.17440 Y4.46790
G01 X-3.17453 Y4.46797
G01 X-3.17559 Y4.46851
G01 X-3.17558 Y4.46853
G01 X-3.17559 Y4.46851
G01 X-3.18395 Y4.47224
G01 X-3.18832 Y4.47392
G01 X-3.18831 Y4.47394
G01 X-3.18832 Y4.47392
G01 X-3.19668 Y4.47664
G01 X-3.19668 Y4.47665
G01 X-3.19668 Y4.47664
G01 X-3.20020 Y4.47758
G01 X-3.20020 Y4.47760
G01 X-3.20020 Y4.47758
G01 X-3.20856 Y4.47936
G01 X-3.20856 Y4.47938
G01 X-3.20856 Y4.47936
G01 X-3.21157 Y4.47984
G01 X-3.21157 Y4.47985
G01 X-3.21157 Y4.47984
G01 X-3.21993 Y4.48072
G01 X-3.21993 Y4.48073
G01 X-3.21993 Y4.48072
G01 X-3.22269 Y4.48086
G01 X-3.22269 Y4.48087
G01 X-3.22269 Y4.48086
G01 X-3.23105 Y4.48086
G01 X-3.23105 Y4.48087
G01 X-3.23105 Y4.48086
G01 X-3.23380 Y4.48072
G01 X-3.24217 Y4.47984
G01 X-3.24217 Y4.47986
G01 X-3.24217 Y4.47984
G01 X-3.24517 Y4.47936
G01 X-3.25353 Y4.47758
G01 X-3.25548 Y4.47711
G01 X-3.25568 Y4.47751
G01 X-3.25548 Y4.47711
G01 X-3.25567 Y4.47748
G01 X-3.25548 Y4.47711
G01 X-3.25669 Y4.47613
G01 X-3.26307 Y4.47068
G01 X-3.26308 Y4.47069
G01 X-3.26307 Y4.47068
G01 X-3.26549 Y4.46837
G01 X-3.26551 Y4.46839
G01 X-3.26549 Y4.46837
G01 X-3.27125 Y4.46231
G01 X-3.27127 Y4.46232
G01 X-3.27125 Y4.46231
G01 X-3.27347 Y4.45970
G01 X-3.27349 Y4.45972
G01 X-3.27347 Y4.45970
G01 X-3.27861 Y4.45301
G01 X-3.27862 Y4.45302
G01 X-3.27861 Y4.45301
G01 X-3.28076 Y4.44988
G01 X-3.28077 Y4.44988
G01 X-3.28076 Y4.44988
G01 X-3.28525 Y4.44254
G01 X-3.28574 Y4.44173
G01 X-3.28580 Y4.44176
G01 X-3.28574 Y4.44173
G01 X-3.28714 Y4.43851
G01 X-3.29026 Y4.43043
G01 X-3.29193 Y4.42533
G01 X-3.29195 Y4.42534
G01 X-3.29193 Y4.42533
G01 X-3.29251 Y4.42319
G01 X-3.29251 Y4.42319
G01 X-3.29427 Y4.41668
G01 X-3.29570 Y4.41000
G01 X-3.29577 Y4.40956
G01 X-3.29615 Y4.40956
G01 X-3.29577 Y4.40956
G01 X-3.29577 Y4.40915
G01 X-3.29418 Y4.40170
G01 X-3.29238 Y4.39497
G01 X-3.29158 Y4.39250
G01 X-3.29155 Y4.39250
G01 X-3.29158 Y4.39250
G01 X-3.25641 Y4.10481
G01 X-3.25613 Y4.10360
G01 X-3.25455 Y4.09640
G01 X-3.25330 Y4.08901
G01 X-3.25328 Y4.08902
G01 X-3.25330 Y4.08901
G01 X-3.25243 Y4.08171
G01 X-3.25207 Y4.07797
G01 X-3.25172 Y4.07284
G01 X-3.25170 Y4.07284
G01 X-3.25172 Y4.07284
G01 X-3.25172 Y3.97797
G01 X-3.25181 Y3.97416
G01 X-3.25197 Y3.97097
G01 X-3.25217 Y3.96681
G01 X-3.25216 Y3.96681
G01 X-3.25217 Y3.96681
G01 X-3.25294 Y3.95905
G01 X-3.25402 Y3.95170
G01 X-3.25567 Y3.94349
G01 X-3.25566 Y3.94349
G01 X-3.25567 Y3.94349
G01 X-3.25751 Y3.93614
G01 X-3.26024 Y3.92714
G01 X-3.26066 Y3.92597
G01 X-3.26402 Y3.92601
G01 X-3.27045 Y3.92601
G01 X-3.27190 Y3.92603
G01 X-3.27475 Y3.92608
G01 X-3.28081 Y3.92630
G01 X-3.28382 Y3.92636
G01 X-3.29037 Y3.92636
G01 X-3.29106 Y3.92637
G01 X-3.29266 Y3.92640
G01 X-3.29630 Y3.92653
G01 X-3.29811 Y3.92656
G01 X-3.30466 Y3.92656
G01 X-3.30588 Y3.92658
G01 X-3.30856 Y3.92665
G01 X-3.30961 Y3.92667
G01 X-3.31625 Y3.92667
G01 X-3.31678 Y3.92667
G01 X-3.31923 Y3.92672
G01 X-3.31972 Y3.92672
G01 X-3.32661 Y3.92672
G01 X-3.32932 Y3.92672
G01 X-3.33622 Y3.92672
G01 X-3.33671 Y3.92672
G01 X-3.33916 Y3.92667
G01 X-3.33969 Y3.92667
G01 X-3.34633 Y3.92667
G01 X-3.34737 Y3.92665
G01 X-3.35006 Y3.92658
G01 X-3.35128 Y3.92656
G01 X-3.35783 Y3.92656
G01 X-3.35963 Y3.92653
G01 X-3.36327 Y3.92640
G01 X-3.36482 Y3.92637
G01 X-3.36530 Y3.92669
G01 X-3.37098 Y3.93135
G01 X-3.37287 Y3.93307
G01 X-3.37458 Y3.93496
G01 X-3.37925 Y3.94064
G01 X-3.38077 Y3.94269
G01 X-3.38208 Y3.94488
G01 X-3.38554 Y3.95136
G01 X-3.38749 Y3.95607
G01 X-3.38963 Y3.96311
G01 X-3.39025 Y3.96558
G01 X-3.39062 Y3.96810
G01 X-3.39134 Y3.97542
G01 X-3.39147 Y3.97797
G01 X-3.39147 Y4.07797
G01 X-3.39134 Y4.08052
G01 X-3.39062 Y4.08783
G01 X-3.39045 Y4.08896
G01 X-3.39039 Y4.08896
G01 X-3.39045 Y4.08896
G01 X-3.42276 Y4.39702
G01 X-3.42252 Y4.39709
G01 X-3.42276 Y4.39702
G01 X-3.42373 Y4.39870
G01 X-3.42496 Y4.40112
G01 X-3.42594 Y4.40367
G01 X-3.42852 Y4.41162
G01 X-3.42923 Y4.41425
G01 X-3.42965 Y4.41693
G01 X-3.43053 Y4.42525
G01 X-3.43067 Y4.42797
G01 X-3.43053 Y4.43069
G01 X-3.42965 Y4.43900
G01 X-3.42923 Y4.44169
G01 X-3.42852 Y4.44432
G01 X-3.42594 Y4.45227
G01 X-3.42567 Y4.45298
G01 X-3.42554 Y4.45296
G01 X-3.42567 Y4.45298
G01 X-3.42567 Y4.45927
G01 X-3.42468 Y4.45968
G01 X-3.42567 Y4.45927
G01 X-3.43437 Y4.46797
G01 X-3.43396 Y4.46896
G01 X-3.43437 Y4.46797
G01 X-3.45012 Y4.46797
G01 X-3.45012 Y4.46797
G01 X-3.45119 Y4.46851
G01 X-3.45955 Y4.47224
G01 X-3.46391 Y4.47392
G01 X-3.46391 Y4.47394
G01 X-3.46391 Y4.47392
G01 X-3.47228 Y4.47664
G01 X-3.47580 Y4.47758
G01 X-3.47580 Y4.47760
G01 X-3.47580 Y4.47758
G01 X-3.48417 Y4.47936
G01 X-3.48416 Y4.47937
G01 X-3.48417 Y4.47936
G01 X-3.48717 Y4.47984
G01 X-3.48717 Y4.47985
G01 X-3.48717 Y4.47984
G01 X-3.49553 Y4.48072
G01 X-3.49553 Y4.48073
G01 X-3.49553 Y4.48072
G01 X-3.49829 Y4.48086
G01 X-3.49829 Y4.48087
G01 X-3.49829 Y4.48086
G01 X-3.50665 Y4.48086
G01 X-3.50665 Y4.48087
G01 X-3.50665 Y4.48086
G01 X-3.50940 Y4.48072
G01 X-3.51777 Y4.47984
G01 X-3.51777 Y4.47985
G01 X-3.51777 Y4.47984
G01 X-3.52077 Y4.47936
G01 X-3.52913 Y4.47758
G01 X-3.52962 Y4.47748
G01 X-3.52980 Y4.47785
G01 X-3.52962 Y4.47748
G01 X-3.53195 Y4.47566
G01 X-3.53833 Y4.47021
G01 X-3.53834 Y4.47023
G01 X-3.53833 Y4.47021
G01 X-3.54067 Y4.46799
G01 X-3.54643 Y4.46192
G01 X-3.54857 Y4.45941
G01 X-3.54859 Y4.45943
G01 X-3.54857 Y4.45941
G01 X-3.55370 Y4.45272
G01 X-3.55579 Y4.44969
G01 X-3.55580 Y4.44970
G01 X-3.55579 Y4.44969
G01 X-3.56028 Y4.44236
G01 X-3.56238 Y4.43847
G01 X-3.56240 Y4.43848
G01 X-3.56238 Y4.43847
G01 X-3.56620 Y4.43047
G01 X-3.56812 Y4.42589
G01 X-3.56858 Y4.42597
G01 X-3.56812 Y4.42589
G01 X-3.56806 Y4.42528
G01 X-3.56803 Y4.42502
G01 X-3.56734 Y4.41819
G01 X-3.56723 Y4.41696
G01 X-3.56713 Y4.41567
G01 X-3.56697 Y4.41434
G01 X-3.56697 Y4.41433
G01 X-3.56690 Y4.41379
G01 X-3.56664 Y4.41152
G01 X-3.56531 Y4.40315
G01 X-3.56425 Y4.39799
G01 X-3.56421 Y4.39799
G01 X-3.56425 Y4.39799
G01 X-3.55397 Y4.10394
G01 X-3.55323 Y4.09340
G01 X-3.55323 Y4.09340
G01 X-3.55265 Y4.08908
G01 X-3.55203 Y4.08175
G01 X-3.55181 Y4.07797
G01 X-3.55172 Y4.07539
G01 X-3.55170 Y4.07539
G01 X-3.55172 Y4.07539
G01 X-3.55172 Y3.97797
G01 X-3.55181 Y3.97416
G01 X-3.55197 Y3.97098
G01 X-3.55197 Y3.97097
G01 X-3.55217 Y3.96681
G01 X-3.55216 Y3.96681
G01 X-3.55217 Y3.96681
G01 X-3.55294 Y3.95905
G01 X-3.55402 Y3.95170
G01 X-3.55567 Y3.94349
G01 X-3.55566 Y3.94349
G01 X-3.55567 Y3.94349
G01 X-3.55751 Y3.93614
G01 X-3.56024 Y3.92714
G01 X-3.56066 Y3.92597
G01 X-3.56402 Y3.92601
G01 X-3.57045 Y3.92601
G01 X-3.57190 Y3.92603
G01 X-3.57475 Y3.92608
G01 X-3.58081 Y3.92630
G01 X-3.58382 Y3.92636
G01 X-3.59037 Y3.92636
G01 X-3.59106 Y3.92637
G01 X-3.59266 Y3.92640
G01 X-3.59630 Y3.92653
G01 X-3.59811 Y3.92656
G01 X-3.60466 Y3.92656
G01 X-3.60588 Y3.92658
G01 X-3.60856 Y3.92665
G01 X-3.60961 Y3.92667
G01 X-3.61625 Y3.92667
G01 X-3.61678 Y3.92667
G01 X-3.61923 Y3.92672
G01 X-3.61972 Y3.92672
G01 X-3.62661 Y3.92672
G01 X-3.62932 Y3.92672
G01 X-3.63622 Y3.92672
G01 X-3.63671 Y3.92672
G01 X-3.63916 Y3.92667
G01 X-3.63969 Y3.92667
G01 X-3.64633 Y3.92667
G01 X-3.64737 Y3.92665
G01 X-3.65006 Y3.92658
G01 X-3.65128 Y3.92656
G01 X-3.65783 Y3.92656
G01 X-3.65963 Y3.92653
G01 X-3.66327 Y3.92640
G01 X-3.66482 Y3.92637
G01 X-3.66530 Y3.92669
G01 X-3.67098 Y3.93135
G01 X-3.67287 Y3.93307
G01 X-3.67458 Y3.93496
G01 X-3.67925 Y3.94064
G01 X-3.68077 Y3.94269
G01 X-3.68208 Y3.94488
G01 X-3.68554 Y3.95136
G01 X-3.68749 Y3.95607
G01 X-3.68963 Y3.96311
G01 X-3.69025 Y3.96558
G01 X-3.69062 Y3.96810
G01 X-3.69134 Y3.97542
G01 X-3.69147 Y3.97797
G01 X-3.69147 Y4.07797
G01 X-3.69134 Y4.08052
G01 X-3.69062 Y4.08783
G01 X-3.69025 Y4.09036
G01 X-3.68963 Y4.09283
G01 X-3.68897 Y4.09501
G01 X-3.68888 Y4.09500
G01 X-3.68897 Y4.09501
G01 X-3.68897 Y4.38375
G01 X-3.68815 Y4.38405
G01 X-3.68897 Y4.38375
G01 X-3.69195 Y4.38706
G01 X-3.69366 Y4.38918
G01 X-3.69515 Y4.39146
G01 X-3.69933 Y4.39870
G01 X-3.70056 Y4.40112
G01 X-3.70154 Y4.40367
G01 X-3.70412 Y4.41162
G01 X-3.70483 Y4.41425
G01 X-3.70525 Y4.41693
G01 X-3.70613 Y4.42525
G01 X-3.70627 Y4.42797
G01 X-3.70613 Y4.43069
G01 X-3.70525 Y4.43900
G01 X-3.70483 Y4.44169
G01 X-3.70412 Y4.44432
G01 X-3.70154 Y4.45227
G01 X-3.70127 Y4.45298
G01 X-3.70112 Y4.45295
G01 X-3.70127 Y4.45298
G01 X-3.70127 Y4.45927
G01 X-3.70028 Y4.45968
G01 X-3.70127 Y4.45927
G01 X-3.70997 Y4.46797
G01 X-3.70956 Y4.46896
G01 X-3.70997 Y4.46797
G01 X-3.72563 Y4.46797
G01 X-3.72550 Y4.46790
G01 X-3.72457 Y4.46676
G01 X-3.72309 Y4.46448
G01 X-3.71891 Y4.45724
G01 X-3.71767 Y4.45481
G01 X-3.71670 Y4.45227
G01 X-3.71411 Y4.44432
G01 X-3.71341 Y4.44169
G01 X-3.71298 Y4.43900
G01 X-3.71211 Y4.43069
G01 X-3.71197 Y4.42797
G01 X-3.71211 Y4.42525
G01 X-3.71298 Y4.41693
G01 X-3.71341 Y4.41425
G01 X-3.71411 Y4.41162
G01 X-3.71670 Y4.40367
G01 X-3.71697 Y4.40296
G01 X-3.71712 Y4.40299
G01 X-3.71697 Y4.40296
G01 X-3.71697 Y3.54486
G01 X-3.71744 Y3.54473
G01 X-3.71697 Y3.54486
G01 X-3.58456 Y3.32419
G01 X-3.58461 Y3.32416
G01 X-3.58456 Y3.32419
G01 X-3.58135 Y3.32098
G01 X-3.57669 Y3.31530
G01 X-3.57517 Y3.31325
G01 X-3.57386 Y3.31106
G01 X-3.57039 Y3.30458
G01 X-3.56844 Y3.29987
G01 X-3.56631 Y3.29283
G01 X-3.56569 Y3.29036
G01 X-3.56531 Y3.28783
G01 X-3.56459 Y3.28052
G01 X-3.56447 Y3.27797
G01 X-3.56447 Y3.07797
G01 X-3.56459 Y3.07542
G01 X-3.56531 Y3.06810
G01 X-3.56569 Y3.06558
G01 X-3.56631 Y3.06311
G01 X-3.56844 Y3.05607
G01 X-3.57039 Y3.05136
G01 X-3.57386 Y3.04488
G01 X-3.57517 Y3.04269
G01 X-3.57669 Y3.04064
G01 X-3.58135 Y3.03496
G01 X-3.58307 Y3.03307
G01 X-3.58496 Y3.03135
G01 X-3.59064 Y3.02669
G01 X-3.59488 Y3.02386
G01 X-3.60136 Y3.02039
G01 X-3.60367 Y3.01930
G01 X-3.60607 Y3.01844
G01 X-3.61310 Y3.01631
G01 X-3.61810 Y3.01531
G01 X-3.62542 Y3.01459
G01 X-3.62797 Y3.01447
G01 X-3.63052 Y3.01459
G01 X-3.63783 Y3.01531
G01 X-3.64283 Y3.01631
G01 X-3.64987 Y3.01844
G01 X-3.65227 Y3.01930
G01 X-3.65457 Y3.02039
G01 X-3.66106 Y3.02386
G01 X-3.66530 Y3.02669
G01 X-3.67098 Y3.03135
G01 X-3.67287 Y3.03307
G01 X-3.67458 Y3.03496
G01 X-3.67925 Y3.04064
G01 X-3.68077 Y3.04269
G01 X-3.68208 Y3.04488
G01 X-3.68554 Y3.05136
G01 X-3.68749 Y3.05607
G01 X-3.68963 Y3.06311
G01 X-3.69025 Y3.06558
G01 X-3.69062 Y3.06810
G01 X-3.69134 Y3.07542
G01 X-3.69147 Y3.07797
G01 X-3.69147 Y3.26524
G01 X-3.69100 Y3.26537
G01 X-3.69147 Y3.26524
G01 X-3.83028 Y3.49658
G01 X-3.83139 Y3.49864
G01 X-3.83413 Y3.50431
G01 X-3.83578 Y3.50869
G01 X-3.83746 Y3.51476
G01 X-3.83830 Y3.51936
G01 X-3.83886 Y3.52563
G01 X-3.83897 Y3.52797
G01 X-3.83897 Y4.40296
G01 X-3.83884 Y4.40298
G01 X-3.83897 Y4.40296
G01 X-3.83924 Y4.40367
G01 X-3.84182 Y4.41162
G01 X-3.84253 Y4.41425
G01 X-3.84295 Y4.41693
G01 X-3.84383 Y4.42525
G01 X-3.84397 Y4.42797
G01 X-3.84383 Y4.43069
G01 X-3.84295 Y4.43900
G01 X-3.84253 Y4.44169
G01 X-3.84182 Y4.44432
G01 X-3.83924 Y4.45227
G01 X-3.83826 Y4.45481
G01 X-3.83703 Y4.45724
G01 X-3.83285 Y4.46448
G01 X-3.83136 Y4.46676
G01 X-3.83044 Y4.46790
G01 X-3.83044 Y4.46790
G01 X-3.82925 Y4.46851
G01 X-3.82925 Y4.46853
G01 X-3.82925 Y4.46851
G01 X-3.83031 Y4.46797
G01 X-3.95170 Y4.46797
G01 X-3.95211 Y4.46896
G01 X-3.95170 Y4.46797
G01 X-3.95247 Y4.46720
G01 X-3.95346 Y4.46761
G01 X-3.95247 Y4.46720
G01 X-3.95247 Y4.45298
G01 X-3.95262 Y4.45295
G01 X-3.95247 Y4.45298
G01 X-3.95220 Y4.45227
G01 X-3.94961 Y4.44432
G01 X-3.94891 Y4.44169
G01 X-3.94848 Y4.43900
G01 X-3.94761 Y4.43069
G01 X-3.94747 Y4.42797
G01 X-3.94761 Y4.42525
G01 X-3.94848 Y4.41693
G01 X-3.94891 Y4.41425
G01 X-3.94961 Y4.41162
G01 X-3.94986 Y4.41087
G01 X-3.95023 Y4.41087
G01 X-3.94986 Y4.41087
G01 X-3.87308 Y4.10961
G01 X-3.87314 Y4.10959
G01 X-3.87308 Y4.10961
G01 X-3.87039 Y4.10458
G01 X-3.86844 Y4.09987
G01 X-3.86631 Y4.09283
G01 X-3.86569 Y4.09036
G01 X-3.86531 Y4.08783
G01 X-3.86459 Y4.08052
G01 X-3.86447 Y4.07797
G01 X-3.86447 Y3.97797
G01 X-3.86459 Y3.97542
G01 X-3.86531 Y3.96810
G01 X-3.86569 Y3.96558
G01 X-3.86631 Y3.96311
G01 X-3.86844 Y3.95607
G01 X-3.87039 Y3.95136
G01 X-3.87386 Y3.94488
G01 X-3.87517 Y3.94269
G01 X-3.87669 Y3.94064
G01 X-3.88135 Y3.93496
G01 X-3.88307 Y3.93307
G01 X-3.88496 Y3.93135
G01 X-3.89064 Y3.92669
G01 X-3.89111 Y3.92637
G01 X-3.89266 Y3.92640
G01 X-3.89106 Y3.92637
G01 X-3.88673 Y3.92282
G01 X-3.88312 Y3.91921
G01 X-3.87877 Y3.91391
G01 X-3.87725 Y3.91186
G01 X-3.87594 Y3.90967
G01 X-3.87270 Y3.90362
G01 X-3.87075 Y3.89891
G01 X-3.86876 Y3.89234
G01 X-3.86777 Y3.88735
G01 X-3.86709 Y3.88052
G01 X-3.86697 Y3.87797
G01 X-3.86697 Y3.59339
G01 X-3.86699 Y3.59339
G01 X-3.86697 Y3.59339
G01 X-3.86634 Y3.59107
G01 X-3.86592 Y3.58838
G01 X-3.86511 Y3.58069
G01 X-3.86497 Y3.57797
G01 X-3.86511 Y3.57525
G01 X-3.86592 Y3.56756
G01 X-3.86634 Y3.56487
G01 X-3.86705 Y3.56224
G01 X-3.86944 Y3.55489
G01 X-3.87041 Y3.55234
G01 X-3.87165 Y3.54992
G01 X-3.87552 Y3.54322
G01 X-3.87700 Y3.54094
G01 X-3.87871 Y3.53882
G01 X-3.88389 Y3.53308
G01 X-3.88581 Y3.53115
G01 X-3.88793 Y3.52944
G01 X-3.89419 Y3.52489
G01 X-3.89647 Y3.52341
G01 X-3.89889 Y3.52217
G01 X-3.90596 Y3.51903
G01 X-3.90850 Y3.51805
G01 X-3.91113 Y3.51735
G01 X-3.91869 Y3.51574
G01 X-3.92138 Y3.51531
G01 X-3.92410 Y3.51517
G01 X-3.93184 Y3.51517
G01 X-3.93455 Y3.51531
G01 X-3.93724 Y3.51574
G01 X-3.94481 Y3.51735
G01 X-3.94744 Y3.51805
G01 X-3.94998 Y3.51903
G01 X-3.95704 Y3.52217
G01 X-3.95947 Y3.52341
G01 X-3.96175 Y3.52489
G01 X-3.96801 Y3.52944
G01 X-3.97012 Y3.53115
G01 X-3.97205 Y3.53308
G01 X-3.97722 Y3.53882
G01 X-3.97894 Y3.54094
G01 X-3.98042 Y3.54322
G01 X-3.98429 Y3.54992
G01 X-3.98552 Y3.55234
G01 X-3.98650 Y3.55489
G01 X-3.98889 Y3.56224
G01 X-3.98959 Y3.56487
G01 X-3.99002 Y3.56756
G01 X-3.99083 Y3.57525
G01 X-3.99097 Y3.57797
G01 X-3.99083 Y3.58069
G01 X-3.99002 Y3.58838
G01 X-3.98959 Y3.59107
G01 X-3.98897 Y3.59339
G01 X-3.98894 Y3.59339
G01 X-3.98897 Y3.59339
G01 X-3.98897 Y3.87797
G01 X-3.98884 Y3.88052
G01 X-3.98817 Y3.88735
G01 X-3.98780 Y3.88987
G01 X-3.98718 Y3.89234
G01 X-3.98518 Y3.89891
G01 X-3.98323 Y3.90362
G01 X-3.98000 Y3.90967
G01 X-3.97869 Y3.91186
G01 X-3.97717 Y3.91391
G01 X-3.97282 Y3.91921
G01 X-3.96921 Y3.92282
G01 X-3.96488 Y3.92637
G01 X-3.96327 Y3.92640
G01 X-3.96482 Y3.92637
G01 X-3.96530 Y3.92669
G01 X-3.97098 Y3.93135
G01 X-3.97287 Y3.93307
G01 X-3.97458 Y3.93496
G01 X-3.97925 Y3.94064
G01 X-3.98077 Y3.94269
G01 X-3.98208 Y3.94488
G01 X-3.98554 Y3.95136
G01 X-3.98749 Y3.95607
G01 X-3.98963 Y3.96311
G01 X-3.99025 Y3.96558
G01 X-3.99062 Y3.96810
G01 X-3.99134 Y3.97542
G01 X-3.99147 Y3.97797
G01 X-3.99147 Y4.07797
G01 X-3.99138 Y4.07978
G01 X-3.99128 Y4.07979
G01 X-3.99138 Y4.07978
G01 X-4.07258 Y4.39841
G01 X-4.07271 Y4.39907
G01 X-4.07270 Y4.39907
G01 X-4.07271 Y4.39907
G01 X-4.07376 Y4.40112
G01 X-4.07474 Y4.40367
G01 X-4.07732 Y4.41162
G01 X-4.07803 Y4.41425
G01 X-4.07845 Y4.41693
G01 X-4.07933 Y4.42525
G01 X-4.07947 Y4.42797
G01 X-4.07933 Y4.43069
G01 X-4.07845 Y4.43900
G01 X-4.07803 Y4.44169
G01 X-4.07732 Y4.44432
G01 X-4.07474 Y4.45227
G01 X-4.07447 Y4.45298
G01 X-4.07432 Y4.45295
G01 X-4.07447 Y4.45298
G01 X-4.07447 Y4.45927
G01 X-4.07348 Y4.45968
G01 X-4.07447 Y4.45927
G01 X-4.08317 Y4.46797
G01 X-4.08276 Y4.46896
G01 X-4.08317 Y4.46797
G01 X-4.09892 Y4.46797
G01 X-4.09893 Y4.46797
G01 X-4.09892 Y4.46797
G01 X-4.09880 Y4.46791
G01 X-4.09787 Y4.46676
G01 X-4.09639 Y4.46448
G01 X-4.09221 Y4.45724
G01 X-4.09097 Y4.45481
G01 X-4.09000 Y4.45227
G01 X-4.08741 Y4.44432
G01 X-4.08671 Y4.44169
G01 X-4.08628 Y4.43900
G01 X-4.08541 Y4.43069
G01 X-4.08527 Y4.42797
G01 X-4.08541 Y4.42525
G01 X-4.08628 Y4.41693
G01 X-4.08643 Y4.41599
G01 X-4.08659 Y4.41598
G01 X-4.08643 Y4.41599
G01 X-4.01826 Y4.09047
G01 X-4.01802 Y4.08915
G01 X-4.01747 Y4.08558
G01 X-4.01719 Y4.08292
G01 X-4.01700 Y4.07931
G01 X-4.01697 Y4.07797
G01 X-4.01697 Y3.54486
G01 X-4.01744 Y3.54473
G01 X-4.01697 Y3.54486
G01 X-3.88461 Y3.32427
G01 X-3.88465 Y3.32424
G01 X-3.88461 Y3.32427
G01 X-3.88307 Y3.32287
G01 X-3.88135 Y3.32098
G01 X-3.87669 Y3.31530
G01 X-3.87517 Y3.31325
G01 X-3.87386 Y3.31106
G01 X-3.87039 Y3.30458
G01 X-3.86844 Y3.29987
G01 X-3.86631 Y3.29283
G01 X-3.86569 Y3.29036
G01 X-3.86531 Y3.28783
G01 X-3.86459 Y3.28052
G01 X-3.86447 Y3.27797
G01 X-3.86447 Y3.07797
G01 X-3.86459 Y3.07542
G01 X-3.86531 Y3.06810
G01 X-3.86569 Y3.06558
G01 X-3.86631 Y3.06311
G01 X-3.86844 Y3.05607
G01 X-3.87039 Y3.05136
G01 X-3.87386 Y3.04488
G01 X-3.87517 Y3.04269
G01 X-3.87669 Y3.04064
G01 X-3.88135 Y3.03496
G01 X-3.88307 Y3.03307
G01 X-3.88496 Y3.03135
G01 X-3.89064 Y3.02669
G01 X-3.89488 Y3.02386
G01 X-3.90136 Y3.02039
G01 X-3.90367 Y3.01930
G01 X-3.90607 Y3.01844
G01 X-3.91310 Y3.01631
G01 X-3.91810 Y3.01531
G01 X-3.92542 Y3.01459
G01 X-3.92797 Y3.01447
G01 X-3.93052 Y3.01459
G01 X-3.93783 Y3.01531
G01 X-3.94283 Y3.01631
G01 X-3.94987 Y3.01844
G01 X-3.95227 Y3.01930
G01 X-3.95457 Y3.02039
G01 X-3.96106 Y3.02386
G01 X-3.96530 Y3.02669
G01 X-3.97098 Y3.03135
G01 X-3.97287 Y3.03307
G01 X-3.97458 Y3.03496
G01 X-3.97925 Y3.04064
G01 X-3.98077 Y3.04269
G01 X-3.98208 Y3.04488
G01 X-3.98554 Y3.05136
G01 X-3.98749 Y3.05607
G01 X-3.98963 Y3.06311
G01 X-3.99025 Y3.06558
G01 X-3.99062 Y3.06810
G01 X-3.99134 Y3.07542
G01 X-3.99147 Y3.07797
G01 X-3.99147 Y3.26524
G01 X-3.99100 Y3.26537
G01 X-3.99147 Y3.26524
G01 X-4.13028 Y3.49658
G01 X-4.13139 Y3.49864
G01 X-4.13413 Y3.50431
G01 X-4.13578 Y3.50869
G01 X-4.13746 Y3.51476
G01 X-4.13830 Y3.51936
G01 X-4.13886 Y3.52563
G01 X-4.13897 Y3.52797
G01 X-4.13897 Y4.07165
G01 X-4.13890 Y4.07166
G01 X-4.13897 Y4.07165
G01 X-4.20585 Y4.39100
G01 X-4.20570 Y4.39106
G01 X-4.20585 Y4.39100
G01 X-4.20615 Y4.39146
G01 X-4.21033 Y4.39870
G01 X-4.21126 Y4.40053
G01 X-4.21126 Y4.40053
G01 X-4.21149 Y4.40131
G01 X-4.21149 Y4.40131
G01 X-4.21149 Y4.40131
G01 X-4.21149 Y4.40131
G01 X-4.16515 Y4.08724
G01 X-4.16494 Y4.08534
G01 X-4.16454 Y4.07987
G01 X-4.16447 Y4.07797
G01 X-4.16447 Y3.97797
G01 X-4.16459 Y3.97542
G01 X-4.16531 Y3.96810
G01 X-4.16569 Y3.96558
G01 X-4.16631 Y3.96311
G01 X-4.16844 Y3.95607
G01 X-4.17039 Y3.95136
G01 X-4.17386 Y3.94488
G01 X-4.17517 Y3.94269
G01 X-4.17669 Y3.94064
G01 X-4.18135 Y3.93496
G01 X-4.18307 Y3.93307
G01 X-4.18496 Y3.93135
G01 X-4.19064 Y3.92669
G01 X-4.19111 Y3.92637
G01 X-4.19266 Y3.92640
G01 X-4.19106 Y3.92637
G01 X-4.18673 Y3.92282
G01 X-4.18312 Y3.91921
G01 X-4.17877 Y3.91391
G01 X-4.17725 Y3.91186
G01 X-4.17594 Y3.90967
G01 X-4.17270 Y3.90362
G01 X-4.17075 Y3.89891
G01 X-4.16876 Y3.89234
G01 X-4.16777 Y3.88735
G01 X-4.16709 Y3.88052
G01 X-4.16697 Y3.87797
G01 X-4.16697 Y3.59339
G01 X-4.16699 Y3.59339
G01 X-4.16697 Y3.59339
G01 X-4.16634 Y3.59107
G01 X-4.16592 Y3.58838
G01 X-4.16511 Y3.58069
G01 X-4.16497 Y3.57797
G01 X-4.16511 Y3.57525
G01 X-4.16592 Y3.56756
G01 X-4.16634 Y3.56487
G01 X-4.16705 Y3.56224
G01 X-4.16944 Y3.55489
G01 X-4.17041 Y3.55234
G01 X-4.17165 Y3.54992
G01 X-4.17552 Y3.54322
G01 X-4.17700 Y3.54094
G01 X-4.17871 Y3.53882
G01 X-4.18389 Y3.53308
G01 X-4.18581 Y3.53115
G01 X-4.18793 Y3.52944
G01 X-4.19419 Y3.52489
G01 X-4.19647 Y3.52341
G01 X-4.19889 Y3.52217
G01 X-4.20596 Y3.51903
G01 X-4.20850 Y3.51805
G01 X-4.21113 Y3.51735
G01 X-4.21869 Y3.51574
G01 X-4.22138 Y3.51531
G01 X-4.22410 Y3.51517
G01 X-4.23184 Y3.51517
G01 X-4.23455 Y3.51531
G01 X-4.23724 Y3.51574
G01 X-4.24481 Y3.51735
G01 X-4.24744 Y3.51805
G01 X-4.24998 Y3.51903
G01 X-4.25704 Y3.52217
G01 X-4.25947 Y3.52341
G01 X-4.26175 Y3.52489
G01 X-4.26801 Y3.52944
G01 X-4.27012 Y3.53115
G01 X-4.27205 Y3.53308
G01 X-4.27722 Y3.53882
G01 X-4.27894 Y3.54094
G01 X-4.28042 Y3.54322
G01 X-4.28429 Y3.54992
G01 X-4.28552 Y3.55234
G01 X-4.28650 Y3.55489
G01 X-4.28889 Y3.56224
G01 X-4.28959 Y3.56487
G01 X-4.29002 Y3.56756
G01 X-4.29083 Y3.57525
G01 X-4.29097 Y3.57797
G01 X-4.29083 Y3.58069
G01 X-4.29002 Y3.58838
G01 X-4.28959 Y3.59107
G01 X-4.28897 Y3.59339
G01 X-4.28894 Y3.59339
G01 X-4.28897 Y3.59339
G01 X-4.28897 Y3.87797
G01 X-4.28884 Y3.88052
G01 X-4.28817 Y3.88735
G01 X-4.28718 Y3.89234
G01 X-4.28518 Y3.89891
G01 X-4.28323 Y3.90362
G01 X-4.28000 Y3.90967
G01 X-4.27869 Y3.91186
G01 X-4.27717 Y3.91391
G01 X-4.27282 Y3.91921
G01 X-4.26921 Y3.92282
G01 X-4.26488 Y3.92637
G01 X-4.26327 Y3.92640
G01 X-4.26488 Y3.92637
G01 X-4.26557 Y3.92636
G01 X-4.27212 Y3.92636
G01 X-4.27512 Y3.92630
G01 X-4.28119 Y3.92608
G01 X-4.28402 Y3.92604
G01 X-4.28463 Y3.92671
G01 X-4.28930 Y3.93239
G01 X-4.29158 Y3.93547
G01 X-4.29354 Y3.93875
G01 X-4.29701 Y3.94523
G01 X-4.29993 Y3.95230
G01 X-4.30207 Y3.95933
G01 X-4.30300 Y3.96304
G01 X-4.30356 Y3.96683
G01 X-4.30397 Y3.97096
G01 X-4.30397 Y3.97097
G01 X-4.30397 Y3.97098
G01 X-4.30397 Y3.97096
G01 X-4.30376 Y3.96681
G01 X-4.30377 Y3.96681
G01 X-4.30376 Y3.96681
G01 X-4.30300 Y3.95905
G01 X-4.30191 Y3.95170
G01 X-4.30027 Y3.94349
G01 X-4.30028 Y3.94349
G01 X-4.30027 Y3.94349
G01 X-4.29843 Y3.93614
G01 X-4.29569 Y3.92714
G01 X-4.29527 Y3.92597
G01 X-4.29191 Y3.92601
G01 X-4.28549 Y3.92601
G01 X-4.28403 Y3.92603
G01 X-4.28119 Y3.92608
G01 X-4.27512 Y3.92630
G01 X-4.27212 Y3.92636
G01 X-4.26557 Y3.92636
G01 X-4.26488 Y3.92637
G01 X-4.26327 Y3.92640
G01 X-4.25963 Y3.92653
G01 X-4.25783 Y3.92656
G01 X-4.25128 Y3.92656
G01 X-4.25006 Y3.92658
G01 X-4.24737 Y3.92665
G01 X-4.24633 Y3.92667
G01 X-4.23969 Y3.92667
G01 X-4.23916 Y3.92667
G01 X-4.23671 Y3.92672
G01 X-4.23622 Y3.92672
G01 X-4.22932 Y3.92672
G01 X-4.22661 Y3.92672
G01 X-4.21972 Y3.92672
G01 X-4.21923 Y3.92672
G01 X-4.21678 Y3.92667
G01 X-4.21625 Y3.92667
G01 X-4.20961 Y3.92667
G01 X-4.20856 Y3.92665
G01 X-4.20588 Y3.92658
G01 X-4.20466 Y3.92656
G01 X-4.19811 Y3.92656
G01 X-4.19630 Y3.92653
G01 X-4.19266 Y3.92640
G01 X-4.19106 Y3.92637
G01 X-4.19037 Y3.92636
G01 X-4.18382 Y3.92636
G01 X-4.18081 Y3.92630
G01 X-4.17475 Y3.92608
G01 X-4.17192 Y3.92604
G01 X-4.17130 Y3.92671
G01 X-4.16664 Y3.93239
G01 X-4.16436 Y3.93547
G01 X-4.16239 Y3.93875
G01 X-4.15893 Y3.94523
G01 X-4.15600 Y3.95230
G01 X-4.15387 Y3.95933
G01 X-4.15294 Y3.96304
G01 X-4.15238 Y3.96683
G01 X-4.15197 Y3.97096
G01 X-4.15197 Y3.97097
G01 X-4.15181 Y3.97416
G01 X-4.15197 Y3.97097
G01 X-4.15197 Y3.97097
G01 X-4.15197 Y3.52797
G01 X-4.15181 Y3.52446
G01 X-4.15124 Y3.51819
G01 X-4.14999 Y3.51129
G01 X-4.14831 Y3.50522
G01 X-4.14583 Y3.49865
G01 X-4.14309 Y3.49299
G01 X-4.14142 Y3.48990
G01 X-4.00447 Y3.26164
G01 X-4.00400 Y3.26177
G01 X-4.00447 Y3.26164
G01 X-4.00447 Y3.07797
G01 X-4.00428 Y3.07415
G01 X-4.00356 Y3.06683
G01 X-4.00300 Y3.06304
G01 X-4.00207 Y3.05933
G01 X-3.99993 Y3.05230
G01 X-3.99701 Y3.04523
G01 X-3.99354 Y3.03875
G01 X-3.99158 Y3.03547
G01 X-3.98930 Y3.03239
G01 X-3.98463 Y3.02671
G01 X-3.98206 Y3.02388
G01 X-3.97923 Y3.02131
G01 X-3.97354 Y3.01664
G01 X-3.96719 Y3.01239
G01 X-3.96070 Y3.00893
G01 X-3.95724 Y3.00729
G01 X-3.95364 Y3.00600
G01 X-3.94660 Y3.00387
G01 X-3.93911 Y3.00238
G01 X-3.93179 Y3.00166
G01 X-3.92797 Y3.00147
G01 X-3.92415 Y3.00166
G01 X-3.91683 Y3.00238
G01 X-3.90933 Y3.00387
G01 X-3.90230 Y3.00600
G01 X-3.89869 Y3.00729
G01 X-3.89523 Y3.00893
G01 X-3.88875 Y3.01239
G01 X-3.88239 Y3.01664
G01 X-3.87671 Y3.02131
G01 X-3.87387 Y3.02388
G01 X-3.87130 Y3.02671
G01 X-3.86664 Y3.03239
G01 X-3.86436 Y3.03547
G01 X-3.86239 Y3.03875
G01 X-3.85893 Y3.04523
G01 X-3.85600 Y3.05230
G01 X-3.85387 Y3.05933
G01 X-3.85294 Y3.06304
G01 X-3.85238 Y3.06683
G01 X-3.85166 Y3.07415
G01 X-3.85147 Y3.07797
G01 X-3.85147 Y3.27797
G01 X-3.85166 Y3.28179
G01 X-3.85238 Y3.28911
G01 X-3.85294 Y3.29289
G01 X-3.85387 Y3.29661
G01 X-3.85600 Y3.30364
G01 X-3.85893 Y3.31070
G01 X-3.86239 Y3.31719
G01 X-3.86436 Y3.32047
G01 X-3.86664 Y3.32354
G01 X-3.87130 Y3.32923
G01 X-3.87387 Y3.33206
G01 X-3.87443 Y3.33256
G01 X-3.87446 Y3.33253
G01 X-3.87443 Y3.33256
G01 X-4.00397 Y3.54847
G01 X-4.00444 Y3.54834
G01 X-4.00397 Y3.54847
G01 X-4.00397 Y3.97097
G01 X-4.00397 Y3.97097
G01 X-4.00397 Y3.97097
G01 X-4.00376 Y3.96681
G01 X-4.00377 Y3.96681
G01 X-4.00376 Y3.96681
G01 X-4.00300 Y3.95905
G01 X-4.00191 Y3.95170
G01 X-4.00027 Y3.94349
G01 X-4.00028 Y3.94349
G01 X-4.00027 Y3.94349
G01 X-3.99843 Y3.93614
G01 X-3.99569 Y3.92714
G01 X-3.99527 Y3.92597
G01 X-3.99191 Y3.92601
G01 X-3.98549 Y3.92601
G01 X-3.98403 Y3.92603
G01 X-3.98119 Y3.92608
G01 X-3.97512 Y3.92630
G01 X-3.97212 Y3.92636
G01 X-3.96557 Y3.92636
G01 X-3.96488 Y3.92637
G01 X-3.96327 Y3.92640
G01 X-3.95963 Y3.92653
G01 X-3.95783 Y3.92656
G01 X-3.95128 Y3.92656
G01 X-3.95006 Y3.92658
G01 X-3.94737 Y3.92665
G01 X-3.94633 Y3.92667
G01 X-3.93969 Y3.92667
G01 X-3.93916 Y3.92667
G01 X-3.93671 Y3.92672
G01 X-3.93622 Y3.92672
G01 X-3.92932 Y3.92672
G01 X-3.92661 Y3.92672
G01 X-3.91972 Y3.92672
G01 X-3.91923 Y3.92672
G01 X-3.91678 Y3.92667
G01 X-3.91625 Y3.92667
G01 X-3.90961 Y3.92667
G01 X-3.90856 Y3.92665
G01 X-3.90588 Y3.92658
G01 X-3.90466 Y3.92656
G01 X-3.89811 Y3.92656
G01 X-3.89630 Y3.92653
G01 X-3.89266 Y3.92640
G01 X-3.89106 Y3.92637
G01 X-3.89037 Y3.92636
G01 X-3.88382 Y3.92636
G01 X-3.88081 Y3.92630
G01 X-3.87475 Y3.92608
G01 X-3.87192 Y3.92604
G01 X-3.87130 Y3.92671
G01 X-3.86664 Y3.93239
G01 X-3.86436 Y3.93547
G01 X-3.86239 Y3.93875
G01 X-3.85893 Y3.94523
G01 X-3.85600 Y3.95230
G01 X-3.85387 Y3.95933
G01 X-3.85294 Y3.96304
G01 X-3.85238 Y3.96683
G01 X-3.85197 Y3.97095
G01 X-3.85197 Y3.97097
G01 X-3.85197 Y3.52797
G01 X-3.85181 Y3.52446
G01 X-3.85124 Y3.51819
G01 X-3.84999 Y3.51129
G01 X-3.84831 Y3.50522
G01 X-3.84583 Y3.49865
G01 X-3.84309 Y3.49299
G01 X-3.84142 Y3.48990
G01 X-3.70447 Y3.26164
G01 X-3.70400 Y3.26177
G01 X-3.70447 Y3.26164
G01 X-3.70447 Y3.07797
G01 X-3.70428 Y3.07415
G01 X-3.70356 Y3.06683
G01 X-3.70300 Y3.06304
G01 X-3.70207 Y3.05933
G01 X-3.69993 Y3.05230
G01 X-3.69701 Y3.04523
G01 X-3.69354 Y3.03875
G01 X-3.69158 Y3.03547
G01 X-3.68930 Y3.03239
G01 X-3.68463 Y3.02671
G01 X-3.68206 Y3.02388
G01 X-3.67923 Y3.02131
G01 X-3.67354 Y3.01664
G01 X-3.66719 Y3.01239
G01 X-3.66070 Y3.00893
G01 X-3.65724 Y3.00729
G01 X-3.65364 Y3.00600
G01 X-3.64660 Y3.00387
G01 X-3.63911 Y3.00238
G01 X-3.63179 Y3.00166
G01 X-3.62797 Y3.00147
G01 X-3.62415 Y3.00166
G01 X-3.61683 Y3.00238
G01 X-3.60933 Y3.00387
G01 X-3.60230 Y3.00600
G01 X-3.59869 Y3.00729
G01 X-3.59523 Y3.00893
G01 X-3.58875 Y3.01239
G01 X-3.58239 Y3.01664
G01 X-3.57671 Y3.02131
G01 X-3.57387 Y3.02388
G01 X-3.57130 Y3.02671
G01 X-3.56664 Y3.03239
G01 X-3.56436 Y3.03547
G01 X-3.56239 Y3.03875
G01 X-3.55893 Y3.04523
G01 X-3.55600 Y3.05230
G01 X-3.55387 Y3.05933
G01 X-3.55294 Y3.06304
G01 X-3.55238 Y3.06683
G01 X-3.55166 Y3.07415
G01 X-3.55147 Y3.07797
G01 X-3.55147 Y3.27797
G01 X-3.55166 Y3.28179
G01 X-3.55238 Y3.28911
G01 X-3.55294 Y3.29289
G01 X-3.55387 Y3.29661
G01 X-3.55600 Y3.30364
G01 X-3.55893 Y3.31070
G01 X-3.56239 Y3.31719
G01 X-3.56436 Y3.32047
G01 X-3.56664 Y3.32354
G01 X-3.57130 Y3.32923
G01 X-3.57410 Y3.33203
G01 X-3.57415 Y3.33200
G01 X-3.57410 Y3.33203
G01 X-3.70397 Y3.54847
G01 X-3.70444 Y3.54834
G01 X-3.70397 Y3.54847
G01 X-3.70397 Y3.97099
G01 X-3.70412 Y3.97416
G01 X-3.70422 Y3.97797
G01 X-3.70422 Y4.07797
G01 X-3.70412 Y4.08177
G01 X-3.70397 Y4.08498
G01 X-3.70376 Y4.08912
G01 X-3.70300 Y4.09689
G01 X-3.70296 Y4.09709
G01 X-3.70297 Y4.37839
G01 X-3.70284 Y4.37841
G01 X-3.70297 Y4.37839
G01 X-3.70384 Y4.38111
G01 X-3.70397 Y4.38152
G01 X-3.70527 Y4.38561
G01 X-3.70397 Y4.38152
G01 X-3.70397 Y4.08495
G01 X-3.70412 Y4.08177
G01 X-3.70397 Y4.08498
G01 X-3.70356 Y4.08911
G01 X-3.70300 Y4.09289
G01 X-3.70207 Y4.09661
G01 X-3.70197 Y4.09694
G01 X-3.70190 Y4.09693
G01 X-3.70197 Y4.09694
G01 X-3.70197 Y4.37880
G01 X-3.70122 Y4.37907
G01 X-3.70197 Y4.37880
G01 X-3.70384 Y4.38111
G01 X-3.70527 Y4.38561
G01 X-3.70751 Y4.39397
G01 X-3.70906 Y4.40122
G01 X-3.70912 Y4.40159
G01 X-3.70922 Y4.40158
G01 X-3.70912 Y4.40159
G01 X-3.70919 Y4.40159
G01 X-3.70912 Y4.40159
G01 X-3.70912 Y4.41000
G01 X-3.70912 Y4.41653
G01 X-3.70912 Y4.42493
G01 X-3.70912 Y4.43101
G01 X-3.70912 Y4.43941
G01 X-3.70912 Y4.44594
G01 X-3.70912 Y4.45435
G01 X-3.70907 Y4.45435
G01 X-3.70912 Y4.45435
G01 X-3.70918 Y4.45472
G01 X-3.70938 Y4.45591
G01 X-3.70907 Y4.45604
G01 X-3.70938 Y4.45591
G01 X-3.70878 Y4.45610
G01 X-3.70938 Y4.45591
G01 X-3.71278 Y4.46078
G01 X-3.71289 Y4.46092
G01 X-3.71266 Y4.46117
G01 X-3.71289 Y4.46092
G01 X-3.72108 Y4.46564
G01 X-3.72550 Y4.46790
G01 X-3.72563 Y4.46797
G01 X-3.72669 Y4.46851
G01 X-3.72668 Y4.46853
G01 X-3.72669 Y4.46851
G01 X-3.73505 Y4.47224
G01 X-3.73942 Y4.47392
G01 X-3.73941 Y4.47394
G01 X-3.73942 Y4.47392
G01 X-3.74778 Y4.47664
G01 X-3.74778 Y4.47665
G01 X-3.74778 Y4.47664
G01 X-3.75130 Y4.47758
G01 X-3.75130 Y4.47760
G01 X-3.75130 Y4.47758
G01 X-3.75966 Y4.47936
G01 X-3.75966 Y4.47938
G01 X-3.75966 Y4.47936
G01 X-3.76267 Y4.47984
G01 X-3.76267 Y4.47985
G01 X-3.76267 Y4.47984
G01 X-3.77103 Y4.48072
G01 X-3.77103 Y4.48073
G01 X-3.77103 Y4.48072
G01 X-3.77379 Y4.48086
G01 X-3.77379 Y4.48087
G01 X-3.77379 Y4.48086
G01 X-3.78215 Y4.48086
G01 X-3.78215 Y4.48087
G01 X-3.78215 Y4.48086
G01 X-3.78490 Y4.48072
G01 X-3.79327 Y4.47984
G01 X-3.79327 Y4.47985
G01 X-3.79327 Y4.47984
G01 X-3.79627 Y4.47936
G01 X-3.79627 Y4.47938
G01 X-3.79627 Y4.47936
G01 X-3.80463 Y4.47758
G01 X-3.80464 Y4.47759
G01 X-3.80463 Y4.47758
G01 X-3.80816 Y4.47663
G01 X-3.80816 Y4.47665
G01 X-3.80816 Y4.47663
G01 X-3.81652 Y4.47392
G01 X-3.81653 Y4.47393
G01 X-3.81652 Y4.47392
G01 X-3.82088 Y4.47224
G01 X-3.82089 Y4.47225
G01 X-3.82088 Y4.47224
G01 X-3.82925 Y4.46851
G01 X-3.83044 Y4.46790
G01 X-3.83486 Y4.46564
G01 X-3.83486 Y4.46565
G01 X-3.83487 Y4.46567
G01 X-3.83486 Y4.46565
G01 X-3.83486 Y4.46564
G01 X-3.84322 Y4.46082
G01 X-3.84323 Y4.46083
G01 X-3.84322 Y4.46082
G01 X-3.85064 Y4.45598
G01 X-3.85065 Y4.45599
G01 X-3.85064 Y4.45598
G01 X-3.85203 Y4.45497
G01 X-3.85419 Y4.44834
G01 X-3.85524 Y4.44439
G01 X-3.85588 Y4.44036
G01 X-3.85675 Y4.43205
G01 X-3.85697 Y4.42797
G01 X-3.85675 Y4.42389
G01 X-3.85588 Y4.41558
G01 X-3.85524 Y4.41154
G01 X-3.85419 Y4.40760
G01 X-3.85197 Y4.40078
G01 X-3.85183 Y4.40080
G01 X-3.85197 Y4.40078
G01 X-3.85197 Y4.08498
G01 X-3.85238 Y4.08911
G01 X-3.85294 Y4.09289
G01 X-3.85387 Y4.09661
G01 X-3.85600 Y4.10364
G01 X-3.85893 Y4.11070
G01 X-3.86087 Y4.11434
G01 X-3.86092 Y4.11433
G01 X-3.86087 Y4.11434
G01 X-3.93641 Y4.41074
G01 X-3.93665 Y4.41073
G01 X-3.93641 Y4.41074
G01 X-3.93619 Y4.41154
G01 X-3.93556 Y4.41558
G01 X-3.93468 Y4.42389
G01 X-3.93447 Y4.42797
G01 X-3.93468 Y4.43205
G01 X-3.93556 Y4.44036
G01 X-3.93619 Y4.44439
G01 X-3.93725 Y4.44834
G01 X-3.93941 Y4.45497
G01 X-3.94650 Y4.46023
G01 X-3.93941 Y4.45497
G01 X-3.85203 Y4.45497
G01 X-3.85900 Y4.44990
G01 X-3.85901 Y4.44992
G01 X-3.85900 Y4.44990
G01 X-3.86876 Y4.44197
G01 X-3.86877 Y4.44196
G01 X-3.86881 Y4.44172
G01 X-3.86968 Y4.43340
G01 X-3.86997 Y4.42797
G01 X-3.86968 Y4.42253
G01 X-3.86881 Y4.41422
G01 X-3.86796 Y4.40884
G01 X-3.86655 Y4.40358
G01 X-3.86497 Y4.39872
G01 X-3.86483 Y4.39874
G01 X-3.86497 Y4.39872
G01 X-3.86497 Y4.18306
G01 X-3.86497 Y4.18306
G01 X-3.86497 Y4.18306
G01 X-3.86497 Y4.18305
G01 X-3.85656 Y4.11602
G01 X-3.86497 Y4.18306
G01 X-3.86497 Y4.18306
G01 X-3.92311 Y4.41119
G01 X-3.92330 Y4.41117
G01 X-3.92311 Y4.41119
G01 X-3.92263 Y4.41422
G01 X-3.92175 Y4.42253
G01 X-3.92147 Y4.42797
G01 X-3.92175 Y4.43340
G01 X-3.92263 Y4.44172
G01 X-3.92267 Y4.44197
G01 X-3.92725 Y4.44618
G01 X-3.92267 Y4.44197
G01 X-3.86876 Y4.44197
G01 X-3.86877 Y4.44196
G01 X-3.86903 Y4.44175
G01 X-3.87739 Y4.43422
G01 X-3.88293 Y4.42865
G01 X-3.89128 Y4.42026
G01 X-3.89514 Y4.41597
G01 X-3.89572 Y4.41532
G01 X-3.89572 Y4.41272
G01 X-3.89548 Y4.41141
G01 X-3.89553 Y4.41140
G01 X-3.89548 Y4.41141
G01 X-3.89174 Y4.39540
G01 X-3.89149 Y4.39452
G01 X-3.89147 Y4.39452
G01 X-3.89149 Y4.39452
G01 X-3.89097 Y4.39037
G01 X-3.89665 Y4.41265
G01 X-3.89685 Y4.41264
G01 X-3.89665 Y4.41265
G01 X-3.89634 Y4.41555
G01 X-3.89630 Y4.41597
G01 X-3.89931 Y4.41931
G01 X-3.89630 Y4.41597
G01 X-3.89514 Y4.41597
G01 X-3.89514 Y4.41597
G01 X-3.89572 Y4.41532
G01 X-3.89634 Y4.41555
G01 X-3.89634 Y4.41556
G01 X-3.89634 Y4.41555
G01 X-3.89630 Y4.41597
G01 X-3.89514 Y4.41597
G01 X-3.89128 Y4.42026
G01 X-3.89514 Y4.41597
G01 X-3.89514 Y4.41597
G01 X-3.89467 Y4.41150
G01 X-3.89339 Y4.40344
G01 X-3.89128 Y4.39555
G01 X-3.89097 Y4.39460
G01 X-3.89085 Y4.39462
G01 X-3.89097 Y4.39460
G01 X-3.89097 Y4.39037
G01 X-3.89097 Y4.39036
G01 X-3.87797 Y4.28672
G01 X-3.86497 Y4.18306
G01 X-3.87797 Y4.28672
G01 X-3.87797 Y4.39666
G01 X-3.87784 Y4.39668
G01 X-3.87797 Y4.39666
G01 X-3.87891 Y4.39957
G01 X-3.88067 Y4.40614
G01 X-3.88174 Y4.41286
G01 X-3.88261 Y4.42117
G01 X-3.88297 Y4.42797
G01 X-3.88293 Y4.42865
G01 X-3.88261 Y4.42897
G01 X-3.87739 Y4.43422
G01 X-3.87740 Y4.43423
G01 X-3.87739 Y4.43422
G01 X-3.88261 Y4.42897
G01 X-3.90852 Y4.42897
G01 X-3.91172 Y4.43243
G01 X-3.90852 Y4.42897
G01 X-3.90847 Y4.42797
G01 X-3.90882 Y4.42117
G01 X-3.90970 Y4.41286
G01 X-3.90986 Y4.41185
G01 X-3.91003 Y4.41183
G01 X-3.90986 Y4.41185
G01 X-3.87797 Y4.28670
G01 X-3.86497 Y4.18306
G01 X-3.85656 Y4.11602
G01 X-3.85657 Y4.11601
G01 X-3.85656 Y4.11602
G01 X-3.85567 Y4.11245
G01 X-3.85403 Y4.10424
G01 X-3.85294 Y4.09689
G01 X-3.85291 Y4.09689
G01 X-3.85294 Y4.09689
G01 X-3.85217 Y4.08912
G01 X-3.85197 Y4.08498
G01 X-3.85197 Y4.08497
G01 X-3.85181 Y4.08177
G01 X-3.85171 Y4.07797
G01 X-3.85172 Y3.97797
G01 X-3.85181 Y3.97416
G01 X-3.85197 Y3.97097
G01 X-3.85197 Y3.97095
G01 X-3.85217 Y3.96681
G01 X-3.85216 Y3.96681
G01 X-3.85217 Y3.96681
G01 X-3.85294 Y3.95905
G01 X-3.85402 Y3.95170
G01 X-3.85567 Y3.94349
G01 X-3.85565 Y3.94349
G01 X-3.85567 Y3.94349
G01 X-3.85751 Y3.93614
G01 X-3.86024 Y3.92714
G01 X-3.86066 Y3.92597
G01 X-3.86402 Y3.92601
G01 X-3.87045 Y3.92601
G01 X-3.87190 Y3.92603
G01 X-3.87475 Y3.92608
G01 X-3.88081 Y3.92630
G01 X-3.88382 Y3.92636
G01 X-3.89037 Y3.92636
G01 X-3.89106 Y3.92637
G01 X-3.89266 Y3.92640
G01 X-3.89630 Y3.92653
G01 X-3.89811 Y3.92656
G01 X-3.90466 Y3.92656
G01 X-3.90588 Y3.92658
G01 X-3.90856 Y3.92665
G01 X-3.90961 Y3.92667
G01 X-3.91625 Y3.92667
G01 X-3.91678 Y3.92667
G01 X-3.91923 Y3.92672
G01 X-3.91972 Y3.92672
G01 X-3.92661 Y3.92672
G01 X-3.92932 Y3.92672
G01 X-3.93622 Y3.92672
G01 X-3.93671 Y3.92672
G01 X-3.93916 Y3.92667
G01 X-3.93969 Y3.92667
G01 X-3.94633 Y3.92667
G01 X-3.94737 Y3.92665
G01 X-3.95006 Y3.92658
G01 X-3.95128 Y3.92656
G01 X-3.95783 Y3.92656
G01 X-3.95963 Y3.92653
G01 X-3.96327 Y3.92640
G01 X-3.96488 Y3.92637
G01 X-3.96557 Y3.92636
G01 X-3.97212 Y3.92636
G01 X-3.97512 Y3.92630
G01 X-3.98119 Y3.92608
G01 X-3.98402 Y3.92604
G01 X-3.98463 Y3.92671
G01 X-3.98930 Y3.93239
G01 X-3.99158 Y3.93547
G01 X-3.99354 Y3.93875
G01 X-3.99701 Y3.94523
G01 X-3.99993 Y3.95230
G01 X-4.00207 Y3.95933
G01 X-4.00300 Y3.96304
G01 X-4.00356 Y3.96683
G01 X-4.00397 Y3.97097
G01 X-4.00412 Y3.97416
G01 X-4.00422 Y3.97797
G01 X-4.00422 Y4.07797
G01 X-4.00422 Y4.07851
G01 X-4.00418 Y4.07852
G01 X-4.00422 Y4.07851
G01 X-4.00442 Y4.07996
G01 X-4.00497 Y4.08355
G01 X-4.00496 Y4.08355
G01 X-4.00497 Y4.08355
G01 X-4.00566 Y4.08743
G01 X-4.00639 Y4.09097
G01 X-4.00680 Y4.09287
G01 X-4.07741 Y4.39718
G01 X-4.07743 Y4.39729
G01 X-4.07899 Y4.40228
G01 X-4.08115 Y4.41038
G01 X-4.08237 Y4.41604
G01 X-4.08247 Y4.41603
G01 X-4.08237 Y4.41604
G01 X-4.08237 Y4.41652
G01 X-4.08237 Y4.42493
G01 X-4.08237 Y4.43101
G01 X-4.08237 Y4.43942
G01 X-4.08237 Y4.44596
G01 X-4.08237 Y4.45435
G01 X-4.08243 Y4.45473
G01 X-4.08262 Y4.45589
G01 X-4.08203 Y4.45608
G01 X-4.08262 Y4.45589
G01 X-4.08605 Y4.46079
G01 X-4.08611 Y4.46087
G01 X-4.08588 Y4.46113
G01 X-4.08611 Y4.46087
G01 X-4.09437 Y4.46565
G01 X-4.09880 Y4.46791
G01 X-4.09893 Y4.46797
G01 X-4.09999 Y4.46851
G01 X-4.09998 Y4.46853
G01 X-4.09999 Y4.46851
G01 X-4.10835 Y4.47224
G01 X-4.11271 Y4.47392
G01 X-4.11271 Y4.47394
G01 X-4.11271 Y4.47392
G01 X-4.12108 Y4.47664
G01 X-4.12107 Y4.47665
G01 X-4.12108 Y4.47664
G01 X-4.12460 Y4.47758
G01 X-4.12460 Y4.47760
G01 X-4.12460 Y4.47758
G01 X-4.13296 Y4.47936
G01 X-4.13296 Y4.47938
G01 X-4.13296 Y4.47936
G01 X-4.13597 Y4.47984
G01 X-4.13597 Y4.47985
G01 X-4.13597 Y4.47984
G01 X-4.14433 Y4.48072
G01 X-4.14433 Y4.48073
G01 X-4.14433 Y4.48072
G01 X-4.14709 Y4.48086
G01 X-4.14709 Y4.48087
G01 X-4.14709 Y4.48086
G01 X-4.15545 Y4.48086
G01 X-4.15545 Y4.48087
G01 X-4.15545 Y4.48086
G01 X-4.15820 Y4.48072
G01 X-4.16657 Y4.47984
G01 X-4.16657 Y4.47985
G01 X-4.16657 Y4.47984
G01 X-4.16957 Y4.47936
G01 X-4.17793 Y4.47758
G01 X-4.17794 Y4.47760
G01 X-4.17793 Y4.47758
G01 X-4.18146 Y4.47664
G01 X-4.18982 Y4.47392
G01 X-4.18983 Y4.47394
G01 X-4.18982 Y4.47392
G01 X-4.19418 Y4.47224
G01 X-4.19420 Y4.47227
G01 X-4.19418 Y4.47224
G01 X-4.20255 Y4.46851
G01 X-4.20361 Y4.46797
G01 X-4.20361 Y4.46797
G01 X-4.20361 Y4.46797
G01 X-4.21309 Y4.46797
G01 X-4.21350 Y4.46896
G01 X-4.21309 Y4.46797
G01 X-4.22684 Y4.45422
G01 X-4.23056 Y4.45461
G01 X-4.22684 Y4.45422
G01 X-4.22489 Y4.45159
G01 X-4.22348 Y4.44947
G01 X-4.22228 Y4.44722
G01 X-4.21914 Y4.44057
G01 X-4.21742 Y4.43577
G01 X-4.21684 Y4.43342
G01 X-4.21664 Y4.43064
G01 X-4.21684 Y4.43342
G01 X-4.21684 Y4.43342
G01 X-4.21701 Y4.43588
G01 X-4.21733 Y4.43912
G01 X-4.21762 Y4.44129
G01 X-4.21800 Y4.44526
G01 X-4.21825 Y4.44912
G01 X-4.21868 Y4.45356
G01 X-4.21954 Y4.45379
G01 X-4.21868 Y4.45356
G01 X-4.21832 Y4.45415
G01 X-4.21453 Y4.45967
G01 X-4.21136 Y4.46380
G01 X-4.21162 Y4.46411
G01 X-4.21136 Y4.46380
G01 X-4.20816 Y4.46565
G01 X-4.20374 Y4.46790
G01 X-4.20361 Y4.46797
G01 X-4.20361 Y4.46797
G01 X-4.20361 Y4.46797
G01 X-4.20374 Y4.46790
G01 X-4.20466 Y4.46676
G01 X-4.20615 Y4.46448
G01 X-4.21033 Y4.45724
G01 X-4.21156 Y4.45481
G01 X-4.21254 Y4.45227
G01 X-4.21512 Y4.44432
G01 X-4.21583 Y4.44169
G01 X-4.21625 Y4.43900
G01 X-4.21684 Y4.43342
G01 X-4.21664 Y4.43064
G01 X-4.21644 Y4.42844
G01 X-4.21616 Y4.42599
G01 X-4.21609 Y4.42536
G01 X-4.21504 Y4.41706
G01 X-4.21506 Y4.41706
G01 X-4.21504 Y4.41706
G01 X-4.21412 Y4.41194
G01 X-4.21220 Y4.40377
G01 X-4.21222 Y4.40377
G01 X-4.21220 Y4.40377
G01 X-4.21149 Y4.40131
G01 X-4.21149 Y4.40131
G01 X-4.21126 Y4.40053
G01 X-4.21067 Y4.39850
G01 X-4.20787 Y4.39046
G01 X-4.20777 Y4.39018
G01 X-4.20774 Y4.39018
G01 X-4.20777 Y4.39018
G01 X-4.15404 Y4.08888
G01 X-4.15361 Y4.08617
G01 X-4.15285 Y4.08073
G01 X-4.15251 Y4.07797
G01 X-4.15172 Y4.07033
G01 X-4.15169 Y4.07033
G01 X-4.15172 Y4.07033
G01 X-4.15172 Y3.97797
G01 X-4.15181 Y3.97416
G01 X-4.15197 Y3.97097
G01 X-4.15217 Y3.96681
G01 X-4.15216 Y3.96681
G01 X-4.15217 Y3.96681
G01 X-4.15294 Y3.95905
G01 X-4.15402 Y3.95170
G01 X-4.15567 Y3.94349
G01 X-4.15566 Y3.94349
G01 X-4.15567 Y3.94349
G01 X-4.15751 Y3.93614
G01 X-4.16024 Y3.92714
G01 X-4.16066 Y3.92597
G01 X-4.16402 Y3.92601
G01 X-4.17045 Y3.92601
G01 X-4.17190 Y3.92603
G01 X-4.17475 Y3.92608
G01 X-4.18081 Y3.92630
G01 X-4.18382 Y3.92636
G01 X-4.19037 Y3.92636
G01 X-4.19106 Y3.92637
G01 X-4.19266 Y3.92640
G01 X-4.19630 Y3.92653
G01 X-4.19811 Y3.92656
G01 X-4.20466 Y3.92656
G01 X-4.20588 Y3.92658
G01 X-4.20856 Y3.92665
G01 X-4.20961 Y3.92667
G01 X-4.21625 Y3.92667
G01 X-4.21678 Y3.92667
G01 X-4.21923 Y3.92672
G01 X-4.21972 Y3.92672
G01 X-4.22661 Y3.92672
G01 X-4.22932 Y3.92672
G01 X-4.23622 Y3.92672
G01 X-4.23671 Y3.92672
G01 X-4.23916 Y3.92667
G01 X-4.23969 Y3.92667
G01 X-4.24633 Y3.92667
G01 X-4.24737 Y3.92665
G01 X-4.25006 Y3.92658
G01 X-4.25128 Y3.92656
G01 X-4.25783 Y3.92656
G01 X-4.25963 Y3.92653
G01 X-4.26327 Y3.92640
G01 X-4.26482 Y3.92637
G01 X-4.26530 Y3.92669
G01 X-4.27098 Y3.93135
G01 X-4.27287 Y3.93307
G01 X-4.27458 Y3.93496
G01 X-4.27925 Y3.94064
G01 X-4.28077 Y3.94269
G01 X-4.28208 Y3.94488
G01 X-4.28554 Y3.95136
G01 X-4.28749 Y3.95607
G01 X-4.28963 Y3.96311
G01 X-4.29025 Y3.96558
G01 X-4.29062 Y3.96810
G01 X-4.29134 Y3.97542
G01 X-4.29147 Y3.97797
G01 X-4.29147 Y4.07331
G01 X-4.29143 Y4.07331
G01 X-4.29147 Y4.07331
G01 X-4.33717 Y4.38308
G01 X-4.33668 Y4.38331
G01 X-4.33717 Y4.38308
G01 X-4.34075 Y4.38706
G01 X-4.34246 Y4.38918
G01 X-4.34395 Y4.39146
G01 X-4.34813 Y4.39870
G01 X-4.34936 Y4.40112
G01 X-4.35034 Y4.40367
G01 X-4.35292 Y4.41162
G01 X-4.35363 Y4.41425
G01 X-4.35405 Y4.41693
G01 X-4.35493 Y4.42525
G01 X-4.35507 Y4.42797
G01 X-4.35493 Y4.43069
G01 X-4.35405 Y4.43900
G01 X-4.35363 Y4.44169
G01 X-4.35292 Y4.44432
G01 X-4.35034 Y4.45227
G01 X-4.35007 Y4.45297
G01 X-4.34992 Y4.45295
G01 X-4.35007 Y4.45297
G01 X-4.35007 Y4.45927
G01 X-4.34908 Y4.45968
G01 X-4.35007 Y4.45927
G01 X-4.35877 Y4.46797
G01 X-4.35836 Y4.46896
G01 X-4.35877 Y4.46797
G01 X-4.37453 Y4.46797
G01 X-4.37440 Y4.46790
G01 X-4.37347 Y4.46676
G01 X-4.37199 Y4.46448
G01 X-4.36781 Y4.45724
G01 X-4.36657 Y4.45481
G01 X-4.36560 Y4.45227
G01 X-4.36301 Y4.44432
G01 X-4.36231 Y4.44169
G01 X-4.36188 Y4.43900
G01 X-4.36101 Y4.43069
G01 X-4.36087 Y4.42797
G01 X-4.36101 Y4.42525
G01 X-4.36188 Y4.41693
G01 X-4.36231 Y4.41425
G01 X-4.36300 Y4.41168
G01 X-4.36320 Y4.41168
G01 X-4.36300 Y4.41168
G01 X-4.31755 Y4.08641
G01 X-4.31737 Y4.08462
G01 X-4.31703 Y4.07977
G01 X-4.31697 Y4.07797
G01 X-4.31697 Y3.54486
G01 X-4.31744 Y3.54473
G01 X-4.31697 Y3.54486
G01 X-4.18456 Y3.32419
G01 X-4.18461 Y3.32416
G01 X-4.18456 Y3.32419
G01 X-4.18135 Y3.32098
G01 X-4.17669 Y3.31530
G01 X-4.17517 Y3.31325
G01 X-4.17386 Y3.31106
G01 X-4.17039 Y3.30458
G01 X-4.16844 Y3.29987
G01 X-4.16631 Y3.29283
G01 X-4.16569 Y3.29036
G01 X-4.16531 Y3.28783
G01 X-4.16459 Y3.28052
G01 X-4.16447 Y3.27797
G01 X-4.16447 Y3.07797
G01 X-4.16459 Y3.07542
G01 X-4.16531 Y3.06810
G01 X-4.16569 Y3.06558
G01 X-4.16631 Y3.06311
G01 X-4.16844 Y3.05607
G01 X-4.17039 Y3.05136
G01 X-4.17386 Y3.04488
G01 X-4.17517 Y3.04269
G01 X-4.17669 Y3.04064
G01 X-4.18135 Y3.03496
G01 X-4.18307 Y3.03307
G01 X-4.18496 Y3.03135
G01 X-4.19064 Y3.02669
G01 X-4.19488 Y3.02386
G01 X-4.20136 Y3.02039
G01 X-4.20367 Y3.01930
G01 X-4.20607 Y3.01844
G01 X-4.21310 Y3.01631
G01 X-4.21810 Y3.01531
G01 X-4.22542 Y3.01459
G01 X-4.22797 Y3.01447
G01 X-4.23052 Y3.01459
G01 X-4.23783 Y3.01531
G01 X-4.24283 Y3.01631
G01 X-4.24987 Y3.01844
G01 X-4.25227 Y3.01930
G01 X-4.25457 Y3.02039
G01 X-4.26106 Y3.02386
G01 X-4.26530 Y3.02669
G01 X-4.27098 Y3.03135
G01 X-4.27287 Y3.03307
G01 X-4.27458 Y3.03496
G01 X-4.27925 Y3.04064
G01 X-4.28077 Y3.04269
G01 X-4.28208 Y3.04488
G01 X-4.28554 Y3.05136
G01 X-4.28749 Y3.05607
G01 X-4.28963 Y3.06311
G01 X-4.29025 Y3.06558
G01 X-4.29062 Y3.06810
G01 X-4.29134 Y3.07542
G01 X-4.29147 Y3.07797
G01 X-4.29147 Y3.26524
G01 X-4.29100 Y3.26537
G01 X-4.29147 Y3.26524
G01 X-4.43028 Y3.49658
G01 X-4.43139 Y3.49864
G01 X-4.43413 Y3.50431
G01 X-4.43578 Y3.50869
G01 X-4.43746 Y3.51476
G01 X-4.43830 Y3.51936
G01 X-4.43886 Y3.52563
G01 X-4.43897 Y3.52797
G01 X-4.43897 Y4.07373
G01 X-4.43894 Y4.07373
G01 X-4.43897 Y4.07373
G01 X-4.48387 Y4.39515
G01 X-4.48367 Y4.39521
G01 X-4.48387 Y4.39515
G01 X-4.48593 Y4.39870
G01 X-4.48716 Y4.40112
G01 X-4.48814 Y4.40367
G01 X-4.49072 Y4.41162
G01 X-4.49143 Y4.41425
G01 X-4.49185 Y4.41693
G01 X-4.49273 Y4.42525
G01 X-4.49287 Y4.42797
G01 X-4.49273 Y4.43069
G01 X-4.49185 Y4.43900
G01 X-4.49143 Y4.44169
G01 X-4.49072 Y4.44432
G01 X-4.48814 Y4.45227
G01 X-4.48716 Y4.45481
G01 X-4.48593 Y4.45724
G01 X-4.48175 Y4.46448
G01 X-4.48026 Y4.46676
G01 X-4.47934 Y4.46790
G01 X-4.47934 Y4.46790
G01 X-4.47921 Y4.46797
G01 X-4.47921 Y4.46797
G01 X-4.47815 Y4.46851
G01 X-4.47815 Y4.46852
G01 X-4.47815 Y4.46851
G01 X-4.47921 Y4.46797
G01 X-4.49497 Y4.46797
G01 X-4.49538 Y4.46896
G01 X-4.49497 Y4.46797
G01 X-4.50367 Y4.45927
G01 X-4.50466 Y4.45968
G01 X-4.50367 Y4.45927
G01 X-4.50367 Y4.45298
G01 X-4.50382 Y4.45295
G01 X-4.50367 Y4.45298
G01 X-4.50340 Y4.45227
G01 X-4.50081 Y4.44432
G01 X-4.50011 Y4.44169
G01 X-4.49968 Y4.43900
G01 X-4.49881 Y4.43069
G01 X-4.49867 Y4.42797
G01 X-4.49881 Y4.42525
G01 X-4.49968 Y4.41693
G01 X-4.50011 Y4.41425
G01 X-4.50081 Y4.41162
G01 X-4.50142 Y4.40975
G01 X-4.50161 Y4.40976
G01 X-4.50142 Y4.40975
G01 X-4.46913 Y4.10180
G01 X-4.46919 Y4.10178
G01 X-4.46913 Y4.10180
G01 X-4.46844 Y4.09987
G01 X-4.46631 Y4.09283
G01 X-4.46569 Y4.09036
G01 X-4.46531 Y4.08783
G01 X-4.46459 Y4.08052
G01 X-4.46447 Y4.07797
G01 X-4.46447 Y3.97797
G01 X-4.46459 Y3.97542
G01 X-4.46531 Y3.96810
G01 X-4.46569 Y3.96558
G01 X-4.46631 Y3.96311
G01 X-4.46844 Y3.95607
G01 X-4.47039 Y3.95136
G01 X-4.47386 Y3.94488
G01 X-4.47517 Y3.94269
G01 X-4.47669 Y3.94064
G01 X-4.48135 Y3.93496
G01 X-4.48307 Y3.93307
G01 X-4.48496 Y3.93135
G01 X-4.49064 Y3.92669
G01 X-4.49111 Y3.92637
G01 X-4.49266 Y3.92640
G01 X-4.49106 Y3.92637
G01 X-4.48673 Y3.92282
G01 X-4.48312 Y3.91921
G01 X-4.47877 Y3.91391
G01 X-4.47725 Y3.91186
G01 X-4.47594 Y3.90967
G01 X-4.47270 Y3.90362
G01 X-4.47075 Y3.89891
G01 X-4.46876 Y3.89234
G01 X-4.46777 Y3.88735
G01 X-4.46709 Y3.88052
G01 X-4.46697 Y3.87797
G01 X-4.46697 Y3.59339
G01 X-4.46699 Y3.59339
G01 X-4.46697 Y3.59339
G01 X-4.46634 Y3.59107
G01 X-4.46592 Y3.58838
G01 X-4.46511 Y3.58069
G01 X-4.46497 Y3.57797
G01 X-4.46511 Y3.57525
G01 X-4.46592 Y3.56756
G01 X-4.46634 Y3.56487
G01 X-4.46705 Y3.56224
G01 X-4.46944 Y3.55489
G01 X-4.47041 Y3.55234
G01 X-4.47165 Y3.54992
G01 X-4.47552 Y3.54322
G01 X-4.47700 Y3.54094
G01 X-4.47871 Y3.53882
G01 X-4.48389 Y3.53308
G01 X-4.48581 Y3.53115
G01 X-4.48793 Y3.52944
G01 X-4.49419 Y3.52489
G01 X-4.49647 Y3.52341
G01 X-4.49889 Y3.52217
G01 X-4.50596 Y3.51903
G01 X-4.50850 Y3.51805
G01 X-4.51113 Y3.51735
G01 X-4.51869 Y3.51574
G01 X-4.52138 Y3.51531
G01 X-4.52410 Y3.51517
G01 X-4.53184 Y3.51517
G01 X-4.53455 Y3.51531
G01 X-4.53724 Y3.51574
G01 X-4.54481 Y3.51735
G01 X-4.54744 Y3.51805
G01 X-4.54998 Y3.51903
G01 X-4.55704 Y3.52217
G01 X-4.55947 Y3.52341
G01 X-4.56175 Y3.52489
G01 X-4.56801 Y3.52944
G01 X-4.57012 Y3.53115
G01 X-4.57205 Y3.53308
G01 X-4.57722 Y3.53882
G01 X-4.57894 Y3.54094
G01 X-4.58042 Y3.54322
G01 X-4.58429 Y3.54992
G01 X-4.58552 Y3.55234
G01 X-4.58650 Y3.55489
G01 X-4.58889 Y3.56224
G01 X-4.58959 Y3.56487
G01 X-4.59002 Y3.56756
G01 X-4.59083 Y3.57525
G01 X-4.59097 Y3.57797
G01 X-4.59083 Y3.58069
G01 X-4.59002 Y3.58838
G01 X-4.58959 Y3.59107
G01 X-4.58897 Y3.59339
G01 X-4.58894 Y3.59339
G01 X-4.58897 Y3.59339
G01 X-4.58897 Y3.87797
G01 X-4.58884 Y3.88052
G01 X-4.58817 Y3.88735
G01 X-4.58780 Y3.88987
G01 X-4.58718 Y3.89234
G01 X-4.58518 Y3.89891
G01 X-4.58323 Y3.90362
G01 X-4.58000 Y3.90967
G01 X-4.57869 Y3.91186
G01 X-4.57717 Y3.91391
G01 X-4.57282 Y3.91921
G01 X-4.56921 Y3.92282
G01 X-4.56488 Y3.92637
G01 X-4.56327 Y3.92640
G01 X-4.56488 Y3.92637
G01 X-4.56557 Y3.92636
G01 X-4.57212 Y3.92636
G01 X-4.57512 Y3.92630
G01 X-4.58119 Y3.92608
G01 X-4.58402 Y3.92604
G01 X-4.58463 Y3.92671
G01 X-4.58930 Y3.93239
G01 X-4.59158 Y3.93547
G01 X-4.59354 Y3.93875
G01 X-4.59701 Y3.94523
G01 X-4.59993 Y3.95230
G01 X-4.60207 Y3.95933
G01 X-4.60300 Y3.96304
G01 X-4.60356 Y3.96683
G01 X-4.60397 Y3.97095
G01 X-4.60412 Y3.97416
G01 X-4.60397 Y3.97098
G01 X-4.60397 Y3.97097
G01 X-4.60376 Y3.96681
G01 X-4.60377 Y3.96681
G01 X-4.60376 Y3.96681
G01 X-4.60300 Y3.95905
G01 X-4.60191 Y3.95170
G01 X-4.60027 Y3.94349
G01 X-4.60028 Y3.94349
G01 X-4.60027 Y3.94349
G01 X-4.59843 Y3.93614
G01 X-4.59569 Y3.92714
G01 X-4.59527 Y3.92597
G01 X-4.59191 Y3.92601
G01 X-4.58549 Y3.92601
G01 X-4.58403 Y3.92603
G01 X-4.58119 Y3.92608
G01 X-4.57512 Y3.92630
G01 X-4.57212 Y3.92636
G01 X-4.56557 Y3.92636
G01 X-4.56488 Y3.92637
G01 X-4.56327 Y3.92640
G01 X-4.55963 Y3.92653
G01 X-4.55783 Y3.92656
G01 X-4.55128 Y3.92656
G01 X-4.55006 Y3.92658
G01 X-4.54737 Y3.92665
G01 X-4.54633 Y3.92667
G01 X-4.53969 Y3.92667
G01 X-4.53916 Y3.92667
G01 X-4.53671 Y3.92672
G01 X-4.53622 Y3.92672
G01 X-4.52932 Y3.92672
G01 X-4.52661 Y3.92672
G01 X-4.51972 Y3.92672
G01 X-4.51923 Y3.92672
G01 X-4.51678 Y3.92667
G01 X-4.51625 Y3.92667
G01 X-4.50961 Y3.92667
G01 X-4.50856 Y3.92665
G01 X-4.50588 Y3.92658
G01 X-4.50466 Y3.92656
G01 X-4.49811 Y3.92656
G01 X-4.49630 Y3.92653
G01 X-4.49266 Y3.92640
G01 X-4.49106 Y3.92637
G01 X-4.49037 Y3.92636
G01 X-4.48382 Y3.92636
G01 X-4.48081 Y3.92630
G01 X-4.47475 Y3.92608
G01 X-4.47192 Y3.92604
G01 X-4.47130 Y3.92671
G01 X-4.46664 Y3.93239
G01 X-4.46436 Y3.93547
G01 X-4.46239 Y3.93875
G01 X-4.45893 Y3.94523
G01 X-4.45600 Y3.95230
G01 X-4.45387 Y3.95933
G01 X-4.45294 Y3.96304
G01 X-4.45238 Y3.96683
G01 X-4.45197 Y3.97096
G01 X-4.45197 Y3.97097
G01 X-4.45181 Y3.97416
G01 X-4.45197 Y3.97097
G01 X-4.45197 Y3.97097
G01 X-4.45197 Y3.52797
G01 X-4.45181 Y3.52446
G01 X-4.45124 Y3.51819
G01 X-4.44999 Y3.51129
G01 X-4.44831 Y3.50522
G01 X-4.44583 Y3.49865
G01 X-4.44309 Y3.49299
G01 X-4.44142 Y3.48990
G01 X-4.30447 Y3.26164
G01 X-4.30400 Y3.26177
G01 X-4.30447 Y3.26164
G01 X-4.30447 Y3.07797
G01 X-4.30428 Y3.07415
G01 X-4.30356 Y3.06683
G01 X-4.30300 Y3.06304
G01 X-4.30207 Y3.05933
G01 X-4.29993 Y3.05230
G01 X-4.29701 Y3.04523
G01 X-4.29354 Y3.03875
G01 X-4.29158 Y3.03547
G01 X-4.28930 Y3.03239
G01 X-4.28463 Y3.02671
G01 X-4.28206 Y3.02388
G01 X-4.27923 Y3.02131
G01 X-4.27354 Y3.01664
G01 X-4.26719 Y3.01239
G01 X-4.26070 Y3.00893
G01 X-4.25724 Y3.00729
G01 X-4.25364 Y3.00600
G01 X-4.24660 Y3.00387
G01 X-4.23911 Y3.00238
G01 X-4.23179 Y3.00166
G01 X-4.22797 Y3.00147
G01 X-4.22415 Y3.00166
G01 X-4.21683 Y3.00238
G01 X-4.20933 Y3.00387
G01 X-4.20230 Y3.00600
G01 X-4.19869 Y3.00729
G01 X-4.19523 Y3.00893
G01 X-4.18875 Y3.01239
G01 X-4.18239 Y3.01664
G01 X-4.17671 Y3.02131
G01 X-4.17387 Y3.02388
G01 X-4.17130 Y3.02671
G01 X-4.16664 Y3.03239
G01 X-4.16436 Y3.03547
G01 X-4.16239 Y3.03875
G01 X-4.15893 Y3.04523
G01 X-4.15600 Y3.05230
G01 X-4.15387 Y3.05933
G01 X-4.15294 Y3.06304
G01 X-4.15238 Y3.06683
G01 X-4.15166 Y3.07415
G01 X-4.15147 Y3.07797
G01 X-4.15147 Y3.27797
G01 X-4.15166 Y3.28179
G01 X-4.15238 Y3.28911
G01 X-4.15294 Y3.29289
G01 X-4.15387 Y3.29661
G01 X-4.15600 Y3.30364
G01 X-4.15893 Y3.31070
G01 X-4.16239 Y3.31719
G01 X-4.16436 Y3.32047
G01 X-4.16664 Y3.32354
G01 X-4.17130 Y3.32923
G01 X-4.17410 Y3.33203
G01 X-4.17415 Y3.33200
G01 X-4.17410 Y3.33203
G01 X-4.30397 Y3.54847
G01 X-4.30444 Y3.54834
G01 X-4.30397 Y3.54847
G01 X-4.30397 Y3.97097
G01 X-4.30397 Y3.97098
G01 X-4.30397 Y3.97099
G01 X-4.30412 Y3.97416
G01 X-4.30422 Y3.97797
G01 X-4.30422 Y4.07237
G01 X-4.30420 Y4.07238
G01 X-4.30422 Y4.07237
G01 X-4.30463 Y4.07797
G01 X-4.30487 Y4.08062
G01 X-4.30539 Y4.08545
G01 X-4.30572 Y4.08806
G01 X-4.34740 Y4.37827
G01 X-4.34732 Y4.37829
G01 X-4.34740 Y4.37827
G01 X-4.34832 Y4.38024
G01 X-4.35117 Y4.38729
G01 X-4.35394 Y4.39534
G01 X-4.35396 Y4.39534
G01 X-4.35394 Y4.39534
G01 X-4.35581 Y4.40189
G01 X-4.35770 Y4.41007
G01 X-4.35797 Y4.41129
G01 X-4.35806 Y4.41127
G01 X-4.35797 Y4.41129
G01 X-4.35797 Y4.41652
G01 X-4.35797 Y4.42493
G01 X-4.35797 Y4.43101
G01 X-4.35797 Y4.43942
G01 X-4.35797 Y4.44596
G01 X-4.35797 Y4.45435
G01 X-4.35803 Y4.45473
G01 X-4.35822 Y4.45589
G01 X-4.35763 Y4.45608
G01 X-4.35822 Y4.45589
G01 X-4.36165 Y4.46079
G01 X-4.36171 Y4.46087
G01 X-4.36148 Y4.46113
G01 X-4.36171 Y4.46087
G01 X-4.36998 Y4.46564
G01 X-4.37440 Y4.46790
G01 X-4.37453 Y4.46797
G01 X-4.37559 Y4.46851
G01 X-4.37558 Y4.46853
G01 X-4.37559 Y4.46851
G01 X-4.38395 Y4.47224
G01 X-4.38832 Y4.47392
G01 X-4.38831 Y4.47394
G01 X-4.38832 Y4.47392
G01 X-4.39668 Y4.47664
G01 X-4.39668 Y4.47665
G01 X-4.39668 Y4.47664
G01 X-4.40020 Y4.47758
G01 X-4.40020 Y4.47760
G01 X-4.40020 Y4.47758
G01 X-4.40856 Y4.47936
G01 X-4.40856 Y4.47938
G01 X-4.40856 Y4.47936
G01 X-4.41157 Y4.47984
G01 X-4.41157 Y4.47985
G01 X-4.41157 Y4.47984
G01 X-4.41993 Y4.48072
G01 X-4.41993 Y4.48073
G01 X-4.41993 Y4.48072
G01 X-4.42269 Y4.48086
G01 X-4.42269 Y4.48087
G01 X-4.42269 Y4.48086
G01 X-4.43105 Y4.48086
G01 X-4.43105 Y4.48087
G01 X-4.43105 Y4.48086
G01 X-4.43380 Y4.48072
G01 X-4.44217 Y4.47984
G01 X-4.44217 Y4.47985
G01 X-4.44217 Y4.47984
G01 X-4.44517 Y4.47936
G01 X-4.45353 Y4.47758
G01 X-4.45354 Y4.47760
G01 X-4.45353 Y4.47758
G01 X-4.45706 Y4.47663
G01 X-4.46542 Y4.47392
G01 X-4.46543 Y4.47393
G01 X-4.46542 Y4.47392
G01 X-4.46978 Y4.47224
G01 X-4.46979 Y4.47225
G01 X-4.46978 Y4.47224
G01 X-4.47815 Y4.46851
G01 X-4.47921 Y4.46797
G01 X-4.47934 Y4.46790
G01 X-4.48376 Y4.46564
G01 X-4.49203 Y4.46087
G01 X-4.49226 Y4.46113
G01 X-4.49203 Y4.46087
G01 X-4.49209 Y4.46079
G01 X-4.49551 Y4.45589
G01 X-4.49582 Y4.45602
G01 X-4.49551 Y4.45589
G01 X-4.49571 Y4.45473
G01 X-4.49577 Y4.45435
G01 X-4.49581 Y4.45436
G01 X-4.49577 Y4.45435
G01 X-4.49577 Y4.44596
G01 X-4.49577 Y4.43942
G01 X-4.49577 Y4.43101
G01 X-4.49577 Y4.42493
G01 X-4.49577 Y4.41652
G01 X-4.49577 Y4.40998
G01 X-4.49577 Y4.40915
G01 X-4.49587 Y4.40914
G01 X-4.49577 Y4.40915
G01 X-4.49418 Y4.40170
G01 X-4.49238 Y4.39497
G01 X-4.49158 Y4.39250
G01 X-4.49155 Y4.39250
G01 X-4.49158 Y4.39250
G01 X-4.45641 Y4.10480
G01 X-4.45613 Y4.10360
G01 X-4.45455 Y4.09640
G01 X-4.45330 Y4.08901
G01 X-4.45328 Y4.08902
G01 X-4.45330 Y4.08901
G01 X-4.45243 Y4.08171
G01 X-4.45207 Y4.07797
G01 X-4.45172 Y4.07284
G01 X-4.45170 Y4.07284
G01 X-4.45172 Y4.07284
G01 X-4.45172 Y3.97797
G01 X-4.45181 Y3.97416
G01 X-4.45197 Y3.97097
G01 X-4.45217 Y3.96681
G01 X-4.45216 Y3.96681
G01 X-4.45217 Y3.96681
G01 X-4.45294 Y3.95905
G01 X-4.45402 Y3.95170
G01 X-4.45567 Y3.94349
G01 X-4.45566 Y3.94349
G01 X-4.45567 Y3.94349
G01 X-4.45751 Y3.93614
G01 X-4.46024 Y3.92714
G01 X-4.46066 Y3.92597
G01 X-4.46402 Y3.92601
G01 X-4.47045 Y3.92601
G01 X-4.47190 Y3.92603
G01 X-4.47475 Y3.92608
G01 X-4.48081 Y3.92630
G01 X-4.48382 Y3.92636
G01 X-4.49037 Y3.92636
G01 X-4.49106 Y3.92637
G01 X-4.49266 Y3.92640
G01 X-4.49630 Y3.92653
G01 X-4.49811 Y3.92656
G01 X-4.50466 Y3.92656
G01 X-4.50588 Y3.92658
G01 X-4.50856 Y3.92665
G01 X-4.50961 Y3.92667
G01 X-4.51625 Y3.92667
G01 X-4.51678 Y3.92667
G01 X-4.51923 Y3.92672
G01 X-4.51972 Y3.92672
G01 X-4.52661 Y3.92672
G01 X-4.52932 Y3.92672
G01 X-4.53622 Y3.92672
G01 X-4.53671 Y3.92672
G01 X-4.53916 Y3.92667
G01 X-4.53969 Y3.92667
G01 X-4.54633 Y3.92667
G01 X-4.54737 Y3.92665
G01 X-4.55006 Y3.92658
G01 X-4.55128 Y3.92656
G01 X-4.55783 Y3.92656
G01 X-4.55963 Y3.92653
G01 X-4.56327 Y3.92640
G01 X-4.56482 Y3.92637
G01 X-4.56530 Y3.92669
G01 X-4.57098 Y3.93135
G01 X-4.57287 Y3.93307
G01 X-4.57458 Y3.93496
G01 X-4.57925 Y3.94064
G01 X-4.58077 Y3.94269
G01 X-4.58208 Y3.94488
G01 X-4.58554 Y3.95136
G01 X-4.58749 Y3.95607
G01 X-4.58963 Y3.96311
G01 X-4.59025 Y3.96558
G01 X-4.59062 Y3.96810
G01 X-4.59134 Y3.97542
G01 X-4.59147 Y3.97797
G01 X-4.59147 Y4.07797
G01 X-4.59134 Y4.08052
G01 X-4.59062 Y4.08783
G01 X-4.59045 Y4.08896
G01 X-4.59039 Y4.08896
G01 X-4.59045 Y4.08896
G01 X-4.61697 Y4.34179
G01 X-4.60397 Y4.09315
G01 X-4.60355 Y4.08918
G01 X-4.60353 Y4.08918
G01 X-4.60355 Y4.08918
G01 X-4.60356 Y4.08911
G01 X-4.60397 Y4.08499
G01 X-4.60397 Y4.08497
G01 X-4.60397 Y4.08496
G01 X-4.60412 Y4.08178
G01 X-4.60397 Y4.08499
G01 X-4.60376 Y4.08913
G01 X-4.60376 Y4.08920
G01 X-4.60375 Y4.08920
G01 X-4.60376 Y4.08920
G01 X-4.60397 Y4.09315
G01 X-4.60397 Y4.09318
G01 X-4.60397 Y4.09318
G01 X-4.61697 Y4.34179
G01 X-4.61697 Y4.34179
G01 X-4.61697 Y4.34179
G01 X-4.61697 Y4.34179
G01 X-4.61990 Y4.39795
G01 X-4.61986 Y4.39795
G01 X-4.61990 Y4.39795
G01 X-4.61697 Y4.34182
G01 X-4.61697 Y3.54486
G01 X-4.61744 Y3.54473
G01 X-4.61697 Y3.54486
G01 X-4.48456 Y3.32419
G01 X-4.48461 Y3.32416
G01 X-4.48456 Y3.32419
G01 X-4.48135 Y3.32098
G01 X-4.47669 Y3.31530
G01 X-4.47517 Y3.31325
G01 X-4.47386 Y3.31106
G01 X-4.47039 Y3.30458
G01 X-4.46844 Y3.29987
G01 X-4.46631 Y3.29283
G01 X-4.46569 Y3.29036
G01 X-4.46531 Y3.28783
G01 X-4.46459 Y3.28052
G01 X-4.46447 Y3.27797
G01 X-4.46447 Y3.07797
G01 X-4.46459 Y3.07542
G01 X-4.46531 Y3.06810
G01 X-4.46569 Y3.06558
G01 X-4.46631 Y3.06311
G01 X-4.46844 Y3.05607
G01 X-4.47039 Y3.05136
G01 X-4.47386 Y3.04488
G01 X-4.47517 Y3.04269
G01 X-4.47669 Y3.04064
G01 X-4.48135 Y3.03496
G01 X-4.48307 Y3.03307
G01 X-4.48496 Y3.03135
G01 X-4.49064 Y3.02669
G01 X-4.49488 Y3.02386
G01 X-4.50136 Y3.02039
G01 X-4.50367 Y3.01930
G01 X-4.50607 Y3.01844
G01 X-4.51310 Y3.01631
G01 X-4.51810 Y3.01531
G01 X-4.52542 Y3.01459
G01 X-4.52797 Y3.01447
G01 X-4.53052 Y3.01459
G01 X-4.53783 Y3.01531
G01 X-4.54283 Y3.01631
G01 X-4.54987 Y3.01844
G01 X-4.55227 Y3.01930
G01 X-4.55457 Y3.02039
G01 X-4.56106 Y3.02386
G01 X-4.56530 Y3.02669
G01 X-4.57098 Y3.03135
G01 X-4.57287 Y3.03307
G01 X-4.57458 Y3.03496
G01 X-4.57925 Y3.04064
G01 X-4.58077 Y3.04269
G01 X-4.58208 Y3.04488
G01 X-4.58554 Y3.05136
G01 X-4.58749 Y3.05607
G01 X-4.58963 Y3.06311
G01 X-4.59025 Y3.06558
G01 X-4.59062 Y3.06810
G01 X-4.59134 Y3.07542
G01 X-4.59147 Y3.07797
G01 X-4.59147 Y3.26524
G01 X-4.59100 Y3.26537
G01 X-4.59147 Y3.26524
G01 X-4.73028 Y3.49658
G01 X-4.73139 Y3.49864
G01 X-4.73413 Y3.50431
G01 X-4.73578 Y3.50869
G01 X-4.73746 Y3.51476
G01 X-4.73830 Y3.51936
G01 X-4.73886 Y3.52563
G01 X-4.73897 Y3.52797
G01 X-4.73897 Y4.37318
G01 X-4.73760 Y4.37387
G01 X-4.73897 Y4.37318
G01 X-4.74452 Y4.37721
G01 X-4.74663 Y4.37892
G01 X-4.74855 Y4.38085
G01 X-4.75415 Y4.38706
G01 X-4.75586 Y4.38918
G01 X-4.75735 Y4.39146
G01 X-4.76153 Y4.39870
G01 X-4.76276 Y4.40112
G01 X-4.76374 Y4.40367
G01 X-4.76632 Y4.41162
G01 X-4.76703 Y4.41425
G01 X-4.76745 Y4.41693
G01 X-4.76833 Y4.42525
G01 X-4.76847 Y4.42797
G01 X-4.76833 Y4.43069
G01 X-4.76745 Y4.43900
G01 X-4.76703 Y4.44169
G01 X-4.76632 Y4.44432
G01 X-4.76374 Y4.45227
G01 X-4.76276 Y4.45481
G01 X-4.76153 Y4.45724
G01 X-4.75735 Y4.46448
G01 X-4.75586 Y4.46676
G01 X-4.75494 Y4.46790
G01 X-4.75481 Y4.46797
G01 X-4.75481 Y4.46797
G01 X-4.75481 Y4.46797
G01 X-4.75481 Y4.46797
G01 X-4.77057 Y4.46797
G01 X-4.77098 Y4.46896
G01 X-4.77057 Y4.46797
G01 X-4.77927 Y4.45927
G01 X-4.78026 Y4.45968
G01 X-4.77927 Y4.45927
G01 X-4.77927 Y4.45298
G01 X-4.77942 Y4.45295
G01 X-4.77927 Y4.45298
G01 X-4.77900 Y4.45227
G01 X-4.77641 Y4.44432
G01 X-4.77571 Y4.44169
G01 X-4.77528 Y4.43900
G01 X-4.77441 Y4.43069
G01 X-4.77427 Y4.42797
G01 X-4.77441 Y4.42525
G01 X-4.77528 Y4.41693
G01 X-4.77571 Y4.41425
G01 X-4.77641 Y4.41162
G01 X-4.77896 Y4.40378
G01 X-4.77915 Y4.40380
G01 X-4.77896 Y4.40378
G01 X-4.76701 Y4.08022
G01 X-4.76699 Y4.07927
G01 X-4.76697 Y3.97798
G01 X-4.76709 Y3.97542
G01 X-4.76777 Y3.96859
G01 X-4.76876 Y3.96359
G01 X-4.77075 Y3.95703
G01 X-4.77270 Y3.95232
G01 X-4.77594 Y3.94627
G01 X-4.77725 Y3.94408
G01 X-4.77877 Y3.94203
G01 X-4.78312 Y3.93673
G01 X-4.78673 Y3.93312
G01 X-4.79203 Y3.92877
G01 X-4.79311 Y3.92797
G01 X-4.79311 Y3.92797
G01 X-4.79735 Y3.92797
G01 X-4.79311 Y3.92797
G01 X-4.79203 Y3.92717
G01 X-4.78673 Y3.92282
G01 X-4.78312 Y3.91921
G01 X-4.77877 Y3.91391
G01 X-4.77725 Y3.91186
G01 X-4.77594 Y3.90967
G01 X-4.77270 Y3.90362
G01 X-4.77075 Y3.89891
G01 X-4.76876 Y3.89234
G01 X-4.76777 Y3.88735
G01 X-4.76709 Y3.88052
G01 X-4.76697 Y3.87797
G01 X-4.76697 Y3.59339
G01 X-4.76700 Y3.59339
G01 X-4.76697 Y3.59339
G01 X-4.76634 Y3.59107
G01 X-4.76592 Y3.58838
G01 X-4.76511 Y3.58069
G01 X-4.76497 Y3.57797
G01 X-4.76511 Y3.57525
G01 X-4.76592 Y3.56756
G01 X-4.76634 Y3.56487
G01 X-4.76705 Y3.56224
G01 X-4.76944 Y3.55489
G01 X-4.77041 Y3.55234
G01 X-4.77165 Y3.54992
G01 X-4.77552 Y3.54322
G01 X-4.77700 Y3.54094
G01 X-4.77871 Y3.53882
G01 X-4.78389 Y3.53308
G01 X-4.78581 Y3.53115
G01 X-4.78793 Y3.52944
G01 X-4.79419 Y3.52489
G01 X-4.79647 Y3.52341
G01 X-4.79889 Y3.52217
G01 X-4.80596 Y3.51903
G01 X-4.80850 Y3.51805
G01 X-4.81113 Y3.51735
G01 X-4.81869 Y3.51574
G01 X-4.82138 Y3.51531
G01 X-4.82410 Y3.51517
G01 X-4.83184 Y3.51517
G01 X-4.83455 Y3.51531
G01 X-4.83724 Y3.51574
G01 X-4.84481 Y3.51735
G01 X-4.84744 Y3.51805
G01 X-4.84998 Y3.51903
G01 X-4.85704 Y3.52217
G01 X-4.85947 Y3.52341
G01 X-4.86175 Y3.52489
G01 X-4.86801 Y3.52944
G01 X-4.87012 Y3.53115
G01 X-4.87205 Y3.53308
G01 X-4.87722 Y3.53882
G01 X-4.87894 Y3.54094
G01 X-4.88042 Y3.54322
G01 X-4.88429 Y3.54992
G01 X-4.88552 Y3.55234
G01 X-4.88650 Y3.55489
G01 X-4.88889 Y3.56224
G01 X-4.88959 Y3.56487
G01 X-4.89002 Y3.56756
G01 X-4.89083 Y3.57525
G01 X-4.89097 Y3.57797
G01 X-4.89083 Y3.58069
G01 X-4.89002 Y3.58838
G01 X-4.88959 Y3.59107
G01 X-4.88897 Y3.59339
G01 X-4.88894 Y3.59339
G01 X-4.88897 Y3.59339
G01 X-4.88897 Y3.87797
G01 X-4.88884 Y3.88052
G01 X-4.88817 Y3.88735
G01 X-4.88718 Y3.89234
G01 X-4.88518 Y3.89891
G01 X-4.88323 Y3.90362
G01 X-4.88000 Y3.90967
G01 X-4.87869 Y3.91186
G01 X-4.87717 Y3.91391
G01 X-4.87282 Y3.91921
G01 X-4.86921 Y3.92282
G01 X-4.86391 Y3.92717
G01 X-4.86283 Y3.92797
G01 X-4.85858 Y3.92797
G01 X-4.86283 Y3.92797
G01 X-4.86456 Y3.92797
G01 X-4.87344 Y3.92797
G01 X-4.88235 Y3.92797
G01 X-4.88286 Y3.92746
G01 X-4.88722 Y3.92216
G01 X-4.88950 Y3.91908
G01 X-4.89146 Y3.91580
G01 X-4.89470 Y3.90975
G01 X-4.89762 Y3.90268
G01 X-4.89962 Y3.89612
G01 X-4.90111 Y3.88862
G01 X-4.90178 Y3.88179
G01 X-4.90197 Y3.87797
G01 X-4.90197 Y3.59504
G01 X-4.90194 Y3.59503
G01 X-4.90197 Y3.59504
G01 X-4.90231 Y3.59377
G01 X-4.90295 Y3.58974
G01 X-4.90375 Y3.58205
G01 X-4.90386 Y3.58002
G01 X-4.90386 Y3.57592
G01 X-4.90375 Y3.57389
G01 X-4.90295 Y3.56620
G01 X-4.90231 Y3.56217
G01 X-4.90125 Y3.55822
G01 X-4.89886 Y3.55087
G01 X-4.89740 Y3.54706
G01 X-4.89554 Y3.54342
G01 X-4.89168 Y3.53672
G01 X-4.88945 Y3.53330
G01 X-4.88688 Y3.53012
G01 X-4.88171 Y3.52438
G01 X-4.87882 Y3.52149
G01 X-4.87565 Y3.51892
G01 X-4.86939 Y3.51437
G01 X-4.86597 Y3.51215
G01 X-4.86233 Y3.51030
G01 X-4.85526 Y3.50715
G01 X-4.85145 Y3.50569
G01 X-4.84751 Y3.50463
G01 X-4.83994 Y3.50302
G01 X-4.83591 Y3.50239
G01 X-4.83184 Y3.50217
G01 X-4.82410 Y3.50217
G01 X-4.82002 Y3.50239
G01 X-4.81599 Y3.50302
G01 X-4.80843 Y3.50463
G01 X-4.80448 Y3.50569
G01 X-4.80067 Y3.50715
G01 X-4.79361 Y3.51030
G01 X-4.78997 Y3.51215
G01 X-4.78654 Y3.51437
G01 X-4.78029 Y3.51892
G01 X-4.77711 Y3.52149
G01 X-4.77423 Y3.52438
G01 X-4.76905 Y3.53012
G01 X-4.76648 Y3.53330
G01 X-4.76426 Y3.53672
G01 X-4.76039 Y3.54342
G01 X-4.75854 Y3.54706
G01 X-4.75708 Y3.55087
G01 X-4.75469 Y3.55822
G01 X-4.75363 Y3.56217
G01 X-4.75299 Y3.56620
G01 X-4.75218 Y3.57389
G01 X-4.75208 Y3.57593
G01 X-4.75207 Y3.57797
G01 X-4.76497 Y3.57797
G01 X-4.77797 Y3.57797
G01 X-4.77804 Y3.57933
G01 X-4.77885 Y3.58702
G01 X-4.77906 Y3.58836
G01 X-4.77941 Y3.58968
G01 X-4.77997 Y3.59139
G01 X-4.77997 Y3.87797
G01 X-4.78003 Y3.87924
G01 X-4.78070 Y3.88607
G01 X-4.78120 Y3.88857
G01 X-4.78319 Y3.89514
G01 X-4.78417 Y3.89749
G01 X-4.78740 Y3.90354
G01 X-4.78806 Y3.90464
G01 X-4.78882 Y3.90566
G01 X-4.79317 Y3.91096
G01 X-4.79497 Y3.91277
G01 X-4.80028 Y3.91712
G01 X-4.80130 Y3.91788
G01 X-4.80239 Y3.91854
G01 X-4.80845 Y3.92177
G01 X-4.81080 Y3.92275
G01 X-4.81737 Y3.92474
G01 X-4.81987 Y3.92523
G01 X-4.82669 Y3.92591
G01 X-4.82797 Y3.92597
G01 X-4.82924 Y3.92591
G01 X-4.83607 Y3.92523
G01 X-4.83857 Y3.92474
G01 X-4.84514 Y3.92275
G01 X-4.84634 Y3.92232
G01 X-4.84749 Y3.92177
G01 X-4.85354 Y3.91854
G01 X-4.85464 Y3.91788
G01 X-4.85566 Y3.91712
G01 X-4.86096 Y3.91277
G01 X-4.86277 Y3.91096
G01 X-4.86712 Y3.90566
G01 X-4.86788 Y3.90464
G01 X-4.86853 Y3.90354
G01 X-4.87177 Y3.89749
G01 X-4.87274 Y3.89514
G01 X-4.87474 Y3.88857
G01 X-4.87523 Y3.88607
G01 X-4.87591 Y3.87924
G01 X-4.87597 Y3.87797
G01 X-4.87597 Y3.59139
G01 X-4.87652 Y3.58968
G01 X-4.87688 Y3.58836
G01 X-4.87709 Y3.58702
G01 X-4.87790 Y3.57933
G01 X-4.87797 Y3.57797
G01 X-4.87790 Y3.57661
G01 X-4.87709 Y3.56892
G01 X-4.87688 Y3.56757
G01 X-4.87652 Y3.56626
G01 X-4.87413 Y3.55890
G01 X-4.87365 Y3.55763
G01 X-4.87303 Y3.55642
G01 X-4.86916 Y3.54972
G01 X-4.86842 Y3.54858
G01 X-4.86756 Y3.54752
G01 X-4.86239 Y3.54177
G01 X-4.86142 Y3.54081
G01 X-4.86037 Y3.53996
G01 X-4.85411 Y3.53541
G01 X-4.85297 Y3.53467
G01 X-4.85176 Y3.53405
G01 X-4.84469 Y3.53090
G01 X-4.84342 Y3.53042
G01 X-4.84210 Y3.53006
G01 X-4.83454 Y3.52846
G01 X-4.83319 Y3.52824
G01 X-4.83184 Y3.52817
G01 X-4.82410 Y3.52817
G01 X-4.82274 Y3.52824
G01 X-4.82140 Y3.52846
G01 X-4.81383 Y3.53006
G01 X-4.81252 Y3.53042
G01 X-4.81125 Y3.53090
G01 X-4.80418 Y3.53405
G01 X-4.80297 Y3.53467
G01 X-4.80183 Y3.53541
G01 X-4.79557 Y3.53996
G01 X-4.79451 Y3.54081
G01 X-4.79355 Y3.54177
G01 X-4.78837 Y3.54752
G01 X-4.78752 Y3.54858
G01 X-4.78678 Y3.54972
G01 X-4.78291 Y3.55642
G01 X-4.78229 Y3.55763
G01 X-4.78180 Y3.55890
G01 X-4.77941 Y3.56626
G01 X-4.77906 Y3.56757
G01 X-4.77885 Y3.56892
G01 X-4.77804 Y3.57661
G01 X-4.77797 Y3.57797
G01 X-4.76497 Y3.57797
G01 X-4.75207 Y3.57797
G01 X-4.75207 Y3.57388
G01 X-4.75248 Y3.56615
G01 X-4.75336 Y3.55780
G01 X-4.75459 Y3.55006
G01 X-4.75648 Y3.54116
G01 X-4.75856 Y3.53343
G01 X-4.76019 Y3.52797
G01 X-4.75856 Y3.53343
G01 X-4.75648 Y3.54116
G01 X-4.75459 Y3.55006
G01 X-4.75336 Y3.55780
G01 X-4.75248 Y3.56615
G01 X-4.75207 Y3.57388
G01 X-4.75207 Y3.57797
G01 X-4.75207 Y3.58001
G01 X-4.75218 Y3.58205
G01 X-4.75299 Y3.58974
G01 X-4.75363 Y3.59377
G01 X-4.75397 Y3.59504
G01 X-4.75399 Y3.59504
G01 X-4.75397 Y3.59504
G01 X-4.75397 Y3.87797
G01 X-4.75416 Y3.88179
G01 X-4.75483 Y3.88862
G01 X-4.75632 Y3.89612
G01 X-4.75831 Y3.90268
G01 X-4.76124 Y3.90975
G01 X-4.76447 Y3.91580
G01 X-4.76644 Y3.91908
G01 X-4.76872 Y3.92216
G01 X-4.77307 Y3.92746
G01 X-4.77358 Y3.92797
G01 X-4.77307 Y3.92848
G01 X-4.76872 Y3.93378
G01 X-4.76644 Y3.93686
G01 X-4.76447 Y3.94014
G01 X-4.76124 Y3.94619
G01 X-4.75831 Y3.95325
G01 X-4.75632 Y3.95982
G01 X-4.75483 Y3.96732
G01 X-4.75416 Y3.97415
G01 X-4.75397 Y3.97798
G01 X-4.75399 Y4.07927
G01 X-4.75402 Y4.08070
G01 X-4.76508 Y4.38011
G01 X-4.76707 Y4.38585
G01 X-4.76709 Y4.38584
G01 X-4.76707 Y4.38585
G01 X-4.76497 Y4.37979
G01 X-4.76497 Y4.37979
G01 X-4.76381 Y4.37836
G01 X-4.75822 Y4.37215
G01 X-4.75533 Y4.36926
G01 X-4.75216 Y4.36669
G01 X-4.75197 Y4.36655
G01 X-4.75084 Y4.36706
G01 X-4.75197 Y4.36655
G01 X-4.75197 Y3.52797
G01 X-4.75181 Y3.52446
G01 X-4.75124 Y3.51819
G01 X-4.74999 Y3.51129
G01 X-4.74831 Y3.50522
G01 X-4.74583 Y3.49865
G01 X-4.74309 Y3.49299
G01 X-4.74142 Y3.48990
G01 X-4.60447 Y3.26164
G01 X-4.60400 Y3.26177
G01 X-4.60447 Y3.26164
G01 X-4.60447 Y3.07797
G01 X-4.60428 Y3.07415
G01 X-4.60356 Y3.06683
G01 X-4.60300 Y3.06304
G01 X-4.60207 Y3.05933
G01 X-4.59993 Y3.05230
G01 X-4.59701 Y3.04523
G01 X-4.59354 Y3.03875
G01 X-4.59158 Y3.03547
G01 X-4.58930 Y3.03239
G01 X-4.58463 Y3.02671
G01 X-4.58206 Y3.02388
G01 X-4.57923 Y3.02131
G01 X-4.57354 Y3.01664
G01 X-4.56719 Y3.01239
G01 X-4.56070 Y3.00893
G01 X-4.55724 Y3.00729
G01 X-4.55364 Y3.00600
G01 X-4.54660 Y3.00387
G01 X-4.53911 Y3.00238
G01 X-4.53179 Y3.00166
G01 X-4.52797 Y3.00147
G01 X-4.52415 Y3.00166
G01 X-4.51683 Y3.00238
G01 X-4.50933 Y3.00387
G01 X-4.50230 Y3.00600
G01 X-4.49869 Y3.00729
G01 X-4.49523 Y3.00893
G01 X-4.48875 Y3.01239
G01 X-4.48239 Y3.01664
G01 X-4.47671 Y3.02131
G01 X-4.47387 Y3.02388
G01 X-4.47130 Y3.02671
G01 X-4.46664 Y3.03239
G01 X-4.46436 Y3.03547
G01 X-4.46239 Y3.03875
G01 X-4.45893 Y3.04523
G01 X-4.45600 Y3.05230
G01 X-4.45387 Y3.05933
G01 X-4.45294 Y3.06304
G01 X-4.45238 Y3.06683
G01 X-4.45166 Y3.07415
G01 X-4.45147 Y3.07797
G01 X-4.45147 Y3.27797
G01 X-4.45166 Y3.28179
G01 X-4.45238 Y3.28911
G01 X-4.45294 Y3.29289
G01 X-4.45387 Y3.29661
G01 X-4.45600 Y3.30364
G01 X-4.45893 Y3.31070
G01 X-4.46239 Y3.31719
G01 X-4.46436 Y3.32047
G01 X-4.46664 Y3.32354
G01 X-4.47130 Y3.32923
G01 X-4.47410 Y3.33203
G01 X-4.47415 Y3.33200
G01 X-4.47410 Y3.33203
G01 X-4.60397 Y3.54847
G01 X-4.60444 Y3.54834
G01 X-4.60397 Y3.54847
G01 X-4.60397 Y3.97097
G01 X-4.60397 Y3.97098
G01 X-4.60412 Y3.97416
G01 X-4.60422 Y3.97797
G01 X-4.60422 Y4.07797
G01 X-4.60412 Y4.08178
G01 X-4.60397 Y4.08496
G01 X-4.60397 Y4.08497
G01 X-4.60397 Y4.09318
G01 X-4.60397 Y4.09318
G01 X-4.61697 Y4.34179
G01 X-4.61697 Y4.34179
G01 X-4.61697 Y4.34179
G01 X-4.61990 Y4.39795
G01 X-4.62059 Y4.40051
G01 X-4.62128 Y4.40347
G01 X-4.62159 Y4.40508
G01 X-4.62169 Y4.40556
G01 X-4.62311 Y4.41232
G01 X-4.62332 Y4.41331
G01 X-4.62402 Y4.41625
G01 X-4.62429 Y4.41750
G01 X-4.62540 Y4.42300
G01 X-4.62605 Y4.42572
G01 X-4.62643 Y4.42713
G01 X-4.62717 Y4.43034
G01 X-4.62791 Y4.43411
G01 X-4.62910 Y4.43895
G01 X-4.62915 Y4.43910
G01 X-4.62941 Y4.44019
G01 X-4.62944 Y4.44032
G01 X-4.63056 Y4.44498
G01 X-4.63086 Y4.44657
G01 X-4.63252 Y4.45344
G01 X-4.63248 Y4.45345
G01 X-4.63252 Y4.45344
G01 X-4.63275 Y4.45423
G01 X-4.63255 Y4.45432
G01 X-4.63275 Y4.45423
G01 X-4.63359 Y4.45599
G01 X-4.63350 Y4.45604
G01 X-4.63359 Y4.45599
G01 X-4.63430 Y4.45664
G01 X-4.63725 Y4.46079
G01 X-4.63731 Y4.46087
G01 X-4.63712 Y4.46109
G01 X-4.63731 Y4.46087
G01 X-4.63706 Y4.46114
G01 X-4.63731 Y4.46087
G01 X-4.64557 Y4.46565
G01 X-4.65000 Y4.46791
G01 X-4.65013 Y4.46797
G01 X-4.65012 Y4.46797
G01 X-4.65000 Y4.46791
G01 X-4.64907 Y4.46676
G01 X-4.64759 Y4.46448
G01 X-4.64341 Y4.45724
G01 X-4.64217 Y4.45481
G01 X-4.64120 Y4.45227
G01 X-4.64107 Y4.45188
G01 X-4.64132 Y4.45171
G01 X-4.64107 Y4.45188
G01 X-4.63673 Y4.44832
G01 X-4.63312 Y4.44471
G01 X-4.62941 Y4.44019
G01 X-4.62944 Y4.44032
G01 X-4.62944 Y4.44032
G01 X-4.62944 Y4.44032
G01 X-4.62923 Y4.44169
G01 X-4.62852 Y4.44432
G01 X-4.62594 Y4.45227
G01 X-4.62567 Y4.45298
G01 X-4.62553 Y4.45295
G01 X-4.62567 Y4.45298
G01 X-4.62567 Y4.45927
G01 X-4.62468 Y4.45968
G01 X-4.62567 Y4.45927
G01 X-4.63437 Y4.46797
G01 X-4.63396 Y4.46896
G01 X-4.63437 Y4.46797
G01 X-4.65012 Y4.46797
G01 X-4.65013 Y4.46797
G01 X-4.65119 Y4.46851
G01 X-4.65118 Y4.46853
G01 X-4.65119 Y4.46851
G01 X-4.65955 Y4.47224
G01 X-4.66391 Y4.47392
G01 X-4.66391 Y4.47394
G01 X-4.66391 Y4.47392
G01 X-4.67228 Y4.47664
G01 X-4.67227 Y4.47665
G01 X-4.67228 Y4.47664
G01 X-4.67580 Y4.47758
G01 X-4.67580 Y4.47760
G01 X-4.67580 Y4.47758
G01 X-4.68416 Y4.47936
G01 X-4.68717 Y4.47984
G01 X-4.68717 Y4.47986
G01 X-4.68717 Y4.47984
G01 X-4.69553 Y4.48072
G01 X-4.69829 Y4.48086
G01 X-4.69829 Y4.48087
G01 X-4.69829 Y4.48086
G01 X-4.70665 Y4.48086
G01 X-4.70665 Y4.48087
G01 X-4.70665 Y4.48086
G01 X-4.70940 Y4.48072
G01 X-4.71777 Y4.47984
G01 X-4.71777 Y4.47985
G01 X-4.71777 Y4.47984
G01 X-4.72077 Y4.47936
G01 X-4.72913 Y4.47758
G01 X-4.72914 Y4.47760
G01 X-4.72913 Y4.47758
G01 X-4.73266 Y4.47664
G01 X-4.74102 Y4.47392
G01 X-4.74103 Y4.47394
G01 X-4.74102 Y4.47392
G01 X-4.74538 Y4.47224
G01 X-4.74539 Y4.47225
G01 X-4.74538 Y4.47224
G01 X-4.75375 Y4.46851
G01 X-4.75375 Y4.46852
G01 X-4.75375 Y4.46851
G01 X-4.75481 Y4.46797
G01 X-4.75481 Y4.46797
G01 X-4.75494 Y4.46790
G01 X-4.75936 Y4.46565
G01 X-4.76763 Y4.46087
G01 X-4.76786 Y4.46113
G01 X-4.76763 Y4.46087
G01 X-4.76769 Y4.46079
G01 X-4.77111 Y4.45589
G01 X-4.77142 Y4.45602
G01 X-4.77111 Y4.45589
G01 X-4.77131 Y4.45473
G01 X-4.77137 Y4.45435
G01 X-4.77141 Y4.45436
G01 X-4.77137 Y4.45435
G01 X-4.77137 Y4.44596
G01 X-4.77137 Y4.43942
G01 X-4.77137 Y4.43101
G01 X-4.77137 Y4.42493
G01 X-4.77137 Y4.41652
G01 X-4.77137 Y4.40998
G01 X-4.77137 Y4.40272
G01 X-4.77147 Y4.40270
G01 X-4.77137 Y4.40272
G01 X-4.77145 Y4.40271
G01 X-4.77137 Y4.40272
G01 X-4.77111 Y4.40127
G01 X-4.76945 Y4.39413
G01 X-4.76946 Y4.39412
G01 X-4.76945 Y4.39413
G01 X-4.76707 Y4.38585
G01 X-4.76497 Y4.37979
G01 X-4.76497 Y4.37979
G01 X-4.76432 Y4.37791
G01 X-4.76098 Y4.36966
G01 X-4.75821 Y4.36350
G01 X-4.75801 Y4.36354
G01 X-4.75821 Y4.36350
G01 X-4.75299 Y4.08074
G01 X-4.75298 Y4.07997
G01 X-4.75297 Y4.07868
G01 X-4.75297 Y4.07797
G01 X-4.75297 Y3.97797
G01 X-4.75306 Y3.97404
G01 X-4.75340 Y3.96718
G01 X-4.75339 Y3.96718
G01 X-4.75338 Y3.96718
G01 X-4.75339 Y3.96718
G01 X-4.75340 Y3.96718
G01 X-4.75419 Y3.95917
G01 X-4.75519 Y3.95231
G01 X-4.75688 Y3.94387
G01 X-4.75521 Y3.95231
G01 X-4.75419 Y3.95917
G01 X-4.75521 Y3.95231
G01 X-4.75519 Y3.95231
G01 X-4.75521 Y3.95231
G01 X-4.75688 Y3.94387
G01 X-4.75860 Y3.93701
G01 X-4.76135 Y3.92797
G01 X-4.76164 Y3.92797
G01 X-4.77245 Y3.92797
G01 X-4.77358 Y3.92797
G01 X-4.78250 Y3.92797
G01 X-4.79137 Y3.92797
G01 X-4.79311 Y3.92797
G01 X-4.79735 Y3.92797
G01 X-4.80513 Y3.92797
G01 X-4.80921 Y3.92797
G01 X-4.81638 Y3.92797
G01 X-4.81959 Y3.92797
G01 X-4.82649 Y3.92797
G01 X-4.82944 Y3.92797
G01 X-4.83634 Y3.92797
G01 X-4.83955 Y3.92797
G01 X-4.84672 Y3.92797
G01 X-4.85080 Y3.92797
G01 X-4.85858 Y3.92797
G01 X-4.86283 Y3.92797
G01 X-4.86456 Y3.92797
G01 X-4.87344 Y3.92797
G01 X-4.88235 Y3.92797
G01 X-4.88286 Y3.92848
G01 X-4.88722 Y3.93378
G01 X-4.88950 Y3.93686
G01 X-4.89146 Y3.94014
G01 X-4.89470 Y3.94619
G01 X-4.89762 Y3.95325
G01 X-4.89962 Y3.95982
G01 X-4.90111 Y3.96732
G01 X-4.90178 Y3.97415
G01 X-4.90197 Y3.97797
G01 X-4.90197 Y4.07661
G01 X-4.90397 Y4.13068
G01 X-4.90895 Y4.40055
G01 X-4.90397 Y4.13074
G01 X-4.90397 Y3.54847
G01 X-4.90444 Y3.54834
G01 X-4.90397 Y3.54847
G01 X-4.77410 Y3.33203
G01 X-4.77415 Y3.33200
G01 X-4.77410 Y3.33203
G01 X-4.77130 Y3.32923
G01 X-4.76664 Y3.32354
G01 X-4.76436 Y3.32047
G01 X-4.76239 Y3.31719
G01 X-4.75893 Y3.31070
G01 X-4.75600 Y3.30364
G01 X-4.75387 Y3.29661
G01 X-4.75294 Y3.29289
G01 X-4.75238 Y3.28911
G01 X-4.75166 Y3.28179
G01 X-4.75147 Y3.27797
G01 X-4.75147 Y3.07797
G01 X-4.75166 Y3.07415
G01 X-4.75238 Y3.06683
G01 X-4.75294 Y3.06304
G01 X-4.75387 Y3.05933
G01 X-4.75600 Y3.05230
G01 X-4.75893 Y3.04523
G01 X-4.76239 Y3.03875
G01 X-4.76436 Y3.03547
G01 X-4.76664 Y3.03239
G01 X-4.77130 Y3.02671
G01 X-4.77387 Y3.02388
G01 X-4.77671 Y3.02131
G01 X-4.78239 Y3.01664
G01 X-4.78875 Y3.01239
G01 X-4.79523 Y3.00893
G01 X-4.79869 Y3.00729
G01 X-4.80230 Y3.00600
G01 X-4.80933 Y3.00387
G01 X-4.81683 Y3.00238
G01 X-4.82415 Y3.00166
G01 X-4.82797 Y3.00147
G01 X-4.83179 Y3.00166
G01 X-4.83911 Y3.00238
G01 X-4.84660 Y3.00387
G01 X-4.85364 Y3.00600
G01 X-4.85724 Y3.00729
G01 X-4.86070 Y3.00893
G01 X-4.86719 Y3.01239
G01 X-4.87354 Y3.01664
G01 X-4.87923 Y3.02131
G01 X-4.88206 Y3.02388
G01 X-4.88463 Y3.02671
G01 X-4.88930 Y3.03239
G01 X-4.89158 Y3.03547
G01 X-4.89354 Y3.03875
G01 X-4.89701 Y3.04523
G01 X-4.89993 Y3.05230
G01 X-4.90207 Y3.05933
G01 X-4.90300 Y3.06304
G01 X-4.90356 Y3.06683
G01 X-4.90428 Y3.07415
G01 X-4.90447 Y3.07797
G01 X-4.90447 Y3.26164
G01 X-4.90400 Y3.26177
G01 X-4.90447 Y3.26164
G01 X-5.04142 Y3.48990
G01 X-5.04309 Y3.49299
G01 X-5.04583 Y3.49865
G01 X-5.04831 Y3.50522
G01 X-5.04999 Y3.51129
G01 X-5.05124 Y3.51819
G01 X-5.05181 Y3.52446
G01 X-5.05197 Y3.52797
G01 X-5.05197 Y4.40078
G01 X-5.05183 Y4.40080
G01 X-5.05197 Y4.40078
G01 X-5.05419 Y4.40760
G01 X-5.05524 Y4.41154
G01 X-5.05588 Y4.41558
G01 X-5.05675 Y4.42389
G01 X-5.05697 Y4.42797
G01 X-5.05675 Y4.43205
G01 X-5.05588 Y4.44036
G01 X-5.05524 Y4.44439
G01 X-5.05419 Y4.44834
G01 X-5.05203 Y4.45497
G01 X-5.13941 Y4.45497
G01 X-5.14650 Y4.46023
G01 X-5.13941 Y4.45497
G01 X-5.13725 Y4.44834
G01 X-5.13619 Y4.44439
G01 X-5.13556 Y4.44036
G01 X-5.13468 Y4.43205
G01 X-5.13447 Y4.42797
G01 X-5.13468 Y4.42389
G01 X-5.13517 Y4.41927
G01 X-5.13533 Y4.41926
G01 X-5.13517 Y4.41927
G01 X-5.05608 Y4.09553
G01 X-5.05560 Y4.09325
G01 X-5.05485 Y4.08912
G01 X-5.05429 Y4.08449
G01 X-5.05404 Y4.08030
G01 X-5.05397 Y4.07797
G01 X-5.05397 Y3.97797
G01 X-5.05416 Y3.97415
G01 X-5.05483 Y3.96732
G01 X-5.05539 Y3.96353
G01 X-5.05632 Y3.95982
G01 X-5.05831 Y3.95325
G01 X-5.06124 Y3.94619
G01 X-5.06447 Y3.94014
G01 X-5.06644 Y3.93686
G01 X-5.06872 Y3.93378
G01 X-5.07307 Y3.92848
G01 X-5.07358 Y3.92797
G01 X-5.07307 Y3.92746
G01 X-5.06872 Y3.92216
G01 X-5.06644 Y3.91908
G01 X-5.06447 Y3.91580
G01 X-5.06124 Y3.90975
G01 X-5.05831 Y3.90268
G01 X-5.05632 Y3.89612
G01 X-5.05483 Y3.88862
G01 X-5.05416 Y3.88179
G01 X-5.05397 Y3.87797
G01 X-5.05397 Y3.59504
G01 X-5.05399 Y3.59503
G01 X-5.05397 Y3.59504
G01 X-5.05363 Y3.59377
G01 X-5.05299 Y3.58974
G01 X-5.05218 Y3.58205
G01 X-5.05207 Y3.58001
G01 X-5.05207 Y3.57797
G01 X-5.05207 Y3.57593
G01 X-5.05218 Y3.57389
G01 X-5.05299 Y3.56620
G01 X-5.05363 Y3.56217
G01 X-5.05469 Y3.55822
G01 X-5.05708 Y3.55087
G01 X-5.05854 Y3.54706
G01 X-5.06039 Y3.54342
G01 X-5.06426 Y3.53672
G01 X-5.06648 Y3.53330
G01 X-5.06905 Y3.53012
G01 X-5.07423 Y3.52438
G01 X-5.07711 Y3.52149
G01 X-5.08029 Y3.51892
G01 X-5.08654 Y3.51437
G01 X-5.08997 Y3.51215
G01 X-5.09361 Y3.51030
G01 X-5.10067 Y3.50715
G01 X-5.10448 Y3.50569
G01 X-5.10843 Y3.50463
G01 X-5.11599 Y3.50302
G01 X-5.12002 Y3.50239
G01 X-5.12410 Y3.50217
G01 X-5.13184 Y3.50217
G01 X-5.13591 Y3.50239
G01 X-5.13994 Y3.50302
G01 X-5.14751 Y3.50463
G01 X-5.15145 Y3.50569
G01 X-5.15526 Y3.50715
G01 X-5.16233 Y3.51030
G01 X-5.16597 Y3.51215
G01 X-5.16939 Y3.51437
G01 X-5.17565 Y3.51892
G01 X-5.17882 Y3.52149
G01 X-5.18171 Y3.52438
G01 X-5.18688 Y3.53012
G01 X-5.18945 Y3.53330
G01 X-5.19168 Y3.53672
G01 X-5.19554 Y3.54342
G01 X-5.19740 Y3.54706
G01 X-5.19886 Y3.55087
G01 X-5.20125 Y3.55822
G01 X-5.20231 Y3.56217
G01 X-5.20295 Y3.56620
G01 X-5.20375 Y3.57389
G01 X-5.20386 Y3.57592
G01 X-5.20386 Y3.57797
G01 X-5.20386 Y3.58002
G01 X-5.20375 Y3.58205
G01 X-5.20295 Y3.58974
G01 X-5.20231 Y3.59377
G01 X-5.20197 Y3.59504
G01 X-5.20194 Y3.59503
G01 X-5.20197 Y3.59504
G01 X-5.20197 Y3.87797
G01 X-5.20178 Y3.88179
G01 X-5.20111 Y3.88862
G01 X-5.20055 Y3.89241
G01 X-5.19962 Y3.89612
G01 X-5.19762 Y3.90268
G01 X-5.19470 Y3.90975
G01 X-5.19146 Y3.91580
G01 X-5.18950 Y3.91908
G01 X-5.18722 Y3.92216
G01 X-5.18286 Y3.92746
G01 X-5.18235 Y3.92797
G01 X-5.18348 Y3.92797
G01 X-5.19430 Y3.92797
G01 X-5.19458 Y3.92797
G01 X-5.19430 Y3.92797
G01 X-5.18348 Y3.92797
G01 X-5.18235 Y3.92797
G01 X-5.17344 Y3.92797
G01 X-5.16456 Y3.92797
G01 X-5.16283 Y3.92797
G01 X-5.15858 Y3.92797
G01 X-5.16283 Y3.92797
G01 X-5.16391 Y3.92717
G01 X-5.16921 Y3.92282
G01 X-5.17282 Y3.91921
G01 X-5.17717 Y3.91391
G01 X-5.17869 Y3.91186
G01 X-5.18000 Y3.90967
G01 X-5.18323 Y3.90362
G01 X-5.18518 Y3.89891
G01 X-5.18718 Y3.89234
G01 X-5.18780 Y3.88987
G01 X-5.18817 Y3.88735
G01 X-5.18884 Y3.88052
G01 X-5.18897 Y3.87797
G01 X-5.18897 Y3.59339
G01 X-5.18894 Y3.59339
G01 X-5.18897 Y3.59339
G01 X-5.18959 Y3.59107
G01 X-5.19002 Y3.58838
G01 X-5.19083 Y3.58069
G01 X-5.19097 Y3.57797
G01 X-5.19083 Y3.57525
G01 X-5.19002 Y3.56756
G01 X-5.18959 Y3.56487
G01 X-5.18889 Y3.56224
G01 X-5.18650 Y3.55489
G01 X-5.18552 Y3.55234
G01 X-5.18429 Y3.54992
G01 X-5.18042 Y3.54322
G01 X-5.17894 Y3.54094
G01 X-5.17722 Y3.53882
G01 X-5.17205 Y3.53308
G01 X-5.17012 Y3.53115
