( pcb2gcode 2.1.0 )
( Software-independent Gcode )

G94 ( Inches per minute feed rate. )
G20 ( Units == INCHES. )

G90 ( Absolute coordinates. )
G00 S30000 ( RPM spindle speed. )
G01 F100.00000 ( Feedrate. )


G00 Z0.05000 (Retract to tool change height)
G04 P0.00000 (Wait for spindle to stop)
(MSG, Change tool bit to mill diameter 0.02600in)
G04 P0.00000 (Wait for spindle to get up to speed)
G04 P0 ( dwell for no time -- G64 should not smooth over this point )
G00 Z0.05000 ( retract )

G00 X-1.56683 Y3.49769 ( rapid move to begin. )
G01 F100.00000
( Mill infeed pass 1/1 )
G01 Z-0.00500
G04 P0 ( dwell for no time -- G64 should not smooth over this point )
G01 F100.00000
G01 X-1.56683 Y3.49769
G01 X-1.57757 Y3.55872
G01 X-1.57757 Y3.71300
G01 X-1.57376 Y3.71681
G01 X-1.57757 Y3.71300
G01 X-1.61747 Y3.71300
G01 X-1.62380 Y3.71797
G01 X-1.61747 Y3.71300
G01 X-1.58431 Y3.57728
G01 X-1.58433 Y3.57728
G01 X-1.58431 Y3.57728
G01 X-1.58313 Y3.57484
G01 X-1.57896 Y3.56331
G01 X-1.57757 Y3.55872
G04 P0 ( dwell for no time -- G64 should not smooth over this point )
G00 Z0.05000 ( retract )

G00 X-2.40423 Y3.55552 ( rapid move to begin. )
G01 F100.00000
( Mill infeed pass 1/1 )
G01 Z-0.00500
G04 P0 ( dwell for no time -- G64 should not smooth over this point )
G01 F100.00000
G01 X-2.40423 Y3.55552
G01 X-2.40115 Y3.52621
G01 X-2.40110 Y3.52621
G01 X-2.40115 Y3.52621
G01 X-2.40116 Y3.52614
G01 X-2.40175 Y3.52018
G01 X-2.40175 Y3.52017
G01 X-2.40175 Y3.52015
G01 X-2.40178 Y3.51881
G01 X-2.40178 Y3.51880
G01 X-2.40182 Y3.51635
G01 X-2.40182 Y3.51500
G01 X-2.40182 Y3.41500
G01 X-2.40173 Y3.41120
G01 X-2.40157 Y3.40802
G01 X-2.40157 Y3.40801
G01 X-2.40157 Y3.40800
G01 X-2.40157 Y2.98550
G01 X-2.40204 Y2.98537
G01 X-2.40157 Y2.98550
G01 X-2.27171 Y2.76906
G01 X-2.27175 Y2.76903
G01 X-2.27171 Y2.76906
G01 X-2.26891 Y2.76626
G01 X-2.26424 Y2.76058
G01 X-2.26196 Y2.75750
G01 X-2.26000 Y2.75422
G01 X-2.25653 Y2.74774
G01 X-2.25360 Y2.74067
G01 X-2.25147 Y2.73364
G01 X-2.25054 Y2.72992
G01 X-2.24998 Y2.72614
G01 X-2.24926 Y2.71882
G01 X-2.24907 Y2.71500
G01 X-2.24907 Y2.51500
G01 X-2.24926 Y2.51118
G01 X-2.24998 Y2.50386
G01 X-2.25054 Y2.50008
G01 X-2.25147 Y2.49636
G01 X-2.25360 Y2.48933
G01 X-2.25653 Y2.48226
G01 X-2.26000 Y2.47578
G01 X-2.26196 Y2.47250
G01 X-2.26424 Y2.46942
G01 X-2.26891 Y2.46374
G01 X-2.27148 Y2.46091
G01 X-2.27431 Y2.45834
G01 X-2.28000 Y2.45367
G01 X-2.28635 Y2.44942
G01 X-2.29284 Y2.44596
G01 X-2.29630 Y2.44432
G01 X-2.29990 Y2.44303
G01 X-2.30693 Y2.44090
G01 X-2.31443 Y2.43941
G01 X-2.32175 Y2.43869
G01 X-2.32557 Y2.43850
G01 X-2.32939 Y2.43869
G01 X-2.33671 Y2.43941
G01 X-2.34421 Y2.44090
G01 X-2.35124 Y2.44303
G01 X-2.35485 Y2.44432
G01 X-2.35831 Y2.44596
G01 X-2.36479 Y2.44942
G01 X-2.37115 Y2.45367
G01 X-2.37683 Y2.45834
G01 X-2.37966 Y2.46091
G01 X-2.38223 Y2.46374
G01 X-2.38690 Y2.46942
G01 X-2.38918 Y2.47250
G01 X-2.39115 Y2.47578
G01 X-2.39461 Y2.48226
G01 X-2.39754 Y2.48933
G01 X-2.39967 Y2.49636
G01 X-2.40060 Y2.50008
G01 X-2.40116 Y2.50386
G01 X-2.40188 Y2.51118
G01 X-2.40207 Y2.51500
G01 X-2.40207 Y2.69867
G01 X-2.40160 Y2.69880
G01 X-2.40207 Y2.69867
G01 X-2.53903 Y2.92693
G01 X-2.54069 Y2.93002
G01 X-2.54344 Y2.93569
G01 X-2.54591 Y2.94225
G01 X-2.54759 Y2.94832
G01 X-2.54885 Y2.95522
G01 X-2.54941 Y2.96149
G01 X-2.54957 Y2.96500
G01 X-2.54957 Y3.40800
G01 X-2.54957 Y3.40800
G01 X-2.54957 Y3.40801
G01 X-2.54957 Y3.40801
G01 X-2.54957 Y3.40803
G01 X-2.54941 Y3.41120
G01 X-2.54932 Y3.41500
G01 X-2.54932 Y3.51242
G01 X-2.54931 Y3.51242
G01 X-2.54932 Y3.51242
G01 X-2.54941 Y3.51500
G01 X-2.54964 Y3.51878
G01 X-2.55025 Y3.52611
G01 X-2.55083 Y3.53043
G01 X-2.55083 Y3.53043
G01 X-2.55157 Y3.54097
G01 X-2.55157 Y3.54098
G01 X-2.56185 Y3.83502
G01 X-2.56182 Y3.83502
G01 X-2.56185 Y3.83502
G01 X-2.56291 Y3.84019
G01 X-2.56424 Y3.84855
G01 X-2.56451 Y3.85082
G01 X-2.56457 Y3.85136
G01 X-2.56457 Y3.85137
G01 X-2.56473 Y3.85270
G01 X-2.56483 Y3.85399
G01 X-2.56494 Y3.85523
G01 X-2.56563 Y3.86205
G01 X-2.56566 Y3.86231
G01 X-2.56573 Y3.86292
G01 X-2.56619 Y3.86300
G01 X-2.56573 Y3.86292
G01 X-2.56381 Y3.86750
G01 X-2.55999 Y3.87551
G01 X-2.56000 Y3.87551
G01 X-2.55999 Y3.87551
G01 X-2.55788 Y3.87939
G01 X-2.55339 Y3.88672
G01 X-2.55340 Y3.88673
G01 X-2.55339 Y3.88672
G01 X-2.55131 Y3.88975
G01 X-2.55132 Y3.88976
G01 X-2.55131 Y3.88975
G01 X-2.54617 Y3.89644
G01 X-2.54618 Y3.89645
G01 X-2.54619 Y3.89646
G01 X-2.54618 Y3.89645
G01 X-2.54617 Y3.89644
G01 X-2.54403 Y3.89895
G01 X-2.54404 Y3.89897
G01 X-2.54403 Y3.89895
G01 X-2.53827 Y3.90502
G01 X-2.53829 Y3.90504
G01 X-2.53827 Y3.90502
G01 X-2.53593 Y3.90724
G01 X-2.53594 Y3.90725
G01 X-2.53593 Y3.90724
G01 X-2.52955 Y3.91269
G01 X-2.52722 Y3.91451
G01 X-2.52737 Y3.91483
G01 X-2.52722 Y3.91451
G01 X-2.52741 Y3.91490
G01 X-2.52722 Y3.91451
G01 X-2.52740 Y3.91488
G01 X-2.52722 Y3.91451
G01 X-2.52674 Y3.91461
G01 X-2.51837 Y3.91639
G01 X-2.51537 Y3.91687
G01 X-2.51537 Y3.91689
G01 X-2.51537 Y3.91687
G01 X-2.50701 Y3.91775
G01 X-2.50425 Y3.91789
G01 X-2.50425 Y3.91791
G01 X-2.50425 Y3.91789
G01 X-2.49589 Y3.91789
G01 X-2.49589 Y3.91791
G01 X-2.49589 Y3.91789
G01 X-2.49313 Y3.91775
G01 X-2.49313 Y3.91776
G01 X-2.49313 Y3.91775
G01 X-2.48477 Y3.91687
G01 X-2.48477 Y3.91689
G01 X-2.48477 Y3.91687
G01 X-2.48177 Y3.91639
G01 X-2.48177 Y3.91640
G01 X-2.48177 Y3.91639
G01 X-2.47341 Y3.91461
G01 X-2.47340 Y3.91463
G01 X-2.47340 Y3.91464
G01 X-2.47340 Y3.91463
G01 X-2.47341 Y3.91461
G01 X-2.46988 Y3.91367
G01 X-2.46152 Y3.91095
G01 X-2.46151 Y3.91097
G01 X-2.46152 Y3.91095
G01 X-2.45715 Y3.90927
G01 X-2.45714 Y3.90929
G01 X-2.45715 Y3.90927
G01 X-2.44879 Y3.90555
G01 X-2.44773 Y3.90500
G01 X-2.44773 Y3.90500
G01 X-2.43197 Y3.90500
G01 X-2.43156 Y3.90599
G01 X-2.43197 Y3.90500
G01 X-2.42327 Y3.89630
G01 X-2.42228 Y3.89671
G01 X-2.42327 Y3.89630
G01 X-2.42327 Y3.89001
G01 X-2.42315 Y3.88999
G01 X-2.42327 Y3.89001
G01 X-2.42354 Y3.88930
G01 X-2.42612 Y3.88135
G01 X-2.42683 Y3.87872
G01 X-2.42725 Y3.87603
G01 X-2.42813 Y3.86772
G01 X-2.42827 Y3.86500
G01 X-2.42813 Y3.86228
G01 X-2.42725 Y3.85397
G01 X-2.42683 Y3.85128
G01 X-2.42612 Y3.84865
G01 X-2.42354 Y3.84070
G01 X-2.42257 Y3.83816
G01 X-2.42133 Y3.83573
G01 X-2.42036 Y3.83405
G01 X-2.42012 Y3.83413
G01 X-2.42036 Y3.83405
G01 X-2.38806 Y3.52599
G01 X-2.38800 Y3.52599
G01 X-2.38806 Y3.52599
G01 X-2.38823 Y3.52486
G01 X-2.38895 Y3.51755
G01 X-2.38907 Y3.51500
G01 X-2.38907 Y3.41500
G01 X-2.38895 Y3.41245
G01 X-2.38823 Y3.40514
G01 X-2.38785 Y3.40261
G01 X-2.38723 Y3.40014
G01 X-2.38510 Y3.39310
G01 X-2.38315 Y3.38839
G01 X-2.37968 Y3.38191
G01 X-2.37837 Y3.37972
G01 X-2.37685 Y3.37767
G01 X-2.37219 Y3.37199
G01 X-2.37047 Y3.37010
G01 X-2.36858 Y3.36839
G01 X-2.36290 Y3.36372
G01 X-2.36242 Y3.36340
G01 X-2.36242 Y3.36340
G01 X-2.36088 Y3.36343
G01 X-2.35723 Y3.36356
G01 X-2.35543 Y3.36359
G01 X-2.34888 Y3.36359
G01 X-2.34766 Y3.36361
G01 X-2.34498 Y3.36369
G01 X-2.34393 Y3.36370
G01 X-2.33729 Y3.36370
G01 X-2.33676 Y3.36371
G01 X-2.33431 Y3.36375
G01 X-2.33382 Y3.36375
G01 X-2.32692 Y3.36375
G01 X-2.32422 Y3.36375
G01 X-2.31732 Y3.36375
G01 X-2.31683 Y3.36375
G01 X-2.31438 Y3.36371
G01 X-2.31385 Y3.36370
G01 X-2.30721 Y3.36370
G01 X-2.30616 Y3.36369
G01 X-2.30348 Y3.36361
G01 X-2.30226 Y3.36359
G01 X-2.29571 Y3.36359
G01 X-2.29391 Y3.36356
G01 X-2.29026 Y3.36343
G01 X-2.28872 Y3.36340
G01 X-2.28872 Y3.36340
G01 X-2.28872 Y3.36340
G01 X-2.28866 Y3.36340
G01 X-2.28797 Y3.36339
G01 X-2.28142 Y3.36339
G01 X-2.27841 Y3.36334
G01 X-2.27235 Y3.36312
G01 X-2.26950 Y3.36306
G01 X-2.26805 Y3.36304
G01 X-2.26163 Y3.36304
G01 X-2.25827 Y3.36300
G01 X-2.25785 Y3.36418
G01 X-2.25511 Y3.37317
G01 X-2.25327 Y3.38052
G01 X-2.25326 Y3.38052
G01 X-2.25327 Y3.38052
G01 X-2.25162 Y3.38873
G01 X-2.25054 Y3.39608
G01 X-2.24978 Y3.40385
G01 X-2.24976 Y3.40384
G01 X-2.24978 Y3.40385
G01 X-2.24957 Y3.40800
G01 X-2.24957 Y3.40801
G01 X-2.24941 Y3.41120
G01 X-2.24932 Y3.41500
G01 X-2.24932 Y3.50988
G01 X-2.24931 Y3.50988
G01 X-2.24932 Y3.50988
G01 X-2.24968 Y3.51500
G01 X-2.25003 Y3.51874
G01 X-2.25090 Y3.52605
G01 X-2.25088 Y3.52605
G01 X-2.25090 Y3.52605
G01 X-2.25215 Y3.53343
G01 X-2.25373 Y3.54063
G01 X-2.25401 Y3.54184
G01 X-2.28918 Y3.82953
G01 X-2.28915 Y3.82953
G01 X-2.28918 Y3.82953
G01 X-2.28998 Y3.83201
G01 X-2.29179 Y3.83873
G01 X-2.29337 Y3.84618
G01 X-2.29337 Y3.84659
G01 X-2.29375 Y3.84659
G01 X-2.29337 Y3.84659
G01 X-2.29330 Y3.84703
G01 X-2.29187 Y3.85371
G01 X-2.29011 Y3.86022
G01 X-2.29011 Y3.86022
G01 X-2.28953 Y3.86236
G01 X-2.28955 Y3.86237
G01 X-2.28953 Y3.86236
G01 X-2.28787 Y3.86746
G01 X-2.28474 Y3.87554
G01 X-2.28334 Y3.87876
G01 X-2.28340 Y3.87879
G01 X-2.28334 Y3.87876
G01 X-2.28286 Y3.87958
G01 X-2.27836 Y3.88691
G01 X-2.27837 Y3.88692
G01 X-2.27836 Y3.88691
G01 X-2.27621 Y3.89004
G01 X-2.27622 Y3.89005
G01 X-2.27621 Y3.89004
G01 X-2.27108 Y3.89674
G01 X-2.27109 Y3.89674
G01 X-2.27109 Y3.89675
G01 X-2.27109 Y3.89674
G01 X-2.27108 Y3.89674
G01 X-2.26885 Y3.89934
G01 X-2.26887 Y3.89935
G01 X-2.26885 Y3.89934
G01 X-2.26310 Y3.90541
G01 X-2.26311 Y3.90542
G01 X-2.26310 Y3.90541
G01 X-2.26067 Y3.90771
G01 X-2.26068 Y3.90772
G01 X-2.26067 Y3.90771
G01 X-2.25429 Y3.91316
G01 X-2.25309 Y3.91414
G01 X-2.25327 Y3.91451
G01 X-2.25309 Y3.91414
G01 X-2.25328 Y3.91454
G01 X-2.25309 Y3.91414
G01 X-2.25114 Y3.91461
G01 X-2.24277 Y3.91639
G01 X-2.23977 Y3.91687
G01 X-2.23977 Y3.91689
G01 X-2.23977 Y3.91687
G01 X-2.23141 Y3.91775
G01 X-2.22865 Y3.91789
G01 X-2.22865 Y3.91790
G01 X-2.22865 Y3.91789
G01 X-2.22029 Y3.91789
G01 X-2.22029 Y3.91790
G01 X-2.22029 Y3.91789
G01 X-2.21753 Y3.91775
G01 X-2.21753 Y3.91776
G01 X-2.21753 Y3.91775
G01 X-2.20917 Y3.91687
G01 X-2.20917 Y3.91689
G01 X-2.20917 Y3.91687
G01 X-2.20617 Y3.91639
G01 X-2.20616 Y3.91641
G01 X-2.20617 Y3.91639
G01 X-2.19781 Y3.91461
G01 X-2.19780 Y3.91464
G01 X-2.19781 Y3.91461
G01 X-2.19428 Y3.91367
G01 X-2.19428 Y3.91368
G01 X-2.19428 Y3.91367
G01 X-2.18592 Y3.91095
G01 X-2.18591 Y3.91097
G01 X-2.18592 Y3.91095
G01 X-2.18155 Y3.90927
G01 X-2.18154 Y3.90929
G01 X-2.18155 Y3.90927
G01 X-2.17319 Y3.90555
G01 X-2.17319 Y3.90556
G01 X-2.17319 Y3.90555
G01 X-2.17213 Y3.90500
G01 X-2.17200 Y3.90494
G01 X-2.16758 Y3.90267
G01 X-2.16757 Y3.90268
G01 X-2.16758 Y3.90267
G01 X-2.15931 Y3.89790
G01 X-2.15908 Y3.89816
G01 X-2.15931 Y3.89790
G01 X-2.15910 Y3.89813
G01 X-2.15931 Y3.89790
G01 X-2.15925 Y3.89783
G01 X-2.15582 Y3.89292
G01 X-2.15523 Y3.89311
G01 X-2.15582 Y3.89292
G01 X-2.15563 Y3.89176
G01 X-2.15557 Y3.89138
G01 X-2.15557 Y3.88299
G01 X-2.15557 Y3.87645
G01 X-2.15557 Y3.86804
G01 X-2.15557 Y3.86196
G01 X-2.15557 Y3.85355
G01 X-2.15557 Y3.84831
G01 X-2.15567 Y3.84830
G01 X-2.15557 Y3.84831
G01 X-2.15530 Y3.84710
G01 X-2.15342 Y3.83892
G01 X-2.15154 Y3.83238
G01 X-2.15155 Y3.83237
G01 X-2.15154 Y3.83238
G01 X-2.14877 Y3.82432
G01 X-2.14592 Y3.81728
G01 X-2.14318 Y3.81138
G01 X-2.10945 Y3.57654
G01 X-2.10943 Y3.57643
G01 X-2.10228 Y3.52524
G01 X-2.10200 Y3.52255
G01 X-2.10180 Y3.51966
G01 X-2.10181 Y3.51882
G01 X-2.10180 Y3.51966
G01 X-2.10180 Y3.51966
G01 X-2.10150 Y3.52267
G01 X-2.10147 Y3.52268
G01 X-2.10150 Y3.52267
G01 X-2.10940 Y3.57617
G01 X-2.10943 Y3.57643
G01 X-2.10945 Y3.57654
G01 X-2.14318 Y3.81138
G01 X-2.14307 Y3.81141
G01 X-2.14318 Y3.81138
G01 X-2.10940 Y3.57617
G01 X-2.10209 Y3.52527
G01 X-2.10176 Y3.52267
G01 X-2.10172 Y3.52267
G01 X-2.10176 Y3.52267
G01 X-2.10176 Y3.52256
G01 X-2.10180 Y3.51966
G01 X-2.10181 Y3.51882
G01 X-2.10182 Y3.51769
G01 X-2.10182 Y3.51500
G01 X-2.10182 Y3.41500
G01 X-2.10173 Y3.41119
G01 X-2.10157 Y3.40800
G01 X-2.10157 Y2.98550
G01 X-2.10204 Y2.98537
G01 X-2.10157 Y2.98550
G01 X-1.97171 Y2.76906
G01 X-1.97175 Y2.76903
G01 X-1.97171 Y2.76906
G01 X-1.96891 Y2.76626
G01 X-1.96424 Y2.76058
G01 X-1.96196 Y2.75750
G01 X-1.96000 Y2.75422
G01 X-1.95653 Y2.74774
G01 X-1.95360 Y2.74067
G01 X-1.95147 Y2.73364
G01 X-1.95054 Y2.72992
G01 X-1.94998 Y2.72614
G01 X-1.94926 Y2.71882
G01 X-1.94907 Y2.71500
G01 X-1.94907 Y2.51500
G01 X-1.94926 Y2.51118
G01 X-1.94998 Y2.50386
G01 X-1.95054 Y2.50008
G01 X-1.95147 Y2.49636
G01 X-1.95360 Y2.48933
G01 X-1.95653 Y2.48226
G01 X-1.96000 Y2.47578
G01 X-1.96196 Y2.47250
G01 X-1.96424 Y2.46942
G01 X-1.96891 Y2.46374
G01 X-1.97148 Y2.46091
G01 X-1.97431 Y2.45834
G01 X-1.98000 Y2.45367
G01 X-1.98635 Y2.44942
G01 X-1.99284 Y2.44596
G01 X-1.99630 Y2.44432
G01 X-1.99990 Y2.44303
G01 X-2.00693 Y2.44090
G01 X-2.01443 Y2.43941
G01 X-2.02175 Y2.43869
G01 X-2.02557 Y2.43850
G01 X-2.02939 Y2.43869
G01 X-2.03671 Y2.43941
G01 X-2.04421 Y2.44090
G01 X-2.05124 Y2.44303
G01 X-2.05485 Y2.44432
G01 X-2.05831 Y2.44596
G01 X-2.06479 Y2.44942
G01 X-2.07115 Y2.45367
G01 X-2.07683 Y2.45834
G01 X-2.07966 Y2.46091
G01 X-2.08223 Y2.46374
G01 X-2.08690 Y2.46942
G01 X-2.08918 Y2.47250
G01 X-2.09115 Y2.47578
G01 X-2.09461 Y2.48226
G01 X-2.09754 Y2.48933
G01 X-2.09967 Y2.49636
G01 X-2.10060 Y2.50008
G01 X-2.10116 Y2.50386
G01 X-2.10188 Y2.51118
G01 X-2.10207 Y2.51500
G01 X-2.10207 Y2.69867
G01 X-2.10160 Y2.69880
G01 X-2.10207 Y2.69867
G01 X-2.23903 Y2.92693
G01 X-2.24069 Y2.93002
G01 X-2.24344 Y2.93569
G01 X-2.24591 Y2.94225
G01 X-2.24759 Y2.94832
G01 X-2.24885 Y2.95522
G01 X-2.24941 Y2.96149
G01 X-2.24957 Y2.96500
G01 X-2.24957 Y3.40800
G01 X-2.24998 Y3.40386
G01 X-2.25054 Y3.40008
G01 X-2.25147 Y3.39636
G01 X-2.25360 Y3.38933
G01 X-2.25653 Y3.38226
G01 X-2.26000 Y3.37578
G01 X-2.26196 Y3.37250
G01 X-2.26424 Y3.36942
G01 X-2.26891 Y3.36374
G01 X-2.26952 Y3.36307
G01 X-2.26952 Y3.36307
G01 X-2.27235 Y3.36312
G01 X-2.27841 Y3.36334
G01 X-2.28142 Y3.36339
G01 X-2.28797 Y3.36339
G01 X-2.28866 Y3.36340
G01 X-2.28872 Y3.36340
G01 X-2.28872 Y3.36340
G01 X-2.29026 Y3.36343
G01 X-2.29391 Y3.36356
G01 X-2.29571 Y3.36359
G01 X-2.30226 Y3.36359
G01 X-2.30348 Y3.36361
G01 X-2.30616 Y3.36369
G01 X-2.30721 Y3.36370
G01 X-2.31385 Y3.36370
G01 X-2.31438 Y3.36371
G01 X-2.31683 Y3.36375
G01 X-2.31732 Y3.36375
G01 X-2.32422 Y3.36375
G01 X-2.32692 Y3.36375
G01 X-2.33382 Y3.36375
G01 X-2.33431 Y3.36375
G01 X-2.33676 Y3.36371
G01 X-2.33729 Y3.36370
G01 X-2.34393 Y3.36370
G01 X-2.34498 Y3.36369
G01 X-2.34766 Y3.36361
G01 X-2.34888 Y3.36359
G01 X-2.35543 Y3.36359
G01 X-2.35723 Y3.36356
G01 X-2.36088 Y3.36343
G01 X-2.36242 Y3.36340
G01 X-2.36248 Y3.36340
G01 X-2.36317 Y3.36339
G01 X-2.36972 Y3.36339
G01 X-2.37273 Y3.36334
G01 X-2.37879 Y3.36312
G01 X-2.38164 Y3.36306
G01 X-2.38309 Y3.36304
G01 X-2.38951 Y3.36304
G01 X-2.39288 Y3.36300
G01 X-2.39330 Y3.36418
G01 X-2.39603 Y3.37317
G01 X-2.39787 Y3.38052
G01 X-2.39788 Y3.38052
G01 X-2.39787 Y3.38052
G01 X-2.39951 Y3.38873
G01 X-2.40060 Y3.39608
G01 X-2.40137 Y3.40385
G01 X-2.40138 Y3.40384
G01 X-2.40137 Y3.40385
G01 X-2.40157 Y3.40799
G01 X-2.40157 Y3.40801
G01 X-2.40157 Y3.40800
G01 X-2.40157 Y3.40799
G01 X-2.40116 Y3.40386
G01 X-2.40060 Y3.40008
G01 X-2.39967 Y3.39636
G01 X-2.39754 Y3.38933
G01 X-2.39461 Y3.38226
G01 X-2.39115 Y3.37578
G01 X-2.38918 Y3.37250
G01 X-2.38690 Y3.36942
G01 X-2.38223 Y3.36374
G01 X-2.38162 Y3.36307
G01 X-2.37879 Y3.36312
G01 X-2.37273 Y3.36334
G01 X-2.36972 Y3.36339
G01 X-2.36317 Y3.36339
G01 X-2.36248 Y3.36340
G01 X-2.36242 Y3.36340
G01 X-2.36242 Y3.36340
G01 X-2.36248 Y3.36340
G01 X-2.36681 Y3.35985
G01 X-2.37042 Y3.35624
G01 X-2.37477 Y3.35094
G01 X-2.37629 Y3.34889
G01 X-2.37760 Y3.34670
G01 X-2.38084 Y3.34065
G01 X-2.38279 Y3.33594
G01 X-2.38478 Y3.32938
G01 X-2.38577 Y3.32438
G01 X-2.38645 Y3.31755
G01 X-2.38657 Y3.31500
G01 X-2.38657 Y3.03042
G01 X-2.38654 Y3.03042
G01 X-2.38657 Y3.03042
G01 X-2.38719 Y3.02810
G01 X-2.38762 Y3.02541
G01 X-2.38843 Y3.01772
G01 X-2.38857 Y3.01500
G01 X-2.38843 Y3.01228
G01 X-2.38762 Y3.00459
G01 X-2.38719 Y3.00190
G01 X-2.38649 Y2.99927
G01 X-2.38410 Y2.99192
G01 X-2.38312 Y2.98938
G01 X-2.38189 Y2.98695
G01 X-2.37802 Y2.98025
G01 X-2.37654 Y2.97797
G01 X-2.37483 Y2.97585
G01 X-2.36965 Y2.97011
G01 X-2.36773 Y2.96818
G01 X-2.36561 Y2.96647
G01 X-2.35935 Y2.96192
G01 X-2.35707 Y2.96044
G01 X-2.35465 Y2.95920
G01 X-2.34758 Y2.95606
G01 X-2.34504 Y2.95508
G01 X-2.34241 Y2.95438
G01 X-2.33484 Y2.95277
G01 X-2.33216 Y2.95235
G01 X-2.32944 Y2.95220
G01 X-2.32170 Y2.95220
G01 X-2.31899 Y2.95235
G01 X-2.31630 Y2.95277
G01 X-2.30873 Y2.95438
G01 X-2.30610 Y2.95508
G01 X-2.30356 Y2.95606
G01 X-2.29650 Y2.95920
G01 X-2.29407 Y2.96044
G01 X-2.29179 Y2.96192
G01 X-2.28553 Y2.96647
G01 X-2.28342 Y2.96818
G01 X-2.28149 Y2.97011
G01 X-2.27632 Y2.97585
G01 X-2.27460 Y2.97797
G01 X-2.27312 Y2.98025
G01 X-2.26925 Y2.98695
G01 X-2.26802 Y2.98938
G01 X-2.26704 Y2.99192
G01 X-2.26465 Y2.99927
G01 X-2.26395 Y3.00190
G01 X-2.26352 Y3.00459
G01 X-2.26271 Y3.01228
G01 X-2.26257 Y3.01500
G01 X-2.26271 Y3.01772
G01 X-2.26352 Y3.02541
G01 X-2.26395 Y3.02810
G01 X-2.26457 Y3.03043
G01 X-2.26460 Y3.03042
G01 X-2.26457 Y3.03043
G01 X-2.26457 Y3.31500
G01 X-2.26470 Y3.31755
G01 X-2.26537 Y3.32438
G01 X-2.26636 Y3.32938
G01 X-2.26835 Y3.33594
G01 X-2.27031 Y3.34065
G01 X-2.27354 Y3.34670
G01 X-2.27485 Y3.34889
G01 X-2.27637 Y3.35094
G01 X-2.28072 Y3.35624
G01 X-2.28433 Y3.35985
G01 X-2.28866 Y3.36340
G01 X-2.28872 Y3.36340
G01 X-2.28872 Y3.36340
G01 X-2.28824 Y3.36372
G01 X-2.28256 Y3.36839
G01 X-2.28067 Y3.37010
G01 X-2.27896 Y3.37199
G01 X-2.27429 Y3.37767
G01 X-2.27277 Y3.37972
G01 X-2.27146 Y3.38191
G01 X-2.26800 Y3.38839
G01 X-2.26605 Y3.39310
G01 X-2.26391 Y3.40014
G01 X-2.26329 Y3.40261
G01 X-2.26292 Y3.40514
G01 X-2.26220 Y3.41245
G01 X-2.26207 Y3.41500
G01 X-2.26207 Y3.51500
G01 X-2.26220 Y3.51755
G01 X-2.26292 Y3.52486
G01 X-2.26329 Y3.52739
G01 X-2.26391 Y3.52986
G01 X-2.26605 Y3.53690
G01 X-2.26674 Y3.53883
G01 X-2.26679 Y3.53882
G01 X-2.26674 Y3.53883
G01 X-2.29903 Y3.84678
G01 X-2.29930 Y3.84681
G01 X-2.29903 Y3.84678
G01 X-2.29842 Y3.84865
G01 X-2.29831 Y3.84905
G01 X-2.29847 Y3.84913
G01 X-2.29831 Y3.84905
G01 X-2.29011 Y3.86022
G01 X-2.29011 Y3.86022
G01 X-2.28945 Y3.85397
G01 X-2.28903 Y3.85128
G01 X-2.28832 Y3.84865
G01 X-2.28574 Y3.84070
G01 X-2.28477 Y3.83816
G01 X-2.28353 Y3.83573
G01 X-2.28148 Y3.83218
G01 X-2.28127 Y3.83225
G01 X-2.28148 Y3.83218
G01 X-2.23657 Y3.51076
G01 X-2.23654 Y3.51076
G01 X-2.23657 Y3.51076
G01 X-2.23657 Y2.96500
G01 X-2.23647 Y2.96266
G01 X-2.23590 Y2.95639
G01 X-2.23506 Y2.95179
G01 X-2.23338 Y2.94572
G01 X-2.23173 Y2.94134
G01 X-2.22899 Y2.93568
G01 X-2.22788 Y2.93362
G01 X-2.08907 Y2.70227
G01 X-2.08860 Y2.70240
G01 X-2.08907 Y2.70227
G01 X-2.08907 Y2.51500
G01 X-2.08895 Y2.51245
G01 X-2.08823 Y2.50514
G01 X-2.08785 Y2.50261
G01 X-2.08723 Y2.50014
G01 X-2.08510 Y2.49310
G01 X-2.08315 Y2.48839
G01 X-2.07968 Y2.48191
G01 X-2.07837 Y2.47972
G01 X-2.07685 Y2.47767
G01 X-2.07219 Y2.47199
G01 X-2.07047 Y2.47010
G01 X-2.06858 Y2.46839
G01 X-2.06290 Y2.46372
G01 X-2.05866 Y2.46089
G01 X-2.05218 Y2.45742
G01 X-2.04987 Y2.45633
G01 X-2.04747 Y2.45547
G01 X-2.04043 Y2.45334
G01 X-2.03544 Y2.45235
G01 X-2.02812 Y2.45163
G01 X-2.02557 Y2.45150
G01 X-2.02302 Y2.45163
G01 X-2.01571 Y2.45235
G01 X-2.01071 Y2.45334
G01 X-2.00367 Y2.45547
G01 X-2.00127 Y2.45633
G01 X-1.99896 Y2.45742
G01 X-1.99248 Y2.46089
G01 X-1.98824 Y2.46372
G01 X-1.98256 Y2.46839
G01 X-1.98067 Y2.47010
G01 X-1.97896 Y2.47199
G01 X-1.97429 Y2.47767
G01 X-1.97277 Y2.47972
G01 X-1.97146 Y2.48191
G01 X-1.96800 Y2.48839
G01 X-1.96605 Y2.49310
G01 X-1.96391 Y2.50014
G01 X-1.96329 Y2.50261
G01 X-1.96292 Y2.50514
G01 X-1.96220 Y2.51245
G01 X-1.96207 Y2.51500
G01 X-1.96207 Y2.71500
G01 X-1.96220 Y2.71755
G01 X-1.96292 Y2.72486
G01 X-1.96329 Y2.72739
G01 X-1.96391 Y2.72986
G01 X-1.96605 Y2.73690
G01 X-1.96800 Y2.74161
G01 X-1.97146 Y2.74809
G01 X-1.97277 Y2.75028
G01 X-1.97429 Y2.75233
G01 X-1.97896 Y2.75801
G01 X-1.98216 Y2.76122
G01 X-1.98221 Y2.76119
G01 X-1.98216 Y2.76122
G01 X-2.11457 Y2.98190
G01 X-2.11504 Y2.98177
G01 X-2.11457 Y2.98190
G01 X-2.11457 Y3.51500
G01 X-2.11463 Y3.51680
G01 X-2.11497 Y3.52165
G01 X-2.11516 Y3.52344
G01 X-2.16060 Y3.84871
G01 X-2.16080 Y3.84871
G01 X-2.16060 Y3.84871
G01 X-2.15991 Y3.85128
G01 X-2.15949 Y3.85397
G01 X-2.15861 Y3.86228
G01 X-2.15847 Y3.86500
G01 X-2.15861 Y3.86772
G01 X-2.15949 Y3.87603
G01 X-2.15991 Y3.87872
G01 X-2.16062 Y3.88135
G01 X-2.16320 Y3.88930
G01 X-2.16418 Y3.89185
G01 X-2.16541 Y3.89427
G01 X-2.16959 Y3.90151
G01 X-2.17108 Y3.90379
G01 X-2.17200 Y3.90494
G01 X-2.17213 Y3.90500
G01 X-2.15637 Y3.90500
G01 X-2.15596 Y3.90599
G01 X-2.15637 Y3.90500
G01 X-2.14767 Y3.89630
G01 X-2.14668 Y3.89671
G01 X-2.14767 Y3.89630
G01 X-2.14767 Y3.89001
G01 X-2.14752 Y3.88998
G01 X-2.14767 Y3.89001
G01 X-2.14794 Y3.88930
G01 X-2.15052 Y3.88135
G01 X-2.15123 Y3.87872
G01 X-2.15165 Y3.87603
G01 X-2.15253 Y3.86772
G01 X-2.15267 Y3.86500
G01 X-2.15253 Y3.86228
G01 X-2.15165 Y3.85397
G01 X-2.15123 Y3.85128
G01 X-2.15052 Y3.84865
G01 X-2.14794 Y3.84070
G01 X-2.14697 Y3.83816
G01 X-2.14573 Y3.83573
G01 X-2.14155 Y3.82849
G01 X-2.14007 Y3.82621
G01 X-2.13835 Y3.82409
G01 X-2.13276 Y3.81788
G01 X-2.13177 Y3.81689
G01 X-2.13126 Y3.81713
G01 X-2.13177 Y3.81689
G01 X-2.08841 Y3.52299
G01 X-2.08832 Y3.52299
G01 X-2.08841 Y3.52299
G01 X-2.08895 Y3.51755
G01 X-2.08907 Y3.51500
G01 X-2.08907 Y3.41500
G01 X-2.08895 Y3.41245
G01 X-2.08823 Y3.40514
G01 X-2.08785 Y3.40261
G01 X-2.08723 Y3.40014
G01 X-2.08510 Y3.39310
G01 X-2.08315 Y3.38839
G01 X-2.07968 Y3.38191
G01 X-2.07837 Y3.37972
G01 X-2.07685 Y3.37767
G01 X-2.07219 Y3.37199
G01 X-2.07047 Y3.37010
G01 X-2.06858 Y3.36839
G01 X-2.06290 Y3.36372
G01 X-2.06242 Y3.36340
G01 X-2.06242 Y3.36340
G01 X-2.06088 Y3.36343
G01 X-2.05723 Y3.36356
G01 X-2.05543 Y3.36359
G01 X-2.04888 Y3.36359
G01 X-2.04766 Y3.36361
G01 X-2.04498 Y3.36369
G01 X-2.04393 Y3.36370
G01 X-2.03729 Y3.36370
G01 X-2.03676 Y3.36371
G01 X-2.03431 Y3.36375
G01 X-2.03382 Y3.36375
G01 X-2.02692 Y3.36375
G01 X-2.02422 Y3.36375
G01 X-2.01732 Y3.36375
G01 X-2.01683 Y3.36375
G01 X-2.01438 Y3.36371
G01 X-2.01385 Y3.36370
G01 X-2.00721 Y3.36370
G01 X-2.00616 Y3.36369
G01 X-2.00348 Y3.36361
G01 X-2.00226 Y3.36359
G01 X-1.99571 Y3.36359
G01 X-1.99391 Y3.36356
G01 X-1.99026 Y3.36343
G01 X-1.98872 Y3.36340
G01 X-1.98872 Y3.36340
G01 X-1.98872 Y3.36340
G01 X-1.98866 Y3.36340
G01 X-1.98797 Y3.36339
G01 X-1.98142 Y3.36339
G01 X-1.97841 Y3.36334
G01 X-1.97235 Y3.36312
G01 X-1.96950 Y3.36306
G01 X-1.96805 Y3.36304
G01 X-1.96163 Y3.36304
G01 X-1.95827 Y3.36300
G01 X-1.95785 Y3.36418
G01 X-1.95511 Y3.37317
G01 X-1.95327 Y3.38052
G01 X-1.95326 Y3.38052
G01 X-1.95327 Y3.38052
G01 X-1.95162 Y3.38873
G01 X-1.95054 Y3.39608
G01 X-1.94978 Y3.40385
G01 X-1.94976 Y3.40384
G01 X-1.94978 Y3.40385
G01 X-1.94957 Y3.40800
G01 X-1.94957 Y3.40801
G01 X-1.94941 Y3.41120
G01 X-1.94932 Y3.41500
G01 X-1.94932 Y3.50736
G01 X-1.94929 Y3.50736
G01 X-1.94932 Y3.50736
G01 X-1.95011 Y3.51500
G01 X-1.95059 Y3.51869
G01 X-1.95170 Y3.52597
G01 X-1.95168 Y3.52597
G01 X-1.95170 Y3.52597
G01 X-1.95316 Y3.53312
G01 X-1.95499 Y3.54025
G01 X-1.95626 Y3.54467
G01 X-1.95627 Y3.54467
G01 X-1.95626 Y3.54467
G01 X-2.00656 Y3.82675
G01 X-2.00653 Y3.82676
G01 X-2.00656 Y3.82675
G01 X-2.00660 Y3.82685
G01 X-2.00939 Y3.83489
G01 X-2.00941 Y3.83488
G01 X-2.00939 Y3.83489
G01 X-2.01100 Y3.84042
G01 X-2.01102 Y3.84041
G01 X-2.01100 Y3.84042
G01 X-2.01292 Y3.84859
G01 X-2.01294 Y3.84858
G01 X-2.01292 Y3.84859
G01 X-2.01335 Y3.85098
G01 X-2.01362 Y3.85249
G01 X-2.01389 Y3.85396
G01 X-2.01390 Y3.85396
G01 X-2.01389 Y3.85396
G01 X-2.01493 Y3.86226
G01 X-2.01500 Y3.86284
G01 X-2.01530 Y3.86541
G01 X-2.01552 Y3.86780
G01 X-2.01584 Y3.87235
G01 X-2.01625 Y3.87629
G01 X-2.01649 Y3.87799
G01 X-2.01697 Y3.88273
G01 X-2.01713 Y3.88528
G01 X-2.01744 Y3.88870
G01 X-2.01825 Y3.88892
G01 X-2.01744 Y3.88870
G01 X-2.01828 Y3.88892
G01 X-2.01744 Y3.88870
G01 X-2.01592 Y3.89118
G01 X-2.01213 Y3.89670
G01 X-2.00896 Y3.90083
G01 X-2.00921 Y3.90110
G01 X-2.00896 Y3.90083
G01 X-2.00924 Y3.90115
G01 X-2.00896 Y3.90083
G01 X-2.00576 Y3.90268
G01 X-2.00134 Y3.90494
G01 X-2.00121 Y3.90500
G01 X-2.00121 Y3.90500
G01 X-2.00015 Y3.90555
G01 X-2.00015 Y3.90556
G01 X-2.00015 Y3.90555
G01 X-1.99179 Y3.90927
G01 X-1.99180 Y3.90929
G01 X-1.99179 Y3.90927
G01 X-1.98742 Y3.91095
G01 X-1.98743 Y3.91097
G01 X-1.98742 Y3.91095
G01 X-1.97906 Y3.91367
G01 X-1.97907 Y3.91368
G01 X-1.97906 Y3.91367
G01 X-1.97554 Y3.91461
G01 X-1.97554 Y3.91463
G01 X-1.97554 Y3.91461
G01 X-1.96717 Y3.91639
G01 X-1.96718 Y3.91640
G01 X-1.96717 Y3.91639
G01 X-1.96417 Y3.91687
G01 X-1.96417 Y3.91689
G01 X-1.96417 Y3.91687
G01 X-1.95581 Y3.91775
G01 X-1.95581 Y3.91776
G01 X-1.95581 Y3.91775
G01 X-1.95305 Y3.91789
G01 X-1.95305 Y3.91791
G01 X-1.95305 Y3.91789
G01 X-1.94469 Y3.91789
G01 X-1.94469 Y3.91791
G01 X-1.94469 Y3.91789
G01 X-1.94193 Y3.91775
G01 X-1.94193 Y3.91776
G01 X-1.94193 Y3.91775
G01 X-1.93357 Y3.91687
G01 X-1.93357 Y3.91689
G01 X-1.93357 Y3.91687
G01 X-1.93057 Y3.91639
G01 X-1.93056 Y3.91641
G01 X-1.93057 Y3.91639
G01 X-1.92221 Y3.91461
G01 X-1.92220 Y3.91464
G01 X-1.92221 Y3.91461
G01 X-1.91868 Y3.91367
G01 X-1.91868 Y3.91368
G01 X-1.91868 Y3.91367
G01 X-1.91032 Y3.91095
G01 X-1.91031 Y3.91097
G01 X-1.91032 Y3.91095
G01 X-1.90595 Y3.90927
G01 X-1.90595 Y3.90928
G01 X-1.90595 Y3.90927
G01 X-1.89759 Y3.90555
G01 X-1.89758 Y3.90556
G01 X-1.89759 Y3.90555
G01 X-1.89653 Y3.90500
G01 X-1.89653 Y3.90500
G01 X-1.89640 Y3.90494
G01 X-1.89198 Y3.90268
G01 X-1.88371 Y3.89790
G01 X-1.88348 Y3.89816
G01 X-1.88371 Y3.89790
G01 X-1.88365 Y3.89783
G01 X-1.88022 Y3.89293
G01 X-1.87964 Y3.89311
G01 X-1.88022 Y3.89293
G01 X-1.88003 Y3.89176
G01 X-1.87997 Y3.89138
G01 X-1.87997 Y3.88299
G01 X-1.87997 Y3.87645
G01 X-1.87997 Y3.86804
G01 X-1.87997 Y3.86196
G01 X-1.87997 Y3.85355
G01 X-1.87997 Y3.85307
G01 X-1.88006 Y3.85306
G01 X-1.87997 Y3.85307
G01 X-1.87875 Y3.84741
G01 X-1.87660 Y3.83931
G01 X-1.87661 Y3.83931
G01 X-1.87660 Y3.83931
G01 X-1.87460 Y3.83315
G01 X-1.87158 Y3.82524
G01 X-1.87074 Y3.82315
G01 X-1.87071 Y3.82316
G01 X-1.87074 Y3.82315
G01 X-1.80424 Y3.52994
G01 X-1.80383 Y3.52803
G01 X-1.80312 Y3.52448
G01 X-1.80244 Y3.52059
G01 X-1.80192 Y3.51700
G01 X-1.80182 Y3.51627
G01 X-1.80179 Y3.51627
G01 X-1.80182 Y3.51627
G01 X-1.80182 Y3.51500
G01 X-1.80182 Y3.41500
G01 X-1.80173 Y3.41119
G01 X-1.80157 Y3.40802
G01 X-1.80157 Y3.40801
G01 X-1.80157 Y3.40800
G01 X-1.80157 Y2.98550
G01 X-1.80204 Y2.98537
G01 X-1.80157 Y2.98550
G01 X-1.67171 Y2.76906
G01 X-1.67175 Y2.76903
G01 X-1.67171 Y2.76906
G01 X-1.66891 Y2.76626
G01 X-1.66424 Y2.76058
G01 X-1.66196 Y2.75750
G01 X-1.66000 Y2.75422
G01 X-1.65653 Y2.74774
G01 X-1.65360 Y2.74067
G01 X-1.65147 Y2.73364
G01 X-1.65054 Y2.72992
G01 X-1.64998 Y2.72614
G01 X-1.64926 Y2.71882
G01 X-1.64907 Y2.71500
G01 X-1.64907 Y2.51500
G01 X-1.64926 Y2.51118
G01 X-1.64998 Y2.50386
G01 X-1.65054 Y2.50008
G01 X-1.65147 Y2.49636
G01 X-1.65360 Y2.48933
G01 X-1.65653 Y2.48226
G01 X-1.66000 Y2.47578
G01 X-1.66196 Y2.47250
G01 X-1.66424 Y2.46942
G01 X-1.66891 Y2.46374
G01 X-1.67148 Y2.46091
G01 X-1.67431 Y2.45834
G01 X-1.67999 Y2.45367
G01 X-1.68635 Y2.44942
G01 X-1.69284 Y2.44596
G01 X-1.69630 Y2.44432
G01 X-1.69990 Y2.44303
G01 X-1.70693 Y2.44090
G01 X-1.71443 Y2.43941
G01 X-1.72175 Y2.43869
G01 X-1.72557 Y2.43850
G01 X-1.72939 Y2.43869
G01 X-1.73671 Y2.43941
G01 X-1.74421 Y2.44090
G01 X-1.75124 Y2.44303
G01 X-1.75485 Y2.44432
G01 X-1.75831 Y2.44596
G01 X-1.76479 Y2.44942
G01 X-1.77115 Y2.45367
G01 X-1.77683 Y2.45834
G01 X-1.77966 Y2.46091
G01 X-1.78223 Y2.46374
G01 X-1.78690 Y2.46942
G01 X-1.78918 Y2.47250
G01 X-1.79115 Y2.47578
G01 X-1.79461 Y2.48226
G01 X-1.79754 Y2.48933
G01 X-1.79967 Y2.49636
G01 X-1.80060 Y2.50008
G01 X-1.80116 Y2.50386
G01 X-1.80188 Y2.51118
G01 X-1.80207 Y2.51500
G01 X-1.80207 Y2.69867
G01 X-1.80160 Y2.69880
G01 X-1.80207 Y2.69867
G01 X-1.93903 Y2.92693
G01 X-1.94069 Y2.93002
G01 X-1.94344 Y2.93569
G01 X-1.94591 Y2.94225
G01 X-1.94759 Y2.94832
G01 X-1.94885 Y2.95522
G01 X-1.94941 Y2.96149
G01 X-1.94957 Y2.96500
G01 X-1.94957 Y3.40800
G01 X-1.94998 Y3.40386
G01 X-1.95054 Y3.40008
G01 X-1.95147 Y3.39636
G01 X-1.95360 Y3.38933
G01 X-1.95653 Y3.38226
G01 X-1.96000 Y3.37578
G01 X-1.96196 Y3.37250
G01 X-1.96424 Y3.36942
G01 X-1.96891 Y3.36374
G01 X-1.96952 Y3.36307
G01 X-1.96952 Y3.36307
G01 X-1.97235 Y3.36312
G01 X-1.97841 Y3.36334
G01 X-1.98142 Y3.36339
G01 X-1.98797 Y3.36339
G01 X-1.98866 Y3.36340
G01 X-1.98872 Y3.36340
G01 X-1.98872 Y3.36340
G01 X-1.99026 Y3.36343
G01 X-1.99391 Y3.36356
G01 X-1.99571 Y3.36359
G01 X-2.00226 Y3.36359
G01 X-2.00348 Y3.36361
G01 X-2.00616 Y3.36369
G01 X-2.00721 Y3.36370
G01 X-2.01385 Y3.36370
G01 X-2.01438 Y3.36371
G01 X-2.01683 Y3.36375
G01 X-2.01732 Y3.36375
G01 X-2.02422 Y3.36375
G01 X-2.02692 Y3.36375
G01 X-2.03382 Y3.36375
G01 X-2.03431 Y3.36375
G01 X-2.03676 Y3.36371
G01 X-2.03729 Y3.36370
G01 X-2.04393 Y3.36370
G01 X-2.04498 Y3.36369
G01 X-2.04766 Y3.36361
G01 X-2.04888 Y3.36359
G01 X-2.05543 Y3.36359
G01 X-2.05723 Y3.36356
G01 X-2.06088 Y3.36343
G01 X-2.06242 Y3.36340
G01 X-2.06248 Y3.36340
G01 X-2.06317 Y3.36339
G01 X-2.06972 Y3.36339
G01 X-2.07273 Y3.36334
G01 X-2.07879 Y3.36312
G01 X-2.08164 Y3.36306
G01 X-2.08309 Y3.36304
G01 X-2.08951 Y3.36304
G01 X-2.09288 Y3.36300
G01 X-2.09330 Y3.36418
G01 X-2.09603 Y3.37317
G01 X-2.09787 Y3.38052
G01 X-2.09788 Y3.38052
G01 X-2.09787 Y3.38052
G01 X-2.09951 Y3.38873
G01 X-2.10060 Y3.39608
G01 X-2.10137 Y3.40384
G01 X-2.10138 Y3.40384
G01 X-2.10139 Y3.40384
G01 X-2.10138 Y3.40384
G01 X-2.10137 Y3.40384
G01 X-2.10157 Y3.40800
G01 X-2.10157 Y3.40800
G01 X-2.10157 Y3.40800
G01 X-2.10116 Y3.40386
G01 X-2.10060 Y3.40008
G01 X-2.09967 Y3.39636
G01 X-2.09754 Y3.38933
G01 X-2.09461 Y3.38226
G01 X-2.09115 Y3.37578
G01 X-2.08918 Y3.37250
G01 X-2.08690 Y3.36942
G01 X-2.08223 Y3.36374
G01 X-2.08162 Y3.36307
G01 X-2.07879 Y3.36312
G01 X-2.07273 Y3.36334
G01 X-2.06972 Y3.36339
G01 X-2.06317 Y3.36339
G01 X-2.06248 Y3.36340
G01 X-2.06242 Y3.36340
G01 X-2.06242 Y3.36340
G01 X-2.06248 Y3.36340
G01 X-2.06681 Y3.35985
G01 X-2.07042 Y3.35624
G01 X-2.07477 Y3.35094
G01 X-2.07629 Y3.34889
G01 X-2.07760 Y3.34670
G01 X-2.08084 Y3.34065
G01 X-2.08279 Y3.33594
G01 X-2.08478 Y3.32938
G01 X-2.08540 Y3.32690
G01 X-2.08577 Y3.32438
G01 X-2.08645 Y3.31755
G01 X-2.08657 Y3.31500
G01 X-2.08657 Y3.03042
G01 X-2.08654 Y3.03042
G01 X-2.08657 Y3.03042
G01 X-2.08719 Y3.02810
G01 X-2.08762 Y3.02541
G01 X-2.08843 Y3.01772
G01 X-2.08857 Y3.01500
G01 X-2.08843 Y3.01228
G01 X-2.08762 Y3.00459
G01 X-2.08719 Y3.00190
G01 X-2.08649 Y2.99927
G01 X-2.08410 Y2.99192
G01 X-2.08312 Y2.98938
G01 X-2.08189 Y2.98695
G01 X-2.07802 Y2.98025
G01 X-2.07654 Y2.97797
G01 X-2.07483 Y2.97585
G01 X-2.06965 Y2.97011
G01 X-2.06773 Y2.96818
G01 X-2.06561 Y2.96647
G01 X-2.05935 Y2.96192
G01 X-2.05707 Y2.96044
G01 X-2.05465 Y2.95920
G01 X-2.04758 Y2.95606
G01 X-2.04504 Y2.95508
G01 X-2.04241 Y2.95438
G01 X-2.03484 Y2.95277
G01 X-2.03216 Y2.95235
G01 X-2.02944 Y2.95220
G01 X-2.02170 Y2.95220
G01 X-2.01899 Y2.95235
G01 X-2.01630 Y2.95277
G01 X-2.00873 Y2.95438
G01 X-2.00610 Y2.95508
G01 X-2.00356 Y2.95606
G01 X-1.99650 Y2.95920
G01 X-1.99407 Y2.96044
G01 X-1.99179 Y2.96192
G01 X-1.98553 Y2.96647
G01 X-1.98342 Y2.96818
G01 X-1.98149 Y2.97011
G01 X-1.97632 Y2.97585
G01 X-1.97460 Y2.97797
G01 X-1.97312 Y2.98025
G01 X-1.96925 Y2.98695
G01 X-1.96802 Y2.98938
G01 X-1.96704 Y2.99192
G01 X-1.96465 Y2.99927
G01 X-1.96395 Y3.00190
G01 X-1.96352 Y3.00459
G01 X-1.96271 Y3.01228
G01 X-1.96257 Y3.01500
G01 X-1.96271 Y3.01772
G01 X-1.96352 Y3.02541
G01 X-1.96395 Y3.02810
G01 X-1.96457 Y3.03042
G01 X-1.96460 Y3.03042
G01 X-1.96457 Y3.03042
G01 X-1.96457 Y3.31500
G01 X-1.96470 Y3.31755
G01 X-1.96537 Y3.32438
G01 X-1.96636 Y3.32938
G01 X-1.96835 Y3.33594
G01 X-1.97031 Y3.34065
G01 X-1.97354 Y3.34670
G01 X-1.97485 Y3.34889
G01 X-1.97637 Y3.35094
G01 X-1.98072 Y3.35624
G01 X-1.98433 Y3.35985
G01 X-1.98866 Y3.36340
G01 X-1.98872 Y3.36340
G01 X-1.98872 Y3.36340
G01 X-1.98824 Y3.36372
G01 X-1.98256 Y3.36839
G01 X-1.98067 Y3.37010
G01 X-1.97896 Y3.37199
G01 X-1.97429 Y3.37767
G01 X-1.97277 Y3.37972
G01 X-1.97146 Y3.38191
G01 X-1.96800 Y3.38839
G01 X-1.96605 Y3.39310
G01 X-1.96391 Y3.40014
G01 X-1.96329 Y3.40261
G01 X-1.96292 Y3.40514
G01 X-1.96220 Y3.41245
G01 X-1.96207 Y3.41500
G01 X-1.96207 Y3.51500
G01 X-1.96220 Y3.51755
G01 X-1.96292 Y3.52486
G01 X-1.96329 Y3.52739
G01 X-1.96391 Y3.52986
G01 X-1.96605 Y3.53690
G01 X-1.96775 Y3.54101
G01 X-1.96779 Y3.54100
G01 X-1.96775 Y3.54101
G01 X-2.01522 Y3.86280
G01 X-2.01572 Y3.86531
G01 X-2.01738 Y3.87196
G01 X-2.01910 Y3.87676
G01 X-2.02202 Y3.88297
G01 X-2.02464 Y3.88734
G01 X-2.02486 Y3.88764
G01 X-2.02540 Y3.88930
G01 X-2.02567 Y3.89001
G01 X-2.02567 Y3.89003
G01 X-2.02864 Y3.89051
G01 X-2.02567 Y3.89003
G01 X-2.01069 Y3.90500
G01 X-2.01110 Y3.90599
G01 X-2.01069 Y3.90500
G01 X-2.00121 Y3.90500
G01 X-2.00121 Y3.90500
G01 X-2.00121 Y3.90500
G01 X-2.00121 Y3.90500
G01 X-2.00134 Y3.90494
G01 X-2.00227 Y3.90379
G01 X-2.00375 Y3.90151
G01 X-2.00793 Y3.89427
G01 X-2.00917 Y3.89185
G01 X-2.01014 Y3.88930
G01 X-2.01272 Y3.88135
G01 X-2.01343 Y3.87872
G01 X-2.01385 Y3.87603
G01 X-2.01473 Y3.86772
G01 X-2.01487 Y3.86500
G01 X-2.01473 Y3.86228
G01 X-2.01385 Y3.85397
G01 X-2.01362 Y3.85249
G01 X-2.01362 Y3.85247
G01 X-2.01335 Y3.85098
G01 X-2.01335 Y3.85098
G01 X-2.01272 Y3.84865
G01 X-2.01014 Y3.84070
G01 X-2.00917 Y3.83816
G01 X-2.00793 Y3.83573
G01 X-2.00375 Y3.82849
G01 X-2.00345 Y3.82803
G01 X-2.00331 Y3.82809
G01 X-2.00345 Y3.82803
G01 X-1.93657 Y3.50868
G01 X-1.93650 Y3.50869
G01 X-1.93657 Y3.50868
G01 X-1.93657 Y2.96500
G01 X-1.93647 Y2.96266
G01 X-1.93590 Y2.95639
G01 X-1.93506 Y2.95179
G01 X-1.93338 Y2.94572
G01 X-1.93173 Y2.94134
G01 X-1.92899 Y2.93568
G01 X-1.92788 Y2.93362
G01 X-1.78907 Y2.70227
G01 X-1.78860 Y2.70240
G01 X-1.78907 Y2.70227
G01 X-1.78907 Y2.51500
G01 X-1.78895 Y2.51245
G01 X-1.78823 Y2.50514
G01 X-1.78785 Y2.50261
G01 X-1.78723 Y2.50014
G01 X-1.78510 Y2.49310
G01 X-1.78315 Y2.48839
G01 X-1.77968 Y2.48191
G01 X-1.77837 Y2.47972
G01 X-1.77685 Y2.47767
G01 X-1.77219 Y2.47199
G01 X-1.77047 Y2.47010
G01 X-1.76858 Y2.46839
G01 X-1.76290 Y2.46372
G01 X-1.75866 Y2.46089
G01 X-1.75218 Y2.45742
G01 X-1.74987 Y2.45633
G01 X-1.74747 Y2.45547
G01 X-1.74043 Y2.45334
G01 X-1.73544 Y2.45235
G01 X-1.72812 Y2.45163
G01 X-1.72557 Y2.45150
G01 X-1.72302 Y2.45163
G01 X-1.71571 Y2.45235
G01 X-1.71071 Y2.45334
G01 X-1.70367 Y2.45547
G01 X-1.70127 Y2.45633
G01 X-1.69896 Y2.45742
G01 X-1.69248 Y2.46089
G01 X-1.68824 Y2.46372
G01 X-1.68256 Y2.46839
G01 X-1.68067 Y2.47010
G01 X-1.67896 Y2.47199
G01 X-1.67429 Y2.47767
G01 X-1.67277 Y2.47972
G01 X-1.67146 Y2.48191
G01 X-1.66800 Y2.48839
G01 X-1.66605 Y2.49310
G01 X-1.66391 Y2.50014
G01 X-1.66329 Y2.50261
G01 X-1.66292 Y2.50514
G01 X-1.66220 Y2.51245
G01 X-1.66207 Y2.51500
G01 X-1.66207 Y2.71500
G01 X-1.66220 Y2.71755
G01 X-1.66292 Y2.72486
G01 X-1.66329 Y2.72739
G01 X-1.66391 Y2.72986
G01 X-1.66605 Y2.73690
G01 X-1.66800 Y2.74161
G01 X-1.67146 Y2.74809
G01 X-1.67277 Y2.75028
G01 X-1.67429 Y2.75233
G01 X-1.67896 Y2.75801
G01 X-1.68216 Y2.76122
G01 X-1.68221 Y2.76119
G01 X-1.68216 Y2.76122
G01 X-1.81457 Y2.98190
G01 X-1.81504 Y2.98177
G01 X-1.81457 Y2.98190
G01 X-1.81457 Y3.51500
G01 X-1.81461 Y3.51634
G01 X-1.81479 Y3.51995
G01 X-1.81507 Y3.52262
G01 X-1.81563 Y3.52618
G01 X-1.81587 Y3.52750
G01 X-1.88404 Y3.85302
G01 X-1.88419 Y3.85301
G01 X-1.88404 Y3.85302
G01 X-1.88389 Y3.85397
G01 X-1.88301 Y3.86228
G01 X-1.88287 Y3.86500
G01 X-1.88301 Y3.86772
G01 X-1.88389 Y3.87603
G01 X-1.88431 Y3.87872
G01 X-1.88502 Y3.88135
G01 X-1.88760 Y3.88930
G01 X-1.88858 Y3.89185
G01 X-1.88981 Y3.89427
G01 X-1.89399 Y3.90151
G01 X-1.89548 Y3.90379
G01 X-1.89640 Y3.90494
G01 X-1.89653 Y3.90500
G01 X-1.88077 Y3.90500
G01 X-1.88036 Y3.90599
G01 X-1.88077 Y3.90500
G01 X-1.87207 Y3.89630
G01 X-1.87108 Y3.89671
G01 X-1.87207 Y3.89630
G01 X-1.87207 Y3.89001
G01 X-1.87192 Y3.88998
G01 X-1.87207 Y3.89001
G01 X-1.87234 Y3.88930
G01 X-1.87492 Y3.88135
G01 X-1.87563 Y3.87872
G01 X-1.87605 Y3.87603
G01 X-1.87693 Y3.86772
G01 X-1.87707 Y3.86500
G01 X-1.87693 Y3.86228
G01 X-1.87605 Y3.85397
G01 X-1.87563 Y3.85128
G01 X-1.87492 Y3.84865
G01 X-1.87234 Y3.84070
G01 X-1.87137 Y3.83816
G01 X-1.87013 Y3.83573
G01 X-1.86595 Y3.82849
G01 X-1.86447 Y3.82621
G01 X-1.86435 Y3.82607
G01 X-1.86423 Y3.82612
G01 X-1.86435 Y3.82607
G01 X-1.78895 Y3.51741
G01 X-1.78886 Y3.51742
G01 X-1.78895 Y3.51741
G01 X-1.78907 Y3.51500
G01 X-1.78907 Y3.41500
G01 X-1.78895 Y3.41245
G01 X-1.78823 Y3.40514
G01 X-1.78785 Y3.40261
G01 X-1.78723 Y3.40014
G01 X-1.78510 Y3.39310
G01 X-1.78315 Y3.38839
G01 X-1.77968 Y3.38191
G01 X-1.77837 Y3.37972
G01 X-1.77685 Y3.37767
G01 X-1.77219 Y3.37199
G01 X-1.77047 Y3.37010
G01 X-1.76858 Y3.36839
G01 X-1.76290 Y3.36372
G01 X-1.76242 Y3.36340
G01 X-1.76242 Y3.36340
G01 X-1.76088 Y3.36343
G01 X-1.75723 Y3.36356
G01 X-1.75543 Y3.36359
G01 X-1.74888 Y3.36359
G01 X-1.74766 Y3.36361
G01 X-1.74498 Y3.36369
G01 X-1.74393 Y3.36370
G01 X-1.73729 Y3.36370
G01 X-1.73676 Y3.36371
G01 X-1.73431 Y3.36375
G01 X-1.73382 Y3.36375
G01 X-1.72692 Y3.36375
G01 X-1.72422 Y3.36375
G01 X-1.71732 Y3.36375
G01 X-1.71683 Y3.36375
G01 X-1.71438 Y3.36371
G01 X-1.71385 Y3.36370
G01 X-1.70721 Y3.36370
G01 X-1.70616 Y3.36369
G01 X-1.70348 Y3.36361
G01 X-1.70226 Y3.36359
G01 X-1.69571 Y3.36359
G01 X-1.69391 Y3.36356
G01 X-1.69026 Y3.36343
G01 X-1.68872 Y3.36340
G01 X-1.68872 Y3.36340
G01 X-1.68872 Y3.36340
G01 X-1.68866 Y3.36340
G01 X-1.68797 Y3.36339
G01 X-1.68142 Y3.36339
G01 X-1.67841 Y3.36334
G01 X-1.67235 Y3.36312
G01 X-1.66950 Y3.36306
G01 X-1.66805 Y3.36304
G01 X-1.66163 Y3.36304
G01 X-1.65635 Y3.36295
G01 X-1.65297 Y3.36283
G01 X-1.65297 Y3.36283
G01 X-1.65293 Y3.36283
G01 X-1.65293 Y3.36283
G01 X-1.65061 Y3.35896
G01 X-1.64738 Y3.35291
G01 X-1.64347 Y3.34349
G01 X-1.64148 Y3.33692
G01 X-1.63949 Y3.32693
G01 X-1.63882 Y3.32010
G01 X-1.63857 Y3.31500
G01 X-1.63857 Y3.03371
G01 X-1.63859 Y3.03371
G01 X-1.63857 Y3.03371
G01 X-1.63851 Y3.03350
G01 X-1.63766 Y3.02813
G01 X-1.63686 Y3.02044
G01 X-1.63657 Y3.01500
G01 X-1.63686 Y3.00956
G01 X-1.63766 Y3.00187
G01 X-1.63851 Y2.99650
G01 X-1.63992 Y2.99124
G01 X-1.64231 Y2.98388
G01 X-1.64426 Y2.97880
G01 X-1.64674 Y2.97395
G01 X-1.65060 Y2.96725
G01 X-1.65357 Y2.96269
G01 X-1.65699 Y2.95846
G01 X-1.66217 Y2.95271
G01 X-1.66602 Y2.94886
G01 X-1.67025 Y2.94543
G01 X-1.67651 Y2.94089
G01 X-1.68107 Y2.93792
G01 X-1.68592 Y2.93545
G01 X-1.69299 Y2.93231
G01 X-1.69807 Y2.93036
G01 X-1.70333 Y2.92895
G01 X-1.71089 Y2.92734
G01 X-1.71627 Y2.92649
G01 X-1.72170 Y2.92620
G01 X-1.72944 Y2.92620
G01 X-1.73487 Y2.92649
G01 X-1.74025 Y2.92734
G01 X-1.74782 Y2.92895
G01 X-1.75298 Y2.93033
G01 X-1.75361 Y2.93083
G01 X-1.75361 Y2.93083
G01 X-1.75361 Y2.93083
G01 X-1.75746 Y2.93389
G01 X-1.76353 Y2.93926
G01 X-1.76354 Y2.93925
G01 X-1.76353 Y2.93926
G01 X-1.77070 Y2.94630
G01 X-1.77071 Y2.94630
G01 X-1.77070 Y2.94630
G01 X-1.77603 Y2.95213
G01 X-1.77605 Y2.95211
G01 X-1.77603 Y2.95213
G01 X-1.78182 Y2.95915
G01 X-1.78183 Y2.95913
G01 X-1.78182 Y2.95915
G01 X-1.78644 Y2.96539
G01 X-1.78645 Y2.96539
G01 X-1.78644 Y2.96539
G01 X-1.79123 Y2.97263
G01 X-1.79124 Y2.97262
G01 X-1.79123 Y2.97263
G01 X-1.79515 Y2.97929
G01 X-1.79882 Y2.98626
G01 X-1.79898 Y2.98620
G01 X-1.79882 Y2.98626
G01 X-1.79901 Y2.98619
G01 X-1.79882 Y2.98626
G01 X-1.79895 Y2.98709
G01 X-1.80018 Y2.99483
G01 X-1.80106 Y3.00318
G01 X-1.80146 Y3.01091
G01 X-1.80149 Y3.01091
G01 X-1.80146 Y3.01091
G01 X-1.80146 Y3.01295
G01 X-1.80146 Y3.01705
G01 X-1.80146 Y3.01909
G01 X-1.80106 Y3.02683
G01 X-1.80056 Y3.03238
G01 X-1.80057 Y3.31500
G01 X-1.80047 Y3.31893
G01 X-1.80014 Y3.32579
G01 X-1.80015 Y3.32580
G01 X-1.80014 Y3.32579
G01 X-1.79935 Y3.33380
G01 X-1.79833 Y3.34066
G01 X-1.79835 Y3.34066
G01 X-1.79833 Y3.34066
G01 X-1.79665 Y3.34910
G01 X-1.79493 Y3.35596
G01 X-1.79287 Y3.36300
G01 X-1.79330 Y3.36418
G01 X-1.79603 Y3.37317
G01 X-1.79787 Y3.38052
G01 X-1.79788 Y3.38052
G01 X-1.79787 Y3.38052
G01 X-1.79951 Y3.38873
G01 X-1.80060 Y3.39608
G01 X-1.80137 Y3.40384
G01 X-1.80138 Y3.40384
G01 X-1.80137 Y3.40384
G01 X-1.80157 Y3.40799
G01 X-1.80157 Y3.40801
G01 X-1.80157 Y3.40800
G01 X-1.80157 Y3.40799
G01 X-1.80116 Y3.40386
G01 X-1.80060 Y3.40008
G01 X-1.79967 Y3.39636
G01 X-1.79754 Y3.38933
G01 X-1.79461 Y3.38226
G01 X-1.79115 Y3.37578
G01 X-1.78918 Y3.37250
G01 X-1.78690 Y3.36942
G01 X-1.78223 Y3.36374
G01 X-1.78162 Y3.36307
G01 X-1.77879 Y3.36312
G01 X-1.77273 Y3.36334
G01 X-1.76972 Y3.36339
G01 X-1.76317 Y3.36339
G01 X-1.76248 Y3.36340
G01 X-1.76242 Y3.36340
G01 X-1.76088 Y3.36343
G01 X-1.75723 Y3.36356
G01 X-1.75543 Y3.36359
G01 X-1.74888 Y3.36359
G01 X-1.74766 Y3.36361
G01 X-1.74498 Y3.36369
G01 X-1.74393 Y3.36370
G01 X-1.73729 Y3.36370
G01 X-1.73676 Y3.36371
G01 X-1.73431 Y3.36375
G01 X-1.73382 Y3.36375
G01 X-1.72692 Y3.36375
G01 X-1.72422 Y3.36375
G01 X-1.71732 Y3.36375
G01 X-1.71683 Y3.36375
G01 X-1.71438 Y3.36371
G01 X-1.71385 Y3.36370
G01 X-1.70721 Y3.36370
G01 X-1.70616 Y3.36369
G01 X-1.70348 Y3.36361
G01 X-1.70226 Y3.36359
G01 X-1.69571 Y3.36359
G01 X-1.69391 Y3.36356
G01 X-1.69026 Y3.36343
G01 X-1.68872 Y3.36340
G01 X-1.68872 Y3.36340
G01 X-1.68872 Y3.36340
G01 X-1.68824 Y3.36372
G01 X-1.68256 Y3.36839
G01 X-1.68067 Y3.37010
G01 X-1.67896 Y3.37199
G01 X-1.67429 Y3.37767
G01 X-1.67277 Y3.37972
G01 X-1.67146 Y3.38191
G01 X-1.66800 Y3.38839
G01 X-1.66605 Y3.39310
G01 X-1.66391 Y3.40014
G01 X-1.66329 Y3.40261
G01 X-1.66292 Y3.40514
G01 X-1.66220 Y3.41245
G01 X-1.66207 Y3.41500
G01 X-1.66207 Y3.51500
G01 X-1.66220 Y3.51755
G01 X-1.66292 Y3.52486
G01 X-1.66329 Y3.52739
G01 X-1.66391 Y3.52986
G01 X-1.66605 Y3.53690
G01 X-1.66800 Y3.54161
G01 X-1.67035 Y3.54602
G01 X-1.67042 Y3.54600
G01 X-1.67035 Y3.54602
G01 X-1.73338 Y3.80400
G01 X-1.73971 Y3.80897
G01 X-1.73338 Y3.80400
G01 X-1.48657 Y3.80400
G01 X-1.48276 Y3.80781
G01 X-1.48657 Y3.80400
G01 X-1.48657 Y3.41500
G01 X-1.48645 Y3.41245
G01 X-1.48577 Y3.40562
G01 X-1.48478 Y3.40062
G01 X-1.48279 Y3.39406
G01 X-1.48193 Y3.39166
G01 X-1.48084 Y3.38935
G01 X-1.47760 Y3.38330
G01 X-1.47477 Y3.37906
G01 X-1.47042 Y3.37376
G01 X-1.46870 Y3.37187
G01 X-1.46681 Y3.37015
G01 X-1.46248 Y3.36660
G01 X-1.46247 Y3.36660
G01 X-1.46088 Y3.36657
G01 X-1.45723 Y3.36644
G01 X-1.45543 Y3.36641
G01 X-1.44888 Y3.36641
G01 X-1.44766 Y3.36639
G01 X-1.44498 Y3.36632
G01 X-1.44393 Y3.36630
G01 X-1.43729 Y3.36630
G01 X-1.43676 Y3.36630
G01 X-1.43431 Y3.36625
G01 X-1.43382 Y3.36625
G01 X-1.42692 Y3.36625
G01 X-1.42422 Y3.36625
G01 X-1.41732 Y3.36625
G01 X-1.41683 Y3.36625
G01 X-1.41438 Y3.36630
G01 X-1.41385 Y3.36630
G01 X-1.40721 Y3.36630
G01 X-1.40616 Y3.36632
G01 X-1.40348 Y3.36639
G01 X-1.40226 Y3.36641
G01 X-1.39571 Y3.36641
G01 X-1.39391 Y3.36644
G01 X-1.39026 Y3.36657
G01 X-1.38867 Y3.36660
G01 X-1.38797 Y3.36661
G01 X-1.38142 Y3.36661
G01 X-1.37841 Y3.36667
G01 X-1.37235 Y3.36689
G01 X-1.36958 Y3.36693
G01 X-1.36958 Y3.36693
G01 X-1.36891 Y3.36626
G01 X-1.36424 Y3.36058
G01 X-1.36196 Y3.35750
G01 X-1.36000 Y3.35422
G01 X-1.35653 Y3.34774
G01 X-1.35489 Y3.34428
G01 X-1.35360 Y3.34067
G01 X-1.35147 Y3.33364
G01 X-1.34998 Y3.32614
G01 X-1.34926 Y3.31882
G01 X-1.34907 Y3.31500
G01 X-1.34907 Y2.51500
G01 X-1.34926 Y2.51118
G01 X-1.34998 Y2.50386
G01 X-1.35147 Y2.49636
G01 X-1.35360 Y2.48933
G01 X-1.35489 Y2.48572
G01 X-1.35653 Y2.48226
G01 X-1.36000 Y2.47578
G01 X-1.36196 Y2.47250
G01 X-1.36424 Y2.46942
G01 X-1.36891 Y2.46374
G01 X-1.37431 Y2.45834
G01 X-1.38000 Y2.45367
G01 X-1.38307 Y2.45139
G01 X-1.38635 Y2.44942
G01 X-1.39284 Y2.44596
G01 X-1.39630 Y2.44432
G01 X-1.39990 Y2.44303
G01 X-1.40693 Y2.44090
G01 X-1.41443 Y2.43941
G01 X-1.42175 Y2.43869
G01 X-1.42557 Y2.43850
G01 X-1.42939 Y2.43869
G01 X-1.43671 Y2.43941
G01 X-1.44421 Y2.44090
G01 X-1.45124 Y2.44303
G01 X-1.45485 Y2.44432
G01 X-1.45831 Y2.44596
G01 X-1.46479 Y2.44942
G01 X-1.46807 Y2.45139
G01 X-1.47115 Y2.45367
G01 X-1.47683 Y2.45834
G01 X-1.48223 Y2.46374
G01 X-1.48690 Y2.46942
G01 X-1.48918 Y2.47250
G01 X-1.49115 Y2.47578
G01 X-1.49461 Y2.48226
G01 X-1.49625 Y2.48572
G01 X-1.49754 Y2.48933
G01 X-1.49967 Y2.49636
G01 X-1.50116 Y2.50386
G01 X-1.50188 Y2.51118
G01 X-1.50207 Y2.51500
G01 X-1.50207 Y3.31500
G01 X-1.50188 Y3.31882
G01 X-1.50116 Y3.32614
G01 X-1.49967 Y3.33364
G01 X-1.49754 Y3.34067
G01 X-1.49625 Y3.34428
G01 X-1.49461 Y3.34774
G01 X-1.49115 Y3.35422
G01 X-1.48918 Y3.35750
G01 X-1.48690 Y3.36058
G01 X-1.48223 Y3.36626
G01 X-1.48156 Y3.36693
G01 X-1.48156 Y3.36693
G01 X-1.47879 Y3.36689
G01 X-1.47273 Y3.36667
G01 X-1.46972 Y3.36661
G01 X-1.46317 Y3.36661
G01 X-1.46247 Y3.36660
G01 X-1.46088 Y3.36657
G01 X-1.45723 Y3.36644
G01 X-1.45543 Y3.36641
G01 X-1.44888 Y3.36641
G01 X-1.44766 Y3.36639
G01 X-1.44498 Y3.36632
G01 X-1.44393 Y3.36630
G01 X-1.43729 Y3.36630
G01 X-1.43676 Y3.36630
G01 X-1.43431 Y3.36625
G01 X-1.43382 Y3.36625
G01 X-1.42692 Y3.36625
G01 X-1.42422 Y3.36625
G01 X-1.41732 Y3.36625
G01 X-1.41683 Y3.36625
G01 X-1.41438 Y3.36630
G01 X-1.41385 Y3.36630
G01 X-1.40721 Y3.36630
G01 X-1.40616 Y3.36632
G01 X-1.40348 Y3.36639
G01 X-1.40226 Y3.36641
G01 X-1.39571 Y3.36641
G01 X-1.39391 Y3.36644
G01 X-1.39026 Y3.36657
G01 X-1.38867 Y3.36660
G01 X-1.38797 Y3.36661
G01 X-1.38142 Y3.36661
G01 X-1.37841 Y3.36667
G01 X-1.37235 Y3.36689
G01 X-1.36958 Y3.36693
G01 X-1.36950 Y3.36694
G01 X-1.36950 Y3.36694
G01 X-1.36805 Y3.36696
G01 X-1.36163 Y3.36696
G01 X-1.35635 Y3.36706
G01 X-1.35297 Y3.36717
G01 X-1.34395 Y3.36749
G01 X-1.33774 Y3.36759
G01 X-1.33488 Y3.36764
G01 X-1.33125 Y3.36764
G01 X-1.32984 Y3.36200
G01 X-1.32718 Y3.34869
G01 X-1.32609 Y3.34134
G01 X-1.32607 Y3.34134
G01 X-1.32609 Y3.34134
G01 X-1.32557 Y3.33606
G01 X-1.32557 Y3.33606
G01 X-1.32484 Y3.32861
G01 X-1.32447 Y3.32126
G01 X-1.32431 Y3.31500
G01 X-1.32432 Y2.53496
G01 X-1.32474 Y2.52932
G01 X-1.32515 Y2.52158
G01 X-1.32532 Y2.51500
G01 X-1.32532 Y2.50882
G01 X-1.32532 Y2.50840
G01 X-1.32530 Y2.50144
G01 X-1.32530 Y2.50063
G01 X-1.32531 Y2.49524
G01 X-1.32531 Y2.49524
G01 X-1.32532 Y2.49370
G01 X-1.32533 Y2.48844
G01 X-1.32533 Y2.48666
G01 X-1.32527 Y2.48073
G01 X-1.32526 Y2.47855
G01 X-1.32533 Y2.46559
G01 X-1.32531 Y2.46188
G01 X-1.32525 Y2.45805
G01 X-1.32560 Y2.45740
G01 X-1.32954 Y2.45083
G01 X-1.33410 Y2.44468
G01 X-1.33876 Y2.43900
G01 X-1.34957 Y2.42819
G01 X-1.35525 Y2.42353
G01 X-1.35596 Y2.42300
G01 X-1.35610 Y2.42296
G01 X-1.36996 Y2.41875
G01 X-1.36995 Y2.41873
G01 X-1.36996 Y2.41875
G01 X-1.37731 Y2.41691
G01 X-1.37730 Y2.41688
G01 X-1.37731 Y2.41691
G01 X-1.39114 Y2.41415
G01 X-1.39113 Y2.41413
G01 X-1.39114 Y2.41415
G01 X-1.39849 Y2.41306
G01 X-1.39849 Y2.41305
G01 X-1.39849 Y2.41306
G01 X-1.41170 Y2.41175
G01 X-1.41170 Y2.41174
G01 X-1.41170 Y2.41175
G01 X-1.41906 Y2.41139
G01 X-1.41905 Y2.41137
G01 X-1.41906 Y2.41139
G01 X-1.43209 Y2.41139
G01 X-1.43209 Y2.41137
G01 X-1.43209 Y2.41139
G01 X-1.43944 Y2.41175
G01 X-1.43944 Y2.41174
G01 X-1.43944 Y2.41175
G01 X-1.45265 Y2.41306
G01 X-1.45266 Y2.41304
G01 X-1.45265 Y2.41306
G01 X-1.46000 Y2.41415
G01 X-1.46001 Y2.41413
G01 X-1.46000 Y2.41415
G01 X-1.47383 Y2.41691
G01 X-1.48118 Y2.41875
G01 X-1.49504 Y2.42296
G01 X-1.53272 Y2.42296
G01 X-1.53274 Y2.42282
G01 X-1.53272 Y2.42296
G01 X-1.53673 Y2.42418
G01 X-1.55195 Y2.42568
G01 X-1.59919 Y2.42568
G01 X-1.61441 Y2.42418
G01 X-1.61842 Y2.42296
G01 X-1.61840 Y2.42282
G01 X-1.61842 Y2.42296
G01 X-1.65610 Y2.42296
G01 X-1.66996 Y2.41875
G01 X-1.66995 Y2.41874
G01 X-1.66996 Y2.41875
G01 X-1.67731 Y2.41691
G01 X-1.67730 Y2.41688
G01 X-1.67731 Y2.41691
G01 X-1.69114 Y2.41415
G01 X-1.69113 Y2.41413
G01 X-1.69114 Y2.41415
G01 X-1.69849 Y2.41306
G01 X-1.69849 Y2.41304
G01 X-1.69849 Y2.41306
G01 X-1.71170 Y2.41175
G01 X-1.71170 Y2.41174
G01 X-1.71170 Y2.41175
G01 X-1.71906 Y2.41139
G01 X-1.71905 Y2.41137
G01 X-1.71906 Y2.41139
G01 X-1.73209 Y2.41139
G01 X-1.73209 Y2.41137
G01 X-1.73209 Y2.41139
G01 X-1.73944 Y2.41175
G01 X-1.73944 Y2.41174
G01 X-1.73944 Y2.41175
G01 X-1.75265 Y2.41306
G01 X-1.75266 Y2.41304
G01 X-1.75265 Y2.41306
G01 X-1.76000 Y2.41415
G01 X-1.76001 Y2.41413
G01 X-1.76000 Y2.41415
G01 X-1.77383 Y2.41691
G01 X-1.78118 Y2.41875
G01 X-1.78119 Y2.41874
G01 X-1.78119 Y2.41873
G01 X-1.78119 Y2.41874
G01 X-1.78118 Y2.41875
G01 X-1.79504 Y2.42296
G01 X-1.79609 Y2.42328
G01 X-1.79609 Y2.42327
G01 X-1.79609 Y2.42328
G01 X-1.80344 Y2.42591
G01 X-1.80344 Y2.42590
G01 X-1.80344 Y2.42591
G01 X-1.81997 Y2.43277
G01 X-1.82671 Y2.43596
G01 X-1.83100 Y2.43596
G01 X-1.83102 Y2.43582
G01 X-1.83100 Y2.43596
G01 X-1.83420 Y2.43693
G01 X-1.85195 Y2.43868
G01 X-1.89919 Y2.43868
G01 X-1.91695 Y2.43693
G01 X-1.92014 Y2.43596
G01 X-1.92012 Y2.43582
G01 X-1.92014 Y2.43596
G01 X-1.92443 Y2.43596
G01 X-1.92444 Y2.43596
G01 X-1.93117 Y2.43277
G01 X-1.94770 Y2.42591
G01 X-1.94769 Y2.42589
G01 X-1.94770 Y2.42591
G01 X-1.95505 Y2.42328
G01 X-1.95505 Y2.42327
G01 X-1.95505 Y2.42328
G01 X-1.95610 Y2.42296
G01 X-1.95610 Y2.42296
G01 X-1.96996 Y2.41875
G01 X-1.96995 Y2.41874
G01 X-1.96996 Y2.41875
G01 X-1.97731 Y2.41691
G01 X-1.97730 Y2.41688
G01 X-1.97731 Y2.41691
G01 X-1.99114 Y2.41415
G01 X-1.99113 Y2.41413
G01 X-1.99114 Y2.41415
G01 X-1.99849 Y2.41306
G01 X-1.99849 Y2.41304
G01 X-1.99849 Y2.41306
G01 X-2.01170 Y2.41175
G01 X-2.01170 Y2.41174
G01 X-2.01170 Y2.41175
G01 X-2.01906 Y2.41139
G01 X-2.01905 Y2.41137
G01 X-2.01906 Y2.41139
G01 X-2.03209 Y2.41139
G01 X-2.03209 Y2.41137
G01 X-2.03209 Y2.41139
G01 X-2.03944 Y2.41175
G01 X-2.03944 Y2.41174
G01 X-2.03944 Y2.41175
G01 X-2.05265 Y2.41306
G01 X-2.05266 Y2.41304
G01 X-2.05265 Y2.41306
G01 X-2.06000 Y2.41415
G01 X-2.06001 Y2.41413
G01 X-2.06000 Y2.41415
G01 X-2.07383 Y2.41691
G01 X-2.08118 Y2.41875
G01 X-2.08119 Y2.41874
G01 X-2.08119 Y2.41873
G01 X-2.08119 Y2.41874
G01 X-2.08118 Y2.41875
G01 X-2.09504 Y2.42296
G01 X-2.09609 Y2.42328
G01 X-2.09609 Y2.42327
G01 X-2.09609 Y2.42328
G01 X-2.10344 Y2.42591
G01 X-2.10344 Y2.42590
G01 X-2.10344 Y2.42591
G01 X-2.11997 Y2.43277
G01 X-2.12671 Y2.43596
G01 X-2.13100 Y2.43596
G01 X-2.13102 Y2.43582
G01 X-2.13100 Y2.43596
G01 X-2.13420 Y2.43693
G01 X-2.15195 Y2.43868
G01 X-2.19919 Y2.43868
G01 X-2.21695 Y2.43693
G01 X-2.22014 Y2.43596
G01 X-2.22012 Y2.43582
G01 X-2.22014 Y2.43596
G01 X-2.22443 Y2.43596
G01 X-2.22444 Y2.43596
G01 X-2.23117 Y2.43277
G01 X-2.24770 Y2.42591
G01 X-2.24769 Y2.42589
G01 X-2.24770 Y2.42591
G01 X-2.25505 Y2.42328
G01 X-2.25505 Y2.42327
G01 X-2.25505 Y2.42328
G01 X-2.25610 Y2.42296
G01 X-2.25610 Y2.42296
G01 X-2.26996 Y2.41875
G01 X-2.26995 Y2.41874
G01 X-2.26996 Y2.41875
G01 X-2.27731 Y2.41691
G01 X-2.27730 Y2.41688
G01 X-2.27731 Y2.41691
G01 X-2.29114 Y2.41415
G01 X-2.29113 Y2.41413
G01 X-2.29114 Y2.41415
G01 X-2.29849 Y2.41306
G01 X-2.29849 Y2.41304
G01 X-2.29849 Y2.41306
G01 X-2.31170 Y2.41175
G01 X-2.31170 Y2.41174
G01 X-2.31170 Y2.41175
G01 X-2.31906 Y2.41139
G01 X-2.31905 Y2.41137
G01 X-2.31906 Y2.41139
G01 X-2.33209 Y2.41139
G01 X-2.33209 Y2.41137
G01 X-2.33209 Y2.41139
G01 X-2.33944 Y2.41175
G01 X-2.33944 Y2.41174
G01 X-2.33944 Y2.41175
G01 X-2.35265 Y2.41306
G01 X-2.35266 Y2.41304
G01 X-2.35265 Y2.41306
G01 X-2.36000 Y2.41415
G01 X-2.36001 Y2.41413
G01 X-2.36000 Y2.41415
G01 X-2.37383 Y2.41691
G01 X-2.38118 Y2.41875
G01 X-2.38119 Y2.41874
G01 X-2.38119 Y2.41873
G01 X-2.38119 Y2.41874
G01 X-2.38118 Y2.41875
G01 X-2.39504 Y2.42296
G01 X-2.39609 Y2.42328
G01 X-2.39609 Y2.42327
G01 X-2.39609 Y2.42328
G01 X-2.40344 Y2.42591
G01 X-2.40344 Y2.42590
G01 X-2.40344 Y2.42591
G01 X-2.41997 Y2.43277
G01 X-2.42671 Y2.43596
G01 X-2.43100 Y2.43596
G01 X-2.43102 Y2.43582
G01 X-2.43100 Y2.43596
G01 X-2.43420 Y2.43693
G01 X-2.45195 Y2.43868
G01 X-2.49919 Y2.43868
G01 X-2.51695 Y2.43693
G01 X-2.52014 Y2.43596
G01 X-2.52012 Y2.43582
G01 X-2.52014 Y2.43596
G01 X-2.52443 Y2.43596
G01 X-2.52444 Y2.43596
G01 X-2.53117 Y2.43277
G01 X-2.54770 Y2.42591
G01 X-2.54769 Y2.42589
G01 X-2.54770 Y2.42591
G01 X-2.55505 Y2.42328
G01 X-2.55505 Y2.42327
G01 X-2.55505 Y2.42328
G01 X-2.55610 Y2.42296
G01 X-2.55610 Y2.42296
G01 X-2.56996 Y2.41875
G01 X-2.56995 Y2.41874
G01 X-2.56996 Y2.41875
G01 X-2.57731 Y2.41691
G01 X-2.57730 Y2.41688
G01 X-2.57731 Y2.41691
G01 X-2.59114 Y2.41415
G01 X-2.59113 Y2.41413
G01 X-2.59114 Y2.41415
G01 X-2.59849 Y2.41306
G01 X-2.59849 Y2.41304
G01 X-2.59849 Y2.41306
G01 X-2.61170 Y2.41175
G01 X-2.61170 Y2.41174
G01 X-2.61170 Y2.41175
G01 X-2.61906 Y2.41139
G01 X-2.61905 Y2.41137
G01 X-2.61906 Y2.41139
G01 X-2.63209 Y2.41139
G01 X-2.63209 Y2.41137
G01 X-2.63209 Y2.41139
G01 X-2.63944 Y2.41175
G01 X-2.63944 Y2.41174
G01 X-2.63944 Y2.41175
G01 X-2.65265 Y2.41306
G01 X-2.65266 Y2.41304
G01 X-2.65265 Y2.41306
G01 X-2.66000 Y2.41415
G01 X-2.66001 Y2.41413
G01 X-2.66000 Y2.41415
G01 X-2.67383 Y2.41691
G01 X-2.68118 Y2.41875
G01 X-2.68119 Y2.41874
G01 X-2.68119 Y2.41873
G01 X-2.68119 Y2.41874
G01 X-2.68118 Y2.41875
G01 X-2.69504 Y2.42296
G01 X-2.69609 Y2.42328
G01 X-2.69609 Y2.42327
G01 X-2.69609 Y2.42328
G01 X-2.70344 Y2.42591
G01 X-2.70344 Y2.42590
G01 X-2.70344 Y2.42591
G01 X-2.71997 Y2.43277
G01 X-2.72671 Y2.43596
G01 X-2.73100 Y2.43596
G01 X-2.73102 Y2.43582
G01 X-2.73100 Y2.43596
G01 X-2.73420 Y2.43693
G01 X-2.75195 Y2.43868
G01 X-2.79919 Y2.43868
G01 X-2.81695 Y2.43693
G01 X-2.82014 Y2.43596
G01 X-2.82012 Y2.43582
G01 X-2.82014 Y2.43596
G01 X-2.82443 Y2.43596
G01 X-2.82444 Y2.43596
G01 X-2.83117 Y2.43277
G01 X-2.84770 Y2.42591
G01 X-2.84769 Y2.42589
G01 X-2.84770 Y2.42591
G01 X-2.85505 Y2.42328
G01 X-2.85505 Y2.42327
G01 X-2.85505 Y2.42328
G01 X-2.85610 Y2.42296
G01 X-2.85610 Y2.42296
G01 X-2.86996 Y2.41875
G01 X-2.86995 Y2.41874
G01 X-2.86996 Y2.41875
G01 X-2.87731 Y2.41691
G01 X-2.87730 Y2.41688
G01 X-2.87731 Y2.41691
G01 X-2.89114 Y2.41415
G01 X-2.89113 Y2.41413
G01 X-2.89114 Y2.41415
G01 X-2.89849 Y2.41306
G01 X-2.89849 Y2.41304
G01 X-2.89849 Y2.41306
G01 X-2.91170 Y2.41175
G01 X-2.91170 Y2.41174
G01 X-2.91170 Y2.41175
G01 X-2.91906 Y2.41139
G01 X-2.91905 Y2.41137
G01 X-2.91906 Y2.41139
G01 X-2.93209 Y2.41139
G01 X-2.93209 Y2.41137
G01 X-2.93209 Y2.41139
G01 X-2.93944 Y2.41175
G01 X-2.93944 Y2.41174
G01 X-2.93944 Y2.41175
G01 X-2.95265 Y2.41306
G01 X-2.95266 Y2.41304
G01 X-2.95265 Y2.41306
G01 X-2.96000 Y2.41415
G01 X-2.96001 Y2.41413
G01 X-2.96000 Y2.41415
G01 X-2.97383 Y2.41691
G01 X-2.98118 Y2.41875
G01 X-2.98119 Y2.41874
G01 X-2.98119 Y2.41873
G01 X-2.98119 Y2.41874
G01 X-2.98118 Y2.41875
G01 X-2.99504 Y2.42296
G01 X-2.99609 Y2.42328
G01 X-2.99609 Y2.42327
G01 X-2.99609 Y2.42328
G01 X-3.00344 Y2.42591
G01 X-3.00344 Y2.42590
G01 X-3.00344 Y2.42591
G01 X-3.01997 Y2.43277
G01 X-3.02671 Y2.43596
G01 X-3.03100 Y2.43596
G01 X-3.03102 Y2.43582
G01 X-3.03100 Y2.43596
G01 X-3.03420 Y2.43693
G01 X-3.05195 Y2.43868
G01 X-3.09919 Y2.43868
G01 X-3.11695 Y2.43693
G01 X-3.12014 Y2.43596
G01 X-3.12012 Y2.43582
G01 X-3.12014 Y2.43596
G01 X-3.12443 Y2.43596
G01 X-3.12444 Y2.43596
G01 X-3.13117 Y2.43277
G01 X-3.14770 Y2.42591
G01 X-3.14769 Y2.42589
G01 X-3.14770 Y2.42591
G01 X-3.15505 Y2.42328
G01 X-3.15505 Y2.42327
G01 X-3.15505 Y2.42328
G01 X-3.15610 Y2.42296
G01 X-3.15610 Y2.42296
G01 X-3.16996 Y2.41875
G01 X-3.16995 Y2.41874
G01 X-3.16996 Y2.41875
G01 X-3.17731 Y2.41691
G01 X-3.17730 Y2.41688
G01 X-3.17731 Y2.41691
G01 X-3.19114 Y2.41415
G01 X-3.19113 Y2.41413
G01 X-3.19114 Y2.41415
G01 X-3.19849 Y2.41306
G01 X-3.19849 Y2.41304
G01 X-3.19849 Y2.41306
G01 X-3.21170 Y2.41175
G01 X-3.21170 Y2.41174
G01 X-3.21170 Y2.41175
G01 X-3.21906 Y2.41139
G01 X-3.21905 Y2.41137
G01 X-3.21906 Y2.41139
G01 X-3.23209 Y2.41139
G01 X-3.23209 Y2.41137
G01 X-3.23209 Y2.41139
G01 X-3.23944 Y2.41175
G01 X-3.23944 Y2.41174
G01 X-3.23944 Y2.41175
G01 X-3.25265 Y2.41306
G01 X-3.25266 Y2.41304
G01 X-3.25265 Y2.41306
G01 X-3.26000 Y2.41415
G01 X-3.26001 Y2.41413
G01 X-3.26000 Y2.41415
G01 X-3.27383 Y2.41691
G01 X-3.28118 Y2.41875
G01 X-3.28119 Y2.41874
G01 X-3.28119 Y2.41873
G01 X-3.28119 Y2.41874
G01 X-3.28118 Y2.41875
G01 X-3.29504 Y2.42296
G01 X-3.29609 Y2.42328
G01 X-3.29609 Y2.42327
G01 X-3.29609 Y2.42328
G01 X-3.30344 Y2.42591
G01 X-3.30344 Y2.42590
G01 X-3.30344 Y2.42591
G01 X-3.31997 Y2.43277
G01 X-3.32671 Y2.43596
G01 X-3.33100 Y2.43596
G01 X-3.33102 Y2.43582
G01 X-3.33100 Y2.43596
G01 X-3.33420 Y2.43693
G01 X-3.35195 Y2.43868
G01 X-3.39919 Y2.43868
G01 X-3.41695 Y2.43693
G01 X-3.42014 Y2.43596
G01 X-3.42012 Y2.43582
G01 X-3.42014 Y2.43596
G01 X-3.42443 Y2.43596
G01 X-3.42444 Y2.43596
G01 X-3.43117 Y2.43277
G01 X-3.44770 Y2.42591
G01 X-3.44769 Y2.42589
G01 X-3.44770 Y2.42591
G01 X-3.45505 Y2.42328
G01 X-3.45505 Y2.42327
G01 X-3.45505 Y2.42328
G01 X-3.45610 Y2.42296
G01 X-3.45610 Y2.42296
G01 X-3.46996 Y2.41875
G01 X-3.46995 Y2.41874
G01 X-3.46996 Y2.41875
G01 X-3.47731 Y2.41691
G01 X-3.47730 Y2.41688
G01 X-3.47731 Y2.41691
G01 X-3.49114 Y2.41415
G01 X-3.49113 Y2.41413
G01 X-3.49114 Y2.41415
G01 X-3.49849 Y2.41306
G01 X-3.49849 Y2.41304
G01 X-3.49849 Y2.41306
G01 X-3.51170 Y2.41175
G01 X-3.51170 Y2.41174
G01 X-3.51170 Y2.41175
G01 X-3.51906 Y2.41139
G01 X-3.51905 Y2.41137
G01 X-3.51906 Y2.41139
G01 X-3.53209 Y2.41139
G01 X-3.53209 Y2.41137
G01 X-3.53209 Y2.41139
G01 X-3.53944 Y2.41175
G01 X-3.53944 Y2.41174
G01 X-3.53944 Y2.41175
G01 X-3.55265 Y2.41306
G01 X-3.55266 Y2.41304
G01 X-3.55265 Y2.41306
G01 X-3.56000 Y2.41415
G01 X-3.56001 Y2.41413
G01 X-3.56000 Y2.41415
G01 X-3.57383 Y2.41691
G01 X-3.58118 Y2.41875
G01 X-3.58119 Y2.41874
G01 X-3.58119 Y2.41873
G01 X-3.58119 Y2.41874
G01 X-3.58118 Y2.41875
G01 X-3.59504 Y2.42296
G01 X-3.59609 Y2.42328
G01 X-3.59609 Y2.42327
G01 X-3.59609 Y2.42328
G01 X-3.60344 Y2.42591
G01 X-3.60344 Y2.42590
G01 X-3.60344 Y2.42591
G01 X-3.61997 Y2.43277
G01 X-3.62671 Y2.43596
G01 X-3.63100 Y2.43596
G01 X-3.63102 Y2.43582
G01 X-3.63100 Y2.43596
G01 X-3.63420 Y2.43693
G01 X-3.65195 Y2.43868
G01 X-3.69919 Y2.43868
G01 X-3.71695 Y2.43693
G01 X-3.72014 Y2.43596
G01 X-3.72012 Y2.43582
G01 X-3.72014 Y2.43596
G01 X-3.72443 Y2.43596
G01 X-3.72444 Y2.43596
G01 X-3.73117 Y2.43277
G01 X-3.74770 Y2.42591
G01 X-3.74769 Y2.42589
G01 X-3.74770 Y2.42591
G01 X-3.75505 Y2.42328
G01 X-3.75505 Y2.42327
G01 X-3.75505 Y2.42328
G01 X-3.75610 Y2.42296
G01 X-3.75610 Y2.42296
G01 X-3.76996 Y2.41875
G01 X-3.76995 Y2.41874
G01 X-3.76996 Y2.41875
G01 X-3.77731 Y2.41691
G01 X-3.77730 Y2.41688
G01 X-3.77731 Y2.41691
G01 X-3.79114 Y2.41415
G01 X-3.79113 Y2.41413
G01 X-3.79114 Y2.41415
G01 X-3.79849 Y2.41306
G01 X-3.79849 Y2.41304
G01 X-3.79849 Y2.41306
G01 X-3.81170 Y2.41175
G01 X-3.81170 Y2.41174
G01 X-3.81170 Y2.41175
G01 X-3.81906 Y2.41139
G01 X-3.81905 Y2.41137
G01 X-3.81906 Y2.41139
G01 X-3.83209 Y2.41139
G01 X-3.83209 Y2.41137
G01 X-3.83209 Y2.41139
G01 X-3.83944 Y2.41175
G01 X-3.83944 Y2.41174
G01 X-3.83944 Y2.41175
G01 X-3.85265 Y2.41306
G01 X-3.85266 Y2.41304
G01 X-3.85265 Y2.41306
G01 X-3.86000 Y2.41415
G01 X-3.86001 Y2.41413
G01 X-3.86000 Y2.41415
G01 X-3.87383 Y2.41691
G01 X-3.88118 Y2.41875
G01 X-3.88119 Y2.41874
G01 X-3.88119 Y2.41873
G01 X-3.88119 Y2.41874
G01 X-3.88118 Y2.41875
G01 X-3.89504 Y2.42296
G01 X-3.89609 Y2.42328
G01 X-3.89609 Y2.42327
G01 X-3.89609 Y2.42328
G01 X-3.90344 Y2.42591
G01 X-3.90344 Y2.42590
G01 X-3.90344 Y2.42591
G01 X-3.91997 Y2.43277
G01 X-3.92671 Y2.43596
G01 X-3.93100 Y2.43596
G01 X-3.93102 Y2.43582
G01 X-3.93100 Y2.43596
G01 X-3.93420 Y2.43693
G01 X-3.95195 Y2.43868
G01 X-3.99919 Y2.43868
G01 X-4.01695 Y2.43693
G01 X-4.02014 Y2.43596
G01 X-4.02012 Y2.43582
G01 X-4.02014 Y2.43596
G01 X-4.02443 Y2.43596
G01 X-4.02444 Y2.43596
G01 X-4.03117 Y2.43277
G01 X-4.04770 Y2.42591
G01 X-4.04769 Y2.42589
G01 X-4.04770 Y2.42591
G01 X-4.05505 Y2.42328
G01 X-4.05505 Y2.42327
G01 X-4.05505 Y2.42328
G01 X-4.05610 Y2.42296
G01 X-4.05610 Y2.42296
G01 X-4.06996 Y2.41875
G01 X-4.06995 Y2.41874
G01 X-4.06996 Y2.41875
G01 X-4.07731 Y2.41691
G01 X-4.07730 Y2.41688
G01 X-4.07731 Y2.41691
G01 X-4.09114 Y2.41415
G01 X-4.09113 Y2.41413
G01 X-4.09114 Y2.41415
G01 X-4.09849 Y2.41306
G01 X-4.09849 Y2.41304
G01 X-4.09849 Y2.41306
G01 X-4.11170 Y2.41175
G01 X-4.11170 Y2.41174
G01 X-4.11170 Y2.41175
G01 X-4.11906 Y2.41139
G01 X-4.11905 Y2.41137
G01 X-4.11906 Y2.41139
G01 X-4.13209 Y2.41139
G01 X-4.13209 Y2.41137
G01 X-4.13209 Y2.41139
G01 X-4.13944 Y2.41175
G01 X-4.13944 Y2.41174
G01 X-4.13944 Y2.41175
G01 X-4.15265 Y2.41306
G01 X-4.15266 Y2.41304
G01 X-4.15265 Y2.41306
G01 X-4.16000 Y2.41415
G01 X-4.16001 Y2.41413
G01 X-4.16000 Y2.41415
G01 X-4.17383 Y2.41691
G01 X-4.18118 Y2.41875
G01 X-4.18119 Y2.41874
G01 X-4.18119 Y2.41873
G01 X-4.18119 Y2.41874
G01 X-4.18118 Y2.41875
G01 X-4.19504 Y2.42296
G01 X-4.19609 Y2.42328
G01 X-4.19609 Y2.42327
G01 X-4.19609 Y2.42328
G01 X-4.20344 Y2.42591
G01 X-4.20344 Y2.42590
G01 X-4.20344 Y2.42591
G01 X-4.21997 Y2.43277
G01 X-4.22671 Y2.43596
G01 X-4.23100 Y2.43596
G01 X-4.23102 Y2.43582
G01 X-4.23100 Y2.43596
G01 X-4.23420 Y2.43693
G01 X-4.25195 Y2.43868
G01 X-4.29919 Y2.43868
G01 X-4.31695 Y2.43693
G01 X-4.32014 Y2.43596
G01 X-4.32012 Y2.43582
G01 X-4.32014 Y2.43596
G01 X-4.32443 Y2.43596
G01 X-4.32444 Y2.43596
G01 X-4.33117 Y2.43277
G01 X-4.34770 Y2.42591
G01 X-4.34769 Y2.42589
G01 X-4.34770 Y2.42591
G01 X-4.35505 Y2.42328
G01 X-4.35505 Y2.42327
G01 X-4.35505 Y2.42328
G01 X-4.35610 Y2.42296
G01 X-4.35610 Y2.42296
G01 X-4.36996 Y2.41875
G01 X-4.36995 Y2.41874
G01 X-4.36996 Y2.41875
G01 X-4.37731 Y2.41691
G01 X-4.37730 Y2.41688
G01 X-4.37731 Y2.41691
G01 X-4.39114 Y2.41415
G01 X-4.39113 Y2.41413
G01 X-4.39114 Y2.41415
G01 X-4.39849 Y2.41306
G01 X-4.39849 Y2.41304
G01 X-4.39849 Y2.41306
G01 X-4.41170 Y2.41175
G01 X-4.41170 Y2.41174
G01 X-4.41170 Y2.41175
G01 X-4.41906 Y2.41139
G01 X-4.41905 Y2.41137
G01 X-4.41906 Y2.41139
G01 X-4.43209 Y2.41139
G01 X-4.43209 Y2.41137
G01 X-4.43209 Y2.41139
G01 X-4.43944 Y2.41175
G01 X-4.43944 Y2.41174
G01 X-4.43944 Y2.41175
G01 X-4.45265 Y2.41306
G01 X-4.45266 Y2.41304
G01 X-4.45265 Y2.41306
G01 X-4.46000 Y2.41415
G01 X-4.46001 Y2.41413
G01 X-4.46000 Y2.41415
G01 X-4.47383 Y2.41691
G01 X-4.48118 Y2.41875
G01 X-4.48119 Y2.41874
G01 X-4.48119 Y2.41873
G01 X-4.48119 Y2.41874
G01 X-4.48118 Y2.41875
G01 X-4.49504 Y2.42296
G01 X-4.49609 Y2.42328
G01 X-4.49609 Y2.42327
G01 X-4.49609 Y2.42328
G01 X-4.50344 Y2.42591
G01 X-4.50344 Y2.42590
G01 X-4.50344 Y2.42591
G01 X-4.51997 Y2.43277
G01 X-4.52671 Y2.43596
G01 X-4.53100 Y2.43596
G01 X-4.53102 Y2.43582
G01 X-4.53100 Y2.43596
G01 X-4.53420 Y2.43693
G01 X-4.55195 Y2.43868
G01 X-4.59919 Y2.43868
G01 X-4.61695 Y2.43693
G01 X-4.62014 Y2.43596
G01 X-4.62012 Y2.43582
G01 X-4.62014 Y2.43596
G01 X-4.62443 Y2.43596
G01 X-4.62444 Y2.43596
G01 X-4.63117 Y2.43277
G01 X-4.64770 Y2.42591
G01 X-4.64769 Y2.42589
G01 X-4.64770 Y2.42591
G01 X-4.65505 Y2.42328
G01 X-4.65505 Y2.42327
G01 X-4.65505 Y2.42328
G01 X-4.65610 Y2.42296
G01 X-4.65610 Y2.42296
G01 X-4.66996 Y2.41875
G01 X-4.66995 Y2.41874
G01 X-4.66996 Y2.41875
G01 X-4.67731 Y2.41691
G01 X-4.67730 Y2.41688
G01 X-4.67731 Y2.41691
G01 X-4.69114 Y2.41415
G01 X-4.69113 Y2.41413
G01 X-4.69114 Y2.41415
G01 X-4.69849 Y2.41306
G01 X-4.69849 Y2.41304
G01 X-4.69849 Y2.41306
G01 X-4.71170 Y2.41175
G01 X-4.71170 Y2.41174
G01 X-4.71170 Y2.41175
G01 X-4.71906 Y2.41139
G01 X-4.71905 Y2.41137
G01 X-4.71906 Y2.41139
G01 X-4.73209 Y2.41139
G01 X-4.73209 Y2.41137
G01 X-4.73209 Y2.41139
G01 X-4.73944 Y2.41175
G01 X-4.73944 Y2.41174
G01 X-4.73944 Y2.41175
G01 X-4.75265 Y2.41306
G01 X-4.75266 Y2.41304
G01 X-4.75265 Y2.41306
G01 X-4.76000 Y2.41415
G01 X-4.76001 Y2.41413
G01 X-4.76000 Y2.41415
G01 X-4.77383 Y2.41691
G01 X-4.78118 Y2.41875
G01 X-4.78119 Y2.41874
G01 X-4.78119 Y2.41873
G01 X-4.78119 Y2.41874
G01 X-4.78118 Y2.41875
G01 X-4.79504 Y2.42296
G01 X-4.79609 Y2.42328
G01 X-4.79609 Y2.42327
G01 X-4.79609 Y2.42328
G01 X-4.80344 Y2.42591
G01 X-4.80344 Y2.42590
G01 X-4.80344 Y2.42591
G01 X-4.81997 Y2.43277
G01 X-4.82671 Y2.43596
G01 X-4.83100 Y2.43596
G01 X-4.83102 Y2.43582
G01 X-4.83100 Y2.43596
G01 X-4.83420 Y2.43693
G01 X-4.85195 Y2.43868
G01 X-4.89919 Y2.43868
G01 X-4.91695 Y2.43693
G01 X-4.92014 Y2.43596
G01 X-4.92012 Y2.43582
G01 X-4.92014 Y2.43596
G01 X-4.92505 Y2.43596
G01 X-4.92512 Y2.43593
G01 X-4.92962 Y2.43380
G01 X-4.93735 Y2.43035
G01 X-4.95450 Y2.42375
G01 X-4.95450 Y2.42374
G01 X-4.95450 Y2.42375
G01 X-4.95694 Y2.42296
G01 X-4.96224 Y2.42124
G01 X-4.97773 Y2.41706
G01 X-4.98546 Y2.41543
G01 X-4.99997 Y2.41313
G01 X-4.99996 Y2.41311
G01 X-4.99997 Y2.41313
G01 X-5.00770 Y2.41232
G01 X-5.00770 Y2.41230
G01 X-5.00770 Y2.41232
G01 X-5.02170 Y2.41158
G01 X-5.02170 Y2.41156
G01 X-5.02170 Y2.41158
G01 X-5.02944 Y2.41158
G01 X-5.02944 Y2.41156
G01 X-5.02944 Y2.41158
G01 X-5.02170 Y2.41158
G01 X-5.00770 Y2.41232
G01 X-5.02170 Y2.41156
G01 X-5.02944 Y2.41158
G01 X-5.04344 Y2.41232
G01 X-5.04344 Y2.41230
G01 X-5.04344 Y2.41232
G01 X-5.05118 Y2.41313
G01 X-5.05118 Y2.41312
G01 X-5.05118 Y2.41313
G01 X-5.06567 Y2.41543
G01 X-5.06568 Y2.41542
G01 X-5.06567 Y2.41543
G01 X-5.07341 Y2.41708
G01 X-5.07341 Y2.41706
G01 X-5.07341 Y2.41708
G01 X-5.08891 Y2.42124
G01 X-5.09420 Y2.42296
G01 X-5.09664 Y2.42376
G01 X-5.09665 Y2.42375
G01 X-5.09664 Y2.42376
G01 X-5.11379 Y2.43036
G01 X-5.12152 Y2.43380
G01 X-5.12609 Y2.43596
G01 X-5.12967 Y2.43765
G01 X-5.12969 Y2.43762
G01 X-5.12967 Y2.43765
G01 X-5.13997 Y2.44448
G01 X-5.14734 Y2.44916
G01 X-5.15127 Y2.45154
G01 X-5.15438 Y2.45765
G01 X-5.15828 Y2.46781
G01 X-5.16067 Y2.47517
G01 X-5.16349 Y2.48568
G01 X-5.16519 Y2.49644
G01 X-5.16600 Y2.50413
G01 X-5.16657 Y2.51500
G01 X-5.16600 Y2.52587
G01 X-5.16519 Y2.53356
G01 X-5.16457 Y2.53749
G01 X-5.16456 Y2.53749
G01 X-5.16457 Y2.53749
G01 X-5.16457 Y2.67650
G01 X-5.16410 Y2.67663
G01 X-5.16457 Y2.67650
G01 X-5.18513 Y2.71076
G01 X-5.18514 Y2.71078
G01 X-5.18514 Y2.71078
G01 X-5.18919 Y2.72544
G01 X-5.19170 Y2.73295
G01 X-5.19169 Y2.73296
G01 X-5.19170 Y2.73295
G01 X-5.19918 Y2.75199
G01 X-5.19917 Y2.75200
G01 X-5.19918 Y2.75199
G01 X-5.20241 Y2.75908
G01 X-5.21143 Y2.77644
G01 X-5.21142 Y2.77645
G01 X-5.21143 Y2.77644
G01 X-5.21536 Y2.78310
G01 X-5.22611 Y2.79936
G01 X-5.22650 Y2.79988
G01 X-5.28175 Y2.89197
G01 X-5.28553 Y2.89345
G01 X-5.28553 Y2.89345
G01 X-5.28575 Y2.89353
G01 X-5.29671 Y2.89783
G01 X-5.30543 Y2.90162
G01 X-5.30587 Y2.90185
G01 X-5.30587 Y2.90185
G01 X-5.30591 Y2.90186
G01 X-5.32170 Y2.90971
G01 X-5.32787 Y2.91320
G01 X-5.32787 Y2.91320
G01 X-5.32944 Y2.91409
G01 X-5.34144 Y2.92172
G01 X-5.34145 Y2.92171
G01 X-5.34144 Y2.92172
G01 X-5.34831 Y2.92662
G01 X-5.35298 Y2.93033
G01 X-5.35298 Y2.93033
G01 X-5.35361 Y2.93083
G01 X-5.35361 Y2.93083
G01 X-5.35746 Y2.93389
G01 X-5.35747 Y2.93387
G01 X-5.35746 Y2.93389
G01 X-5.36353 Y2.93926
G01 X-5.37070 Y2.94630
G01 X-5.37071 Y2.94630
G01 X-5.37070 Y2.94630
G01 X-5.37603 Y2.95213
G01 X-5.37605 Y2.95211
G01 X-5.37603 Y2.95213
G01 X-5.38182 Y2.95915
G01 X-5.38183 Y2.95913
G01 X-5.38182 Y2.95915
G01 X-5.38644 Y2.96539
G01 X-5.38646 Y2.96538
G01 X-5.38644 Y2.96539
G01 X-5.39123 Y2.97263
G01 X-5.39124 Y2.97262
G01 X-5.39123 Y2.97263
G01 X-5.39515 Y2.97929
G01 X-5.39882 Y2.98626
G01 X-5.39898 Y2.98620
G01 X-5.39882 Y2.98626
G01 X-5.39901 Y2.98619
G01 X-5.39882 Y2.98626
G01 X-5.39895 Y2.98709
G01 X-5.40018 Y2.99483
G01 X-5.40106 Y3.00318
G01 X-5.40146 Y3.01091
G01 X-5.40149 Y3.01091
G01 X-5.40146 Y3.01091
G01 X-5.40146 Y3.01295
G01 X-5.40146 Y3.01705
G01 X-5.40146 Y3.01909
G01 X-5.40106 Y3.02683
G01 X-5.40056 Y3.03238
G01 X-5.40057 Y3.31500
G01 X-5.40047 Y3.31893
G01 X-5.40014 Y3.32579
G01 X-5.40015 Y3.32580
G01 X-5.40014 Y3.32579
G01 X-5.39935 Y3.33380
G01 X-5.39833 Y3.34066
G01 X-5.39834 Y3.34066
G01 X-5.39833 Y3.34066
G01 X-5.39665 Y3.34910
G01 X-5.39493 Y3.35596
G01 X-5.39219 Y3.36500
G01 X-5.39493 Y3.37404
G01 X-5.39665 Y3.38090
G01 X-5.39833 Y3.38934
G01 X-5.39935 Y3.39620
G01 X-5.40014 Y3.40421
G01 X-5.40016 Y3.40420
G01 X-5.40014 Y3.40421
G01 X-5.40047 Y3.41107
G01 X-5.40057 Y3.41500
G01 X-5.40057 Y3.50597
G01 X-5.40055 Y3.50597
G01 X-5.40057 Y3.50597
G01 X-5.40157 Y3.51427
G01 X-5.40166 Y3.51500
G01 X-5.40192 Y3.51696
G01 X-5.40244 Y3.52049
G01 X-5.40242 Y3.52049
G01 X-5.40244 Y3.52049
G01 X-5.40309 Y3.52432
G01 X-5.40379 Y3.52781
G01 X-5.40418 Y3.52969
G01 X-5.47025 Y3.82336
G01 X-5.47023 Y3.82337
G01 X-5.47025 Y3.82336
G01 X-5.47111 Y3.82551
G01 X-5.47412 Y3.83343
G01 X-5.47413 Y3.83342
G01 X-5.47412 Y3.83343
G01 X-5.47607 Y3.83948
G01 X-5.47609 Y3.83948
G01 X-5.47607 Y3.83948
G01 X-5.47821 Y3.84758
G01 X-5.47823 Y3.84758
G01 X-5.47821 Y3.84758
G01 X-5.47947 Y3.85360
G01 X-5.47948 Y3.85360
G01 X-5.47947 Y3.85360
G01 X-5.47997 Y3.85682
G01 X-5.48001 Y3.85682
G01 X-5.47997 Y3.85682
G01 X-5.48002 Y3.85682
G01 X-5.47997 Y3.85682
G01 X-5.47997 Y3.86196
G01 X-5.47997 Y3.86804
G01 X-5.47997 Y3.87645
G01 X-5.47997 Y3.88299
G01 X-5.47997 Y3.89139
G01 X-5.48003 Y3.89176
G01 X-5.48022 Y3.89292
G01 X-5.47964 Y3.89311
G01 X-5.48022 Y3.89292
G01 X-5.48365 Y3.89783
G01 X-5.48371 Y3.89790
G01 X-5.48348 Y3.89816
G01 X-5.48371 Y3.89790
G01 X-5.49198 Y3.90267
G01 X-5.49640 Y3.90494
G01 X-5.49653 Y3.90500
G01 X-5.49759 Y3.90555
G01 X-5.49759 Y3.90556
G01 X-5.49759 Y3.90555
G01 X-5.50595 Y3.90927
G01 X-5.50595 Y3.90928
G01 X-5.50595 Y3.90927
G01 X-5.51032 Y3.91095
G01 X-5.51031 Y3.91097
G01 X-5.51032 Y3.91095
G01 X-5.51868 Y3.91367
G01 X-5.51868 Y3.91368
G01 X-5.51868 Y3.91367
G01 X-5.52221 Y3.91461
G01 X-5.52220 Y3.91464
G01 X-5.52221 Y3.91461
G01 X-5.53057 Y3.91639
G01 X-5.53056 Y3.91641
G01 X-5.53057 Y3.91639
G01 X-5.53357 Y3.91687
G01 X-5.53357 Y3.91689
G01 X-5.53357 Y3.91687
G01 X-5.54193 Y3.91775
G01 X-5.54193 Y3.91776
G01 X-5.54193 Y3.91775
G01 X-5.54469 Y3.91789
G01 X-5.54469 Y3.91791
G01 X-5.54469 Y3.91789
G01 X-5.55305 Y3.91789
G01 X-5.55305 Y3.91791
G01 X-5.55305 Y3.91789
G01 X-5.55581 Y3.91775
G01 X-5.55581 Y3.91776
G01 X-5.55581 Y3.91775
G01 X-5.56417 Y3.91687
G01 X-5.56417 Y3.91689
G01 X-5.56417 Y3.91687
G01 X-5.56717 Y3.91639
G01 X-5.56717 Y3.91640
G01 X-5.56717 Y3.91639
G01 X-5.57553 Y3.91461
G01 X-5.57554 Y3.91463
G01 X-5.57553 Y3.91461
G01 X-5.57554 Y3.91464
G01 X-5.57553 Y3.91461
G01 X-5.57906 Y3.91367
G01 X-5.58742 Y3.91095
G01 X-5.58743 Y3.91097
G01 X-5.58742 Y3.91095
G01 X-5.59179 Y3.90927
G01 X-5.59179 Y3.90928
G01 X-5.59179 Y3.90927
G01 X-5.60015 Y3.90555
G01 X-5.60015 Y3.90556
G01 X-5.60015 Y3.90555
G01 X-5.60121 Y3.90500
G01 X-5.60121 Y3.90500
G01 X-5.60134 Y3.90493
G01 X-5.60576 Y3.90267
G01 X-5.61403 Y3.89790
G01 X-5.61426 Y3.89816
G01 X-5.61403 Y3.89790
G01 X-5.61409 Y3.89783
G01 X-5.61752 Y3.89293
G01 X-5.61782 Y3.89305
G01 X-5.61752 Y3.89293
G01 X-5.61771 Y3.89176
G01 X-5.61777 Y3.89138
G01 X-5.61781 Y3.89138
G01 X-5.61777 Y3.89138
G01 X-5.61777 Y3.88299
G01 X-5.61777 Y3.87645
G01 X-5.61777 Y3.86804
G01 X-5.61777 Y3.86196
G01 X-5.61777 Y3.85355
G01 X-5.61777 Y3.85058
G01 X-5.61786 Y3.85057
G01 X-5.61777 Y3.85058
G01 X-5.61704 Y3.84725
G01 X-5.61502 Y3.83911
G01 X-5.61503 Y3.83911
G01 X-5.61502 Y3.83911
G01 X-5.61308 Y3.83276
G01 X-5.61018 Y3.82477
G01 X-5.60921 Y3.82224
G01 X-5.60917 Y3.82225
G01 X-5.60921 Y3.82224
G01 X-5.55318 Y3.52764
G01 X-5.55264 Y3.52435
G01 X-5.55176 Y3.51837
G01 X-5.55169 Y3.51775
G01 X-5.55169 Y3.51775
G01 X-5.54957 Y3.50746
G01 X-5.54951 Y3.50747
G01 X-5.54957 Y3.50746
G01 X-5.54957 Y2.96500
G01 X-5.54941 Y2.96149
G01 X-5.54885 Y2.95522
G01 X-5.54759 Y2.94832
G01 X-5.54591 Y2.94225
G01 X-5.54343 Y2.93569
G01 X-5.54069 Y2.93002
G01 X-5.53902 Y2.92693
G01 X-5.39957 Y2.69450
G01 X-5.39910 Y2.69463
G01 X-5.39957 Y2.69450
G01 X-5.39957 Y2.53207
G01 X-5.39955 Y2.53207
G01 X-5.39957 Y2.53207
G01 X-5.39991 Y2.53080
G01 X-5.40055 Y2.52677
G01 X-5.40136 Y2.51908
G01 X-5.40157 Y2.51500
G01 X-5.40136 Y2.51092
G01 X-5.40055 Y2.50323
G01 X-5.39991 Y2.49920
G01 X-5.39885 Y2.49526
G01 X-5.39646 Y2.48790
G01 X-5.39500 Y2.48409
G01 X-5.39315 Y2.48045
G01 X-5.38928 Y2.47375
G01 X-5.38706 Y2.47033
G01 X-5.38449 Y2.46716
G01 X-5.37931 Y2.46141
G01 X-5.37642 Y2.45852
G01 X-5.37325 Y2.45595
G01 X-5.36699 Y2.45141
G01 X-5.36357 Y2.44918
G01 X-5.35993 Y2.44733
G01 X-5.35287 Y2.44418
G01 X-5.34906 Y2.44272
G01 X-5.34511 Y2.44166
G01 X-5.33755 Y2.44005
G01 X-5.33352 Y2.43942
G01 X-5.32944 Y2.43920
G01 X-5.32170 Y2.43920
G01 X-5.31763 Y2.43942
G01 X-5.31359 Y2.44005
G01 X-5.30603 Y2.44166
G01 X-5.30209 Y2.44272
G01 X-5.29827 Y2.44418
G01 X-5.29121 Y2.44733
G01 X-5.28757 Y2.44918
G01 X-5.28415 Y2.45141
G01 X-5.27789 Y2.45595
G01 X-5.27472 Y2.45852
G01 X-5.27183 Y2.46141
G01 X-5.26665 Y2.46716
G01 X-5.26409 Y2.47033
G01 X-5.26186 Y2.47375
G01 X-5.25799 Y2.48045
G01 X-5.25614 Y2.48409
G01 X-5.25468 Y2.48790
G01 X-5.25229 Y2.49526
G01 X-5.25123 Y2.49920
G01 X-5.25059 Y2.50323
G01 X-5.24978 Y2.51092
G01 X-5.24957 Y2.51500
G01 X-5.24978 Y2.51908
G01 X-5.25059 Y2.52677
G01 X-5.25123 Y2.53080
G01 X-5.25157 Y2.53207
G01 X-5.25159 Y2.53207
G01 X-5.25157 Y2.53207
G01 X-5.25157 Y2.69793
G01 X-5.25160 Y2.69793
G01 X-5.25157 Y2.69793
G01 X-5.25123 Y2.69920
G01 X-5.25059 Y2.70323
G01 X-5.24978 Y2.71092
G01 X-5.24957 Y2.71500
G01 X-5.24978 Y2.71908
G01 X-5.25059 Y2.72677
G01 X-5.25123 Y2.73080
G01 X-5.25229 Y2.73474
G01 X-5.25468 Y2.74210
G01 X-5.25614 Y2.74591
G01 X-5.25799 Y2.74955
G01 X-5.26186 Y2.75625
G01 X-5.26409 Y2.75967
G01 X-5.26665 Y2.76284
G01 X-5.27063 Y2.76725
G01 X-5.27066 Y2.76723
G01 X-5.27063 Y2.76725
G01 X-5.40157 Y2.98550
G01 X-5.40204 Y2.98537
G01 X-5.40157 Y2.98550
G01 X-5.40157 Y3.51428
G01 X-5.40166 Y3.51500
G01 X-5.40157 Y3.51428
G01 X-5.40157 Y3.51427
G01 X-5.39957 Y3.50609
G01 X-5.39951 Y3.50610
G01 X-5.39957 Y3.50609
G01 X-5.39957 Y3.41500
G01 X-5.39938 Y3.41118
G01 X-5.39871 Y3.40435
G01 X-5.39722 Y3.39685
G01 X-5.39523 Y3.39028
G01 X-5.39230 Y3.38322
G01 X-5.38907 Y3.37717
G01 X-5.38710 Y3.37389
G01 X-5.38482 Y3.37081
G01 X-5.38047 Y3.36551
G01 X-5.37996 Y3.36500
G01 X-5.37104 Y3.36500
G01 X-5.36217 Y3.36500
G01 X-5.36043 Y3.36500
G01 X-5.35618 Y3.36500
G01 X-5.34840 Y3.36500
G01 X-5.34432 Y3.36500
G01 X-5.33715 Y3.36500
G01 X-5.33394 Y3.36500
G01 X-5.32705 Y3.36500
G01 X-5.32409 Y3.36500
G01 X-5.31720 Y3.36500
G01 X-5.31399 Y3.36500
G01 X-5.30682 Y3.36500
G01 X-5.30274 Y3.36500
G01 X-5.29496 Y3.36500
G01 X-5.29071 Y3.36500
G01 X-5.28897 Y3.36500
G01 X-5.28010 Y3.36500
G01 X-5.27118 Y3.36500
G01 X-5.27005 Y3.36500
G01 X-5.25924 Y3.36500
G01 X-5.25895 Y3.36500
G01 X-5.25621 Y3.35596
G01 X-5.25450 Y3.34910
G01 X-5.25281 Y3.34066
G01 X-5.25279 Y3.34066
G01 X-5.25281 Y3.34066
G01 X-5.25179 Y3.33380
G01 X-5.25100 Y3.32579
G01 X-5.25067 Y3.31893
G01 X-5.25065 Y3.31893
G01 X-5.25067 Y3.31893
G01 X-5.25057 Y3.31500
G01 X-5.25057 Y3.03239
G01 X-5.25008 Y3.02682
G01 X-5.24968 Y3.01909
G01 X-5.24968 Y3.01704
G01 X-5.24968 Y3.01091
G01 X-5.25008 Y3.00318
G01 X-5.25095 Y2.99483
G01 X-5.25218 Y2.98709
G01 X-5.25409 Y2.97819
G01 X-5.25615 Y2.97045
G01 X-5.25779 Y2.96500
G01 X-5.25926 Y2.96060
G01 X-5.25928 Y2.96052
G01 X-5.26143 Y2.95408
G01 X-5.26167 Y2.95335
G01 X-5.26171 Y2.95322
G01 X-5.26171 Y2.95322
G01 X-5.26194 Y2.95250
G01 X-5.26477 Y2.94356
G01 X-5.26607 Y2.93968
G01 X-5.26723 Y2.93634
G01 X-5.26909 Y2.93068
G01 X-5.26915 Y2.93049
G01 X-5.26926 Y2.93011
G01 X-5.27457 Y2.92667
G01 X-5.28063 Y2.92358
G01 X-5.28770 Y2.92043
G01 X-5.29405 Y2.91799
G01 X-5.30062 Y2.91623
G01 X-5.30819 Y2.91462
G01 X-5.31491 Y2.91356
G01 X-5.32170 Y2.91320
G01 X-5.32787 Y2.91320
G01 X-5.32787 Y2.91320
G01 X-5.24962 Y2.78279
G01 X-5.24733 Y2.78024
G01 X-5.24305 Y2.77495
G01 X-5.23935 Y2.76925
G01 X-5.23548 Y2.76255
G01 X-5.23239 Y2.75649
G01 X-5.22995 Y2.75014
G01 X-5.22756 Y2.74278
G01 X-5.22580 Y2.73621
G01 X-5.22474 Y2.72949
G01 X-5.22393 Y2.72179
G01 X-5.22357 Y2.71500
G01 X-5.22393 Y2.70821
G01 X-5.22474 Y2.70051
G01 X-5.22557 Y2.69524
G01 X-5.22557 Y2.53476
G01 X-5.22474 Y2.52949
G01 X-5.22393 Y2.52180
G01 X-5.22357 Y2.51500
G01 X-5.22393 Y2.50821
G01 X-5.22474 Y2.50051
G01 X-5.22580 Y2.49379
G01 X-5.22756 Y2.48722
G01 X-5.22995 Y2.47986
G01 X-5.23239 Y2.47351
G01 X-5.23548 Y2.46745
G01 X-5.23935 Y2.46075
G01 X-5.24305 Y2.45505
G01 X-5.24733 Y2.44976
G01 X-5.25251 Y2.44401
G01 X-5.25732 Y2.43920
G01 X-5.26261 Y2.43492
G01 X-5.26886 Y2.43037
G01 X-5.27457 Y2.42667
G01 X-5.28063 Y2.42358
G01 X-5.28770 Y2.42043
G01 X-5.29405 Y2.41799
G01 X-5.30062 Y2.41623
G01 X-5.30819 Y2.41462
G01 X-5.31491 Y2.41356
G01 X-5.32170 Y2.41320
G01 X-5.32944 Y2.41320
G01 X-5.33623 Y2.41356
G01 X-5.34295 Y2.41462
G01 X-5.35052 Y2.41623
G01 X-5.35709 Y2.41799
G01 X-5.36344 Y2.42043
G01 X-5.37051 Y2.42358
G01 X-5.37657 Y2.42667
G01 X-5.38228 Y2.43037
G01 X-5.38853 Y2.43492
G01 X-5.39382 Y2.43920
G01 X-5.39863 Y2.44401
G01 X-5.40381 Y2.44976
G01 X-5.40809 Y2.45505
G01 X-5.41180 Y2.46075
G01 X-5.41566 Y2.46745
G01 X-5.41875 Y2.47351
G01 X-5.42119 Y2.47986
G01 X-5.42358 Y2.48722
G01 X-5.42534 Y2.49379
G01 X-5.42641 Y2.50051
G01 X-5.42721 Y2.50821
G01 X-5.42757 Y2.51500
G01 X-5.42721 Y2.52180
G01 X-5.42641 Y2.52949
G01 X-5.42557 Y2.53476
G01 X-5.42555 Y2.53476
G01 X-5.42557 Y2.53476
G01 X-5.42557 Y2.68730
G01 X-5.42510 Y2.68743
G01 X-5.42557 Y2.68730
G01 X-5.56132 Y2.91355
G01 X-5.56410 Y2.91870
G01 X-5.56684 Y2.92437
G01 X-5.56915 Y2.93049
G01 X-5.56909 Y2.93067
G01 X-5.56723 Y2.93634
G01 X-5.56607 Y2.93967
G01 X-5.56477 Y2.94356
G01 X-5.56194 Y2.95250
G01 X-5.56171 Y2.95322
G01 X-5.56171 Y2.95322
G01 X-5.56167 Y2.95335
G01 X-5.56143 Y2.95408
G01 X-5.55928 Y2.96052
G01 X-5.55926 Y2.96060
G01 X-5.55779 Y2.96500
G01 X-5.55615 Y2.97045
G01 X-5.55408 Y2.97819
G01 X-5.55218 Y2.98709
G01 X-5.55094 Y2.99483
G01 X-5.55008 Y3.00318
G01 X-5.54968 Y3.01091
G01 X-5.54968 Y3.01296
G01 X-5.54968 Y3.01704
G01 X-5.54968 Y3.01909
G01 X-5.55008 Y3.02683
G01 X-5.55057 Y3.03238
G01 X-5.55057 Y3.31500
G01 X-5.55067 Y3.31893
G01 X-5.55065 Y3.31893
G01 X-5.55067 Y3.31893
G01 X-5.55100 Y3.32579
G01 X-5.55179 Y3.33380
G01 X-5.55281 Y3.34066
G01 X-5.55279 Y3.34066
G01 X-5.55281 Y3.34066
G01 X-5.55450 Y3.34910
G01 X-5.55620 Y3.35596
G01 X-5.55895 Y3.36500
G01 X-5.55621 Y3.37404
G01 X-5.55449 Y3.38090
G01 X-5.55280 Y3.38934
G01 X-5.55179 Y3.39620
G01 X-5.55100 Y3.40421
G01 X-5.55098 Y3.40420
G01 X-5.55100 Y3.40421
G01 X-5.55067 Y3.41107
G01 X-5.55057 Y3.41500
G01 X-5.55057 Y3.50736
G01 X-5.55054 Y3.50737
G01 X-5.55057 Y3.50736
G01 X-5.55135 Y3.51500
G01 X-5.55169 Y3.51775
G01 X-5.55157 Y3.51500
G01 X-5.55157 Y3.41500
G01 X-5.55176 Y3.41118
G01 X-5.55243 Y3.40435
G01 X-5.55299 Y3.40056
G01 X-5.55392 Y3.39685
G01 X-5.55591 Y3.39028
G01 X-5.55720 Y3.38668
G01 X-5.55884 Y3.38322
G01 X-5.56207 Y3.37717
G01 X-5.56632 Y3.37081
G01 X-5.57067 Y3.36551
G01 X-5.57114 Y3.36500
G01 X-5.58010 Y3.36500
G01 X-5.58897 Y3.36500
G01 X-5.59071 Y3.36500
G01 X-5.59496 Y3.36500
G01 X-5.60274 Y3.36500
G01 X-5.60682 Y3.36500
G01 X-5.61399 Y3.36500
G01 X-5.61720 Y3.36500
G01 X-5.62409 Y3.36500
G01 X-5.62705 Y3.36500
G01 X-5.63394 Y3.36500
G01 X-5.63715 Y3.36500
G01 X-5.64432 Y3.36500
G01 X-5.64840 Y3.36500
G01 X-5.65618 Y3.36500
G01 X-5.66043 Y3.36500
G01 X-5.66217 Y3.36500
G01 X-5.67104 Y3.36500
G01 X-5.67996 Y3.36500
G01 X-5.68109 Y3.36500
G01 X-5.69190 Y3.36500
G01 X-5.69219 Y3.36500
G01 X-5.69493 Y3.35596
G01 X-5.69665 Y3.34910
G01 X-5.69833 Y3.34066
G01 X-5.69834 Y3.34066
G01 X-5.69833 Y3.34066
G01 X-5.69935 Y3.33380
G01 X-5.70014 Y3.32579
G01 X-5.70015 Y3.32580
G01 X-5.70014 Y3.32579
G01 X-5.70047 Y3.31893
G01 X-5.70057 Y3.31500
G01 X-5.70056 Y3.03238
G01 X-5.70106 Y3.02683
G01 X-5.70146 Y3.01909
G01 X-5.70146 Y3.01706
G01 X-5.70146 Y3.01294
G01 X-5.70146 Y3.01091
G01 X-5.70149 Y3.01091
G01 X-5.70146 Y3.01091
G01 X-5.70106 Y3.00318
G01 X-5.70018 Y2.99483
G01 X-5.69895 Y2.98709
G01 X-5.69882 Y2.98626
G01 X-5.69898 Y2.98620
G01 X-5.69882 Y2.98626
G01 X-5.69901 Y2.98619
G01 X-5.69882 Y2.98626
G01 X-5.69515 Y2.97929
G01 X-5.69123 Y2.97263
G01 X-5.69124 Y2.97262
G01 X-5.69123 Y2.97263
G01 X-5.68644 Y2.96540
G01 X-5.68645 Y2.96538
G01 X-5.68644 Y2.96540
G01 X-5.68182 Y2.95915
G01 X-5.68183 Y2.95914
G01 X-5.68182 Y2.95915
G01 X-5.67603 Y2.95212
G01 X-5.67604 Y2.95211
G01 X-5.67603 Y2.95212
G01 X-5.67070 Y2.94630
G01 X-5.67071 Y2.94629
G01 X-5.67070 Y2.94630
G01 X-5.66353 Y2.93926
G01 X-5.65746 Y2.93389
G01 X-5.65361 Y2.93083
G01 X-5.64831 Y2.92662
G01 X-5.64144 Y2.92172
G01 X-5.64145 Y2.92171
G01 X-5.64144 Y2.92172
G01 X-5.62944 Y2.91409
G01 X-5.62787 Y2.91320
G01 X-5.54962 Y2.78279
G01 X-5.54966 Y2.78276
G01 X-5.54962 Y2.78279
G01 X-5.54733 Y2.78024
G01 X-5.54305 Y2.77495
G01 X-5.53935 Y2.76925
G01 X-5.53548 Y2.76255
G01 X-5.53239 Y2.75649
G01 X-5.52995 Y2.75014
G01 X-5.52756 Y2.74278
G01 X-5.52580 Y2.73621
G01 X-5.52474 Y2.72949
G01 X-5.52393 Y2.72179
G01 X-5.52357 Y2.71500
G01 X-5.52393 Y2.70821
G01 X-5.52474 Y2.70051
G01 X-5.52557 Y2.69524
G01 X-5.52559 Y2.69524
G01 X-5.52557 Y2.69524
G01 X-5.52557 Y2.53476
G01 X-5.52559 Y2.53476
G01 X-5.52557 Y2.53476
G01 X-5.52474 Y2.52949
G01 X-5.52393 Y2.52180
G01 X-5.52357 Y2.51500
G01 X-5.52393 Y2.50821
G01 X-5.52474 Y2.50051
G01 X-5.52580 Y2.49379
G01 X-5.52756 Y2.48722
G01 X-5.52995 Y2.47986
G01 X-5.53239 Y2.47351
G01 X-5.53548 Y2.46745
G01 X-5.53935 Y2.46075
G01 X-5.54305 Y2.45505
G01 X-5.54733 Y2.44976
G01 X-5.55251 Y2.44401
G01 X-5.55732 Y2.43920
G01 X-5.56261 Y2.43492
G01 X-5.56886 Y2.43037
G01 X-5.57457 Y2.42667
G01 X-5.58063 Y2.42358
G01 X-5.58770 Y2.42043
G01 X-5.59405 Y2.41799
G01 X-5.60062 Y2.41623
G01 X-5.60819 Y2.41462
G01 X-5.61491 Y2.41356
G01 X-5.62170 Y2.41320
G01 X-5.62944 Y2.41320
G01 X-5.63623 Y2.41356
G01 X-5.64295 Y2.41462
G01 X-5.65052 Y2.41623
G01 X-5.65709 Y2.41799
G01 X-5.66344 Y2.42043
G01 X-5.67051 Y2.42358
G01 X-5.67657 Y2.42667
G01 X-5.68228 Y2.43037
G01 X-5.68853 Y2.43492
G01 X-5.69382 Y2.43920
G01 X-5.69863 Y2.44401
G01 X-5.70381 Y2.44976
G01 X-5.70809 Y2.45505
G01 X-5.71180 Y2.46075
G01 X-5.71566 Y2.46745
G01 X-5.71875 Y2.47351
G01 X-5.72119 Y2.47986
G01 X-5.72358 Y2.48722
G01 X-5.72534 Y2.49379
G01 X-5.72641 Y2.50051
G01 X-5.72721 Y2.50821
G01 X-5.72757 Y2.51500
G01 X-5.72721 Y2.52180
G01 X-5.72641 Y2.52949
G01 X-5.72557 Y2.53476
G01 X-5.72555 Y2.53476
G01 X-5.72557 Y2.53476
G01 X-5.72557 Y2.68730
G01 X-5.72510 Y2.68743
G01 X-5.72557 Y2.68730
G01 X-5.86132 Y2.91355
G01 X-5.86410 Y2.91870
G01 X-5.86684 Y2.92437
G01 X-5.86915 Y2.93049
G01 X-5.86909 Y2.93067
G01 X-5.86723 Y2.93634
G01 X-5.86607 Y2.93967
G01 X-5.86477 Y2.94356
G01 X-5.86194 Y2.95250
G01 X-5.86171 Y2.95322
G01 X-5.86171 Y2.95322
G01 X-5.86143 Y2.95408
G01 X-5.85928 Y2.96052
G01 X-5.85926 Y2.96060
G01 X-5.85779 Y2.96500
G01 X-5.85615 Y2.97045
G01 X-5.85616 Y2.97046
G01 X-5.85615 Y2.97045
G01 X-5.85409 Y2.97819
G01 X-5.85407 Y2.97819
G01 X-5.85409 Y2.97819
G01 X-5.85218 Y2.98709
G01 X-5.85095 Y2.99483
G01 X-5.85096 Y2.99483
G01 X-5.85095 Y2.99483
G01 X-5.85008 Y3.00318
G01 X-5.84968 Y3.01091
G01 X-5.84965 Y3.01091
G01 X-5.84968 Y3.01091
G01 X-5.84968 Y3.01296
G01 X-5.84968 Y3.01704
G01 X-5.84968 Y3.01909
G01 X-5.85008 Y3.02682
G01 X-5.85057 Y3.03238
G01 X-5.85057 Y3.31500
G01 X-5.85067 Y3.31893
G01 X-5.85065 Y3.31893
G01 X-5.85067 Y3.31893
G01 X-5.85100 Y3.32579
G01 X-5.85179 Y3.33380
G01 X-5.85281 Y3.34066
G01 X-5.85279 Y3.34066
G01 X-5.85281 Y3.34066
G01 X-5.85450 Y3.34910
G01 X-5.85620 Y3.35596
G01 X-5.85895 Y3.36500
G01 X-5.85621 Y3.37404
G01 X-5.85449 Y3.38090
G01 X-5.85280 Y3.38934
G01 X-5.85179 Y3.39620
G01 X-5.85100 Y3.40421
G01 X-5.85098 Y3.40421
G01 X-5.85100 Y3.40421
G01 X-5.85067 Y3.41107
G01 X-5.85057 Y3.41500
G01 X-5.85057 Y3.50967
G01 X-5.85056 Y3.50967
G01 X-5.85057 Y3.50967
G01 X-5.85095 Y3.51500
G01 X-5.85112 Y3.51705
G01 X-5.85148 Y3.52069
G01 X-5.85170 Y3.52275
G01 X-5.85347 Y3.53704
G01 X-5.89000 Y3.83206
G01 X-5.89179 Y3.83873
G01 X-5.89337 Y3.84618
G01 X-5.89346 Y3.84617
G01 X-5.89337 Y3.84618
G01 X-5.89337 Y3.84701
G01 X-5.89337 Y3.85356
G01 X-5.89337 Y3.86196
G01 X-5.89337 Y3.86804
G01 X-5.89337 Y3.87645
G01 X-5.89337 Y3.88299
G01 X-5.89337 Y3.89138
G01 X-5.89343 Y3.89139
G01 X-5.89337 Y3.89138
G01 X-5.89331 Y3.89176
G01 X-5.89246 Y3.89619
G01 X-5.89351 Y3.89693
G01 X-5.89246 Y3.89619
G01 X-5.89355 Y3.89698
G01 X-5.89246 Y3.89619
G01 X-5.88972 Y3.89785
G01 X-5.88136 Y3.90268
G01 X-5.88137 Y3.90269
G01 X-5.88136 Y3.90268
G01 X-5.87694 Y3.90494
G01 X-5.87682 Y3.90500
G01 X-5.87681 Y3.90500
G01 X-5.87575 Y3.90555
G01 X-5.87576 Y3.90556
G01 X-5.87575 Y3.90555
G01 X-5.86739 Y3.90927
G01 X-5.86740 Y3.90929
G01 X-5.86739 Y3.90927
G01 X-5.86302 Y3.91095
G01 X-5.86303 Y3.91097
G01 X-5.86302 Y3.91095
G01 X-5.85466 Y3.91367
G01 X-5.85114 Y3.91461
G01 X-5.85114 Y3.91463
G01 X-5.85114 Y3.91461
G01 X-5.84277 Y3.91639
G01 X-5.84278 Y3.91640
G01 X-5.84277 Y3.91639
G01 X-5.83977 Y3.91687
G01 X-5.83977 Y3.91689
G01 X-5.83977 Y3.91687
G01 X-5.83141 Y3.91775
G01 X-5.83141 Y3.91776
G01 X-5.83141 Y3.91775
G01 X-5.82865 Y3.91789
G01 X-5.82865 Y3.91791
G01 X-5.82865 Y3.91789
G01 X-5.82029 Y3.91789
G01 X-5.82029 Y3.91791
G01 X-5.82029 Y3.91789
G01 X-5.81753 Y3.91775
G01 X-5.81753 Y3.91776
G01 X-5.81753 Y3.91775
G01 X-5.80917 Y3.91687
G01 X-5.80917 Y3.91689
G01 X-5.80917 Y3.91687
G01 X-5.80617 Y3.91639
G01 X-5.80616 Y3.91641
G01 X-5.80617 Y3.91639
G01 X-5.79780 Y3.91461
G01 X-5.79780 Y3.91463
G01 X-5.79780 Y3.91461
G01 X-5.79428 Y3.91367
G01 X-5.79428 Y3.91368
G01 X-5.79428 Y3.91367
G01 X-5.78592 Y3.91095
G01 X-5.78591 Y3.91097
G01 X-5.78592 Y3.91095
G01 X-5.78155 Y3.90927
G01 X-5.78155 Y3.90928
G01 X-5.78155 Y3.90927
G01 X-5.77319 Y3.90555
G01 X-5.77318 Y3.90556
G01 X-5.77319 Y3.90555
G01 X-5.77213 Y3.90500
G01 X-5.77213 Y3.90500
G01 X-5.76758 Y3.90268
G01 X-5.75931 Y3.89790
G01 X-5.75908 Y3.89816
G01 X-5.75931 Y3.89790
G01 X-5.75925 Y3.89783
G01 X-5.75582 Y3.89292
G01 X-5.75523 Y3.89311
G01 X-5.75582 Y3.89292
G01 X-5.75563 Y3.89176
G01 X-5.75557 Y3.89139
G01 X-5.75557 Y3.88299
G01 X-5.75557 Y3.87645
G01 X-5.75557 Y3.86804
G01 X-5.75557 Y3.86196
G01 X-5.75557 Y3.85356
G01 X-5.75557 Y3.84701
G01 X-5.75557 Y3.84602
G01 X-5.75569 Y3.84601
G01 X-5.75557 Y3.84602
G01 X-5.75389 Y3.83876
G01 X-5.75197 Y3.83213
G01 X-5.75031 Y3.82732
G01 X-5.75029 Y3.82732
G01 X-5.75031 Y3.82732
G01 X-5.70241 Y3.52545
G01 X-5.70203 Y3.52271
G01 X-5.70201 Y3.52258
G01 X-5.70201 Y3.52256
G01 X-5.70201 Y3.52256
G01 X-5.70167 Y3.51776
G01 X-5.70157 Y3.51500
G01 X-5.70157 Y2.98550
G01 X-5.70204 Y2.98537
G01 X-5.70157 Y2.98550
G01 X-5.57062 Y2.76725
G01 X-5.57066 Y2.76723
G01 X-5.57062 Y2.76725
G01 X-5.56665 Y2.76284
G01 X-5.56408 Y2.75967
G01 X-5.56186 Y2.75625
G01 X-5.55799 Y2.74955
G01 X-5.55614 Y2.74591
G01 X-5.55468 Y2.74210
G01 X-5.55229 Y2.73474
G01 X-5.55123 Y2.73080
G01 X-5.55059 Y2.72677
G01 X-5.54978 Y2.71908
G01 X-5.54957 Y2.71500
G01 X-5.54978 Y2.71092
G01 X-5.55059 Y2.70323
G01 X-5.55123 Y2.69920
G01 X-5.55157 Y2.69793
G01 X-5.55160 Y2.69794
G01 X-5.55157 Y2.69793
G01 X-5.55157 Y2.53207
G01 X-5.55159 Y2.53207
G01 X-5.55157 Y2.53207
G01 X-5.55123 Y2.53080
G01 X-5.55059 Y2.52677
G01 X-5.54978 Y2.51908
G01 X-5.54957 Y2.51500
G01 X-5.54978 Y2.51092
G01 X-5.55059 Y2.50323
G01 X-5.55123 Y2.49920
G01 X-5.55229 Y2.49526
G01 X-5.55468 Y2.48790
G01 X-5.55614 Y2.48409
G01 X-5.55799 Y2.48045
G01 X-5.56186 Y2.47375
G01 X-5.56408 Y2.47033
G01 X-5.56665 Y2.46716
G01 X-5.57183 Y2.46141
G01 X-5.57472 Y2.45852
G01 X-5.57789 Y2.45595
G01 X-5.58415 Y2.45141
G01 X-5.58757 Y2.44918
G01 X-5.59121 Y2.44733
G01 X-5.59827 Y2.44418
G01 X-5.60208 Y2.44272
G01 X-5.60603 Y2.44166
G01 X-5.61359 Y2.44005
G01 X-5.61763 Y2.43942
G01 X-5.62170 Y2.43920
G01 X-5.62944 Y2.43920
G01 X-5.63352 Y2.43942
G01 X-5.63755 Y2.44005
G01 X-5.64511 Y2.44166
G01 X-5.64906 Y2.44272
G01 X-5.65287 Y2.44418
G01 X-5.65993 Y2.44733
G01 X-5.66357 Y2.44918
G01 X-5.66699 Y2.45141
G01 X-5.67325 Y2.45595
G01 X-5.67642 Y2.45852
G01 X-5.67931 Y2.46141
G01 X-5.68449 Y2.46716
G01 X-5.68706 Y2.47033
G01 X-5.68928 Y2.47375
G01 X-5.69315 Y2.48045
G01 X-5.69500 Y2.48409
G01 X-5.69646 Y2.48790
G01 X-5.69885 Y2.49526
G01 X-5.69991 Y2.49920
G01 X-5.70055 Y2.50323
G01 X-5.70136 Y2.51092
G01 X-5.70157 Y2.51500
G01 X-5.70136 Y2.51908
G01 X-5.70055 Y2.52677
G01 X-5.69991 Y2.53080
G01 X-5.69957 Y2.53207
G01 X-5.69955 Y2.53207
G01 X-5.69957 Y2.53207
G01 X-5.69957 Y2.69450
G01 X-5.69910 Y2.69463
G01 X-5.69957 Y2.69450
G01 X-5.83903 Y2.92693
G01 X-5.84069 Y2.93002
G01 X-5.84344 Y2.93569
G01 X-5.84591 Y2.94225
G01 X-5.84759 Y2.94832
G01 X-5.84885 Y2.95522
G01 X-5.84941 Y2.96149
G01 X-5.84957 Y2.96500
G01 X-5.84957 Y3.50974
G01 X-5.84954 Y3.50974
G01 X-5.84957 Y3.50974
G01 X-5.85347 Y3.53704
G01 X-5.85348 Y3.53714
G01 X-5.89000 Y3.83206
G01 X-5.88998 Y3.83206
G01 X-5.89000 Y3.83206
G01 X-5.85350 Y3.53725
G01 X-5.85197 Y3.52272
G01 X-5.85182 Y3.52069
G01 X-5.85162 Y3.51704
G01 X-5.85157 Y3.51500
G01 X-5.85157 Y3.41500
G01 X-5.85176 Y3.41118
G01 X-5.85243 Y3.40435
G01 X-5.85299 Y3.40056
G01 X-5.85392 Y3.39685
G01 X-5.85591 Y3.39028
G01 X-5.85720 Y3.38668
G01 X-5.85884 Y3.38322
G01 X-5.86207 Y3.37717
G01 X-5.86632 Y3.37081
G01 X-5.87067 Y3.36551
G01 X-5.87114 Y3.36500
G01 X-5.88010 Y3.36500
G01 X-5.88897 Y3.36500
G01 X-5.89071 Y3.36500
G01 X-5.89496 Y3.36500
G01 X-5.90274 Y3.36500
G01 X-5.90682 Y3.36500
G01 X-5.91399 Y3.36500
G01 X-5.91720 Y3.36500
G01 X-5.92409 Y3.36500
G01 X-5.92705 Y3.36500
G01 X-5.93394 Y3.36500
G01 X-5.93715 Y3.36500
G01 X-5.94432 Y3.36500
G01 X-5.94840 Y3.36500
G01 X-5.95618 Y3.36500
G01 X-5.96043 Y3.36500
G01 X-5.96217 Y3.36500
G01 X-5.97104 Y3.36500
G01 X-5.97996 Y3.36500
G01 X-5.98109 Y3.36500
G01 X-5.99190 Y3.36500
G01 X-5.99219 Y3.36500
G01 X-5.99493 Y3.35596
G01 X-5.99665 Y3.34910
G01 X-5.99833 Y3.34066
G01 X-5.99834 Y3.34066
G01 X-5.99833 Y3.34066
G01 X-5.99935 Y3.33380
G01 X-6.00014 Y3.32579
G01 X-6.00015 Y3.32580
G01 X-6.00014 Y3.32579
G01 X-6.00047 Y3.31893
G01 X-6.00057 Y3.31500
G01 X-6.00056 Y3.03238
G01 X-6.00106 Y3.02683
G01 X-6.00146 Y3.01909
G01 X-6.00148 Y3.01909
G01 X-6.00146 Y3.01909
G01 X-6.00146 Y3.01706
G01 X-6.00146 Y3.01294
G01 X-6.00146 Y3.01091
G01 X-6.00149 Y3.01091
G01 X-6.00146 Y3.01091
G01 X-6.00106 Y3.00318
G01 X-6.00108 Y3.00317
G01 X-6.00106 Y3.00318
G01 X-6.00018 Y2.99483
G01 X-5.99895 Y2.98709
G01 X-5.99882 Y2.98626
G01 X-5.99898 Y2.98620
G01 X-5.99904 Y2.98619
G01 X-5.99898 Y2.98620
G01 X-5.99882 Y2.98626
G01 X-5.99901 Y2.98619
G01 X-5.99882 Y2.98626
G01 X-5.99515 Y2.97929
G01 X-5.99123 Y2.97263
G01 X-5.99124 Y2.97262
G01 X-5.99123 Y2.97263
G01 X-5.98644 Y2.96540
G01 X-5.98646 Y2.96538
G01 X-5.98644 Y2.96540
G01 X-5.98182 Y2.95915
G01 X-5.98183 Y2.95914
G01 X-5.98182 Y2.95915
G01 X-5.97603 Y2.95213
G01 X-5.97604 Y2.95212
G01 X-5.97603 Y2.95213
G01 X-5.97070 Y2.94631
G01 X-5.97071 Y2.94630
G01 X-5.97070 Y2.94631
G01 X-5.96353 Y2.93926
G01 X-5.96354 Y2.93925
G01 X-5.96353 Y2.93926
G01 X-5.95746 Y2.93389
G01 X-5.95747 Y2.93387
G01 X-5.95746 Y2.93389
G01 X-5.95361 Y2.93083
G01 X-5.95361 Y2.93083
G01 X-5.95298 Y2.93033
G01 X-5.94831 Y2.92662
G01 X-5.94144 Y2.92172
G01 X-5.94145 Y2.92171
G01 X-5.94144 Y2.92172
G01 X-5.92944 Y2.91409
G01 X-5.92787 Y2.91320
G01 X-5.84962 Y2.78278
G01 X-5.84965 Y2.78276
G01 X-5.84962 Y2.78278
G01 X-5.84733 Y2.78024
G01 X-5.84305 Y2.77495
G01 X-5.83935 Y2.76925
G01 X-5.83548 Y2.76255
G01 X-5.83239 Y2.75649
G01 X-5.82995 Y2.75014
G01 X-5.82756 Y2.74278
G01 X-5.82580 Y2.73621
G01 X-5.82473 Y2.72949
G01 X-5.82393 Y2.72179
G01 X-5.82357 Y2.71500
G01 X-5.82393 Y2.70821
G01 X-5.82473 Y2.70051
G01 X-5.82557 Y2.69524
G01 X-5.82559 Y2.69524
G01 X-5.82557 Y2.69524
G01 X-5.82557 Y2.53476
G01 X-5.82559 Y2.53476
G01 X-5.82557 Y2.53476
G01 X-5.82473 Y2.52949
G01 X-5.82393 Y2.52180
G01 X-5.82357 Y2.51500
G01 X-5.82393 Y2.50821
G01 X-5.82473 Y2.50051
G01 X-5.82580 Y2.49379
G01 X-5.82756 Y2.48722
G01 X-5.82995 Y2.47986
G01 X-5.83239 Y2.47351
G01 X-5.83548 Y2.46745
G01 X-5.83935 Y2.46075
G01 X-5.84305 Y2.45505
G01 X-5.84733 Y2.44976
G01 X-5.85251 Y2.44401
G01 X-5.85732 Y2.43920
G01 X-5.86261 Y2.43492
G01 X-5.86886 Y2.43037
G01 X-5.87457 Y2.42667
G01 X-5.88063 Y2.42358
G01 X-5.88770 Y2.42043
G01 X-5.89405 Y2.41799
G01 X-5.90062 Y2.41623
G01 X-5.90819 Y2.41462
G01 X-5.91491 Y2.41356
G01 X-5.92170 Y2.41320
G01 X-5.92944 Y2.41320
G01 X-5.93623 Y2.41356
G01 X-5.94295 Y2.41462
G01 X-5.95052 Y2.41623
G01 X-5.95709 Y2.41799
G01 X-5.96344 Y2.42043
G01 X-5.97051 Y2.42358
G01 X-5.97657 Y2.42667
G01 X-5.98228 Y2.43037
G01 X-5.98853 Y2.43492
G01 X-5.99382 Y2.43920
G01 X-5.99863 Y2.44401
G01 X-6.00381 Y2.44976
G01 X-6.00809 Y2.45505
G01 X-6.01180 Y2.46075
G01 X-6.01566 Y2.46745
G01 X-6.01875 Y2.47351
G01 X-6.02119 Y2.47986
G01 X-6.02358 Y2.48722
G01 X-6.02534 Y2.49379
G01 X-6.02641 Y2.50051
G01 X-6.02721 Y2.50821
G01 X-6.02757 Y2.51500
G01 X-6.02721 Y2.52180
G01 X-6.02641 Y2.52949
G01 X-6.02557 Y2.53476
G01 X-6.02555 Y2.53476
G01 X-6.02557 Y2.53476
G01 X-6.02557 Y2.68730
G01 X-6.02510 Y2.68743
G01 X-6.02557 Y2.68730
G01 X-6.16132 Y2.91355
G01 X-6.16410 Y2.91870
G01 X-6.16684 Y2.92437
G01 X-6.16915 Y2.93049
G01 X-6.16909 Y2.93067
G01 X-6.16723 Y2.93634
G01 X-6.16607 Y2.93967
G01 X-6.16477 Y2.94356
G01 X-6.16194 Y2.95250
G01 X-6.16171 Y2.95322
G01 X-6.16171 Y2.95322
G01 X-6.16167 Y2.95335
G01 X-6.16143 Y2.95408
G01 X-6.15928 Y2.96052
G01 X-6.15926 Y2.96060
G01 X-6.15779 Y2.96500
G01 X-6.15615 Y2.97045
G01 X-6.15409 Y2.97819
G01 X-6.15218 Y2.98709
G01 X-6.15095 Y2.99483
G01 X-6.15008 Y3.00318
G01 X-6.14968 Y3.01091
G01 X-6.14968 Y3.01296
G01 X-6.14968 Y3.01704
G01 X-6.14968 Y3.01909
G01 X-6.15008 Y3.02683
G01 X-6.15057 Y3.03238
G01 X-6.15057 Y3.31500
G01 X-6.15067 Y3.31893
G01 X-6.15065 Y3.31893
G01 X-6.15067 Y3.31893
G01 X-6.15100 Y3.32579
G01 X-6.15179 Y3.33380
G01 X-6.15281 Y3.34066
G01 X-6.15279 Y3.34066
G01 X-6.15281 Y3.34066
G01 X-6.15450 Y3.34910
G01 X-6.15621 Y3.35596
G01 X-6.15895 Y3.36500
G01 X-6.15621 Y3.37404
G01 X-6.15449 Y3.38090
G01 X-6.15280 Y3.38934
G01 X-6.15179 Y3.39620
G01 X-6.15100 Y3.40421
G01 X-6.15098 Y3.40421
G01 X-6.15100 Y3.40421
G01 X-6.15067 Y3.41107
G01 X-6.15057 Y3.41500
G01 X-6.15057 Y3.51238
G01 X-6.15157 Y3.54096
G01 X-6.15241 Y3.56500
G01 X-6.15244 Y3.56577
G01 X-6.15251 Y3.56720
G01 X-6.15254 Y3.56799
G01 X-6.16728 Y3.83349
G01 X-6.16724 Y3.83350
G01 X-6.16728 Y3.83349
G01 X-6.16835 Y3.83842
G01 X-6.16897 Y3.84187
G01 X-6.16904 Y3.84186
G01 X-6.16897 Y3.84187
G01 X-6.16897 Y3.84701
G01 X-6.16897 Y3.85355
G01 X-6.16897 Y3.86196
G01 X-6.16897 Y3.86804
G01 X-6.16897 Y3.87645
G01 X-6.16897 Y3.88299
G01 X-6.16897 Y3.89139
G01 X-6.16901 Y3.89139
G01 X-6.16897 Y3.89139
G01 X-6.16891 Y3.89176
G01 X-6.16872 Y3.89292
G01 X-6.16902 Y3.89305
G01 X-6.16872 Y3.89292
G01 X-6.16529 Y3.89783
G01 X-6.16523 Y3.89790
G01 X-6.16544 Y3.89813
G01 X-6.16523 Y3.89790
G01 X-6.16546 Y3.89816
G01 X-6.16523 Y3.89790
G01 X-6.15696 Y3.90267
G01 X-6.15697 Y3.90268
G01 X-6.15696 Y3.90267
G01 X-6.15254 Y3.90494
G01 X-6.15135 Y3.90555
G01 X-6.14299 Y3.90927
G01 X-6.14299 Y3.90928
G01 X-6.14299 Y3.90927
G01 X-6.13862 Y3.91095
G01 X-6.13863 Y3.91097
G01 X-6.13862 Y3.91095
G01 X-6.13026 Y3.91367
G01 X-6.13027 Y3.91368
G01 X-6.13026 Y3.91367
G01 X-6.12674 Y3.91461
G01 X-6.12674 Y3.91463
G01 X-6.12674 Y3.91461
G01 X-6.11837 Y3.91639
G01 X-6.11838 Y3.91640
G01 X-6.11837 Y3.91639
G01 X-6.11537 Y3.91687
G01 X-6.11537 Y3.91689
G01 X-6.11537 Y3.91687
G01 X-6.10701 Y3.91775
G01 X-6.10701 Y3.91776
G01 X-6.10701 Y3.91775
G01 X-6.10425 Y3.91789
G01 X-6.10425 Y3.91790
G01 X-6.10425 Y3.91789
G01 X-6.09589 Y3.91789
G01 X-6.09589 Y3.91790
G01 X-6.09589 Y3.91789
G01 X-6.09313 Y3.91775
G01 X-6.09313 Y3.91776
G01 X-6.09313 Y3.91775
G01 X-6.08477 Y3.91687
G01 X-6.08477 Y3.91689
G01 X-6.08477 Y3.91687
G01 X-6.08177 Y3.91639
G01 X-6.08176 Y3.91641
G01 X-6.08177 Y3.91639
G01 X-6.07341 Y3.91461
G01 X-6.07340 Y3.91463
G01 X-6.07341 Y3.91461
G01 X-6.06988 Y3.91367
G01 X-6.06988 Y3.91368
G01 X-6.06988 Y3.91367
G01 X-6.06152 Y3.91095
G01 X-6.06151 Y3.91097
G01 X-6.06152 Y3.91095
G01 X-6.05715 Y3.90927
G01 X-6.05715 Y3.90928
G01 X-6.05715 Y3.90927
G01 X-6.04879 Y3.90555
G01 X-6.04878 Y3.90556
G01 X-6.04879 Y3.90555
G01 X-6.04773 Y3.90500
G01 X-6.04773 Y3.90500
G01 X-6.04760 Y3.90494
G01 X-6.04318 Y3.90267
G01 X-6.03491 Y3.89790
G01 X-6.03468 Y3.89816
G01 X-6.03491 Y3.89790
G01 X-6.03485 Y3.89783
G01 X-6.03142 Y3.89293
G01 X-6.03083 Y3.89311
G01 X-6.03142 Y3.89293
G01 X-6.03123 Y3.89176
G01 X-6.03117 Y3.89138
G01 X-6.03117 Y3.88299
G01 X-6.03117 Y3.87645
G01 X-6.03117 Y3.86804
G01 X-6.03117 Y3.86196
G01 X-6.03117 Y3.85355
G01 X-6.03117 Y3.84701
G01 X-6.03117 Y3.84392
G01 X-6.03125 Y3.84391
G01 X-6.03117 Y3.84392
G01 X-6.03013 Y3.83856
G01 X-6.02840 Y3.83165
G01 X-6.02834 Y3.83146
G01 X-6.00422 Y3.55551
G01 X-6.00114 Y3.52021
G01 X-6.00103 Y3.51882
G01 X-6.00086 Y3.51638
G01 X-6.00085 Y3.51638
G01 X-6.00086 Y3.51638
G01 X-6.00078 Y3.51500
G01 X-6.00057 Y3.51108
G01 X-6.00057 Y3.41500
G01 X-6.00047 Y3.41107
G01 X-6.00014 Y3.40421
G01 X-6.00016 Y3.40420
G01 X-6.00014 Y3.40421
G01 X-5.99935 Y3.39620
G01 X-5.99833 Y3.38934
G01 X-5.99665 Y3.38090
G01 X-5.99493 Y3.37404
G01 X-5.99219 Y3.36500
G01 X-5.99190 Y3.36500
G01 X-5.98109 Y3.36500
G01 X-5.97996 Y3.36500
G01 X-5.97104 Y3.36500
G01 X-5.96217 Y3.36500
G01 X-5.96043 Y3.36500
G01 X-5.95618 Y3.36500
G01 X-5.94840 Y3.36500
G01 X-5.94432 Y3.36500
G01 X-5.93715 Y3.36500
G01 X-5.93394 Y3.36500
G01 X-5.92705 Y3.36500
G01 X-5.92409 Y3.36500
G01 X-5.91720 Y3.36500
G01 X-5.91399 Y3.36500
G01 X-5.90682 Y3.36500
G01 X-5.90274 Y3.36500
G01 X-5.89496 Y3.36500
G01 X-5.89071 Y3.36500
G01 X-5.88897 Y3.36500
G01 X-5.88010 Y3.36500
G01 X-5.87113 Y3.36500
G01 X-5.87005 Y3.36500
G01 X-5.85924 Y3.36500
G01 X-5.85895 Y3.36500
G01 X-5.85924 Y3.36500
G01 X-5.87005 Y3.36500
G01 X-5.87113 Y3.36500
G01 X-5.88010 Y3.36500
G01 X-5.87114 Y3.36500
G01 X-5.87113 Y3.36500
G01 X-5.87067 Y3.36449
G01 X-5.86632 Y3.35919
G01 X-5.86207 Y3.35283
G01 X-5.85884 Y3.34678
G01 X-5.85720 Y3.34332
G01 X-5.85591 Y3.33972
G01 X-5.85392 Y3.33315
G01 X-5.85299 Y3.32944
G01 X-5.85243 Y3.32565
G01 X-5.85176 Y3.31882
G01 X-5.85157 Y3.31500
G01 X-5.85157 Y3.03207
G01 X-5.85160 Y3.03207
G01 X-5.85157 Y3.03207
G01 X-5.85123 Y3.03080
G01 X-5.85059 Y3.02677
G01 X-5.84978 Y3.01908
G01 X-5.84968 Y3.01704
G01 X-5.84968 Y3.01296
G01 X-5.84968 Y3.01091
G01 X-5.85008 Y3.00318
G01 X-5.85096 Y2.99483
G01 X-5.85219 Y2.98709
G01 X-5.85409 Y2.97819
G01 X-5.85616 Y2.97046
G01 X-5.85779 Y2.96500
G01 X-5.85616 Y2.97046
G01 X-5.85409 Y2.97819
G01 X-5.85219 Y2.98709
G01 X-5.85096 Y2.99483
G01 X-5.85008 Y3.00318
G01 X-5.84968 Y3.01091
G01 X-5.84968 Y3.01296
G01 X-5.86257 Y3.01500
G01 X-5.87557 Y3.01500
G01 X-5.87564 Y3.01364
G01 X-5.87645 Y3.00595
G01 X-5.87666 Y3.00460
G01 X-5.87702 Y3.00329
G01 X-5.87941 Y2.99593
G01 X-5.87989 Y2.99466
G01 X-5.88051 Y2.99345
G01 X-5.88438 Y2.98675
G01 X-5.88512 Y2.98561
G01 X-5.88598 Y2.98455
G01 X-5.89115 Y2.97880
G01 X-5.89211 Y2.97784
G01 X-5.89317 Y2.97699
G01 X-5.89943 Y2.97244
G01 X-5.90057 Y2.97170
G01 X-5.90178 Y2.97108
G01 X-5.90885 Y2.96793
G01 X-5.91012 Y2.96745
G01 X-5.91143 Y2.96710
G01 X-5.91900 Y2.96549
G01 X-5.92034 Y2.96527
G01 X-5.92170 Y2.96520
G01 X-5.92944 Y2.96520
G01 X-5.93080 Y2.96527
G01 X-5.93214 Y2.96549
G01 X-5.93971 Y2.96710
G01 X-5.94102 Y2.96745
G01 X-5.94229 Y2.96793
G01 X-5.94936 Y2.97108
G01 X-5.95057 Y2.97170
G01 X-5.95171 Y2.97244
G01 X-5.95797 Y2.97699
G01 X-5.95903 Y2.97784
G01 X-5.95999 Y2.97880
G01 X-5.96517 Y2.98455
G01 X-5.96602 Y2.98561
G01 X-5.96676 Y2.98675
G01 X-5.97063 Y2.99345
G01 X-5.97125 Y2.99466
G01 X-5.97174 Y2.99593
G01 X-5.97413 Y3.00329
G01 X-5.97448 Y3.00460
G01 X-5.97469 Y3.00595
G01 X-5.97550 Y3.01364
G01 X-5.97557 Y3.01500
G01 X-5.97550 Y3.01636
G01 X-5.97469 Y3.02405
G01 X-5.97448 Y3.02540
G01 X-5.97413 Y3.02671
G01 X-5.97357 Y3.02842
G01 X-5.97357 Y3.31500
G01 X-5.97351 Y3.31627
G01 X-5.97284 Y3.32310
G01 X-5.97234 Y3.32560
G01 X-5.97035 Y3.33217
G01 X-5.96992 Y3.33337
G01 X-5.96937 Y3.33452
G01 X-5.96614 Y3.34057
G01 X-5.96472 Y3.34269
G01 X-5.96037 Y3.34800
G01 X-5.95857 Y3.34980
G01 X-5.95326 Y3.35415
G01 X-5.95224 Y3.35491
G01 X-5.95114 Y3.35557
G01 X-5.94509 Y3.35880
G01 X-5.94394 Y3.35935
G01 X-5.94274 Y3.35978
G01 X-5.93617 Y3.36177
G01 X-5.93494 Y3.36208
G01 X-5.93367 Y3.36226
G01 X-5.92685 Y3.36294
G01 X-5.92430 Y3.36294
G01 X-5.91747 Y3.36226
G01 X-5.91621 Y3.36208
G01 X-5.91497 Y3.36177
G01 X-5.90840 Y3.35978
G01 X-5.90720 Y3.35935
G01 X-5.90605 Y3.35880
G01 X-5.90000 Y3.35557
G01 X-5.89890 Y3.35491
G01 X-5.89788 Y3.35415
G01 X-5.89258 Y3.34980
G01 X-5.89163 Y3.34894
G01 X-5.89077 Y3.34800
G01 X-5.88642 Y3.34269
G01 X-5.88500 Y3.34057
G01 X-5.88177 Y3.33452
G01 X-5.88122 Y3.33337
G01 X-5.88079 Y3.33217
G01 X-5.87880 Y3.32560
G01 X-5.87831 Y3.32310
G01 X-5.87763 Y3.31627
G01 X-5.87757 Y3.31500
G01 X-5.87757 Y3.02842
G01 X-5.87702 Y3.02671
G01 X-5.87666 Y3.02540
G01 X-5.87645 Y3.02405
G01 X-5.87564 Y3.01636
G01 X-5.87557 Y3.01500
G01 X-5.86257 Y3.01500
G01 X-5.84968 Y3.01296
G01 X-5.84978 Y3.01092
G01 X-5.85059 Y3.00323
G01 X-5.85123 Y2.99920
G01 X-5.85229 Y2.99526
G01 X-5.85468 Y2.98790
G01 X-5.85614 Y2.98409
G01 X-5.85799 Y2.98045
G01 X-5.86186 Y2.97375
G01 X-5.86409 Y2.97033
G01 X-5.86665 Y2.96716
G01 X-5.87183 Y2.96141
G01 X-5.87472 Y2.95852
G01 X-5.87789 Y2.95595
G01 X-5.88415 Y2.95141
G01 X-5.88757 Y2.94918
G01 X-5.89121 Y2.94733
G01 X-5.89827 Y2.94418
G01 X-5.90209 Y2.94272
G01 X-5.90603 Y2.94166
G01 X-5.91359 Y2.94005
