( pcb2gcode 2.1.0 )
( Software-independent Gcode )

( This file uses 4 drill bit sizes. )
( Bit sizes: [0.8001 mm] [0.89916 mm] [1.09982 mm] [1.19888 mm] )

G94       (Millimeters per minute feed rate.)
G21       (Units == Millimeters.)
G91.1     (Incremental arc distance mode.)
G90       (Absolute coordinates.)
G00 S10000     (RPM spindle speed.)

G00 Z10.00000 (Retract)
T1
M5      (Spindle stop.)
G04 P1.00000
(MSG, Change tool bit to drill size 0.8001 mm)
M6      (Tool change.)
M0      (Temporary machine stop.)
M3      (Spindle on clockwise.)
G0 Z5.00000
G04 P1.00000

G81 R5.00000 Z-2.50000 F1000.00000 X-154.94752 Y81.01900
X-154.94752 Y83.55900
X-154.94752 Y86.09900
X-147.32752 Y81.01900
X-147.32752 Y83.55900
X-147.32752 Y86.09900
X-139.70752 Y81.01900
X-139.70752 Y83.55900
X-139.70752 Y86.09900
X-132.08752 Y81.01900
X-132.08752 Y83.55900
X-132.08752 Y86.09900
X-124.46752 Y81.01900
X-124.46752 Y83.55900
X-124.46752 Y86.09900
X-116.84752 Y81.01900
X-116.84752 Y83.55900
X-116.84752 Y86.09900
X-109.22752 Y81.01900
X-109.22752 Y83.55900
X-109.22752 Y86.09900
X-101.60752 Y81.01900
X-101.60752 Y83.55900
X-101.60752 Y86.09900
X-93.98752 Y86.09900
X-93.98752 Y83.55900
X-93.98752 Y81.01900
X-86.36752 Y86.09900
X-86.36752 Y83.55900
X-86.36752 Y81.01900
X-78.74752 Y86.09900
X-78.74752 Y83.55900
X-78.74752 Y81.01900
X-71.12752 Y86.09900
X-71.12752 Y83.55900
X-71.12752 Y81.01900
X-63.50752 Y86.09900
X-63.50752 Y83.55900
X-63.50752 Y81.01900
X-55.88752 Y86.09900
X-55.88752 Y83.55900
X-55.88752 Y81.01900
X-48.26752 Y86.09900
X-48.26752 Y83.55900
X-48.26752 Y81.01900
X-40.64752 Y86.09900
X-40.64752 Y83.55900
X-40.64752 Y81.01900
X-33.02752 Y86.09900
X-33.02752 Y83.55900
X-33.02752 Y81.01900
X-20.32752 Y86.09900
X-20.32752 Y83.55900
X-20.32752 Y81.01900
G80

G00 Z10.00000 (Retract)
T2
M5      (Spindle stop.)
G04 P1.00000
(MSG, Change tool bit to drill size 0.89916 mm)
M6      (Tool change.)
M0      (Temporary machine stop.)
M3      (Spindle on clockwise.)
G0 Z5.00000
G04 P1.00000

G81 R5.00000 Z-2.50000 F1000.00000 X-154.94752 Y53.07900
X-147.32752 Y53.07900
X-139.70752 Y53.07900
X-132.08752 Y53.07900
X-124.46752 Y53.07900
X-116.84752 Y53.07900
X-109.22752 Y60.69900
X-109.22752 Y65.77900
X-116.84752 Y73.39900
X-124.46752 Y73.39900
X-132.08752 Y73.39900
X-139.70752 Y65.77900
X-139.70752 Y60.69900
X-147.32752 Y60.69900
X-154.94752 Y60.69900
X-154.94752 Y65.77900
X-154.94752 Y73.39900
X-147.32752 Y73.39900
X-147.32752 Y65.77900
X-139.70752 Y73.39900
X-132.08752 Y65.77900
X-132.08752 Y60.69900
X-124.46752 Y65.77900
X-124.46752 Y60.69900
X-116.84752 Y60.69900
X-116.84752 Y65.77900
X-109.22752 Y73.39900
X-101.60752 Y73.39900
X-93.98752 Y73.39900
X-86.36752 Y73.39900
X-78.74752 Y73.39900
X-71.12752 Y73.39900
X-63.50752 Y73.39900
X-55.88752 Y73.39900
X-48.26752 Y73.39900
X-40.64752 Y73.39900
X-40.64752 Y65.77900
X-33.02752 Y60.69900
X-27.94752 Y60.69900
X-20.31990 Y60.69900
X-15.27546 Y60.69900
X-10.20816 Y60.69900
X-5.12816 Y60.69900
X-5.12816 Y53.07900
X-10.20816 Y53.07900
X-15.27546 Y53.07900
X-20.31990 Y53.07900
X-27.94752 Y53.07900
X-33.02752 Y53.07900
X-40.64752 Y53.07900
X-40.64752 Y60.69900
X-48.26752 Y53.07900
X-55.88752 Y60.69900
X-63.50752 Y53.07900
X-55.88752 Y53.07900
X-48.26752 Y60.69900
X-48.26752 Y65.77900
X-55.88752 Y65.77900
X-63.50752 Y65.77900
X-63.50752 Y60.69900
X-71.12752 Y60.69900
X-71.12752 Y65.77900
X-78.74752 Y65.77900
X-78.74752 Y60.69900
X-71.12752 Y53.07900
X-78.74752 Y53.07900
X-86.36752 Y53.07900
X-93.98752 Y53.07900
X-86.36752 Y60.69900
X-86.36752 Y65.77900
X-93.98752 Y65.77900
X-101.60752 Y65.77900
X-101.60752 Y60.69900
X-93.98752 Y60.69900
X-101.60752 Y53.07900
X-109.22752 Y53.07900
G80

G00 Z10.00000 (Retract)
T3
M5      (Spindle stop.)
G04 P1.00000
(MSG, Change tool bit to drill size 1.09982 mm)
M6      (Tool change.)
M0      (Temporary machine stop.)
M3      (Spindle on clockwise.)
G0 Z5.00000
G04 P1.00000

G81 R5.00000 Z-2.50000 F1000.00000 X-116.84752 Y3.54900
X-114.30752 Y3.54900
X-111.76752 Y3.54900
X-109.22752 Y3.54900
X-106.68752 Y3.54900
X-104.14752 Y3.54900
X-101.60752 Y3.54900
X-99.06752 Y3.54900
X-96.52752 Y3.54900
X-93.98752 Y3.54900
X-91.44752 Y3.54900
X-88.90752 Y3.54900
X-86.36752 Y3.54900
X-83.82752 Y3.54900
X-81.28752 Y3.54900
X-78.74752 Y3.54900
X-76.20752 Y3.54900
X-73.66752 Y3.54900
X-71.12752 Y3.54900
X-68.58752 Y3.54900
X-66.04752 Y3.54900
X-63.50752 Y3.54900
X-60.96752 Y3.54900
X-58.42752 Y3.54900
X-58.42752 Y18.78900
X-60.96752 Y18.78900
X-63.50752 Y18.78900
X-66.04752 Y18.78900
X-68.58752 Y18.78900
X-71.12752 Y16.24900
X-68.58752 Y16.24900
X-71.12752 Y18.78900
X-73.66752 Y18.78900
X-76.20752 Y18.78900
X-78.74752 Y18.78900
X-81.28752 Y18.78900
X-83.82752 Y18.78900
X-86.36752 Y18.78900
X-88.90752 Y18.78900
X-91.44752 Y18.78900
X-93.98752 Y18.78900
X-96.52752 Y18.78900
X-99.06752 Y18.78900
X-101.60752 Y18.78900
X-104.14752 Y18.78900
X-106.68752 Y18.78900
X-109.22752 Y18.78900
X-111.76752 Y18.78900
X-114.30752 Y18.78900
X-116.84752 Y18.78900
G80

G00 Z10.00000 (Retract)
T4
M5      (Spindle stop.)
G04 P1.00000
(MSG, Change tool bit to drill size 1.19888 mm)
M6      (Tool change.)
M0      (Temporary machine stop.)
M3      (Spindle on clockwise.)
G0 Z5.00000
G04 P1.00000

G81 R5.00000 Z-2.50000 F1000.00000 X-158.75752 Y94.98900
X-155.25994 Y94.98900
X-151.75982 Y94.98900
X-148.25970 Y94.98900
X-144.75958 Y94.98900
X-141.25946 Y94.98900
X-137.75934 Y94.98900
X-134.25922 Y94.98900
X-128.27752 Y94.98900
X-124.77994 Y94.98900
X-121.27982 Y94.98900
X-117.77970 Y94.98900
X-114.27958 Y94.98900
X-110.77946 Y94.98900
X-107.27934 Y94.98900
X-103.77922 Y94.98900
X-97.79752 Y94.98900
X-94.29994 Y94.98900
X-90.79982 Y94.98900
X-87.29970 Y94.98900
X-83.79958 Y94.98900
X-80.29946 Y94.98900
X-76.79934 Y94.98900
X-73.29922 Y94.98900
X-67.31752 Y94.98900
X-63.81994 Y94.98900
X-60.31982 Y94.98900
X-56.81970 Y94.98900
X-53.31958 Y94.98900
X-49.81946 Y94.98900
X-46.31934 Y94.98900
X-42.81922 Y94.98900
X-33.01228 Y94.98900
X-29.51470 Y94.98900
X-20.32752 Y94.98900
X-16.82994 Y94.98900
G80

G00 Z10.000 ( All done -- retract )

M5      (Spindle off.)
G04 P1.000000
M9      (Coolant off.)
M2      (Program end.)

