( pcb2gcode 2.1.0 )
( Software-independent Gcode )

( This file uses 3 drill bit sizes. )
( Bit sizes: [0.89916 mm] [1.016 mm] [1.09982 mm] )

G94       (Millimeters per minute feed rate.)
G21       (Units == Millimeters.)
G91.1     (Incremental arc distance mode.)
G90       (Absolute coordinates.)
G00 S10000     (RPM spindle speed.)

G00 Z10.00000 (Retract)
T1
M5      (Spindle stop.)
G04 P1.00000
(MSG, Change tool bit to drill size 0.89916 mm)
M6      (Tool change.)
M0      (Temporary machine stop.)
M3      (Spindle on clockwise.)
G0 Z5.00000
G04 P1.00000

G81 R5.00000 Z-2.50000 F1000.00000 X-102.67980 Y33.54100
X-97.59980 Y33.54100
X-92.51980 Y33.54100
X-87.43980 Y33.54100
X-82.35980 Y33.54100
X-77.27980 Y33.54100
X-72.19980 Y33.54100
X-67.11980 Y33.54100
X-59.49980 Y33.54100
X-54.41980 Y33.54100
X-49.33980 Y33.54100
X-44.25980 Y33.54100
X-39.17980 Y33.54100
X-34.09980 Y33.54100
X-29.01980 Y33.54100
X-23.93980 Y33.54100
X-18.85980 Y33.54100
X-16.31980 Y33.54100
X-13.77980 Y33.54100
X-11.23980 Y33.54100
X-6.15980 Y33.54100
X-1.07980 Y33.54100
X-1.07980 Y25.92100
X-6.15980 Y25.92100
X-11.23980 Y25.92100
X-13.77980 Y25.92100
X-16.31980 Y25.92100
X-18.85980 Y25.92100
X-23.93980 Y25.92100
X-29.01980 Y25.92100
X-34.09980 Y25.92100
X-39.17980 Y25.92100
X-44.25980 Y25.92100
X-49.33980 Y25.92100
X-54.41980 Y25.92100
X-59.49980 Y25.92100
X-67.11980 Y25.92100
X-72.19980 Y25.92100
X-77.27980 Y25.92100
X-82.35980 Y25.92100
X-87.43980 Y25.92100
X-92.51980 Y25.92100
X-97.59980 Y25.92100
X-102.67980 Y25.92100
G80

G00 Z10.00000 (Retract)
T2
M5      (Spindle stop.)
G04 P1.00000
(MSG, Change tool bit to drill size 1.016 mm)
M6      (Tool change.)
M0      (Temporary machine stop.)
M3      (Spindle on clockwise.)
G0 Z5.00000
G04 P1.00000

G81 R5.00000 Z-2.50000 F1000.00000 X-105.21980 Y37.35100
X-102.67980 Y37.35100
X-100.13980 Y37.35100
X-97.59980 Y37.35100
X-95.05980 Y37.35100
X-92.51980 Y37.35100
X-89.97980 Y37.35100
X-87.43980 Y37.35100
X-84.89980 Y37.35100
X-82.35980 Y37.35100
X-79.81980 Y37.35100
X-77.27980 Y37.35100
X-74.73980 Y37.35100
X-72.19980 Y37.35100
X-69.65980 Y37.35100
X-67.11980 Y37.35100
X-62.03980 Y37.35100
X-59.49980 Y37.35100
X-56.95980 Y37.35100
X-54.41980 Y37.35100
X-51.87980 Y37.35100
X-49.33980 Y37.35100
X-46.79980 Y37.35100
X-44.25980 Y37.35100
X-41.71980 Y37.35100
X-39.17980 Y37.35100
X-36.63980 Y37.35100
X-34.09980 Y37.35100
X-31.55980 Y37.35100
X-29.01980 Y37.35100
X-26.47980 Y37.35100
X-23.93980 Y37.35100
X-18.85980 Y37.35100
X-16.31980 Y37.35100
X-13.77980 Y37.35100
X-11.23980 Y37.35100
G80

G00 Z10.00000 (Retract)
T3
M5      (Spindle stop.)
G04 P1.00000
(MSG, Change tool bit to drill size 1.09982 mm)
M6      (Tool change.)
M0      (Temporary machine stop.)
M3      (Spindle on clockwise.)
G0 Z5.00000
G04 P1.00000

G81 R5.00000 Z-2.50000 F1000.00000 X-86.16980 Y18.30100
X-83.62980 Y18.30100
X-81.08980 Y18.30100
X-78.54980 Y18.30100
X-76.00980 Y18.30100
X-73.46980 Y18.30100
X-70.92980 Y18.30100
X-68.38980 Y18.30100
X-65.84980 Y18.30100
X-63.30980 Y18.30100
X-60.76980 Y18.30100
X-58.22980 Y18.30100
X-55.68980 Y18.30100
X-53.14980 Y18.30100
X-50.60980 Y18.30100
X-48.06980 Y18.30100
X-45.52980 Y18.30100
X-42.98980 Y18.30100
X-40.44980 Y18.30100
X-37.90980 Y18.30100
X-35.36980 Y18.30100
X-32.82980 Y18.30100
X-30.28980 Y18.30100
X-27.74980 Y18.30100
X-30.28980 Y15.76100
X-35.36980 Y15.76100
X-37.90980 Y15.76100
X-40.44980 Y15.76100
X-27.74980 Y3.06100
X-30.28980 Y3.06100
X-32.82980 Y3.06100
X-35.36980 Y3.06100
X-34.09980 Y6.06074
X-36.63980 Y6.06074
X-39.17980 Y6.06074
X-37.90980 Y3.06100
X-40.44980 Y3.06100
X-41.71980 Y6.06074
X-44.25980 Y6.06074
X-42.98980 Y3.06100
X-45.52980 Y3.06100
X-48.06980 Y3.06100
X-50.60980 Y3.06100
X-53.14980 Y3.06100
X-55.68980 Y3.06100
X-58.22980 Y3.06100
X-60.76980 Y3.06100
X-63.30980 Y3.06100
X-65.84980 Y3.06100
X-68.38980 Y3.06100
X-70.92980 Y3.06100
X-73.46980 Y5.60100
X-73.46980 Y8.14100
X-73.46980 Y10.68100
X-73.46980 Y13.22100
X-73.46980 Y15.76100
X-73.46980 Y3.06100
X-76.00980 Y3.06100
X-78.54980 Y3.06100
X-81.08980 Y3.06100
X-83.62980 Y3.06100
X-86.16980 Y3.06100
G80

G00 Z10.000 ( All done -- retract )

M5      (Spindle off.)
G04 P1.000000
M9      (Coolant off.)
M2      (Program end.)

