( pcb2gcode 2.1.0 )
( Software-independent Gcode )

( This file uses only one drill bit. Forced by 'onedrill' option )

G94       (Inches per minute feed rate.)
G20       (Units == INCHES.)
G91.1     (Incremental arc distance mode.)
G90       (Absolute coordinates.)
G00 S15000     (RPM spindle speed.)

G00 Z0.05000 (Retract)
T1
G04 P0.00000
(MSG, Change tool bit to drill size 0.0315 inch)
G0 Z0.05000
G04 P0.00000

G1 F5.00000
G0 X-3.42797 Y0.82797
G1 Z-0.10000
G1 Z0.05000
G0 X-3.52797 Y0.82797
G1 Z-0.10000
G1 Z0.05000
G0 X-3.62797 Y0.82797
G1 Z-0.10000
G1 Z0.05000
G0 X-3.72797 Y0.82797
G1 Z-0.10000
G1 Z0.05000
G0 X-3.82797 Y0.82797
G1 Z-0.10000
G1 Z0.05000
G0 X-3.92797 Y0.82797
G1 Z-0.10000
G1 Z0.05000
G0 X-4.02797 Y0.82797
G1 Z-0.10000
G1 Z0.05000
G0 X-4.12797 Y0.82797
G1 Z-0.10000
G1 Z0.05000
G0 X-4.22797 Y0.82797
G1 Z-0.10000
G1 Z0.05000
G0 X-4.32797 Y0.82797
G1 Z-0.10000
G1 Z0.05000
G0 X-3.92797 Y1.32797
G1 Z-0.10000
G1 Z0.05000
G0 X-3.82797 Y1.32797
G1 Z-0.10000
G1 Z0.05000
G0 X-3.42797 Y1.42797
G1 Z-0.10000
G1 Z0.05000
G0 X-3.52797 Y1.42797
G1 Z-0.10000
G1 Z0.05000
G0 X-3.62797 Y1.42797
G1 Z-0.10000
G1 Z0.05000
G0 X-3.72797 Y1.42797
G1 Z-0.10000
G1 Z0.05000
G0 X-3.82797 Y1.42797
G1 Z-0.10000
G1 Z0.05000
G0 X-3.92797 Y1.42797
G1 Z-0.10000
G1 Z0.05000
G0 X-4.02797 Y1.42797
G1 Z-0.10000
G1 Z0.05000
G0 X-4.12797 Y1.42797
G1 Z-0.10000
G1 Z0.05000
G0 X-4.22797 Y1.42797
G1 Z-0.10000
G1 Z0.05000
G0 X-4.32797 Y1.42797
G1 Z-0.10000
G1 Z0.05000
G0 X-4.42797 Y1.42797
G1 Z-0.10000
G1 Z0.05000
G0 X-4.52797 Y1.42797
G1 Z-0.10000
G1 Z0.05000
G0 X-4.62797 Y1.42797
G1 Z-0.10000
G1 Z0.05000
G0 X-4.72797 Y1.42797
G1 Z-0.10000
G1 Z0.05000
G0 X-4.82797 Y1.42797
G1 Z-0.10000
G1 Z0.05000
G0 X-4.92797 Y1.42797
G1 Z-0.10000
G1 Z0.05000
G0 X-4.42797 Y0.82797
G1 Z-0.10000
G1 Z0.05000
G0 X-4.52797 Y0.82797
G1 Z-0.10000
G1 Z0.05000
G0 X-4.62797 Y0.82797
G1 Z-0.10000
G1 Z0.05000
G0 X-4.72797 Y0.82797
G1 Z-0.10000
G1 Z0.05000
G0 X-4.82797 Y0.82797
G1 Z-0.10000
G1 Z0.05000
G0 X-4.92797 Y0.82797
G1 Z-0.10000
G1 Z0.05000
G0 X-5.02797 Y0.82797
G1 Z-0.10000
G1 Z0.05000
G0 X-5.12797 Y0.82797
G1 Z-0.10000
G1 Z0.05000
G0 X-5.22797 Y0.82797
G1 Z-0.10000
G1 Z0.05000
G0 X-5.32797 Y0.82797
G1 Z-0.10000
G1 Z0.05000
G0 X-5.42797 Y0.82797
G1 Z-0.10000
G1 Z0.05000
G0 X-5.52797 Y0.82797
G1 Z-0.10000
G1 Z0.05000
G0 X-5.62797 Y0.82797
G1 Z-0.10000
G1 Z0.05000
G0 X-5.72797 Y0.82797
G1 Z-0.10000
G1 Z0.05000
G0 X-5.12797 Y1.42797
G1 Z-0.10000
G1 Z0.05000
G0 X-5.02797 Y1.42797
G1 Z-0.10000
G1 Z0.05000
G0 X-5.22797 Y1.42797
G1 Z-0.10000
G1 Z0.05000
G0 X-5.32797 Y1.42797
G1 Z-0.10000
G1 Z0.05000
G0 X-5.42797 Y1.42797
G1 Z-0.10000
G1 Z0.05000
G0 X-5.52797 Y1.42797
G1 Z-0.10000
G1 Z0.05000
G0 X-5.62797 Y1.42797
G1 Z-0.10000
G1 Z0.05000
G0 X-5.72797 Y1.42797
G1 Z-0.10000
G1 Z0.05000
G0 X-6.02797 Y2.77797
G1 Z-0.10000
G1 Z0.05000
G0 X-5.72797 Y2.77797
G1 Z-0.10000
G1 Z0.05000
G0 X-5.42797 Y2.77797
G1 Z-0.10000
G1 Z0.05000
G0 X-5.12797 Y2.77797
G1 Z-0.10000
G1 Z0.05000
G0 X-4.82797 Y2.77797
G1 Z-0.10000
G1 Z0.05000
G0 X-4.82797 Y3.07797
G1 Z-0.10000
G1 Z0.05000
G0 X-4.82797 Y3.27797
G1 Z-0.10000
G1 Z0.05000
G0 X-5.12797 Y3.07797
G1 Z-0.10000
G1 Z0.05000
G0 X-5.12797 Y3.27797
G1 Z-0.10000
G1 Z0.05000
G0 X-4.82797 Y3.57797
G1 Z-0.10000
G1 Z0.05000
G0 X-5.12797 Y3.57797
G1 Z-0.10000
G1 Z0.05000
G0 X-5.12797 Y3.87797
G1 Z-0.10000
G1 Z0.05000
G0 X-5.12797 Y3.97797
G1 Z-0.10000
G1 Z0.05000
G0 X-5.12797 Y4.07797
G1 Z-0.10000
G1 Z0.05000
G0 X-4.82797 Y4.07797
G1 Z-0.10000
G1 Z0.05000
G0 X-4.82797 Y3.97797
G1 Z-0.10000
G1 Z0.05000
G0 X-4.82797 Y3.87797
G1 Z-0.10000
G1 Z0.05000
G0 X-4.52797 Y4.07797
G1 Z-0.10000
G1 Z0.05000
G0 X-4.52797 Y3.97797
G1 Z-0.10000
G1 Z0.05000
G0 X-4.52797 Y3.87797
G1 Z-0.10000
G1 Z0.05000
G0 X-4.22797 Y4.07797
G1 Z-0.10000
G1 Z0.05000
G0 X-4.22797 Y3.97797
G1 Z-0.10000
G1 Z0.05000
G0 X-4.22797 Y3.87797
G1 Z-0.10000
G1 Z0.05000
G0 X-3.92797 Y4.07797
G1 Z-0.10000
G1 Z0.05000
G0 X-3.92797 Y3.97797
G1 Z-0.10000
G1 Z0.05000
G0 X-3.92797 Y3.87797
G1 Z-0.10000
G1 Z0.05000
G0 X-3.92797 Y3.57797
G1 Z-0.10000
G1 Z0.05000
G0 X-4.22797 Y3.57797
G1 Z-0.10000
G1 Z0.05000
G0 X-4.52797 Y3.57797
G1 Z-0.10000
G1 Z0.05000
G0 X-4.52797 Y3.27797
G1 Z-0.10000
G1 Z0.05000
G0 X-4.52797 Y3.07797
G1 Z-0.10000
G1 Z0.05000
G0 X-4.52797 Y2.77797
G1 Z-0.10000
G1 Z0.05000
G0 X-4.22797 Y2.77797
G1 Z-0.10000
G1 Z0.05000
G0 X-3.92797 Y2.77797
G1 Z-0.10000
G1 Z0.05000
G0 X-4.22797 Y3.07797
G1 Z-0.10000
G1 Z0.05000
G0 X-4.22797 Y3.27797
G1 Z-0.10000
G1 Z0.05000
G0 X-3.92797 Y3.27797
G1 Z-0.10000
G1 Z0.05000
G0 X-3.92797 Y3.07797
G1 Z-0.10000
G1 Z0.05000
G0 X-3.62797 Y2.77797
G1 Z-0.10000
G1 Z0.05000
G0 X-3.32797 Y2.77797
G1 Z-0.10000
G1 Z0.05000
G0 X-3.02797 Y2.77797
G1 Z-0.10000
G1 Z0.05000
G0 X-2.72797 Y3.07797
G1 Z-0.10000
G1 Z0.05000
G0 X-2.72797 Y3.27797
G1 Z-0.10000
G1 Z0.05000
G0 X-2.72797 Y3.57797
G1 Z-0.10000
G1 Z0.05000
G0 X-2.72797 Y3.87797
G1 Z-0.10000
G1 Z0.05000
G0 X-2.72797 Y3.97797
G1 Z-0.10000
G1 Z0.05000
G0 X-2.72797 Y4.07797
G1 Z-0.10000
G1 Z0.05000
G0 X-2.42797 Y3.97797
G1 Z-0.10000
G1 Z0.05000
G0 X-2.42797 Y4.07797
G1 Z-0.10000
G1 Z0.05000
G0 X-2.42737 Y4.42797
G1 Z-0.10000
G1 Z0.05000
G0 X-2.28967 Y4.42797
G1 Z-0.10000
G1 Z0.05000
G0 X-1.92797 Y4.42797
G1 Z-0.10000
G1 Z0.05000
G0 X-1.79027 Y4.42797
G1 Z-0.10000
G1 Z0.05000
G0 X-1.92797 Y4.07797
G1 Z-0.10000
G1 Z0.05000
G0 X-1.92797 Y3.97797
G1 Z-0.10000
G1 Z0.05000
G0 X-1.92797 Y3.87797
G1 Z-0.10000
G1 Z0.05000
G0 X-2.42797 Y3.87797
G1 Z-0.10000
G1 Z0.05000
G0 X-1.92767 Y3.07797
G1 Z-0.10000
G1 Z0.05000
G0 X-1.72907 Y3.07797
G1 Z-0.10000
G1 Z0.05000
G0 X-1.52957 Y3.07797
G1 Z-0.10000
G1 Z0.05000
G0 X-1.32957 Y3.07797
G1 Z-0.10000
G1 Z0.05000
G0 X-1.32957 Y2.77797
G1 Z-0.10000
G1 Z0.05000
G0 X-1.52957 Y2.77797
G1 Z-0.10000
G1 Z0.05000
G0 X-1.72907 Y2.77797
G1 Z-0.10000
G1 Z0.05000
G0 X-1.92767 Y2.77797
G1 Z-0.10000
G1 Z0.05000
G0 X-2.22797 Y2.77797
G1 Z-0.10000
G1 Z0.05000
G0 X-2.22797 Y3.07797
G1 Z-0.10000
G1 Z0.05000
G0 X-2.42797 Y3.07797
G1 Z-0.10000
G1 Z0.05000
G0 X-2.42797 Y2.77797
G1 Z-0.10000
G1 Z0.05000
G0 X-2.72797 Y2.77797
G1 Z-0.10000
G1 Z0.05000
G0 X-3.02797 Y3.07797
G1 Z-0.10000
G1 Z0.05000
G0 X-3.02797 Y3.27797
G1 Z-0.10000
G1 Z0.05000
G0 X-3.02797 Y3.57797
G1 Z-0.10000
G1 Z0.05000
G0 X-3.32797 Y3.57797
G1 Z-0.10000
G1 Z0.05000
G0 X-3.32797 Y3.27797
G1 Z-0.10000
G1 Z0.05000
G0 X-3.32797 Y3.07797
G1 Z-0.10000
G1 Z0.05000
G0 X-3.62797 Y3.07797
G1 Z-0.10000
G1 Z0.05000
G0 X-3.62797 Y3.27797
G1 Z-0.10000
G1 Z0.05000
G0 X-3.62797 Y3.57797
G1 Z-0.10000
G1 Z0.05000
G0 X-3.62797 Y3.87797
G1 Z-0.10000
G1 Z0.05000
G0 X-3.62797 Y3.97797
G1 Z-0.10000
G1 Z0.05000
G0 X-3.62797 Y4.07797
G1 Z-0.10000
G1 Z0.05000
G0 X-3.32797 Y3.87797
G1 Z-0.10000
G1 Z0.05000
G0 X-3.32797 Y3.97797
G1 Z-0.10000
G1 Z0.05000
G0 X-3.32797 Y4.07797
G1 Z-0.10000
G1 Z0.05000
G0 X-3.02797 Y3.87797
G1 Z-0.10000
G1 Z0.05000
G0 X-3.02797 Y3.97797
G1 Z-0.10000
G1 Z0.05000
G0 X-3.02797 Y4.07797
G1 Z-0.10000
G1 Z0.05000
G0 X-2.81347 Y4.42797
G1 Z-0.10000
G1 Z0.05000
G0 X-2.95127 Y4.42797
G1 Z-0.10000
G1 Z0.05000
G0 X-3.08907 Y4.42797
G1 Z-0.10000
G1 Z0.05000
G0 X-3.22687 Y4.42797
G1 Z-0.10000
G1 Z0.05000
G0 X-3.36467 Y4.42797
G1 Z-0.10000
G1 Z0.05000
G0 X-3.50247 Y4.42797
G1 Z-0.10000
G1 Z0.05000
G0 X-3.64027 Y4.42797
G1 Z-0.10000
G1 Z0.05000
G0 X-3.77797 Y4.42797
G1 Z-0.10000
G1 Z0.05000
G0 X-4.01347 Y4.42797
G1 Z-0.10000
G1 Z0.05000
G0 X-4.15127 Y4.42797
G1 Z-0.10000
G1 Z0.05000
G0 X-4.28907 Y4.42797
G1 Z-0.10000
G1 Z0.05000
G0 X-4.42687 Y4.42797
G1 Z-0.10000
G1 Z0.05000
G0 X-4.56467 Y4.42797
G1 Z-0.10000
G1 Z0.05000
G0 X-4.70247 Y4.42797
G1 Z-0.10000
G1 Z0.05000
G0 X-4.84027 Y4.42797
G1 Z-0.10000
G1 Z0.05000
G0 X-4.97797 Y4.42797
G1 Z-0.10000
G1 Z0.05000
G0 X-5.21347 Y4.42797
G1 Z-0.10000
G1 Z0.05000
G0 X-5.35127 Y4.42797
G1 Z-0.10000
G1 Z0.05000
G0 X-5.48907 Y4.42797
G1 Z-0.10000
G1 Z0.05000
G0 X-5.62687 Y4.42797
G1 Z-0.10000
G1 Z0.05000
G0 X-5.76467 Y4.42797
G1 Z-0.10000
G1 Z0.05000
G0 X-5.42797 Y4.07797
G1 Z-0.10000
G1 Z0.05000
G0 X-5.42797 Y3.97797
G1 Z-0.10000
G1 Z0.05000
G0 X-5.42797 Y3.87797
G1 Z-0.10000
G1 Z0.05000
G0 X-5.72797 Y3.87797
G1 Z-0.10000
G1 Z0.05000
G0 X-5.72797 Y3.97797
G1 Z-0.10000
G1 Z0.05000
G0 X-5.72797 Y4.07797
G1 Z-0.10000
G1 Z0.05000
G0 X-5.90247 Y4.42797
G1 Z-0.10000
G1 Z0.05000
G0 X-6.04027 Y4.42797
G1 Z-0.10000
G1 Z0.05000
G0 X-6.17797 Y4.42797
G1 Z-0.10000
G1 Z0.05000
G0 X-6.41347 Y4.42797
G1 Z-0.10000
G1 Z0.05000
G0 X-6.55127 Y4.42797
G1 Z-0.10000
G1 Z0.05000
G0 X-6.68907 Y4.42797
G1 Z-0.10000
G1 Z0.05000
G0 X-6.82687 Y4.42797
G1 Z-0.10000
G1 Z0.05000
G0 X-6.96467 Y4.42797
G1 Z-0.10000
G1 Z0.05000
G0 X-7.10247 Y4.42797
G1 Z-0.10000
G1 Z0.05000
G0 X-7.24027 Y4.42797
G1 Z-0.10000
G1 Z0.05000
G0 X-7.37797 Y4.42797
G1 Z-0.10000
G1 Z0.05000
G0 X-7.22797 Y4.07797
G1 Z-0.10000
G1 Z0.05000
G0 X-7.22797 Y3.97797
G1 Z-0.10000
G1 Z0.05000
G0 X-7.22797 Y3.87797
G1 Z-0.10000
G1 Z0.05000
G0 X-6.92797 Y4.07797
G1 Z-0.10000
G1 Z0.05000
G0 X-6.92797 Y3.97797
G1 Z-0.10000
G1 Z0.05000
G0 X-6.92797 Y3.87797
G1 Z-0.10000
G1 Z0.05000
G0 X-6.92797 Y3.57797
G1 Z-0.10000
G1 Z0.05000
G0 X-7.22797 Y3.57797
G1 Z-0.10000
G1 Z0.05000
G0 X-6.92797 Y3.27797
G1 Z-0.10000
G1 Z0.05000
G0 X-7.22797 Y3.27797
G1 Z-0.10000
G1 Z0.05000
G0 X-7.22797 Y3.07797
G1 Z-0.10000
G1 Z0.05000
G0 X-7.22797 Y2.77797
G1 Z-0.10000
G1 Z0.05000
G0 X-6.92797 Y2.77797
G1 Z-0.10000
G1 Z0.05000
G0 X-6.92797 Y3.07797
G1 Z-0.10000
G1 Z0.05000
G0 X-6.62797 Y3.27797
G1 Z-0.10000
G1 Z0.05000
G0 X-6.62797 Y3.07797
G1 Z-0.10000
G1 Z0.05000
G0 X-6.62797 Y2.77797
G1 Z-0.10000
G1 Z0.05000
G0 X-6.32797 Y2.77797
G1 Z-0.10000
G1 Z0.05000
G0 X-6.32797 Y3.07797
G1 Z-0.10000
G1 Z0.05000
G0 X-6.32797 Y3.27797
G1 Z-0.10000
G1 Z0.05000
G0 X-6.02797 Y3.57797
G1 Z-0.10000
G1 Z0.05000
G0 X-6.02797 Y3.27797
G1 Z-0.10000
G1 Z0.05000
G0 X-6.02797 Y3.07797
G1 Z-0.10000
G1 Z0.05000
G0 X-5.72797 Y3.07797
G1 Z-0.10000
G1 Z0.05000
G0 X-5.42797 Y3.07797
G1 Z-0.10000
G1 Z0.05000
G0 X-5.42797 Y3.27797
G1 Z-0.10000
G1 Z0.05000
G0 X-5.42797 Y3.57797
G1 Z-0.10000
G1 Z0.05000
G0 X-5.72797 Y3.27797
G1 Z-0.10000
G1 Z0.05000
G0 X-5.72797 Y3.57797
G1 Z-0.10000
G1 Z0.05000
G0 X-6.02797 Y3.87797
G1 Z-0.10000
G1 Z0.05000
G0 X-6.02797 Y3.97797
G1 Z-0.10000
G1 Z0.05000
G0 X-6.02797 Y4.07797
G1 Z-0.10000
G1 Z0.05000
G0 X-6.32797 Y4.07797
G1 Z-0.10000
G1 Z0.05000
G0 X-6.32797 Y3.97797
G1 Z-0.10000
G1 Z0.05000
G0 X-6.32797 Y3.87797
G1 Z-0.10000
G1 Z0.05000
G0 X-6.62797 Y4.07797
G1 Z-0.10000
G1 Z0.05000
G0 X-6.62797 Y3.97797
G1 Z-0.10000
G1 Z0.05000
G0 X-6.62797 Y3.87797
G1 Z-0.10000
G1 Z0.05000
G0 X-6.62797 Y3.57797
G1 Z-0.10000
G1 Z0.05000
G0 X-6.32797 Y3.57797
G1 Z-0.10000
G1 Z0.05000

G00 Z0.050 ( All done -- retract )

G04 P0.000000
M2      (Program end.)

