( pcb2gcode 2.1.0 )
( Software-independent Gcode )

( This file uses only one drill bit. Forced by 'onedrill' option )

G94       (Inches per minute feed rate.)
G20       (Units == INCHES.)
G91.1     (Incremental arc distance mode.)
G90       (Absolute coordinates.)
G00 S15000     (RPM spindle speed.)

G00 Z0.05000 (Retract)
T1
M5      (Spindle stop.)
G04 P0.00000
(MSG, Change tool bit to drill size 0.0315 inch)
M6      (Tool change.)
M0      (Temporary machine stop.)
M3      (Spindle on clockwise.)
G0 Z0.05000
G04 P0.00000

G1 F5.00000
G0 X-4.62157 Y0.16100
G1 Z-0.01000
G1 Z0.05000
G0 X-4.52157 Y0.16100
G1 Z-0.01000
G1 Z0.05000
G0 X-4.42157 Y0.16100
G1 Z-0.01000
G1 Z0.05000
G0 X-4.32157 Y0.16100
G1 Z-0.01000
G1 Z0.05000
G0 X-4.22157 Y0.16100
G1 Z-0.01000
G1 Z0.05000
G0 X-4.12157 Y0.16100
G1 Z-0.01000
G1 Z0.05000
G0 X-4.02157 Y0.16100
G1 Z-0.01000
G1 Z0.05000
G0 X-3.92157 Y0.16100
G1 Z-0.01000
G1 Z0.05000
G0 X-3.82157 Y0.16100
G1 Z-0.01000
G1 Z0.05000
G0 X-3.72157 Y0.16100
G1 Z-0.01000
G1 Z0.05000
G0 X-3.62157 Y0.16100
G1 Z-0.01000
G1 Z0.05000
G0 X-3.52157 Y0.16100
G1 Z-0.01000
G1 Z0.05000
G0 X-3.42157 Y0.16100
G1 Z-0.01000
G1 Z0.05000
G0 X-3.32157 Y0.16100
G1 Z-0.01000
G1 Z0.05000
G0 X-3.22157 Y0.16100
G1 Z-0.01000
G1 Z0.05000
G0 X-3.12157 Y0.16100
G1 Z-0.01000
G1 Z0.05000
G0 X-3.02157 Y0.16100
G1 Z-0.01000
G1 Z0.05000
G0 X-2.92157 Y0.16100
G1 Z-0.01000
G1 Z0.05000
G0 X-2.82157 Y0.16100
G1 Z-0.01000
G1 Z0.05000
G0 X-2.72157 Y0.16100
G1 Z-0.01000
G1 Z0.05000
G0 X-2.62157 Y0.16100
G1 Z-0.01000
G1 Z0.05000
G0 X-2.52157 Y0.16100
G1 Z-0.01000
G1 Z0.05000
G0 X-2.42157 Y0.16100
G1 Z-0.01000
G1 Z0.05000
G0 X-2.32157 Y0.16100
G1 Z-0.01000
G1 Z0.05000
G0 X-2.82157 Y0.66100
G1 Z-0.01000
G1 Z0.05000
G0 X-2.72157 Y0.66100
G1 Z-0.01000
G1 Z0.05000
G0 X-2.32157 Y0.76100
G1 Z-0.01000
G1 Z0.05000
G0 X-2.42157 Y0.76100
G1 Z-0.01000
G1 Z0.05000
G0 X-2.52157 Y0.76100
G1 Z-0.01000
G1 Z0.05000
G0 X-2.62157 Y0.76100
G1 Z-0.01000
G1 Z0.05000
G0 X-2.72157 Y0.76100
G1 Z-0.01000
G1 Z0.05000
G0 X-2.82157 Y0.76100
G1 Z-0.01000
G1 Z0.05000
G0 X-2.92157 Y0.76100
G1 Z-0.01000
G1 Z0.05000
G0 X-3.02157 Y0.76100
G1 Z-0.01000
G1 Z0.05000
G0 X-3.12157 Y0.76100
G1 Z-0.01000
G1 Z0.05000
G0 X-3.22157 Y0.76100
G1 Z-0.01000
G1 Z0.05000
G0 X-3.32157 Y0.76100
G1 Z-0.01000
G1 Z0.05000
G0 X-3.42157 Y0.76100
G1 Z-0.01000
G1 Z0.05000
G0 X-3.52157 Y0.76100
G1 Z-0.01000
G1 Z0.05000
G0 X-3.62157 Y0.76100
G1 Z-0.01000
G1 Z0.05000
G0 X-3.72157 Y0.76100
G1 Z-0.01000
G1 Z0.05000
G0 X-3.82157 Y0.76100
G1 Z-0.01000
G1 Z0.05000
G0 X-3.92157 Y0.76100
G1 Z-0.01000
G1 Z0.05000
G0 X-4.02157 Y0.76100
G1 Z-0.01000
G1 Z0.05000
G0 X-4.12157 Y0.76100
G1 Z-0.01000
G1 Z0.05000
G0 X-4.22157 Y0.76100
G1 Z-0.01000
G1 Z0.05000
G0 X-4.32157 Y0.76100
G1 Z-0.01000
G1 Z0.05000
G0 X-4.42157 Y0.76100
G1 Z-0.01000
G1 Z0.05000
G0 X-4.52157 Y0.76100
G1 Z-0.01000
G1 Z0.05000
G0 X-4.62157 Y0.76100
G1 Z-0.01000
G1 Z0.05000
G0 X-4.92157 Y2.11100
G1 Z-0.01000
G1 Z0.05000
G0 X-4.62157 Y2.11100
G1 Z-0.01000
G1 Z0.05000
G0 X-4.32157 Y2.11100
G1 Z-0.01000
G1 Z0.05000
G0 X-4.02157 Y2.11100
G1 Z-0.01000
G1 Z0.05000
G0 X-3.72157 Y2.11100
G1 Z-0.01000
G1 Z0.05000
G0 X-4.02157 Y2.41100
G1 Z-0.01000
G1 Z0.05000
G0 X-4.02157 Y2.61100
G1 Z-0.01000
G1 Z0.05000
G0 X-3.72157 Y2.91100
G1 Z-0.01000
G1 Z0.05000
G0 X-4.02157 Y2.91100
G1 Z-0.01000
G1 Z0.05000
G0 X-4.02157 Y3.21100
G1 Z-0.01000
G1 Z0.05000
G0 X-4.02157 Y3.31100
G1 Z-0.01000
G1 Z0.05000
G0 X-4.02157 Y3.41100
G1 Z-0.01000
G1 Z0.05000
G0 X-3.72157 Y3.41100
G1 Z-0.01000
G1 Z0.05000
G0 X-3.72157 Y3.31100
G1 Z-0.01000
G1 Z0.05000
G0 X-3.72157 Y3.21100
G1 Z-0.01000
G1 Z0.05000
G0 X-3.42157 Y3.41100
G1 Z-0.01000
G1 Z0.05000
G0 X-3.42157 Y3.31100
G1 Z-0.01000
G1 Z0.05000
G0 X-3.42157 Y3.21100
G1 Z-0.01000
G1 Z0.05000
G0 X-3.12157 Y3.41100
G1 Z-0.01000
G1 Z0.05000
G0 X-3.12157 Y3.31100
G1 Z-0.01000
G1 Z0.05000
G0 X-3.12157 Y3.21100
G1 Z-0.01000
G1 Z0.05000
G0 X-2.82157 Y3.41100
G1 Z-0.01000
G1 Z0.05000
G0 X-2.82157 Y3.31100
G1 Z-0.01000
G1 Z0.05000
G0 X-2.82157 Y3.21100
G1 Z-0.01000
G1 Z0.05000
G0 X-2.82157 Y2.91100
G1 Z-0.01000
G1 Z0.05000
G0 X-3.12157 Y2.91100
G1 Z-0.01000
G1 Z0.05000
G0 X-3.42157 Y2.61100
G1 Z-0.01000
G1 Z0.05000
G0 X-3.42157 Y2.41100
G1 Z-0.01000
G1 Z0.05000
G0 X-3.42157 Y2.11100
G1 Z-0.01000
G1 Z0.05000
G0 X-3.72157 Y2.41100
G1 Z-0.01000
G1 Z0.05000
G0 X-3.72157 Y2.61100
G1 Z-0.01000
G1 Z0.05000
G0 X-3.42157 Y2.91100
G1 Z-0.01000
G1 Z0.05000
G0 X-3.12157 Y2.61100
G1 Z-0.01000
G1 Z0.05000
G0 X-2.82157 Y2.61100
G1 Z-0.01000
G1 Z0.05000
G0 X-2.82157 Y2.41100
G1 Z-0.01000
G1 Z0.05000
G0 X-3.12157 Y2.11100
G1 Z-0.01000
G1 Z0.05000
G0 X-3.12157 Y2.41100
G1 Z-0.01000
G1 Z0.05000
G0 X-2.82157 Y2.11100
G1 Z-0.01000
G1 Z0.05000
G0 X-2.52157 Y2.11100
G1 Z-0.01000
G1 Z0.05000
G0 X-2.22157 Y2.11100
G1 Z-0.01000
G1 Z0.05000
G0 X-1.92157 Y2.11100
G1 Z-0.01000
G1 Z0.05000
G0 X-1.62157 Y2.41100
G1 Z-0.01000
G1 Z0.05000
G0 X-1.62157 Y2.61100
G1 Z-0.01000
G1 Z0.05000
G0 X-1.62157 Y2.91100
G1 Z-0.01000
G1 Z0.05000
G0 X-1.62157 Y3.21100
G1 Z-0.01000
G1 Z0.05000
G0 X-1.62157 Y3.31100
G1 Z-0.01000
G1 Z0.05000
G0 X-1.62157 Y3.41100
G1 Z-0.01000
G1 Z0.05000
G0 X-1.32157 Y3.31100
G1 Z-0.01000
G1 Z0.05000
G0 X-1.32157 Y3.41100
G1 Z-0.01000
G1 Z0.05000
G0 X-1.32097 Y3.76100
G1 Z-0.01000
G1 Z0.05000
G0 X-1.18327 Y3.76100
G1 Z-0.01000
G1 Z0.05000
G0 X-0.82157 Y3.76100
G1 Z-0.01000
G1 Z0.05000
G0 X-0.68387 Y3.76100
G1 Z-0.01000
G1 Z0.05000
G0 X-0.82157 Y3.41100
G1 Z-0.01000
G1 Z0.05000
G0 X-0.82157 Y3.31100
G1 Z-0.01000
G1 Z0.05000
G0 X-0.82157 Y3.21100
G1 Z-0.01000
G1 Z0.05000
G0 X-1.32157 Y3.21100
G1 Z-0.01000
G1 Z0.05000
G0 X-0.82127 Y2.41100
G1 Z-0.01000
G1 Z0.05000
G0 X-0.62267 Y2.41100
G1 Z-0.01000
G1 Z0.05000
G0 X-0.42317 Y2.41100
G1 Z-0.01000
G1 Z0.05000
G0 X-0.22317 Y2.41100
G1 Z-0.01000
G1 Z0.05000
G0 X-0.22317 Y2.11100
G1 Z-0.01000
G1 Z0.05000
G0 X-0.42317 Y2.11100
G1 Z-0.01000
G1 Z0.05000
G0 X-0.62267 Y2.11100
G1 Z-0.01000
G1 Z0.05000
G0 X-0.82127 Y2.11100
G1 Z-0.01000
G1 Z0.05000
G0 X-1.12157 Y2.11100
G1 Z-0.01000
G1 Z0.05000
G0 X-1.12157 Y2.41100
G1 Z-0.01000
G1 Z0.05000
G0 X-1.32157 Y2.41100
G1 Z-0.01000
G1 Z0.05000
G0 X-1.32157 Y2.11100
G1 Z-0.01000
G1 Z0.05000
G0 X-1.62157 Y2.11100
G1 Z-0.01000
G1 Z0.05000
G0 X-1.92157 Y2.41100
G1 Z-0.01000
G1 Z0.05000
G0 X-1.92157 Y2.61100
G1 Z-0.01000
G1 Z0.05000
G0 X-1.92157 Y2.91100
G1 Z-0.01000
G1 Z0.05000
G0 X-2.22157 Y2.91100
G1 Z-0.01000
G1 Z0.05000
G0 X-2.22157 Y2.61100
G1 Z-0.01000
G1 Z0.05000
G0 X-2.22157 Y2.41100
G1 Z-0.01000
G1 Z0.05000
G0 X-2.52157 Y2.41100
G1 Z-0.01000
G1 Z0.05000
G0 X-2.52157 Y2.61100
G1 Z-0.01000
G1 Z0.05000
G0 X-2.52157 Y2.91100
G1 Z-0.01000
G1 Z0.05000
G0 X-2.52157 Y3.21100
G1 Z-0.01000
G1 Z0.05000
G0 X-2.52157 Y3.31100
G1 Z-0.01000
G1 Z0.05000
G0 X-2.52157 Y3.41100
G1 Z-0.01000
G1 Z0.05000
G0 X-2.22157 Y3.21100
G1 Z-0.01000
G1 Z0.05000
G0 X-2.22157 Y3.31100
G1 Z-0.01000
G1 Z0.05000
G0 X-2.22157 Y3.41100
G1 Z-0.01000
G1 Z0.05000
G0 X-1.92157 Y3.21100
G1 Z-0.01000
G1 Z0.05000
G0 X-1.92157 Y3.31100
G1 Z-0.01000
G1 Z0.05000
G0 X-1.92157 Y3.41100
G1 Z-0.01000
G1 Z0.05000
G0 X-1.70707 Y3.76100
G1 Z-0.01000
G1 Z0.05000
G0 X-1.84487 Y3.76100
G1 Z-0.01000
G1 Z0.05000
G0 X-1.98267 Y3.76100
G1 Z-0.01000
G1 Z0.05000
G0 X-2.12047 Y3.76100
G1 Z-0.01000
G1 Z0.05000
G0 X-2.25827 Y3.76100
G1 Z-0.01000
G1 Z0.05000
G0 X-2.39607 Y3.76100
G1 Z-0.01000
G1 Z0.05000
G0 X-2.53387 Y3.76100
G1 Z-0.01000
G1 Z0.05000
G0 X-2.67157 Y3.76100
G1 Z-0.01000
G1 Z0.05000
G0 X-2.90707 Y3.76100
G1 Z-0.01000
G1 Z0.05000
G0 X-3.04487 Y3.76100
G1 Z-0.01000
G1 Z0.05000
G0 X-3.18267 Y3.76100
G1 Z-0.01000
G1 Z0.05000
G0 X-3.32047 Y3.76100
G1 Z-0.01000
G1 Z0.05000
G0 X-3.45827 Y3.76100
G1 Z-0.01000
G1 Z0.05000
G0 X-3.59607 Y3.76100
G1 Z-0.01000
G1 Z0.05000
G0 X-3.73387 Y3.76100
G1 Z-0.01000
G1 Z0.05000
G0 X-3.87157 Y3.76100
G1 Z-0.01000
G1 Z0.05000
G0 X-4.10707 Y3.76100
G1 Z-0.01000
G1 Z0.05000
G0 X-4.24487 Y3.76100
G1 Z-0.01000
G1 Z0.05000
G0 X-4.38267 Y3.76100
G1 Z-0.01000
G1 Z0.05000
G0 X-4.52047 Y3.76100
G1 Z-0.01000
G1 Z0.05000
G0 X-4.65827 Y3.76100
G1 Z-0.01000
G1 Z0.05000
G0 X-4.32157 Y3.41100
G1 Z-0.01000
G1 Z0.05000
G0 X-4.32157 Y3.31100
G1 Z-0.01000
G1 Z0.05000
G0 X-4.32157 Y3.21100
G1 Z-0.01000
G1 Z0.05000
G0 X-4.62157 Y3.21100
G1 Z-0.01000
G1 Z0.05000
G0 X-4.62157 Y3.31100
G1 Z-0.01000
G1 Z0.05000
G0 X-4.62157 Y3.41100
G1 Z-0.01000
G1 Z0.05000
G0 X-4.79607 Y3.76100
G1 Z-0.01000
G1 Z0.05000
G0 X-4.93387 Y3.76100
G1 Z-0.01000
G1 Z0.05000
G0 X-5.07157 Y3.76100
G1 Z-0.01000
G1 Z0.05000
G0 X-5.30707 Y3.76100
G1 Z-0.01000
G1 Z0.05000
G0 X-5.44487 Y3.76100
G1 Z-0.01000
G1 Z0.05000
G0 X-5.58267 Y3.76100
G1 Z-0.01000
G1 Z0.05000
G0 X-5.72047 Y3.76100
G1 Z-0.01000
G1 Z0.05000
G0 X-5.85827 Y3.76100
G1 Z-0.01000
G1 Z0.05000
G0 X-5.99607 Y3.76100
G1 Z-0.01000
G1 Z0.05000
G0 X-6.13387 Y3.76100
G1 Z-0.01000
G1 Z0.05000
G0 X-6.27157 Y3.76100
G1 Z-0.01000
G1 Z0.05000
G0 X-6.12157 Y3.41100
G1 Z-0.01000
G1 Z0.05000
G0 X-6.12157 Y3.31100
G1 Z-0.01000
G1 Z0.05000
G0 X-6.12157 Y3.21100
G1 Z-0.01000
G1 Z0.05000
G0 X-5.82157 Y3.41100
G1 Z-0.01000
G1 Z0.05000
G0 X-5.82157 Y3.31100
G1 Z-0.01000
G1 Z0.05000
G0 X-5.82157 Y3.21100
G1 Z-0.01000
G1 Z0.05000
G0 X-5.82157 Y2.91100
G1 Z-0.01000
G1 Z0.05000
G0 X-6.12157 Y2.91100
G1 Z-0.01000
G1 Z0.05000
G0 X-5.82157 Y2.61100
G1 Z-0.01000
G1 Z0.05000
G0 X-6.12157 Y2.61100
G1 Z-0.01000
G1 Z0.05000
G0 X-6.12157 Y2.41100
G1 Z-0.01000
G1 Z0.05000
G0 X-6.12157 Y2.11100
G1 Z-0.01000
G1 Z0.05000
G0 X-5.82157 Y2.11100
G1 Z-0.01000
G1 Z0.05000
G0 X-5.82157 Y2.41100
G1 Z-0.01000
G1 Z0.05000
G0 X-5.52157 Y2.61100
G1 Z-0.01000
G1 Z0.05000
G0 X-5.52157 Y2.41100
G1 Z-0.01000
G1 Z0.05000
G0 X-5.52157 Y2.11100
G1 Z-0.01000
G1 Z0.05000
G0 X-5.22157 Y2.11100
G1 Z-0.01000
G1 Z0.05000
G0 X-5.22157 Y2.41100
G1 Z-0.01000
G1 Z0.05000
G0 X-5.22157 Y2.61100
G1 Z-0.01000
G1 Z0.05000
G0 X-4.92157 Y2.91100
G1 Z-0.01000
G1 Z0.05000
G0 X-4.92157 Y2.61100
G1 Z-0.01000
G1 Z0.05000
G0 X-4.92157 Y2.41100
G1 Z-0.01000
G1 Z0.05000
G0 X-4.62157 Y2.41100
G1 Z-0.01000
G1 Z0.05000
G0 X-4.32157 Y2.41100
G1 Z-0.01000
G1 Z0.05000
G0 X-4.32157 Y2.61100
G1 Z-0.01000
G1 Z0.05000
G0 X-4.32157 Y2.91100
G1 Z-0.01000
G1 Z0.05000
G0 X-4.62157 Y2.61100
G1 Z-0.01000
G1 Z0.05000
G0 X-4.62157 Y2.91100
G1 Z-0.01000
G1 Z0.05000
G0 X-4.92157 Y3.21100
G1 Z-0.01000
G1 Z0.05000
G0 X-4.92157 Y3.31100
G1 Z-0.01000
G1 Z0.05000
G0 X-4.92157 Y3.41100
G1 Z-0.01000
G1 Z0.05000
G0 X-5.22157 Y3.41100
G1 Z-0.01000
G1 Z0.05000
G0 X-5.22157 Y3.31100
G1 Z-0.01000
G1 Z0.05000
G0 X-5.22157 Y3.21100
G1 Z-0.01000
G1 Z0.05000
G0 X-5.52157 Y3.41100
G1 Z-0.01000
G1 Z0.05000
G0 X-5.52157 Y3.31100
G1 Z-0.01000
G1 Z0.05000
G0 X-5.52157 Y3.21100
G1 Z-0.01000
G1 Z0.05000
G0 X-5.52157 Y2.91100
G1 Z-0.01000
G1 Z0.05000
G0 X-5.22157 Y2.91100
G1 Z-0.01000
G1 Z0.05000

G00 Z0.050 ( All done -- retract )

M5      (Spindle off.)
G04 P0.000000
M9      (Coolant off.)
M2      (Program end.)

