( pcb2gcode 2.1.0 )
( Software-independent Gcode )

( This file uses only one drill bit. Forced by 'onedrill' option )

G94       (Inches per minute feed rate.)
G20       (Units == INCHES.)
G91.1     (Incremental arc distance mode.)
G90       (Absolute coordinates.)
G00 S15000     (RPM spindle speed.)

G00 Z1.00000 (Retract)
T1
M5      (Spindle stop.)
G04 P1.00000
(MSG, Change tool bit to drill size 0.0315 inch)
M6      (Tool change.)
M0      (Temporary machine stop.)
M3      (Spindle on clockwise.)
G0 Z1.00000
G04 P1.00000

G1 F5.00000
G0 X-4.60557 Y0.14500
G1 Z-0.01000
G1 Z1.00000
G0 X-4.50557 Y0.14500
G1 Z-0.01000
G1 Z1.00000
G0 X-4.40557 Y0.14500
G1 Z-0.01000
G1 Z1.00000
G0 X-4.30557 Y0.14500
G1 Z-0.01000
G1 Z1.00000
G0 X-4.20557 Y0.14500
G1 Z-0.01000
G1 Z1.00000
G0 X-4.10557 Y0.14500
G1 Z-0.01000
G1 Z1.00000
G0 X-4.00557 Y0.14500
G1 Z-0.01000
G1 Z1.00000
G0 X-3.90557 Y0.14500
G1 Z-0.01000
G1 Z1.00000
G0 X-3.80557 Y0.14500
G1 Z-0.01000
G1 Z1.00000
G0 X-3.70557 Y0.14500
G1 Z-0.01000
G1 Z1.00000
G0 X-3.60557 Y0.14500
G1 Z-0.01000
G1 Z1.00000
G0 X-3.50557 Y0.14500
G1 Z-0.01000
G1 Z1.00000
G0 X-3.40557 Y0.14500
G1 Z-0.01000
G1 Z1.00000
G0 X-3.30557 Y0.14500
G1 Z-0.01000
G1 Z1.00000
G0 X-3.20557 Y0.14500
G1 Z-0.01000
G1 Z1.00000
G0 X-3.10557 Y0.14500
G1 Z-0.01000
G1 Z1.00000
G0 X-3.00557 Y0.14500
G1 Z-0.01000
G1 Z1.00000
G0 X-2.90557 Y0.14500
G1 Z-0.01000
G1 Z1.00000
G0 X-2.80557 Y0.14500
G1 Z-0.01000
G1 Z1.00000
G0 X-2.70557 Y0.14500
G1 Z-0.01000
G1 Z1.00000
G0 X-2.60557 Y0.14500
G1 Z-0.01000
G1 Z1.00000
G0 X-2.50557 Y0.14500
G1 Z-0.01000
G1 Z1.00000
G0 X-2.40557 Y0.14500
G1 Z-0.01000
G1 Z1.00000
G0 X-2.30557 Y0.14500
G1 Z-0.01000
G1 Z1.00000
G0 X-2.80557 Y0.64500
G1 Z-0.01000
G1 Z1.00000
G0 X-2.70557 Y0.64500
G1 Z-0.01000
G1 Z1.00000
G0 X-2.60557 Y0.74500
G1 Z-0.01000
G1 Z1.00000
G0 X-2.70557 Y0.74500
G1 Z-0.01000
G1 Z1.00000
G0 X-2.80557 Y0.74500
G1 Z-0.01000
G1 Z1.00000
G0 X-2.90557 Y0.74500
G1 Z-0.01000
G1 Z1.00000
G0 X-3.00557 Y0.74500
G1 Z-0.01000
G1 Z1.00000
G0 X-3.10557 Y0.74500
G1 Z-0.01000
G1 Z1.00000
G0 X-3.20557 Y0.74500
G1 Z-0.01000
G1 Z1.00000
G0 X-3.30557 Y0.74500
G1 Z-0.01000
G1 Z1.00000
G0 X-3.40557 Y0.74500
G1 Z-0.01000
G1 Z1.00000
G0 X-3.50557 Y0.74500
G1 Z-0.01000
G1 Z1.00000
G0 X-3.60557 Y0.74500
G1 Z-0.01000
G1 Z1.00000
G0 X-3.70557 Y0.74500
G1 Z-0.01000
G1 Z1.00000
G0 X-3.80557 Y0.74500
G1 Z-0.01000
G1 Z1.00000
G0 X-3.90557 Y0.74500
G1 Z-0.01000
G1 Z1.00000
G0 X-4.00557 Y0.74500
G1 Z-0.01000
G1 Z1.00000
G0 X-4.10557 Y0.74500
G1 Z-0.01000
G1 Z1.00000
G0 X-4.20557 Y0.74500
G1 Z-0.01000
G1 Z1.00000
G0 X-4.30557 Y0.74500
G1 Z-0.01000
G1 Z1.00000
G0 X-4.40557 Y0.74500
G1 Z-0.01000
G1 Z1.00000
G0 X-4.50557 Y0.74500
G1 Z-0.01000
G1 Z1.00000
G0 X-4.60557 Y0.74500
G1 Z-0.01000
G1 Z1.00000
G0 X-4.60557 Y2.09500
G1 Z-0.01000
G1 Z1.00000
G0 X-4.60557 Y2.39500
G1 Z-0.01000
G1 Z1.00000
G0 X-4.60557 Y2.59500
G1 Z-0.01000
G1 Z1.00000
G0 X-4.60557 Y2.89500
G1 Z-0.01000
G1 Z1.00000
G0 X-4.30557 Y2.89500
G1 Z-0.01000
G1 Z1.00000
G0 X-4.30557 Y3.19500
G1 Z-0.01000
G1 Z1.00000
G0 X-4.30557 Y3.29500
G1 Z-0.01000
G1 Z1.00000
G0 X-4.30557 Y3.39500
G1 Z-0.01000
G1 Z1.00000
G0 X-4.60557 Y3.19500
G1 Z-0.01000
G1 Z1.00000
G0 X-4.60557 Y3.29500
G1 Z-0.01000
G1 Z1.00000
G0 X-4.60557 Y3.39500
G1 Z-0.01000
G1 Z1.00000
G0 X-4.90557 Y3.39500
G1 Z-0.01000
G1 Z1.00000
G0 X-4.90557 Y3.29500
G1 Z-0.01000
G1 Z1.00000
G0 X-4.90557 Y3.19500
G1 Z-0.01000
G1 Z1.00000
G0 X-5.20557 Y3.39500
G1 Z-0.01000
G1 Z1.00000
G0 X-5.20557 Y3.29500
G1 Z-0.01000
G1 Z1.00000
G0 X-5.20557 Y3.19500
G1 Z-0.01000
G1 Z1.00000
G0 X-5.50557 Y3.39500
G1 Z-0.01000
G1 Z1.00000
G0 X-5.50557 Y3.29500
G1 Z-0.01000
G1 Z1.00000
G0 X-5.50557 Y3.19500
G1 Z-0.01000
G1 Z1.00000
G0 X-5.50557 Y2.89500
G1 Z-0.01000
G1 Z1.00000
G0 X-5.20557 Y2.59500
G1 Z-0.01000
G1 Z1.00000
G0 X-5.20557 Y2.39500
G1 Z-0.01000
G1 Z1.00000
G0 X-5.50557 Y2.09500
G1 Z-0.01000
G1 Z1.00000
G0 X-5.20557 Y2.09500
G1 Z-0.01000
G1 Z1.00000
G0 X-4.90557 Y2.09500
G1 Z-0.01000
G1 Z1.00000
G0 X-4.90557 Y2.39500
G1 Z-0.01000
G1 Z1.00000
G0 X-4.90557 Y2.59500
G1 Z-0.01000
G1 Z1.00000
G0 X-4.90557 Y2.89500
G1 Z-0.01000
G1 Z1.00000
G0 X-5.20557 Y2.89500
G1 Z-0.01000
G1 Z1.00000
G0 X-5.50557 Y2.59500
G1 Z-0.01000
G1 Z1.00000
G0 X-5.50557 Y2.39500
G1 Z-0.01000
G1 Z1.00000
G0 X-5.80557 Y2.09500
G1 Z-0.01000
G1 Z1.00000
G0 X-6.10557 Y2.09500
G1 Z-0.01000
G1 Z1.00000
G0 X-6.10557 Y2.39500
G1 Z-0.01000
G1 Z1.00000
G0 X-6.10557 Y2.59500
G1 Z-0.01000
G1 Z1.00000
G0 X-5.80557 Y2.39500
G1 Z-0.01000
G1 Z1.00000
G0 X-5.80557 Y2.59500
G1 Z-0.01000
G1 Z1.00000
G0 X-6.10557 Y2.89500
G1 Z-0.01000
G1 Z1.00000
G0 X-5.80557 Y2.89500
G1 Z-0.01000
G1 Z1.00000
G0 X-5.80557 Y3.19500
G1 Z-0.01000
G1 Z1.00000
G0 X-5.80557 Y3.29500
G1 Z-0.01000
G1 Z1.00000
G0 X-5.80557 Y3.39500
G1 Z-0.01000
G1 Z1.00000
G0 X-6.10557 Y3.19500
G1 Z-0.01000
G1 Z1.00000
G0 X-6.10557 Y3.29500
G1 Z-0.01000
G1 Z1.00000
G0 X-6.10557 Y3.39500
G1 Z-0.01000
G1 Z1.00000
G0 X-6.25557 Y3.74500
G1 Z-0.01000
G1 Z1.00000
G0 X-6.11787 Y3.74500
G1 Z-0.01000
G1 Z1.00000
G0 X-5.98007 Y3.74500
G1 Z-0.01000
G1 Z1.00000
G0 X-5.84227 Y3.74500
G1 Z-0.01000
G1 Z1.00000
G0 X-5.70447 Y3.74500
G1 Z-0.01000
G1 Z1.00000
G0 X-5.56667 Y3.74500
G1 Z-0.01000
G1 Z1.00000
G0 X-5.42887 Y3.74500
G1 Z-0.01000
G1 Z1.00000
G0 X-5.29107 Y3.74500
G1 Z-0.01000
G1 Z1.00000
G0 X-5.05557 Y3.74500
G1 Z-0.01000
G1 Z1.00000
G0 X-4.91787 Y3.74500
G1 Z-0.01000
G1 Z1.00000
G0 X-4.78007 Y3.74500
G1 Z-0.01000
G1 Z1.00000
G0 X-4.64227 Y3.74500
G1 Z-0.01000
G1 Z1.00000
G0 X-4.50447 Y3.74500
G1 Z-0.01000
G1 Z1.00000
G0 X-4.36667 Y3.74500
G1 Z-0.01000
G1 Z1.00000
G0 X-4.22887 Y3.74500
G1 Z-0.01000
G1 Z1.00000
G0 X-4.09107 Y3.74500
G1 Z-0.01000
G1 Z1.00000
G0 X-3.85557 Y3.74500
G1 Z-0.01000
G1 Z1.00000
G0 X-3.71787 Y3.74500
G1 Z-0.01000
G1 Z1.00000
G0 X-3.58007 Y3.74500
G1 Z-0.01000
G1 Z1.00000
G0 X-3.44227 Y3.74500
G1 Z-0.01000
G1 Z1.00000
G0 X-3.30447 Y3.74500
G1 Z-0.01000
G1 Z1.00000
G0 X-3.16667 Y3.74500
G1 Z-0.01000
G1 Z1.00000
G0 X-3.02887 Y3.74500
G1 Z-0.01000
G1 Z1.00000
G0 X-2.89107 Y3.74500
G1 Z-0.01000
G1 Z1.00000
G0 X-2.65557 Y3.74500
G1 Z-0.01000
G1 Z1.00000
G0 X-2.51787 Y3.74500
G1 Z-0.01000
G1 Z1.00000
G0 X-2.38007 Y3.74500
G1 Z-0.01000
G1 Z1.00000
G0 X-2.24227 Y3.74500
G1 Z-0.01000
G1 Z1.00000
G0 X-2.10447 Y3.74500
G1 Z-0.01000
G1 Z1.00000
G0 X-1.96667 Y3.74500
G1 Z-0.01000
G1 Z1.00000
G0 X-1.82887 Y3.74500
G1 Z-0.01000
G1 Z1.00000
G0 X-1.69107 Y3.74500
G1 Z-0.01000
G1 Z1.00000
G0 X-1.30497 Y3.74500
G1 Z-0.01000
G1 Z1.00000
G0 X-1.16727 Y3.74500
G1 Z-0.01000
G1 Z1.00000
G0 X-0.80557 Y3.74500
G1 Z-0.01000
G1 Z1.00000
G0 X-0.66787 Y3.74500
G1 Z-0.01000
G1 Z1.00000
G0 X-0.80557 Y3.39500
G1 Z-0.01000
G1 Z1.00000
G0 X-0.80557 Y3.29500
G1 Z-0.01000
G1 Z1.00000
G0 X-0.80557 Y3.19500
G1 Z-0.01000
G1 Z1.00000
G0 X-0.20717 Y2.39500
G1 Z-0.01000
G1 Z1.00000
G0 X-0.20717 Y2.09500
G1 Z-0.01000
G1 Z1.00000
G0 X-0.40717 Y2.09500
G1 Z-0.01000
G1 Z1.00000
G0 X-0.60667 Y2.09500
G1 Z-0.01000
G1 Z1.00000
G0 X-0.80527 Y2.09500
G1 Z-0.01000
G1 Z1.00000
G0 X-0.40717 Y2.39500
G1 Z-0.01000
G1 Z1.00000
G0 X-0.60667 Y2.39500
G1 Z-0.01000
G1 Z1.00000
G0 X-0.80527 Y2.39500
G1 Z-0.01000
G1 Z1.00000
G0 X-1.10557 Y2.09500
G1 Z-0.01000
G1 Z1.00000
G0 X-1.30557 Y2.09500
G1 Z-0.01000
G1 Z1.00000
G0 X-1.10557 Y2.39500
G1 Z-0.01000
G1 Z1.00000
G0 X-1.30557 Y2.39500
G1 Z-0.01000
G1 Z1.00000
G0 X-1.60557 Y2.09500
G1 Z-0.01000
G1 Z1.00000
G0 X-1.90557 Y2.39500
G1 Z-0.01000
G1 Z1.00000
G0 X-1.90557 Y2.59500
G1 Z-0.01000
G1 Z1.00000
G0 X-1.90557 Y2.89500
G1 Z-0.01000
G1 Z1.00000
G0 X-2.20557 Y2.89500
G1 Z-0.01000
G1 Z1.00000
G0 X-2.50557 Y2.89500
G1 Z-0.01000
G1 Z1.00000
G0 X-2.50557 Y2.59500
G1 Z-0.01000
G1 Z1.00000
G0 X-2.20557 Y2.59500
G1 Z-0.01000
G1 Z1.00000
G0 X-2.20557 Y2.39500
G1 Z-0.01000
G1 Z1.00000
G0 X-2.50557 Y2.39500
G1 Z-0.01000
G1 Z1.00000
G0 X-2.50557 Y2.09500
G1 Z-0.01000
G1 Z1.00000
G0 X-2.20557 Y2.09500
G1 Z-0.01000
G1 Z1.00000
G0 X-1.90557 Y2.09500
G1 Z-0.01000
G1 Z1.00000
G0 X-1.60557 Y2.39500
G1 Z-0.01000
G1 Z1.00000
G0 X-1.60557 Y2.59500
G1 Z-0.01000
G1 Z1.00000
G0 X-1.60557 Y2.89500
G1 Z-0.01000
G1 Z1.00000
G0 X-1.30557 Y3.19500
G1 Z-0.01000
G1 Z1.00000
G0 X-1.30557 Y3.29500
G1 Z-0.01000
G1 Z1.00000
G0 X-1.30557 Y3.39500
G1 Z-0.01000
G1 Z1.00000
G0 X-1.60557 Y3.19500
G1 Z-0.01000
G1 Z1.00000
G0 X-1.60557 Y3.29500
G1 Z-0.01000
G1 Z1.00000
G0 X-1.60557 Y3.39500
G1 Z-0.01000
G1 Z1.00000
G0 X-1.90557 Y3.19500
G1 Z-0.01000
G1 Z1.00000
G0 X-1.90557 Y3.29500
G1 Z-0.01000
G1 Z1.00000
G0 X-1.90557 Y3.39500
G1 Z-0.01000
G1 Z1.00000
G0 X-2.20557 Y3.19500
G1 Z-0.01000
G1 Z1.00000
G0 X-2.20557 Y3.29500
G1 Z-0.01000
G1 Z1.00000
G0 X-2.20557 Y3.39500
G1 Z-0.01000
G1 Z1.00000
G0 X-2.50557 Y3.19500
G1 Z-0.01000
G1 Z1.00000
G0 X-2.50557 Y3.29500
G1 Z-0.01000
G1 Z1.00000
G0 X-2.50557 Y3.39500
G1 Z-0.01000
G1 Z1.00000
G0 X-2.80557 Y3.19500
G1 Z-0.01000
G1 Z1.00000
G0 X-2.80557 Y3.29500
G1 Z-0.01000
G1 Z1.00000
G0 X-2.80557 Y3.39500
G1 Z-0.01000
G1 Z1.00000
G0 X-3.10557 Y3.19500
G1 Z-0.01000
G1 Z1.00000
G0 X-3.10557 Y3.29500
G1 Z-0.01000
G1 Z1.00000
G0 X-3.10557 Y3.39500
G1 Z-0.01000
G1 Z1.00000
G0 X-3.40557 Y3.19500
G1 Z-0.01000
G1 Z1.00000
G0 X-3.40557 Y3.29500
G1 Z-0.01000
G1 Z1.00000
G0 X-3.40557 Y3.39500
G1 Z-0.01000
G1 Z1.00000
G0 X-3.70557 Y3.19500
G1 Z-0.01000
G1 Z1.00000
G0 X-3.70557 Y3.29500
G1 Z-0.01000
G1 Z1.00000
G0 X-3.70557 Y3.39500
G1 Z-0.01000
G1 Z1.00000
G0 X-4.00557 Y3.39500
G1 Z-0.01000
G1 Z1.00000
G0 X-4.00557 Y3.29500
G1 Z-0.01000
G1 Z1.00000
G0 X-4.00557 Y3.19500
G1 Z-0.01000
G1 Z1.00000
G0 X-4.00557 Y2.89500
G1 Z-0.01000
G1 Z1.00000
G0 X-3.70557 Y2.89500
G1 Z-0.01000
G1 Z1.00000
G0 X-3.40557 Y2.59500
G1 Z-0.01000
G1 Z1.00000
G0 X-3.40557 Y2.39500
G1 Z-0.01000
G1 Z1.00000
G0 X-3.10557 Y2.09500
G1 Z-0.01000
G1 Z1.00000
G0 X-2.80557 Y2.09500
G1 Z-0.01000
G1 Z1.00000
G0 X-3.10557 Y2.39500
G1 Z-0.01000
G1 Z1.00000
G0 X-3.10557 Y2.59500
G1 Z-0.01000
G1 Z1.00000
G0 X-2.80557 Y2.39500
G1 Z-0.01000
G1 Z1.00000
G0 X-2.80557 Y2.59500
G1 Z-0.01000
G1 Z1.00000
G0 X-2.80557 Y2.89500
G1 Z-0.01000
G1 Z1.00000
G0 X-3.10557 Y2.89500
G1 Z-0.01000
G1 Z1.00000
G0 X-3.40557 Y2.89500
G1 Z-0.01000
G1 Z1.00000
G0 X-3.70557 Y2.59500
G1 Z-0.01000
G1 Z1.00000
G0 X-3.70557 Y2.39500
G1 Z-0.01000
G1 Z1.00000
G0 X-4.00557 Y2.59500
G1 Z-0.01000
G1 Z1.00000
G0 X-4.30557 Y2.59500
G1 Z-0.01000
G1 Z1.00000
G0 X-4.30557 Y2.39500
G1 Z-0.01000
G1 Z1.00000
G0 X-4.30557 Y2.09500
G1 Z-0.01000
G1 Z1.00000
G0 X-4.00557 Y2.39500
G1 Z-0.01000
G1 Z1.00000
G0 X-4.00557 Y2.09500
G1 Z-0.01000
G1 Z1.00000
G0 X-3.70557 Y2.09500
G1 Z-0.01000
G1 Z1.00000
G0 X-3.40557 Y2.09500
G1 Z-0.01000
G1 Z1.00000
G0 X-2.30557 Y0.74500
G1 Z-0.01000
G1 Z1.00000
G0 X-2.40557 Y0.74500
G1 Z-0.01000
G1 Z1.00000
G0 X-2.50557 Y0.74500
G1 Z-0.01000
G1 Z1.00000

G00 Z1.000 ( All done -- retract )

M5      (Spindle off.)
G04 P1.000000
M9      (Coolant off.)
M2      (Program end.)

