( pcb2gcode 2.1.0 )
( Software-independent Gcode )

( This file uses only one drill bit. Forced by 'onedrill' option )

G94       (Inches per minute feed rate.)
G20       (Units == INCHES.)
G91.1     (Incremental arc distance mode.)
G90       (Absolute coordinates.)
G00 S15000     (RPM spindle speed.)

G00 Z0.05000 (Retract)
T1
G04 P0.00000
(MSG, Change tool bit to drill size 0.0315 inch)
G0 Z0.05000
G04 P0.00000

G1 F5.00000
G0 X-4.72557 Y0.26500
G1 Z-0.10000
G1 Z0.05000
G0 X-4.62557 Y0.26500
G1 Z-0.10000
G1 Z0.05000
G0 X-4.52557 Y0.26500
G1 Z-0.10000
G1 Z0.05000
G0 X-4.42557 Y0.26500
G1 Z-0.10000
G1 Z0.05000
G0 X-4.32557 Y0.26500
G1 Z-0.10000
G1 Z0.05000
G0 X-4.22557 Y0.26500
G1 Z-0.10000
G1 Z0.05000
G0 X-4.12557 Y0.26500
G1 Z-0.10000
G1 Z0.05000
G0 X-4.02557 Y0.26500
G1 Z-0.10000
G1 Z0.05000
G0 X-3.92557 Y0.26500
G1 Z-0.10000
G1 Z0.05000
G0 X-3.82557 Y0.26500
G1 Z-0.10000
G1 Z0.05000
G0 X-3.72557 Y0.26500
G1 Z-0.10000
G1 Z0.05000
G0 X-3.62557 Y0.26500
G1 Z-0.10000
G1 Z0.05000
G0 X-3.52557 Y0.26500
G1 Z-0.10000
G1 Z0.05000
G0 X-3.42557 Y0.26500
G1 Z-0.10000
G1 Z0.05000
G0 X-3.32557 Y0.26500
G1 Z-0.10000
G1 Z0.05000
G0 X-3.22557 Y0.26500
G1 Z-0.10000
G1 Z0.05000
G0 X-3.12557 Y0.26500
G1 Z-0.10000
G1 Z0.05000
G0 X-3.02557 Y0.26500
G1 Z-0.10000
G1 Z0.05000
G0 X-2.92557 Y0.26500
G1 Z-0.10000
G1 Z0.05000
G0 X-2.82557 Y0.26500
G1 Z-0.10000
G1 Z0.05000
G0 X-2.72557 Y0.26500
G1 Z-0.10000
G1 Z0.05000
G0 X-2.62557 Y0.26500
G1 Z-0.10000
G1 Z0.05000
G0 X-2.52557 Y0.26500
G1 Z-0.10000
G1 Z0.05000
G0 X-2.42557 Y0.26500
G1 Z-0.10000
G1 Z0.05000
G0 X-2.92557 Y0.76500
G1 Z-0.10000
G1 Z0.05000
G0 X-2.82557 Y0.76500
G1 Z-0.10000
G1 Z0.05000
G0 X-2.42557 Y0.86500
G1 Z-0.10000
G1 Z0.05000
G0 X-2.52557 Y0.86500
G1 Z-0.10000
G1 Z0.05000
G0 X-2.62557 Y0.86500
G1 Z-0.10000
G1 Z0.05000
G0 X-2.72557 Y0.86500
G1 Z-0.10000
G1 Z0.05000
G0 X-2.82557 Y0.86500
G1 Z-0.10000
G1 Z0.05000
G0 X-2.92557 Y0.86500
G1 Z-0.10000
G1 Z0.05000
G0 X-3.02557 Y0.86500
G1 Z-0.10000
G1 Z0.05000
G0 X-3.12557 Y0.86500
G1 Z-0.10000
G1 Z0.05000
G0 X-3.22557 Y0.86500
G1 Z-0.10000
G1 Z0.05000
G0 X-3.32557 Y0.86500
G1 Z-0.10000
G1 Z0.05000
G0 X-3.42557 Y0.86500
G1 Z-0.10000
G1 Z0.05000
G0 X-3.52557 Y0.86500
G1 Z-0.10000
G1 Z0.05000
G0 X-3.62557 Y0.86500
G1 Z-0.10000
G1 Z0.05000
G0 X-3.72557 Y0.86500
G1 Z-0.10000
G1 Z0.05000
G0 X-3.82557 Y0.86500
G1 Z-0.10000
G1 Z0.05000
G0 X-3.92557 Y0.86500
G1 Z-0.10000
G1 Z0.05000
G0 X-4.02557 Y0.86500
G1 Z-0.10000
G1 Z0.05000
G0 X-4.12557 Y0.86500
G1 Z-0.10000
G1 Z0.05000
G0 X-4.22557 Y0.86500
G1 Z-0.10000
G1 Z0.05000
G0 X-4.32557 Y0.86500
G1 Z-0.10000
G1 Z0.05000
G0 X-4.42557 Y0.86500
G1 Z-0.10000
G1 Z0.05000
G0 X-4.52557 Y0.86500
G1 Z-0.10000
G1 Z0.05000
G0 X-4.62557 Y0.86500
G1 Z-0.10000
G1 Z0.05000
G0 X-4.72557 Y0.86500
G1 Z-0.10000
G1 Z0.05000
G0 X-5.02557 Y2.21500
G1 Z-0.10000
G1 Z0.05000
G0 X-4.72557 Y2.21500
G1 Z-0.10000
G1 Z0.05000
G0 X-4.42557 Y2.21500
G1 Z-0.10000
G1 Z0.05000
G0 X-4.12557 Y2.21500
G1 Z-0.10000
G1 Z0.05000
G0 X-3.82557 Y2.21500
G1 Z-0.10000
G1 Z0.05000
G0 X-4.12557 Y2.51500
G1 Z-0.10000
G1 Z0.05000
G0 X-4.12557 Y2.71500
G1 Z-0.10000
G1 Z0.05000
G0 X-3.82557 Y3.01500
G1 Z-0.10000
G1 Z0.05000
G0 X-4.12557 Y3.01500
G1 Z-0.10000
G1 Z0.05000
G0 X-4.12557 Y3.31500
G1 Z-0.10000
G1 Z0.05000
G0 X-4.12557 Y3.41500
G1 Z-0.10000
G1 Z0.05000
G0 X-4.12557 Y3.51500
G1 Z-0.10000
G1 Z0.05000
G0 X-3.82557 Y3.51500
G1 Z-0.10000
G1 Z0.05000
G0 X-3.82557 Y3.41500
G1 Z-0.10000
G1 Z0.05000
G0 X-3.82557 Y3.31500
G1 Z-0.10000
G1 Z0.05000
G0 X-3.52557 Y3.51500
G1 Z-0.10000
G1 Z0.05000
G0 X-3.52557 Y3.41500
G1 Z-0.10000
G1 Z0.05000
G0 X-3.52557 Y3.31500
G1 Z-0.10000
G1 Z0.05000
G0 X-3.22557 Y3.51500
G1 Z-0.10000
G1 Z0.05000
G0 X-3.22557 Y3.41500
G1 Z-0.10000
G1 Z0.05000
G0 X-3.22557 Y3.31500
G1 Z-0.10000
G1 Z0.05000
G0 X-2.92557 Y3.51500
G1 Z-0.10000
G1 Z0.05000
G0 X-2.92557 Y3.41500
G1 Z-0.10000
G1 Z0.05000
G0 X-2.92557 Y3.31500
G1 Z-0.10000
G1 Z0.05000
G0 X-2.92557 Y3.01500
G1 Z-0.10000
G1 Z0.05000
G0 X-3.22557 Y3.01500
G1 Z-0.10000
G1 Z0.05000
G0 X-3.52557 Y2.71500
G1 Z-0.10000
G1 Z0.05000
G0 X-3.52557 Y2.51500
G1 Z-0.10000
G1 Z0.05000
G0 X-3.52557 Y2.21500
G1 Z-0.10000
G1 Z0.05000
G0 X-3.82557 Y2.51500
G1 Z-0.10000
G1 Z0.05000
G0 X-3.82557 Y2.71500
G1 Z-0.10000
G1 Z0.05000
G0 X-3.52557 Y3.01500
G1 Z-0.10000
G1 Z0.05000
G0 X-3.22557 Y2.71500
G1 Z-0.10000
G1 Z0.05000
G0 X-2.92557 Y2.71500
G1 Z-0.10000
G1 Z0.05000
G0 X-2.92557 Y2.51500
G1 Z-0.10000
G1 Z0.05000
G0 X-3.22557 Y2.21500
G1 Z-0.10000
G1 Z0.05000
G0 X-3.22557 Y2.51500
G1 Z-0.10000
G1 Z0.05000
G0 X-2.92557 Y2.21500
G1 Z-0.10000
G1 Z0.05000
G0 X-2.62557 Y2.21500
G1 Z-0.10000
G1 Z0.05000
G0 X-2.32557 Y2.21500
G1 Z-0.10000
G1 Z0.05000
G0 X-2.02557 Y2.21500
G1 Z-0.10000
G1 Z0.05000
G0 X-1.72557 Y2.51500
G1 Z-0.10000
G1 Z0.05000
G0 X-1.72557 Y2.71500
G1 Z-0.10000
G1 Z0.05000
G0 X-1.72557 Y3.01500
G1 Z-0.10000
G1 Z0.05000
G0 X-1.72557 Y3.31500
G1 Z-0.10000
G1 Z0.05000
G0 X-1.72557 Y3.41500
G1 Z-0.10000
G1 Z0.05000
G0 X-1.72557 Y3.51500
G1 Z-0.10000
G1 Z0.05000
G0 X-1.42557 Y3.41500
G1 Z-0.10000
G1 Z0.05000
G0 X-1.42557 Y3.51500
G1 Z-0.10000
G1 Z0.05000
G0 X-1.42497 Y3.86500
G1 Z-0.10000
G1 Z0.05000
G0 X-1.28727 Y3.86500
G1 Z-0.10000
G1 Z0.05000
G0 X-0.92557 Y3.86500
G1 Z-0.10000
G1 Z0.05000
G0 X-0.78787 Y3.86500
G1 Z-0.10000
G1 Z0.05000
G0 X-0.92557 Y3.51500
G1 Z-0.10000
G1 Z0.05000
G0 X-0.92557 Y3.41500
G1 Z-0.10000
G1 Z0.05000
G0 X-0.92557 Y3.31500
G1 Z-0.10000
G1 Z0.05000
G0 X-1.42557 Y3.31500
G1 Z-0.10000
G1 Z0.05000
G0 X-0.92527 Y2.51500
G1 Z-0.10000
G1 Z0.05000
G0 X-0.72667 Y2.51500
G1 Z-0.10000
G1 Z0.05000
G0 X-0.52717 Y2.51500
G1 Z-0.10000
G1 Z0.05000
G0 X-0.32717 Y2.51500
G1 Z-0.10000
G1 Z0.05000
G0 X-0.32717 Y2.21500
G1 Z-0.10000
G1 Z0.05000
G0 X-0.52717 Y2.21500
G1 Z-0.10000
G1 Z0.05000
G0 X-0.72667 Y2.21500
G1 Z-0.10000
G1 Z0.05000
G0 X-0.92527 Y2.21500
G1 Z-0.10000
G1 Z0.05000
G0 X-1.22557 Y2.21500
G1 Z-0.10000
G1 Z0.05000
G0 X-1.22557 Y2.51500
G1 Z-0.10000
G1 Z0.05000
G0 X-1.42557 Y2.51500
G1 Z-0.10000
G1 Z0.05000
G0 X-1.42557 Y2.21500
G1 Z-0.10000
G1 Z0.05000
G0 X-1.72557 Y2.21500
G1 Z-0.10000
G1 Z0.05000
G0 X-2.02557 Y2.51500
G1 Z-0.10000
G1 Z0.05000
G0 X-2.02557 Y2.71500
G1 Z-0.10000
G1 Z0.05000
G0 X-2.02557 Y3.01500
G1 Z-0.10000
G1 Z0.05000
G0 X-2.32557 Y3.01500
G1 Z-0.10000
G1 Z0.05000
G0 X-2.32557 Y2.71500
G1 Z-0.10000
G1 Z0.05000
G0 X-2.32557 Y2.51500
G1 Z-0.10000
G1 Z0.05000
G0 X-2.62557 Y2.51500
G1 Z-0.10000
G1 Z0.05000
G0 X-2.62557 Y2.71500
G1 Z-0.10000
G1 Z0.05000
G0 X-2.62557 Y3.01500
G1 Z-0.10000
G1 Z0.05000
G0 X-2.62557 Y3.31500
G1 Z-0.10000
G1 Z0.05000
G0 X-2.62557 Y3.41500
G1 Z-0.10000
G1 Z0.05000
G0 X-2.62557 Y3.51500
G1 Z-0.10000
G1 Z0.05000
G0 X-2.32557 Y3.31500
G1 Z-0.10000
G1 Z0.05000
G0 X-2.32557 Y3.41500
G1 Z-0.10000
G1 Z0.05000
G0 X-2.32557 Y3.51500
G1 Z-0.10000
G1 Z0.05000
G0 X-2.02557 Y3.31500
G1 Z-0.10000
G1 Z0.05000
G0 X-2.02557 Y3.41500
G1 Z-0.10000
G1 Z0.05000
G0 X-2.02557 Y3.51500
G1 Z-0.10000
G1 Z0.05000
G0 X-1.81107 Y3.86500
G1 Z-0.10000
G1 Z0.05000
G0 X-1.94887 Y3.86500
G1 Z-0.10000
G1 Z0.05000
G0 X-2.08667 Y3.86500
G1 Z-0.10000
G1 Z0.05000
G0 X-2.22447 Y3.86500
G1 Z-0.10000
G1 Z0.05000
G0 X-2.36227 Y3.86500
G1 Z-0.10000
G1 Z0.05000
G0 X-2.50007 Y3.86500
G1 Z-0.10000
G1 Z0.05000
G0 X-2.63787 Y3.86500
G1 Z-0.10000
G1 Z0.05000
G0 X-2.77557 Y3.86500
G1 Z-0.10000
G1 Z0.05000
G0 X-3.01107 Y3.86500
G1 Z-0.10000
G1 Z0.05000
G0 X-3.14887 Y3.86500
G1 Z-0.10000
G1 Z0.05000
G0 X-3.28667 Y3.86500
G1 Z-0.10000
G1 Z0.05000
G0 X-3.42447 Y3.86500
G1 Z-0.10000
G1 Z0.05000
G0 X-3.56227 Y3.86500
G1 Z-0.10000
G1 Z0.05000
G0 X-3.70007 Y3.86500
G1 Z-0.10000
G1 Z0.05000
G0 X-3.83787 Y3.86500
G1 Z-0.10000
G1 Z0.05000
G0 X-3.97557 Y3.86500
G1 Z-0.10000
G1 Z0.05000
G0 X-4.21107 Y3.86500
G1 Z-0.10000
G1 Z0.05000
G0 X-4.34887 Y3.86500
G1 Z-0.10000
G1 Z0.05000
G0 X-4.48667 Y3.86500
G1 Z-0.10000
G1 Z0.05000
G0 X-4.62447 Y3.86500
G1 Z-0.10000
G1 Z0.05000
G0 X-4.76227 Y3.86500
G1 Z-0.10000
G1 Z0.05000
G0 X-4.42557 Y3.51500
G1 Z-0.10000
G1 Z0.05000
G0 X-4.42557 Y3.41500
G1 Z-0.10000
G1 Z0.05000
G0 X-4.42557 Y3.31500
G1 Z-0.10000
G1 Z0.05000
G0 X-4.72557 Y3.31500
G1 Z-0.10000
G1 Z0.05000
G0 X-4.72557 Y3.41500
G1 Z-0.10000
G1 Z0.05000
G0 X-4.72557 Y3.51500
G1 Z-0.10000
G1 Z0.05000
G0 X-4.90007 Y3.86500
G1 Z-0.10000
G1 Z0.05000
G0 X-5.03787 Y3.86500
G1 Z-0.10000
G1 Z0.05000
G0 X-5.17557 Y3.86500
G1 Z-0.10000
G1 Z0.05000
G0 X-5.41107 Y3.86500
G1 Z-0.10000
G1 Z0.05000
G0 X-5.54887 Y3.86500
G1 Z-0.10000
G1 Z0.05000
G0 X-5.68667 Y3.86500
G1 Z-0.10000
G1 Z0.05000
G0 X-5.82447 Y3.86500
G1 Z-0.10000
G1 Z0.05000
G0 X-5.96227 Y3.86500
G1 Z-0.10000
G1 Z0.05000
G0 X-6.10007 Y3.86500
G1 Z-0.10000
G1 Z0.05000
G0 X-6.23787 Y3.86500
G1 Z-0.10000
G1 Z0.05000
G0 X-6.37557 Y3.86500
G1 Z-0.10000
G1 Z0.05000
G0 X-6.22557 Y3.51500
G1 Z-0.10000
G1 Z0.05000
G0 X-6.22557 Y3.41500
G1 Z-0.10000
G1 Z0.05000
G0 X-6.22557 Y3.31500
G1 Z-0.10000
G1 Z0.05000
G0 X-5.92557 Y3.51500
G1 Z-0.10000
G1 Z0.05000
G0 X-5.92557 Y3.41500
G1 Z-0.10000
G1 Z0.05000
G0 X-5.92557 Y3.31500
G1 Z-0.10000
G1 Z0.05000
G0 X-5.92557 Y3.01500
G1 Z-0.10000
G1 Z0.05000
G0 X-6.22557 Y3.01500
G1 Z-0.10000
G1 Z0.05000
G0 X-5.92557 Y2.71500
G1 Z-0.10000
G1 Z0.05000
G0 X-6.22557 Y2.71500
G1 Z-0.10000
G1 Z0.05000
G0 X-6.22557 Y2.51500
G1 Z-0.10000
G1 Z0.05000
G0 X-6.22557 Y2.21500
G1 Z-0.10000
G1 Z0.05000
G0 X-5.92557 Y2.21500
G1 Z-0.10000
G1 Z0.05000
G0 X-5.92557 Y2.51500
G1 Z-0.10000
G1 Z0.05000
G0 X-5.62557 Y2.71500
G1 Z-0.10000
G1 Z0.05000
G0 X-5.62557 Y2.51500
G1 Z-0.10000
G1 Z0.05000
G0 X-5.62557 Y2.21500
G1 Z-0.10000
G1 Z0.05000
G0 X-5.32557 Y2.21500
G1 Z-0.10000
G1 Z0.05000
G0 X-5.32557 Y2.51500
G1 Z-0.10000
G1 Z0.05000
G0 X-5.32557 Y2.71500
G1 Z-0.10000
G1 Z0.05000
G0 X-5.02557 Y3.01500
G1 Z-0.10000
G1 Z0.05000
G0 X-5.02557 Y2.71500
G1 Z-0.10000
G1 Z0.05000
G0 X-5.02557 Y2.51500
G1 Z-0.10000
G1 Z0.05000
G0 X-4.72557 Y2.51500
G1 Z-0.10000
G1 Z0.05000
G0 X-4.42557 Y2.51500
G1 Z-0.10000
G1 Z0.05000
G0 X-4.42557 Y2.71500
G1 Z-0.10000
G1 Z0.05000
G0 X-4.42557 Y3.01500
G1 Z-0.10000
G1 Z0.05000
G0 X-4.72557 Y2.71500
G1 Z-0.10000
G1 Z0.05000
G0 X-4.72557 Y3.01500
G1 Z-0.10000
G1 Z0.05000
G0 X-5.02557 Y3.31500
G1 Z-0.10000
G1 Z0.05000
G0 X-5.02557 Y3.41500
G1 Z-0.10000
G1 Z0.05000
G0 X-5.02557 Y3.51500
G1 Z-0.10000
G1 Z0.05000
G0 X-5.32557 Y3.51500
G1 Z-0.10000
G1 Z0.05000
G0 X-5.32557 Y3.41500
G1 Z-0.10000
G1 Z0.05000
G0 X-5.32557 Y3.31500
G1 Z-0.10000
G1 Z0.05000
G0 X-5.62557 Y3.51500
G1 Z-0.10000
G1 Z0.05000
G0 X-5.62557 Y3.41500
G1 Z-0.10000
G1 Z0.05000
G0 X-5.62557 Y3.31500
G1 Z-0.10000
G1 Z0.05000
G0 X-5.62557 Y3.01500
G1 Z-0.10000
G1 Z0.05000
G0 X-5.32557 Y3.01500
G1 Z-0.10000
G1 Z0.05000

G00 Z0.050 ( All done -- retract )

G04 P0.000000
M2      (Program end.)

