( pcb2gcode 2.1.0 )
( Software-independent Gcode )

( This file uses only one drill bit. Forced by 'onedrill' option )

G94       (Inches per minute feed rate.)
G20       (Units == INCHES.)
G91.1     (Incremental arc distance mode.)
G90       (Absolute coordinates.)
G00 S15000     (RPM spindle speed.)

G00 Z1.00000 (Retract)
T1
M5      (Spindle stop.)
G04 P1.00000
(MSG, Change tool bit to drill size 0.0315 inch)
M6      (Tool change.)
M0      (Temporary machine stop.)
M3      (Spindle on clockwise.)
G0 Z1.00000
G04 P1.00000

G1 F10.00000
G0 X-4.61557 Y0.15500
G1 Z-0.01000
G1 Z1.00000
G0 X-4.51557 Y0.15500
G1 Z-0.01000
G1 Z1.00000
G0 X-4.41557 Y0.15500
G1 Z-0.01000
G1 Z1.00000
G0 X-4.31557 Y0.15500
G1 Z-0.01000
G1 Z1.00000
G0 X-4.21557 Y0.15500
G1 Z-0.01000
G1 Z1.00000
G0 X-4.11557 Y0.15500
G1 Z-0.01000
G1 Z1.00000
G0 X-4.01557 Y0.15500
G1 Z-0.01000
G1 Z1.00000
G0 X-3.91557 Y0.15500
G1 Z-0.01000
G1 Z1.00000
G0 X-3.81557 Y0.15500
G1 Z-0.01000
G1 Z1.00000
G0 X-3.71557 Y0.15500
G1 Z-0.01000
G1 Z1.00000
G0 X-3.61557 Y0.15500
G1 Z-0.01000
G1 Z1.00000
G0 X-3.51557 Y0.15500
G1 Z-0.01000
G1 Z1.00000
G0 X-3.41557 Y0.15500
G1 Z-0.01000
G1 Z1.00000
G0 X-3.31557 Y0.15500
G1 Z-0.01000
G1 Z1.00000
G0 X-3.21557 Y0.15500
G1 Z-0.01000
G1 Z1.00000
G0 X-3.11557 Y0.15500
G1 Z-0.01000
G1 Z1.00000
G0 X-3.01557 Y0.15500
G1 Z-0.01000
G1 Z1.00000
G0 X-2.91557 Y0.15500
G1 Z-0.01000
G1 Z1.00000
G0 X-2.81557 Y0.15500
G1 Z-0.01000
G1 Z1.00000
G0 X-2.71557 Y0.15500
G1 Z-0.01000
G1 Z1.00000
G0 X-2.61557 Y0.15500
G1 Z-0.01000
G1 Z1.00000
G0 X-2.51557 Y0.15500
G1 Z-0.01000
G1 Z1.00000
G0 X-2.41557 Y0.15500
G1 Z-0.01000
G1 Z1.00000
G0 X-2.31557 Y0.15500
G1 Z-0.01000
G1 Z1.00000
G0 X-2.81557 Y0.65500
G1 Z-0.01000
G1 Z1.00000
G0 X-2.71557 Y0.65500
G1 Z-0.01000
G1 Z1.00000
G0 X-2.61557 Y0.75500
G1 Z-0.01000
G1 Z1.00000
G0 X-2.71557 Y0.75500
G1 Z-0.01000
G1 Z1.00000
G0 X-2.81557 Y0.75500
G1 Z-0.01000
G1 Z1.00000
G0 X-2.91557 Y0.75500
G1 Z-0.01000
G1 Z1.00000
G0 X-3.01557 Y0.75500
G1 Z-0.01000
G1 Z1.00000
G0 X-3.11557 Y0.75500
G1 Z-0.01000
G1 Z1.00000
G0 X-3.21557 Y0.75500
G1 Z-0.01000
G1 Z1.00000
G0 X-3.31557 Y0.75500
G1 Z-0.01000
G1 Z1.00000
G0 X-3.41557 Y0.75500
G1 Z-0.01000
G1 Z1.00000
G0 X-3.51557 Y0.75500
G1 Z-0.01000
G1 Z1.00000
G0 X-3.61557 Y0.75500
G1 Z-0.01000
G1 Z1.00000
G0 X-3.71557 Y0.75500
G1 Z-0.01000
G1 Z1.00000
G0 X-3.81557 Y0.75500
G1 Z-0.01000
G1 Z1.00000
G0 X-3.91557 Y0.75500
G1 Z-0.01000
G1 Z1.00000
G0 X-4.01557 Y0.75500
G1 Z-0.01000
G1 Z1.00000
G0 X-4.11557 Y0.75500
G1 Z-0.01000
G1 Z1.00000
G0 X-4.21557 Y0.75500
G1 Z-0.01000
G1 Z1.00000
G0 X-4.31557 Y0.75500
G1 Z-0.01000
G1 Z1.00000
G0 X-4.41557 Y0.75500
G1 Z-0.01000
G1 Z1.00000
G0 X-4.51557 Y0.75500
G1 Z-0.01000
G1 Z1.00000
G0 X-4.61557 Y0.75500
G1 Z-0.01000
G1 Z1.00000
G0 X-4.61557 Y2.10500
G1 Z-0.01000
G1 Z1.00000
G0 X-4.61557 Y2.40500
G1 Z-0.01000
G1 Z1.00000
G0 X-4.61557 Y2.60500
G1 Z-0.01000
G1 Z1.00000
G0 X-4.61557 Y2.90500
G1 Z-0.01000
G1 Z1.00000
G0 X-4.31557 Y2.90500
G1 Z-0.01000
G1 Z1.00000
G0 X-4.31557 Y3.20500
G1 Z-0.01000
G1 Z1.00000
G0 X-4.31557 Y3.30500
G1 Z-0.01000
G1 Z1.00000
G0 X-4.31557 Y3.40500
G1 Z-0.01000
G1 Z1.00000
G0 X-4.61557 Y3.20500
G1 Z-0.01000
G1 Z1.00000
G0 X-4.61557 Y3.30500
G1 Z-0.01000
G1 Z1.00000
G0 X-4.61557 Y3.40500
G1 Z-0.01000
G1 Z1.00000
G0 X-4.91557 Y3.40500
G1 Z-0.01000
G1 Z1.00000
G0 X-4.91557 Y3.30500
G1 Z-0.01000
G1 Z1.00000
G0 X-4.91557 Y3.20500
G1 Z-0.01000
G1 Z1.00000
G0 X-5.21557 Y3.40500
G1 Z-0.01000
G1 Z1.00000
G0 X-5.21557 Y3.30500
G1 Z-0.01000
G1 Z1.00000
G0 X-5.21557 Y3.20500
G1 Z-0.01000
G1 Z1.00000
G0 X-5.51557 Y3.40500
G1 Z-0.01000
G1 Z1.00000
G0 X-5.51557 Y3.30500
G1 Z-0.01000
G1 Z1.00000
G0 X-5.51557 Y3.20500
G1 Z-0.01000
G1 Z1.00000
G0 X-5.51557 Y2.90500
G1 Z-0.01000
G1 Z1.00000
G0 X-5.21557 Y2.60500
G1 Z-0.01000
G1 Z1.00000
G0 X-5.21557 Y2.40500
G1 Z-0.01000
G1 Z1.00000
G0 X-5.51557 Y2.10500
G1 Z-0.01000
G1 Z1.00000
G0 X-5.21557 Y2.10500
G1 Z-0.01000
G1 Z1.00000
G0 X-4.91557 Y2.10500
G1 Z-0.01000
G1 Z1.00000
G0 X-4.91557 Y2.40500
G1 Z-0.01000
G1 Z1.00000
G0 X-4.91557 Y2.60500
G1 Z-0.01000
G1 Z1.00000
G0 X-4.91557 Y2.90500
G1 Z-0.01000
G1 Z1.00000
G0 X-5.21557 Y2.90500
G1 Z-0.01000
G1 Z1.00000
G0 X-5.51557 Y2.60500
G1 Z-0.01000
G1 Z1.00000
G0 X-5.51557 Y2.40500
G1 Z-0.01000
G1 Z1.00000
G0 X-5.81557 Y2.10500
G1 Z-0.01000
G1 Z1.00000
G0 X-6.11557 Y2.10500
G1 Z-0.01000
G1 Z1.00000
G0 X-6.11557 Y2.40500
G1 Z-0.01000
G1 Z1.00000
G0 X-6.11557 Y2.60500
G1 Z-0.01000
G1 Z1.00000
G0 X-5.81557 Y2.40500
G1 Z-0.01000
G1 Z1.00000
G0 X-5.81557 Y2.60500
G1 Z-0.01000
G1 Z1.00000
G0 X-6.11557 Y2.90500
G1 Z-0.01000
G1 Z1.00000
G0 X-5.81557 Y2.90500
G1 Z-0.01000
G1 Z1.00000
G0 X-5.81557 Y3.20500
G1 Z-0.01000
G1 Z1.00000
G0 X-5.81557 Y3.30500
G1 Z-0.01000
G1 Z1.00000
G0 X-5.81557 Y3.40500
G1 Z-0.01000
G1 Z1.00000
G0 X-6.11557 Y3.20500
G1 Z-0.01000
G1 Z1.00000
G0 X-6.11557 Y3.30500
G1 Z-0.01000
G1 Z1.00000
G0 X-6.11557 Y3.40500
G1 Z-0.01000
G1 Z1.00000
G0 X-6.26557 Y3.75500
G1 Z-0.01000
G1 Z1.00000
G0 X-6.12787 Y3.75500
G1 Z-0.01000
G1 Z1.00000
G0 X-5.99007 Y3.75500
G1 Z-0.01000
G1 Z1.00000
G0 X-5.85227 Y3.75500
G1 Z-0.01000
G1 Z1.00000
G0 X-5.71447 Y3.75500
G1 Z-0.01000
G1 Z1.00000
G0 X-5.57667 Y3.75500
G1 Z-0.01000
G1 Z1.00000
G0 X-5.43887 Y3.75500
G1 Z-0.01000
G1 Z1.00000
G0 X-5.30107 Y3.75500
G1 Z-0.01000
G1 Z1.00000
G0 X-5.06557 Y3.75500
G1 Z-0.01000
G1 Z1.00000
G0 X-4.92787 Y3.75500
G1 Z-0.01000
G1 Z1.00000
G0 X-4.79007 Y3.75500
G1 Z-0.01000
G1 Z1.00000
G0 X-4.65227 Y3.75500
G1 Z-0.01000
G1 Z1.00000
G0 X-4.51447 Y3.75500
G1 Z-0.01000
G1 Z1.00000
G0 X-4.37667 Y3.75500
G1 Z-0.01000
G1 Z1.00000
G0 X-4.23887 Y3.75500
G1 Z-0.01000
G1 Z1.00000
G0 X-4.10107 Y3.75500
G1 Z-0.01000
G1 Z1.00000
G0 X-3.86557 Y3.75500
G1 Z-0.01000
G1 Z1.00000
G0 X-3.72787 Y3.75500
G1 Z-0.01000
G1 Z1.00000
G0 X-3.59007 Y3.75500
G1 Z-0.01000
G1 Z1.00000
G0 X-3.45227 Y3.75500
G1 Z-0.01000
G1 Z1.00000
G0 X-3.31447 Y3.75500
G1 Z-0.01000
G1 Z1.00000
G0 X-3.17667 Y3.75500
G1 Z-0.01000
G1 Z1.00000
G0 X-3.03887 Y3.75500
G1 Z-0.01000
G1 Z1.00000
G0 X-2.90107 Y3.75500
G1 Z-0.01000
G1 Z1.00000
G0 X-2.66557 Y3.75500
G1 Z-0.01000
G1 Z1.00000
G0 X-2.52787 Y3.75500
G1 Z-0.01000
G1 Z1.00000
G0 X-2.39007 Y3.75500
G1 Z-0.01000
G1 Z1.00000
G0 X-2.25227 Y3.75500
G1 Z-0.01000
G1 Z1.00000
G0 X-2.11447 Y3.75500
G1 Z-0.01000
G1 Z1.00000
G0 X-1.97667 Y3.75500
G1 Z-0.01000
G1 Z1.00000
G0 X-1.83887 Y3.75500
G1 Z-0.01000
G1 Z1.00000
G0 X-1.70107 Y3.75500
G1 Z-0.01000
G1 Z1.00000
G0 X-1.31497 Y3.75500
G1 Z-0.01000
G1 Z1.00000
G0 X-1.17727 Y3.75500
G1 Z-0.01000
G1 Z1.00000
G0 X-0.81557 Y3.75500
G1 Z-0.01000
G1 Z1.00000
G0 X-0.67787 Y3.75500
G1 Z-0.01000
G1 Z1.00000
G0 X-0.81557 Y3.40500
G1 Z-0.01000
G1 Z1.00000
G0 X-0.81557 Y3.30500
G1 Z-0.01000
G1 Z1.00000
G0 X-0.81557 Y3.20500
G1 Z-0.01000
G1 Z1.00000
G0 X-0.21717 Y2.40500
G1 Z-0.01000
G1 Z1.00000
G0 X-0.21717 Y2.10500
G1 Z-0.01000
G1 Z1.00000
G0 X-0.41717 Y2.10500
G1 Z-0.01000
G1 Z1.00000
G0 X-0.61667 Y2.10500
G1 Z-0.01000
G1 Z1.00000
G0 X-0.81527 Y2.10500
G1 Z-0.01000
G1 Z1.00000
G0 X-0.41717 Y2.40500
G1 Z-0.01000
G1 Z1.00000
G0 X-0.61667 Y2.40500
G1 Z-0.01000
G1 Z1.00000
G0 X-0.81527 Y2.40500
G1 Z-0.01000
G1 Z1.00000
G0 X-1.11557 Y2.10500
G1 Z-0.01000
G1 Z1.00000
G0 X-1.31557 Y2.10500
G1 Z-0.01000
G1 Z1.00000
G0 X-1.11557 Y2.40500
G1 Z-0.01000
G1 Z1.00000
G0 X-1.31557 Y2.40500
G1 Z-0.01000
G1 Z1.00000
G0 X-1.61557 Y2.10500
G1 Z-0.01000
G1 Z1.00000
G0 X-1.91557 Y2.40500
G1 Z-0.01000
G1 Z1.00000
G0 X-1.91557 Y2.60500
G1 Z-0.01000
G1 Z1.00000
G0 X-1.91557 Y2.90500
G1 Z-0.01000
G1 Z1.00000
G0 X-2.21557 Y2.90500
G1 Z-0.01000
G1 Z1.00000
G0 X-2.51557 Y2.90500
G1 Z-0.01000
G1 Z1.00000
G0 X-2.51557 Y2.60500
G1 Z-0.01000
G1 Z1.00000
G0 X-2.21557 Y2.60500
G1 Z-0.01000
G1 Z1.00000
G0 X-2.21557 Y2.40500
G1 Z-0.01000
G1 Z1.00000
G0 X-2.51557 Y2.40500
G1 Z-0.01000
G1 Z1.00000
G0 X-2.51557 Y2.10500
G1 Z-0.01000
G1 Z1.00000
G0 X-2.21557 Y2.10500
G1 Z-0.01000
G1 Z1.00000
G0 X-1.91557 Y2.10500
G1 Z-0.01000
G1 Z1.00000
G0 X-1.61557 Y2.40500
G1 Z-0.01000
G1 Z1.00000
G0 X-1.61557 Y2.60500
G1 Z-0.01000
G1 Z1.00000
G0 X-1.61557 Y2.90500
G1 Z-0.01000
G1 Z1.00000
G0 X-1.31557 Y3.20500
G1 Z-0.01000
G1 Z1.00000
G0 X-1.31557 Y3.30500
G1 Z-0.01000
G1 Z1.00000
G0 X-1.31557 Y3.40500
G1 Z-0.01000
G1 Z1.00000
G0 X-1.61557 Y3.20500
G1 Z-0.01000
G1 Z1.00000
G0 X-1.61557 Y3.30500
G1 Z-0.01000
G1 Z1.00000
G0 X-1.61557 Y3.40500
G1 Z-0.01000
G1 Z1.00000
G0 X-1.91557 Y3.20500
G1 Z-0.01000
G1 Z1.00000
G0 X-1.91557 Y3.30500
G1 Z-0.01000
G1 Z1.00000
G0 X-1.91557 Y3.40500
G1 Z-0.01000
G1 Z1.00000
G0 X-2.21557 Y3.20500
G1 Z-0.01000
G1 Z1.00000
G0 X-2.21557 Y3.30500
G1 Z-0.01000
G1 Z1.00000
G0 X-2.21557 Y3.40500
G1 Z-0.01000
G1 Z1.00000
G0 X-2.51557 Y3.20500
G1 Z-0.01000
G1 Z1.00000
G0 X-2.51557 Y3.30500
G1 Z-0.01000
G1 Z1.00000
G0 X-2.51557 Y3.40500
G1 Z-0.01000
G1 Z1.00000
G0 X-2.81557 Y3.20500
G1 Z-0.01000
G1 Z1.00000
G0 X-2.81557 Y3.30500
G1 Z-0.01000
G1 Z1.00000
G0 X-2.81557 Y3.40500
G1 Z-0.01000
G1 Z1.00000
G0 X-3.11557 Y3.20500
G1 Z-0.01000
G1 Z1.00000
G0 X-3.11557 Y3.30500
G1 Z-0.01000
G1 Z1.00000
G0 X-3.11557 Y3.40500
G1 Z-0.01000
G1 Z1.00000
G0 X-3.41557 Y3.20500
G1 Z-0.01000
G1 Z1.00000
G0 X-3.41557 Y3.30500
G1 Z-0.01000
G1 Z1.00000
G0 X-3.41557 Y3.40500
G1 Z-0.01000
G1 Z1.00000
G0 X-3.71557 Y3.20500
G1 Z-0.01000
G1 Z1.00000
G0 X-3.71557 Y3.30500
G1 Z-0.01000
G1 Z1.00000
G0 X-3.71557 Y3.40500
G1 Z-0.01000
G1 Z1.00000
G0 X-4.01557 Y3.40500
G1 Z-0.01000
G1 Z1.00000
G0 X-4.01557 Y3.30500
G1 Z-0.01000
G1 Z1.00000
G0 X-4.01557 Y3.20500
G1 Z-0.01000
G1 Z1.00000
G0 X-4.01557 Y2.90500
G1 Z-0.01000
G1 Z1.00000
G0 X-3.71557 Y2.90500
G1 Z-0.01000
G1 Z1.00000
G0 X-3.41557 Y2.60500
G1 Z-0.01000
G1 Z1.00000
G0 X-3.41557 Y2.40500
G1 Z-0.01000
G1 Z1.00000
G0 X-3.11557 Y2.10500
G1 Z-0.01000
G1 Z1.00000
G0 X-2.81557 Y2.10500
G1 Z-0.01000
G1 Z1.00000
G0 X-3.11557 Y2.40500
G1 Z-0.01000
G1 Z1.00000
G0 X-3.11557 Y2.60500
G1 Z-0.01000
G1 Z1.00000
G0 X-2.81557 Y2.40500
G1 Z-0.01000
G1 Z1.00000
G0 X-2.81557 Y2.60500
G1 Z-0.01000
G1 Z1.00000
G0 X-2.81557 Y2.90500
G1 Z-0.01000
G1 Z1.00000
G0 X-3.11557 Y2.90500
G1 Z-0.01000
G1 Z1.00000
G0 X-3.41557 Y2.90500
G1 Z-0.01000
G1 Z1.00000
G0 X-3.71557 Y2.60500
G1 Z-0.01000
G1 Z1.00000
G0 X-3.71557 Y2.40500
G1 Z-0.01000
G1 Z1.00000
G0 X-4.01557 Y2.60500
G1 Z-0.01000
G1 Z1.00000
G0 X-4.31557 Y2.60500
G1 Z-0.01000
G1 Z1.00000
G0 X-4.31557 Y2.40500
G1 Z-0.01000
G1 Z1.00000
G0 X-4.31557 Y2.10500
G1 Z-0.01000
G1 Z1.00000
G0 X-4.01557 Y2.40500
G1 Z-0.01000
G1 Z1.00000
G0 X-4.01557 Y2.10500
G1 Z-0.01000
G1 Z1.00000
G0 X-3.71557 Y2.10500
G1 Z-0.01000
G1 Z1.00000
G0 X-3.41557 Y2.10500
G1 Z-0.01000
G1 Z1.00000
G0 X-2.31557 Y0.75500
G1 Z-0.01000
G1 Z1.00000
G0 X-2.41557 Y0.75500
G1 Z-0.01000
G1 Z1.00000
G0 X-2.51557 Y0.75500
G1 Z-0.01000
G1 Z1.00000

G00 Z1.000 ( All done -- retract )

M5      (Spindle off.)
G04 P1.000000
M9      (Coolant off.)
M2      (Program end.)

