( pcb2gcode 2.1.0 )
( Software-independent Gcode )

( This file uses 3 drill bit sizes. )
( Bit sizes: [0.89916 mm] [1.016 mm] [1.09982 mm] )

G94       (Millimeters per minute feed rate.)
G21       (Units == Millimeters.)
G91.1     (Incremental arc distance mode.)
G90       (Absolute coordinates.)
G00 S10000     (RPM spindle speed.)

G00 Z10.00000 (Retract)
T1
M5      (Spindle stop.)
G04 P1.00000
(MSG, Change tool bit to drill size 0.89916 mm)
M6      (Tool change.)
M0      (Temporary machine stop.)
M3      (Spindle on clockwise.)
G0 Z5.00000
G04 P1.00000

G81 R5.00000 Z-2.50000 F1000.00000 X-102.73980 Y33.60100
X-97.65980 Y33.60100
X-92.57980 Y33.60100
X-87.49980 Y33.60100
X-82.41980 Y33.60100
X-77.33980 Y33.60100
X-72.25980 Y33.60100
X-67.17980 Y33.60100
X-59.55980 Y33.60100
X-54.47980 Y33.60100
X-49.39980 Y33.60100
X-44.31980 Y33.60100
X-39.23980 Y33.60100
X-34.15980 Y33.60100
X-29.07980 Y33.60100
X-23.99980 Y33.60100
X-18.91980 Y33.60100
X-16.37980 Y33.60100
X-13.83980 Y33.60100
X-11.29980 Y33.60100
X-6.21980 Y33.60100
X-1.13980 Y33.60100
X-1.13980 Y25.98100
X-6.21980 Y25.98100
X-11.29980 Y25.98100
X-13.83980 Y25.98100
X-16.37980 Y25.98100
X-18.91980 Y25.98100
X-23.99980 Y25.98100
X-29.07980 Y25.98100
X-34.15980 Y25.98100
X-39.23980 Y25.98100
X-44.31980 Y25.98100
X-49.39980 Y25.98100
X-54.47980 Y25.98100
X-59.55980 Y25.98100
X-67.17980 Y25.98100
X-72.25980 Y25.98100
X-77.33980 Y25.98100
X-82.41980 Y25.98100
X-87.49980 Y25.98100
X-92.57980 Y25.98100
X-97.65980 Y25.98100
X-102.73980 Y25.98100
G80

G00 Z10.00000 (Retract)
T2
M5      (Spindle stop.)
G04 P1.00000
(MSG, Change tool bit to drill size 1.016 mm)
M6      (Tool change.)
M0      (Temporary machine stop.)
M3      (Spindle on clockwise.)
G0 Z5.00000
G04 P1.00000

G81 R5.00000 Z-2.50000 F1000.00000 X-105.27980 Y37.41100
X-102.73980 Y37.41100
X-100.19980 Y37.41100
X-97.65980 Y37.41100
X-95.11980 Y37.41100
X-92.57980 Y37.41100
X-90.03980 Y37.41100
X-87.49980 Y37.41100
X-84.95980 Y37.41100
X-82.41980 Y37.41100
X-79.87980 Y37.41100
X-77.33980 Y37.41100
X-74.79980 Y37.41100
X-72.25980 Y37.41100
X-69.71980 Y37.41100
X-67.17980 Y37.41100
X-62.09980 Y37.41100
X-59.55980 Y37.41100
X-57.01980 Y37.41100
X-54.47980 Y37.41100
X-51.93980 Y37.41100
X-49.39980 Y37.41100
X-46.85980 Y37.41100
X-44.31980 Y37.41100
X-41.77980 Y37.41100
X-39.23980 Y37.41100
X-36.69980 Y37.41100
X-34.15980 Y37.41100
X-31.61980 Y37.41100
X-29.07980 Y37.41100
X-26.53980 Y37.41100
X-23.99980 Y37.41100
X-18.91980 Y37.41100
X-16.37980 Y37.41100
X-13.83980 Y37.41100
X-11.29980 Y37.41100
G80

G00 Z10.00000 (Retract)
T3
M5      (Spindle stop.)
G04 P1.00000
(MSG, Change tool bit to drill size 1.09982 mm)
M6      (Tool change.)
M0      (Temporary machine stop.)
M3      (Spindle on clockwise.)
G0 Z5.00000
G04 P1.00000

G81 R5.00000 Z-2.50000 F1000.00000 X-86.22980 Y18.36100
X-83.68980 Y18.36100
X-81.14980 Y18.36100
X-78.60980 Y18.36100
X-76.06980 Y18.36100
X-73.52980 Y18.36100
X-70.98980 Y18.36100
X-68.44980 Y18.36100
X-65.90980 Y18.36100
X-63.36980 Y18.36100
X-60.82980 Y18.36100
X-58.28980 Y18.36100
X-55.74980 Y18.36100
X-53.20980 Y18.36100
X-50.66980 Y18.36100
X-48.12980 Y18.36100
X-45.58980 Y18.36100
X-43.04980 Y18.36100
X-40.50980 Y18.36100
X-37.96980 Y18.36100
X-35.42980 Y18.36100
X-32.88980 Y18.36100
X-30.34980 Y18.36100
X-27.80980 Y18.36100
X-30.34980 Y15.82100
X-35.42980 Y15.82100
X-37.96980 Y15.82100
X-40.50980 Y15.82100
X-27.80980 Y3.12100
X-30.34980 Y3.12100
X-32.88980 Y3.12100
X-35.42980 Y3.12100
X-34.15980 Y6.12074
X-36.69980 Y6.12074
X-39.23980 Y6.12074
X-37.96980 Y3.12100
X-40.50980 Y3.12100
X-41.77980 Y6.12074
X-44.31980 Y6.12074
X-43.04980 Y3.12100
X-45.58980 Y3.12100
X-48.12980 Y3.12100
X-50.66980 Y3.12100
X-53.20980 Y3.12100
X-55.74980 Y3.12100
X-58.28980 Y3.12100
X-60.82980 Y3.12100
X-63.36980 Y3.12100
X-65.90980 Y3.12100
X-68.44980 Y3.12100
X-70.98980 Y3.12100
X-73.52980 Y5.66100
X-73.52980 Y8.20100
X-73.52980 Y10.74100
X-73.52980 Y13.28100
X-73.52980 Y15.82100
X-73.52980 Y3.12100
X-76.06980 Y3.12100
X-78.60980 Y3.12100
X-81.14980 Y3.12100
X-83.68980 Y3.12100
X-86.22980 Y3.12100
G80

G00 Z10.000 ( All done -- retract )

M5      (Spindle off.)
G04 P1.000000
M9      (Coolant off.)
M2      (Program end.)

