( pcb2gcode 2.1.0 )
( Software-independent Gcode )

( This file uses only one drill bit. Forced by 'onedrill' option )

G94       (Inches per minute feed rate.)
G20       (Units == INCHES.)
G91.1     (Incremental arc distance mode.)
G90       (Absolute coordinates.)
G00 S30000     (RPM spindle speed.)

G00 Z0.10000 (Retract)
T1
G04 P0.00000
(MSG, Change tool bit to drill size 0.0315 inch)
G0 Z0.05000
G04 P0.00000

G1 F5.00000
G0 X-4.65997 Y2.00997
G1 Z-0.08500
G1 Z0.05000
G0 X-4.65997 Y1.90997
G1 Z-0.08500
G1 Z0.05000
G0 X-4.65997 Y1.80997
G1 Z-0.08500
G1 Z0.05000
G0 X-4.65997 Y1.65997
G1 Z-0.08500
G1 Z0.05000
G0 X-4.45997 Y1.80997
G1 Z-0.08500
G1 Z0.05000
G0 X-4.45997 Y1.90997
G1 Z-0.08500
G1 Z0.05000
G0 X-4.45997 Y2.00997
G1 Z-0.08500
G1 Z0.05000
G0 X-4.25997 Y2.00997
G1 Z-0.08500
G1 Z0.05000
G0 X-4.25997 Y1.90997
G1 Z-0.08500
G1 Z0.05000
G0 X-4.25997 Y1.80997
G1 Z-0.08500
G1 Z0.05000
G0 X-4.25997 Y1.65997
G1 Z-0.08500
G1 Z0.05000
G0 X-4.05997 Y1.80997
G1 Z-0.08500
G1 Z0.05000
G0 X-4.05997 Y1.90997
G1 Z-0.08500
G1 Z0.05000
G0 X-4.05997 Y2.00997
G1 Z-0.08500
G1 Z0.05000
G0 X-4.05997 Y2.25997
G1 Z-0.08500
G1 Z0.05000
G0 X-4.15997 Y2.25997
G1 Z-0.08500
G1 Z0.05000
G0 X-4.25997 Y2.25997
G1 Z-0.08500
G1 Z0.05000
G0 X-4.35997 Y2.25997
G1 Z-0.08500
G1 Z0.05000
G0 X-4.45997 Y2.25997
G1 Z-0.08500
G1 Z0.05000
G0 X-4.55997 Y2.25997
G1 Z-0.08500
G1 Z0.05000
G0 X-4.65997 Y2.25997
G1 Z-0.08500
G1 Z0.05000
G0 X-4.75997 Y2.25997
G1 Z-0.08500
G1 Z0.05000
G0 X-4.45997 Y1.65997
G1 Z-0.08500
G1 Z0.05000
G0 X-4.65997 Y1.35997
G1 Z-0.08500
G1 Z0.05000
G0 X-4.45997 Y1.35997
G1 Z-0.08500
G1 Z0.05000
G0 X-4.25997 Y1.35997
G1 Z-0.08500
G1 Z0.05000
G0 X-4.05997 Y1.35997
G1 Z-0.08500
G1 Z0.05000
G0 X-4.05997 Y1.65997
G1 Z-0.08500
G1 Z0.05000
G0 X-3.75997 Y1.90997
G1 Z-0.08500
G1 Z0.05000
G0 X-3.75997 Y2.00997
G1 Z-0.08500
G1 Z0.05000
G0 X-3.75997 Y1.80997
G1 Z-0.08500
G1 Z0.05000
G0 X-3.75997 Y1.65997
G1 Z-0.08500
G1 Z0.05000
G0 X-3.55997 Y1.80997
G1 Z-0.08500
G1 Z0.05000
G0 X-3.55997 Y1.90997
G1 Z-0.08500
G1 Z0.05000
G0 X-3.55997 Y2.00997
G1 Z-0.08500
G1 Z0.05000
G0 X-3.35997 Y2.00997
G1 Z-0.08500
G1 Z0.05000
G0 X-3.35997 Y1.90997
G1 Z-0.08500
G1 Z0.05000
G0 X-3.35997 Y1.80997
G1 Z-0.08500
G1 Z0.05000
G0 X-3.35997 Y1.65997
G1 Z-0.08500
G1 Z0.05000
G0 X-3.15997 Y1.80997
G1 Z-0.08500
G1 Z0.05000
G0 X-3.15997 Y1.90997
G1 Z-0.08500
G1 Z0.05000
G0 X-3.15997 Y2.00997
G1 Z-0.08500
G1 Z0.05000
G0 X-2.95997 Y2.25997
G1 Z-0.08500
G1 Z0.05000
G0 X-2.85997 Y2.25997
G1 Z-0.08500
G1 Z0.05000
G0 X-2.75997 Y2.25997
G1 Z-0.08500
G1 Z0.05000
G0 X-2.65997 Y2.25997
G1 Z-0.08500
G1 Z0.05000
G0 X-2.55997 Y2.25997
G1 Z-0.08500
G1 Z0.05000
G0 X-2.45997 Y2.25997
G1 Z-0.08500
G1 Z0.05000
G0 X-2.35997 Y2.25997
G1 Z-0.08500
G1 Z0.05000
G0 X-2.25997 Y2.25997
G1 Z-0.08500
G1 Z0.05000
G0 X-2.05997 Y2.25997
G1 Z-0.08500
G1 Z0.05000
G0 X-1.95997 Y2.25997
G1 Z-0.08500
G1 Z0.05000
G0 X-1.85997 Y2.25997
G1 Z-0.08500
G1 Z0.05000
G0 X-1.75997 Y2.25997
G1 Z-0.08500
G1 Z0.05000
G0 X-1.65997 Y2.25997
G1 Z-0.08500
G1 Z0.05000
G0 X-1.55997 Y2.25997
G1 Z-0.08500
G1 Z0.05000
G0 X-1.45997 Y2.25997
G1 Z-0.08500
G1 Z0.05000
G0 X-1.35997 Y2.25997
G1 Z-0.08500
G1 Z0.05000
G0 X-1.15997 Y2.25997
G1 Z-0.08500
G1 Z0.05000
G0 X-1.05997 Y2.25997
G1 Z-0.08500
G1 Z0.05000
G0 X-0.85997 Y2.25997
G1 Z-0.08500
G1 Z0.05000
G0 X-0.75997 Y2.25997
G1 Z-0.08500
G1 Z0.05000
G0 X-0.85997 Y2.00997
G1 Z-0.08500
G1 Z0.05000
G0 X-0.85997 Y1.90997
G1 Z-0.08500
G1 Z0.05000
G0 X-0.85997 Y1.80997
G1 Z-0.08500
G1 Z0.05000
G0 X-0.85997 Y1.65997
G1 Z-0.08500
G1 Z0.05000
G0 X-0.65997 Y1.65997
G1 Z-0.08500
G1 Z0.05000
G0 X-0.56047 Y1.65997
G1 Z-0.08500
G1 Z0.05000
G0 X-0.65997 Y1.35997
G1 Z-0.08500
G1 Z0.05000
G0 X-0.56047 Y1.35997
G1 Z-0.08500
G1 Z0.05000
G0 X-0.85997 Y1.35997
G1 Z-0.08500
G1 Z0.05000
G0 X-1.15997 Y1.65997
G1 Z-0.08500
G1 Z0.05000
G0 X-1.15997 Y1.80997
G1 Z-0.08500
G1 Z0.05000
G0 X-1.15997 Y1.90997
G1 Z-0.08500
G1 Z0.05000
G0 X-1.15997 Y2.00997
G1 Z-0.08500
G1 Z0.05000
G0 X-1.35997 Y2.00997
G1 Z-0.08500
G1 Z0.05000
G0 X-1.35997 Y1.90997
G1 Z-0.08500
G1 Z0.05000
G0 X-1.35997 Y1.80997
G1 Z-0.08500
G1 Z0.05000
G0 X-1.35997 Y1.65997
G1 Z-0.08500
G1 Z0.05000
G0 X-1.55997 Y1.80997
G1 Z-0.08500
G1 Z0.05000
G0 X-1.55997 Y1.90997
G1 Z-0.08500
G1 Z0.05000
G0 X-1.55997 Y2.00997
G1 Z-0.08500
G1 Z0.05000
G0 X-1.75997 Y2.00997
G1 Z-0.08500
G1 Z0.05000
G0 X-1.75997 Y1.90997
G1 Z-0.08500
G1 Z0.05000
G0 X-1.75997 Y1.80997
G1 Z-0.08500
G1 Z0.05000
G0 X-1.75997 Y1.65997
G1 Z-0.08500
G1 Z0.05000
G0 X-1.95997 Y1.80997
G1 Z-0.08500
G1 Z0.05000
G0 X-1.95997 Y1.90997
G1 Z-0.08500
G1 Z0.05000
G0 X-1.95997 Y2.00997
G1 Z-0.08500
G1 Z0.05000
G0 X-2.25997 Y2.00997
G1 Z-0.08500
G1 Z0.05000
G0 X-2.25997 Y1.90997
G1 Z-0.08500
G1 Z0.05000
G0 X-2.25997 Y1.80997
G1 Z-0.08500
G1 Z0.05000
G0 X-2.25997 Y1.65997
G1 Z-0.08500
G1 Z0.05000
G0 X-2.45997 Y1.80997
G1 Z-0.08500
G1 Z0.05000
G0 X-2.45997 Y1.90997
G1 Z-0.08500
G1 Z0.05000
G0 X-2.45997 Y2.00997
G1 Z-0.08500
G1 Z0.05000
G0 X-2.65997 Y2.00997
G1 Z-0.08500
G1 Z0.05000
G0 X-2.65997 Y1.90997
G1 Z-0.08500
G1 Z0.05000
G0 X-2.65997 Y1.80997
G1 Z-0.08500
G1 Z0.05000
G0 X-2.65997 Y1.65997
G1 Z-0.08500
G1 Z0.05000
G0 X-2.45997 Y1.65997
G1 Z-0.08500
G1 Z0.05000
G0 X-2.45997 Y1.35997
G1 Z-0.08500
G1 Z0.05000
G0 X-2.65997 Y1.35997
G1 Z-0.08500
G1 Z0.05000
G0 X-2.85997 Y1.35997
G1 Z-0.08500
G1 Z0.05000
G0 X-2.85997 Y1.65997
G1 Z-0.08500
G1 Z0.05000
G0 X-2.85997 Y1.80997
G1 Z-0.08500
G1 Z0.05000
G0 X-2.85997 Y1.90997
G1 Z-0.08500
G1 Z0.05000
G0 X-2.85997 Y2.00997
G1 Z-0.08500
G1 Z0.05000
G0 X-3.15997 Y2.25997
G1 Z-0.08500
G1 Z0.05000
G0 X-3.25997 Y2.25997
G1 Z-0.08500
G1 Z0.05000
G0 X-3.35997 Y2.25997
G1 Z-0.08500
G1 Z0.05000
G0 X-3.45997 Y2.25997
G1 Z-0.08500
G1 Z0.05000
G0 X-3.55997 Y2.25997
G1 Z-0.08500
G1 Z0.05000
G0 X-3.65997 Y2.25997
G1 Z-0.08500
G1 Z0.05000
G0 X-3.75997 Y2.25997
G1 Z-0.08500
G1 Z0.05000
G0 X-3.85997 Y2.25997
G1 Z-0.08500
G1 Z0.05000
G0 X-3.55997 Y1.65997
G1 Z-0.08500
G1 Z0.05000
G0 X-3.55997 Y1.35997
G1 Z-0.08500
G1 Z0.05000
G0 X-3.35997 Y1.35997
G1 Z-0.08500
G1 Z0.05000
G0 X-3.15997 Y1.35997
G1 Z-0.08500
G1 Z0.05000
G0 X-3.15997 Y1.65997
G1 Z-0.08500
G1 Z0.05000
G0 X-2.55997 Y1.05997
G1 Z-0.08500
G1 Z0.05000
G0 X-2.45997 Y1.05997
G1 Z-0.08500
G1 Z0.05000
G0 X-2.35997 Y1.05997
G1 Z-0.08500
G1 Z0.05000
G0 X-2.25997 Y1.05997
G1 Z-0.08500
G1 Z0.05000
G0 X-2.15997 Y1.05997
G1 Z-0.08500
G1 Z0.05000
G0 X-2.05997 Y1.05997
G1 Z-0.08500
G1 Z0.05000
G0 X-1.95997 Y1.05997
G1 Z-0.08500
G1 Z0.05000
G0 X-1.85997 Y1.05997
G1 Z-0.08500
G1 Z0.05000
G0 X-1.75997 Y1.05997
G1 Z-0.08500
G1 Z0.05000
G0 X-1.65997 Y1.05997
G1 Z-0.08500
G1 Z0.05000
G0 X-1.55997 Y1.05997
G1 Z-0.08500
G1 Z0.05000
G0 X-1.45997 Y1.05997
G1 Z-0.08500
G1 Z0.05000
G0 X-1.75997 Y1.35997
G1 Z-0.08500
G1 Z0.05000
G0 X-1.55997 Y1.35997
G1 Z-0.08500
G1 Z0.05000
G0 X-1.35997 Y1.35997
G1 Z-0.08500
G1 Z0.05000
G0 X-1.15997 Y1.35997
G1 Z-0.08500
G1 Z0.05000
G0 X-1.55997 Y1.65997
G1 Z-0.08500
G1 Z0.05000
G0 X-1.95997 Y1.65997
G1 Z-0.08500
G1 Z0.05000
G0 X-1.95997 Y1.35997
G1 Z-0.08500
G1 Z0.05000
G0 X-2.25997 Y1.35997
G1 Z-0.08500
G1 Z0.05000
G0 X-2.65997 Y1.05997
G1 Z-0.08500
G1 Z0.05000
G0 X-2.75997 Y1.05997
G1 Z-0.08500
G1 Z0.05000
G0 X-2.85997 Y1.05997
G1 Z-0.08500
G1 Z0.05000
G0 X-2.95997 Y1.05997
G1 Z-0.08500
G1 Z0.05000
G0 X-3.05997 Y1.05997
G1 Z-0.08500
G1 Z0.05000
G0 X-3.15997 Y1.05997
G1 Z-0.08500
G1 Z0.05000
G0 X-3.25997 Y1.05997
G1 Z-0.08500
G1 Z0.05000
G0 X-3.35997 Y1.05997
G1 Z-0.08500
G1 Z0.05000
G0 X-3.45997 Y1.05997
G1 Z-0.08500
G1 Z0.05000
G0 X-3.55997 Y1.05997
G1 Z-0.08500
G1 Z0.05000
G0 X-3.65997 Y1.05997
G1 Z-0.08500
G1 Z0.05000
G0 X-3.75997 Y1.05997
G1 Z-0.08500
G1 Z0.05000
G0 X-3.75997 Y1.35997
G1 Z-0.08500
G1 Z0.05000
G0 X-2.85997 Y0.45997
G1 Z-0.08500
G1 Z0.05000
G0 X-2.75997 Y0.45997
G1 Z-0.08500
G1 Z0.05000
G0 X-2.65997 Y0.45997
G1 Z-0.08500
G1 Z0.05000
G0 X-2.55997 Y0.45997
G1 Z-0.08500
G1 Z0.05000
G0 X-2.45997 Y0.45997
G1 Z-0.08500
G1 Z0.05000
G0 X-2.35997 Y0.45997
G1 Z-0.08500
G1 Z0.05000
G0 X-2.25997 Y0.45997
G1 Z-0.08500
G1 Z0.05000
G0 X-2.15997 Y0.45997
G1 Z-0.08500
G1 Z0.05000
G0 X-2.05997 Y0.45997
G1 Z-0.08500
G1 Z0.05000
G0 X-1.95997 Y0.45997
G1 Z-0.08500
G1 Z0.05000
G0 X-1.85997 Y0.45997
G1 Z-0.08500
G1 Z0.05000
G0 X-1.75997 Y0.45997
G1 Z-0.08500
G1 Z0.05000
G0 X-1.65997 Y0.45997
G1 Z-0.08500
G1 Z0.05000
G0 X-1.55997 Y0.45997
G1 Z-0.08500
G1 Z0.05000
G0 X-1.45997 Y0.45997
G1 Z-0.08500
G1 Z0.05000
G0 X-1.85997 Y0.95997
G1 Z-0.08500
G1 Z0.05000
G0 X-1.95997 Y0.95997
G1 Z-0.08500
G1 Z0.05000
G0 X-2.95997 Y0.45997
G1 Z-0.08500
G1 Z0.05000
G0 X-3.05997 Y0.45997
G1 Z-0.08500
G1 Z0.05000
G0 X-3.15997 Y0.45997
G1 Z-0.08500
G1 Z0.05000
G0 X-3.25997 Y0.45997
G1 Z-0.08500
G1 Z0.05000
G0 X-3.35997 Y0.45997
G1 Z-0.08500
G1 Z0.05000
G0 X-3.45997 Y0.45997
G1 Z-0.08500
G1 Z0.05000
G0 X-3.55997 Y0.45997
G1 Z-0.08500
G1 Z0.05000
G0 X-3.65997 Y0.45997
G1 Z-0.08500
G1 Z0.05000
G0 X-3.75997 Y0.45997
G1 Z-0.08500
G1 Z0.05000

G00 Z0.100 ( All done -- retract )

G04 P0.000000
M2      (Program end.)

