( pcb2gcode 2.1.0 )
( Software-independent Gcode )

( This file uses only one drill bit. Forced by 'onedrill' option )

G94       (Inches per minute feed rate.)
G20       (Units == INCHES.)
G91.1     (Incremental arc distance mode.)
G90       (Absolute coordinates.)
G00 S15000     (RPM spindle speed.)

G00 Z0.05000 (Retract)
T1
G04 P0.00000
(MSG, Change tool bit to drill size 0.0315 inch)
G0 Z0.05000
G04 P0.00000

G1 F5.00000
G0 X-4.72797 Y2.22797
G1 Z-0.10000
G1 Z0.05000
G0 X-4.62797 Y2.22797
G1 Z-0.10000
G1 Z0.05000
G0 X-4.52797 Y2.22797
G1 Z-0.10000
G1 Z0.05000
G0 X-4.42797 Y2.22797
G1 Z-0.10000
G1 Z0.05000
G0 X-4.32797 Y2.22797
G1 Z-0.10000
G1 Z0.05000
G0 X-4.22797 Y2.22797
G1 Z-0.10000
G1 Z0.05000
G0 X-4.12797 Y2.22797
G1 Z-0.10000
G1 Z0.05000
G0 X-4.02797 Y2.22797
G1 Z-0.10000
G1 Z0.05000
G0 X-3.82797 Y2.22797
G1 Z-0.10000
G1 Z0.05000
G0 X-3.72797 Y2.22797
G1 Z-0.10000
G1 Z0.05000
G0 X-3.62797 Y2.22797
G1 Z-0.10000
G1 Z0.05000
G0 X-3.52797 Y2.22797
G1 Z-0.10000
G1 Z0.05000
G0 X-3.42797 Y2.22797
G1 Z-0.10000
G1 Z0.05000
G0 X-3.32797 Y2.22797
G1 Z-0.10000
G1 Z0.05000
G0 X-3.22797 Y2.22797
G1 Z-0.10000
G1 Z0.05000
G0 X-3.12797 Y2.22797
G1 Z-0.10000
G1 Z0.05000
G0 X-2.92797 Y2.22797
G1 Z-0.10000
G1 Z0.05000
G0 X-2.82797 Y2.22797
G1 Z-0.10000
G1 Z0.05000
G0 X-2.72797 Y2.22797
G1 Z-0.10000
G1 Z0.05000
G0 X-2.62797 Y2.22797
G1 Z-0.10000
G1 Z0.05000
G0 X-2.52797 Y2.22797
G1 Z-0.10000
G1 Z0.05000
G0 X-2.42797 Y2.22797
G1 Z-0.10000
G1 Z0.05000
G0 X-2.32797 Y2.22797
G1 Z-0.10000
G1 Z0.05000
G0 X-2.22797 Y2.22797
G1 Z-0.10000
G1 Z0.05000
G0 X-2.02797 Y2.22797
G1 Z-0.10000
G1 Z0.05000
G0 X-1.92797 Y2.22797
G1 Z-0.10000
G1 Z0.05000
G0 X-1.82797 Y2.22797
G1 Z-0.10000
G1 Z0.05000
G0 X-1.72797 Y2.22797
G1 Z-0.10000
G1 Z0.05000
G0 X-1.62797 Y2.22797
G1 Z-0.10000
G1 Z0.05000
G0 X-1.52797 Y2.22797
G1 Z-0.10000
G1 Z0.05000
G0 X-1.42797 Y2.22797
G1 Z-0.10000
G1 Z0.05000
G0 X-1.32797 Y2.22797
G1 Z-0.10000
G1 Z0.05000
G0 X-1.12797 Y2.22797
G1 Z-0.10000
G1 Z0.05000
G0 X-1.02797 Y2.22797
G1 Z-0.10000
G1 Z0.05000
G0 X-0.82797 Y2.22797
G1 Z-0.10000
G1 Z0.05000
G0 X-0.72797 Y2.22797
G1 Z-0.10000
G1 Z0.05000
G0 X-0.82797 Y1.97797
G1 Z-0.10000
G1 Z0.05000
G0 X-0.82797 Y1.87797
G1 Z-0.10000
G1 Z0.05000
G0 X-0.82797 Y1.77797
G1 Z-0.10000
G1 Z0.05000
G0 X-0.82797 Y1.62797
G1 Z-0.10000
G1 Z0.05000
G0 X-0.62797 Y1.62797
G1 Z-0.10000
G1 Z0.05000
G0 X-0.52847 Y1.62797
G1 Z-0.10000
G1 Z0.05000
G0 X-0.52847 Y1.32797
G1 Z-0.10000
G1 Z0.05000
G0 X-0.62797 Y1.32797
G1 Z-0.10000
G1 Z0.05000
G0 X-0.82797 Y1.32797
G1 Z-0.10000
G1 Z0.05000
G0 X-1.12797 Y1.62797
G1 Z-0.10000
G1 Z0.05000
G0 X-1.12797 Y1.77797
G1 Z-0.10000
G1 Z0.05000
G0 X-1.12797 Y1.87797
G1 Z-0.10000
G1 Z0.05000
G0 X-1.12797 Y1.97797
G1 Z-0.10000
G1 Z0.05000
G0 X-1.32797 Y1.97797
G1 Z-0.10000
G1 Z0.05000
G0 X-1.32797 Y1.87797
G1 Z-0.10000
G1 Z0.05000
G0 X-1.32797 Y1.77797
G1 Z-0.10000
G1 Z0.05000
G0 X-1.32797 Y1.62797
G1 Z-0.10000
G1 Z0.05000
G0 X-1.52797 Y1.77797
G1 Z-0.10000
G1 Z0.05000
G0 X-1.52797 Y1.87797
G1 Z-0.10000
G1 Z0.05000
G0 X-1.52797 Y1.97797
G1 Z-0.10000
G1 Z0.05000
G0 X-1.72797 Y1.97797
G1 Z-0.10000
G1 Z0.05000
G0 X-1.72797 Y1.87797
G1 Z-0.10000
G1 Z0.05000
G0 X-1.72797 Y1.77797
G1 Z-0.10000
G1 Z0.05000
G0 X-1.52797 Y1.62797
G1 Z-0.10000
G1 Z0.05000
G0 X-1.72797 Y1.32797
G1 Z-0.10000
G1 Z0.05000
G0 X-1.52797 Y1.32797
G1 Z-0.10000
G1 Z0.05000
G0 X-1.32797 Y1.32797
G1 Z-0.10000
G1 Z0.05000
G0 X-1.12797 Y1.32797
G1 Z-0.10000
G1 Z0.05000
G0 X-1.42797 Y1.02797
G1 Z-0.10000
G1 Z0.05000
G0 X-1.52797 Y1.02797
G1 Z-0.10000
G1 Z0.05000
G0 X-1.62797 Y1.02797
G1 Z-0.10000
G1 Z0.05000
G0 X-1.92797 Y1.32797
G1 Z-0.10000
G1 Z0.05000
G0 X-2.22797 Y1.32797
G1 Z-0.10000
G1 Z0.05000
G0 X-1.92797 Y1.62797
G1 Z-0.10000
G1 Z0.05000
G0 X-1.72797 Y1.62797
G1 Z-0.10000
G1 Z0.05000
G0 X-1.92797 Y1.77797
G1 Z-0.10000
G1 Z0.05000
G0 X-1.92797 Y1.87797
G1 Z-0.10000
G1 Z0.05000
G0 X-1.92797 Y1.97797
G1 Z-0.10000
G1 Z0.05000
G0 X-2.22797 Y1.97797
G1 Z-0.10000
G1 Z0.05000
G0 X-2.22797 Y1.87797
G1 Z-0.10000
G1 Z0.05000
G0 X-2.22797 Y1.77797
G1 Z-0.10000
G1 Z0.05000
G0 X-2.22797 Y1.62797
G1 Z-0.10000
G1 Z0.05000
G0 X-2.42797 Y1.77797
G1 Z-0.10000
G1 Z0.05000
G0 X-2.42797 Y1.87797
G1 Z-0.10000
G1 Z0.05000
G0 X-2.42797 Y1.97797
G1 Z-0.10000
G1 Z0.05000
G0 X-2.62797 Y1.97797
G1 Z-0.10000
G1 Z0.05000
G0 X-2.62797 Y1.87797
G1 Z-0.10000
G1 Z0.05000
G0 X-2.62797 Y1.77797
G1 Z-0.10000
G1 Z0.05000
G0 X-2.62797 Y1.62797
G1 Z-0.10000
G1 Z0.05000
G0 X-2.42797 Y1.62797
G1 Z-0.10000
G1 Z0.05000
G0 X-2.42797 Y1.32797
G1 Z-0.10000
G1 Z0.05000
G0 X-2.62797 Y1.32797
G1 Z-0.10000
G1 Z0.05000
G0 X-2.82797 Y1.32797
G1 Z-0.10000
G1 Z0.05000
G0 X-2.82797 Y1.62797
G1 Z-0.10000
G1 Z0.05000
G0 X-2.82797 Y1.77797
G1 Z-0.10000
G1 Z0.05000
G0 X-2.82797 Y1.87797
G1 Z-0.10000
G1 Z0.05000
G0 X-2.82797 Y1.97797
G1 Z-0.10000
G1 Z0.05000
G0 X-3.12797 Y1.97797
G1 Z-0.10000
G1 Z0.05000
G0 X-3.12797 Y1.87797
G1 Z-0.10000
G1 Z0.05000
G0 X-3.12797 Y1.77797
G1 Z-0.10000
G1 Z0.05000
G0 X-3.12797 Y1.62797
G1 Z-0.10000
G1 Z0.05000
G0 X-3.32797 Y1.62797
G1 Z-0.10000
G1 Z0.05000
G0 X-3.32797 Y1.77797
G1 Z-0.10000
G1 Z0.05000
G0 X-3.32797 Y1.87797
G1 Z-0.10000
G1 Z0.05000
G0 X-3.32797 Y1.97797
G1 Z-0.10000
G1 Z0.05000
G0 X-3.52797 Y1.97797
G1 Z-0.10000
G1 Z0.05000
G0 X-3.52797 Y1.87797
G1 Z-0.10000
G1 Z0.05000
G0 X-3.52797 Y1.77797
G1 Z-0.10000
G1 Z0.05000
G0 X-3.52797 Y1.62797
G1 Z-0.10000
G1 Z0.05000
G0 X-3.72797 Y1.77797
G1 Z-0.10000
G1 Z0.05000
G0 X-3.72797 Y1.87797
G1 Z-0.10000
G1 Z0.05000
G0 X-3.72797 Y1.97797
G1 Z-0.10000
G1 Z0.05000
G0 X-4.02797 Y1.97797
G1 Z-0.10000
G1 Z0.05000
G0 X-4.02797 Y1.87797
G1 Z-0.10000
G1 Z0.05000
G0 X-4.02797 Y1.77797
G1 Z-0.10000
G1 Z0.05000
G0 X-4.02797 Y1.62797
G1 Z-0.10000
G1 Z0.05000
G0 X-4.22797 Y1.62797
G1 Z-0.10000
G1 Z0.05000
G0 X-4.22797 Y1.77797
G1 Z-0.10000
G1 Z0.05000
G0 X-4.22797 Y1.87797
G1 Z-0.10000
G1 Z0.05000
G0 X-4.22797 Y1.97797
G1 Z-0.10000
G1 Z0.05000
G0 X-4.42797 Y1.97797
G1 Z-0.10000
G1 Z0.05000
G0 X-4.42797 Y1.87797
G1 Z-0.10000
G1 Z0.05000
G0 X-4.62797 Y1.97797
G1 Z-0.10000
G1 Z0.05000
G0 X-4.62797 Y1.87797
G1 Z-0.10000
G1 Z0.05000
G0 X-4.62797 Y1.77797
G1 Z-0.10000
G1 Z0.05000
G0 X-4.62797 Y1.62797
G1 Z-0.10000
G1 Z0.05000
G0 X-4.42797 Y1.77797
G1 Z-0.10000
G1 Z0.05000
G0 X-4.42797 Y1.62797
G1 Z-0.10000
G1 Z0.05000
G0 X-4.62797 Y1.32797
G1 Z-0.10000
G1 Z0.05000
G0 X-4.42797 Y1.32797
G1 Z-0.10000
G1 Z0.05000
G0 X-4.22797 Y1.32797
G1 Z-0.10000
G1 Z0.05000
G0 X-4.02797 Y1.32797
G1 Z-0.10000
G1 Z0.05000
G0 X-3.72797 Y1.62797
G1 Z-0.10000
G1 Z0.05000
G0 X-3.72797 Y1.32797
G1 Z-0.10000
G1 Z0.05000
G0 X-3.52797 Y1.32797
G1 Z-0.10000
G1 Z0.05000
G0 X-3.32797 Y1.32797
G1 Z-0.10000
G1 Z0.05000
G0 X-3.12797 Y1.32797
G1 Z-0.10000
G1 Z0.05000
G0 X-2.72797 Y1.02797
G1 Z-0.10000
G1 Z0.05000
G0 X-2.82797 Y1.02797
G1 Z-0.10000
G1 Z0.05000
G0 X-2.92797 Y1.02797
G1 Z-0.10000
G1 Z0.05000
G0 X-3.02797 Y1.02797
G1 Z-0.10000
G1 Z0.05000
G0 X-3.12797 Y1.02797
G1 Z-0.10000
G1 Z0.05000
G0 X-3.22797 Y1.02797
G1 Z-0.10000
G1 Z0.05000
G0 X-3.32797 Y1.02797
G1 Z-0.10000
G1 Z0.05000
G0 X-3.42797 Y1.02797
G1 Z-0.10000
G1 Z0.05000
G0 X-3.52797 Y1.02797
G1 Z-0.10000
G1 Z0.05000
G0 X-3.62797 Y1.02797
G1 Z-0.10000
G1 Z0.05000
G0 X-3.72797 Y1.02797
G1 Z-0.10000
G1 Z0.05000
G0 X-3.72797 Y0.42797
G1 Z-0.10000
G1 Z0.05000
G0 X-3.62797 Y0.42797
G1 Z-0.10000
G1 Z0.05000
G0 X-3.52797 Y0.42797
G1 Z-0.10000
G1 Z0.05000
G0 X-3.42797 Y0.42797
G1 Z-0.10000
G1 Z0.05000
G0 X-3.32797 Y0.42797
G1 Z-0.10000
G1 Z0.05000
G0 X-3.22797 Y0.42797
G1 Z-0.10000
G1 Z0.05000
G0 X-3.12797 Y0.42797
G1 Z-0.10000
G1 Z0.05000
G0 X-3.02797 Y0.42797
G1 Z-0.10000
G1 Z0.05000
G0 X-2.92797 Y0.42797
G1 Z-0.10000
G1 Z0.05000
G0 X-2.82797 Y0.42797
G1 Z-0.10000
G1 Z0.05000
G0 X-2.72797 Y0.42797
G1 Z-0.10000
G1 Z0.05000
G0 X-2.62797 Y0.42797
G1 Z-0.10000
G1 Z0.05000
G0 X-2.52797 Y0.42797
G1 Z-0.10000
G1 Z0.05000
G0 X-2.42797 Y0.42797
G1 Z-0.10000
G1 Z0.05000
G0 X-2.32797 Y0.42797
G1 Z-0.10000
G1 Z0.05000
G0 X-2.22797 Y0.42797
G1 Z-0.10000
G1 Z0.05000
G0 X-2.12797 Y0.42797
G1 Z-0.10000
G1 Z0.05000
G0 X-2.02797 Y0.42797
G1 Z-0.10000
G1 Z0.05000
G0 X-1.92797 Y0.42797
G1 Z-0.10000
G1 Z0.05000
G0 X-1.82797 Y0.42797
G1 Z-0.10000
G1 Z0.05000
G0 X-1.72797 Y0.42797
G1 Z-0.10000
G1 Z0.05000
G0 X-1.62797 Y0.42797
G1 Z-0.10000
G1 Z0.05000
G0 X-1.52797 Y0.42797
G1 Z-0.10000
G1 Z0.05000
G0 X-1.42797 Y0.42797
G1 Z-0.10000
G1 Z0.05000
G0 X-1.92797 Y0.92797
G1 Z-0.10000
G1 Z0.05000
G0 X-1.82797 Y0.92797
G1 Z-0.10000
G1 Z0.05000
G0 X-1.72797 Y1.02797
G1 Z-0.10000
G1 Z0.05000
G0 X-1.82797 Y1.02797
G1 Z-0.10000
G1 Z0.05000
G0 X-1.92797 Y1.02797
G1 Z-0.10000
G1 Z0.05000
G0 X-2.02797 Y1.02797
G1 Z-0.10000
G1 Z0.05000
G0 X-2.12797 Y1.02797
G1 Z-0.10000
G1 Z0.05000
G0 X-2.22797 Y1.02797
G1 Z-0.10000
G1 Z0.05000
G0 X-2.32797 Y1.02797
G1 Z-0.10000
G1 Z0.05000
G0 X-2.42797 Y1.02797
G1 Z-0.10000
G1 Z0.05000
G0 X-2.52797 Y1.02797
G1 Z-0.10000
G1 Z0.05000
G0 X-2.62797 Y1.02797
G1 Z-0.10000
G1 Z0.05000

G00 Z0.050 ( All done -- retract )

G04 P0.000000
M2      (Program end.)

