( pcb2gcode 2.1.0 )
( Software-independent Gcode )

G94 ( Inches per minute feed rate. )
G20 ( Units == INCHES. )

G90 ( Absolute coordinates. )
G00 S30000 ( RPM spindle speed. )
G01 F5.00000 ( Feedrate. )


G00 Z2.00000 (Retract to tool change height)
G04 P0.00000 (Wait for spindle to stop)
(MSG, Change tool bit to cutter diameter 0.05800in)
G04 P0.00000 (Wait for spindle to get up to speed)
G04 P0 ( dwell for no time -- G64 should not smooth over this point )
G00 Z0.05000 ( retract )

G00 X-0.01697 Y0.05997 ( rapid move to begin. )
G01 Z-0.03500 F5.00000 ( plunge. )
G04 P0 ( dwell for no time -- G64 should not smooth over this point )
G01 F5.00000
G01 X-0.01779 Y0.05158
G01 X-0.02024 Y0.04351
G01 X-0.02421 Y0.03608
G01 X-0.02956 Y0.02956
G01 X-0.03608 Y0.02422
G01 X-0.04351 Y0.02024
G01 X-0.05158 Y0.01780
G01 X-0.05997 Y0.01697
G01 X-0.10946 Y0.01697
G01 X-4.98518 Y0.01697
G01 X-5.05997 Y0.01697
G01 X-5.06836 Y0.01780
G01 X-5.07642 Y0.02024
G01 X-5.08386 Y0.02422
G01 X-5.09037 Y0.02956
G01 X-5.09572 Y0.03608
G01 X-5.09969 Y0.04351
G01 X-5.10214 Y0.05158
G01 X-5.10297 Y0.05997
G01 X-5.10297 Y0.07575
G01 X-5.10297 Y2.98518
G01 X-5.10297 Y3.05629
G01 X-5.10297 Y3.05997
G01 X-5.10214 Y3.06836
G01 X-5.09969 Y3.07642
G01 X-5.09572 Y3.08386
G01 X-5.09037 Y3.09037
G01 X-5.08386 Y3.09572
G01 X-5.07642 Y3.09970
G01 X-5.06836 Y3.10214
G01 X-5.05997 Y3.10297
G01 X-5.04419 Y3.10297
G01 X-4.97308 Y3.10297
G01 X-0.07575 Y3.10297
G01 X-0.05997 Y3.10297
G01 X-0.05158 Y3.10214
G01 X-0.04351 Y3.09970
G01 X-0.03608 Y3.09572
G01 X-0.02956 Y3.09037
G01 X-0.02421 Y3.08386
G01 X-0.02024 Y3.07642
G01 X-0.01779 Y3.06836
G01 X-0.01697 Y3.05997
G01 X-0.01697 Y2.98518
G01 X-0.01697 Y0.10104
G01 X-0.01697 Y0.05997
G01 Z-0.07000 F5.00000 ( plunge. )
G04 P0 ( dwell for no time -- G64 should not smooth over this point )
G01 F5.00000
G00 Z-0.03500
G01 X-0.01779 Y0.05158
G01 X-0.02024 Y0.04351
G01 X-0.02421 Y0.03608
G01 X-0.02956 Y0.02956
G01 X-0.03608 Y0.02422
G01 X-0.04351 Y0.02024
G01 X-0.05158 Y0.01780
G01 X-0.05997 Y0.01697
G01 X-0.10946 Y0.01697
G01 Z-0.07000 F5.00000
G01 F5.00000
G01 X-4.98518 Y0.01697
G00 Z-0.03500
G01 X-5.05997 Y0.01697
G01 X-5.06836 Y0.01780
G01 X-5.07642 Y0.02024
G01 X-5.08386 Y0.02422
G01 X-5.09037 Y0.02956
G01 X-5.09572 Y0.03608
G01 X-5.09969 Y0.04351
G01 X-5.10214 Y0.05158
G01 X-5.10297 Y0.05997
G01 X-5.10297 Y0.07575
G01 Z-0.07000 F5.00000
G01 F5.00000
G01 X-5.10297 Y2.98518
G00 Z-0.03500
G01 X-5.10297 Y3.05629
G01 X-5.10297 Y3.05997
G01 X-5.10214 Y3.06836
G01 X-5.09969 Y3.07642
G01 X-5.09572 Y3.08386
G01 X-5.09037 Y3.09037
G01 X-5.08386 Y3.09572
G01 X-5.07642 Y3.09970
G01 X-5.06836 Y3.10214
G01 X-5.05997 Y3.10297
G01 X-5.04419 Y3.10297
G01 X-4.97308 Y3.10297
G01 Z-0.07000 F5.00000
G01 F5.00000
G01 X-0.07575 Y3.10297
G00 Z-0.03500
G01 X-0.05997 Y3.10297
G01 X-0.05158 Y3.10214
G01 X-0.04351 Y3.09970
G01 X-0.03608 Y3.09572
G01 X-0.02956 Y3.09037
G01 X-0.02421 Y3.08386
G01 X-0.02024 Y3.07642
G01 X-0.01779 Y3.06836
G01 X-0.01697 Y3.05997
G01 X-0.01697 Y2.98518
G01 Z-0.07000 F5.00000
G01 F5.00000
G01 X-0.01697 Y0.10104
G00 Z-0.03500
G01 X-0.01697 Y0.05997

G04 P0 ( dwell for no time -- G64 should not smooth over this point )
G00 Z2.000000 ( retract )

G04 P0.000000
M2 ( Program end. )

