( pcb2gcode 2.1.0 )
( Software-independent Gcode )

G94 ( Inches per minute feed rate. )
G20 ( Units == INCHES. )

G90 ( Absolute coordinates. )
G00 S30000 ( RPM spindle speed. )
G01 F10.00000 ( Feedrate. )


G00 Z2.00000 (Retract to tool change height)
G04 P0.00000 (Wait for spindle to stop)
(MSG, Change tool bit to cutter diameter 0.05800in)
G04 P0.00000 (Wait for spindle to get up to speed)
G04 P0 ( dwell for no time -- G64 should not smooth over this point )
G00 Z0.05000 ( retract )

G00 X-0.03097 Y0.05997 ( rapid move to begin. )
G01 Z-0.03200 F5.00000 ( plunge. )
G04 P0 ( dwell for no time -- G64 should not smooth over this point )
G01 F10.00000
G01 X-0.03153 Y0.05431
G01 X-0.03318 Y0.04887
G01 X-0.03586 Y0.04386
G01 X-0.03946 Y0.03946
G01 X-0.04386 Y0.03586
G01 X-0.04887 Y0.03318
G01 X-0.05431 Y0.03153
G01 X-0.05997 Y0.03097
G01 X-0.16907 Y0.03097
G01 X-4.95087 Y0.03097
G01 X-5.05997 Y0.03097
G01 X-5.06563 Y0.03153
G01 X-5.07107 Y0.03318
G01 X-5.07608 Y0.03586
G01 X-5.08047 Y0.03946
G01 X-5.08408 Y0.04386
G01 X-5.08676 Y0.04887
G01 X-5.08841 Y0.05431
G01 X-5.08897 Y0.05997
G01 X-5.08897 Y0.16339
G01 X-5.08897 Y3.05997
G01 X-5.08841 Y3.06563
G01 X-5.08676 Y3.07107
G01 X-5.08408 Y3.07608
G01 X-5.08047 Y3.08048
G01 X-5.07608 Y3.08408
G01 X-5.07107 Y3.08676
G01 X-5.06563 Y3.08841
G01 X-5.05997 Y3.08897
G01 X-2.68897 Y3.08897
G01 X-2.43097 Y3.08897
G01 X-0.05997 Y3.08897
G01 X-0.05431 Y3.08841
G01 X-0.04887 Y3.08676
G01 X-0.04386 Y3.08408
G01 X-0.03946 Y3.08048
G01 X-0.03586 Y3.07608
G01 X-0.03318 Y3.07107
G01 X-0.03153 Y3.06563
G01 X-0.03097 Y3.05997
G01 X-0.03097 Y0.16339
G01 X-0.03097 Y0.05997
G01 Z-0.06400 F5.00000 ( plunge. )
G04 P0 ( dwell for no time -- G64 should not smooth over this point )
G01 F10.00000
G00 Z-0.03200
G01 X-0.03153 Y0.05431
G01 X-0.03318 Y0.04887
G01 X-0.03586 Y0.04386
G01 X-0.03946 Y0.03946
G01 X-0.04386 Y0.03586
G01 X-0.04887 Y0.03318
G01 X-0.05431 Y0.03153
G01 X-0.05997 Y0.03097
G01 X-0.16907 Y0.03097
G01 Z-0.06400 F5.00000
G01 F10.00000
G01 X-4.95087 Y0.03097
G00 Z-0.03200
G01 X-5.05997 Y0.03097
G01 X-5.06563 Y0.03153
G01 X-5.07107 Y0.03318
G01 X-5.07608 Y0.03586
G01 X-5.08047 Y0.03946
G01 X-5.08408 Y0.04386
G01 X-5.08676 Y0.04887
G01 X-5.08841 Y0.05431
G01 X-5.08897 Y0.05997
G01 X-5.08897 Y0.16339
G01 Z-0.06400 F5.00000
G01 F10.00000
G01 X-5.08897 Y3.05997
G01 X-5.08841 Y3.06563
G01 X-5.08676 Y3.07107
G01 X-5.08408 Y3.07608
G01 X-5.08047 Y3.08048
G01 X-5.07608 Y3.08408
G01 X-5.07107 Y3.08676
G01 X-5.06563 Y3.08841
G01 X-5.05997 Y3.08897
G01 X-2.68897 Y3.08897
G00 Z-0.03200
G01 X-2.43097 Y3.08897
G01 Z-0.06400 F5.00000
G01 F10.00000
G01 X-0.05997 Y3.08897
G01 X-0.05431 Y3.08841
G01 X-0.04887 Y3.08676
G01 X-0.04386 Y3.08408
G01 X-0.03946 Y3.08048
G01 X-0.03586 Y3.07608
G01 X-0.03318 Y3.07107
G01 X-0.03153 Y3.06563
G01 X-0.03097 Y3.05997
G01 X-0.03097 Y0.16339
G00 Z-0.03200
G01 X-0.03097 Y0.05997

G04 P0 ( dwell for no time -- G64 should not smooth over this point )
G00 Z2.000000 ( retract )

G04 P0.000000
M2 ( Program end. )

