( pcb2gcode 2.1.0 )
( Software-independent Gcode )

G94 ( Inches per minute feed rate. )
G20 ( Units == INCHES. )

G90 ( Absolute coordinates. )
G00 S30000 ( RPM spindle speed. )
G01 F5.00000 ( Feedrate. )


G00 Z0.10000 (Retract to tool change height)
G04 P0.00000 (Wait for spindle to stop)
(MSG, Change tool bit to cutter diameter 0.05800in)
G04 P0.00000 (Wait for spindle to get up to speed)
G04 P0 ( dwell for no time -- G64 should not smooth over this point )
G00 Z0.05000 ( retract )

G00 X-0.02597 Y0.05997 ( rapid move to begin. )
G01 Z-0.03500 F5.00000 ( plunge. )
G04 P0 ( dwell for no time -- G64 should not smooth over this point )
G01 F5.00000
G01 X-0.02597 Y0.13564
G01 X-0.02597 Y3.00430
G01 X-0.02597 Y3.05997
G01 X-0.02662 Y3.06660
G01 X-0.02856 Y3.07298
G01 X-0.03170 Y3.07886
G01 X-0.03593 Y3.08401
G01 X-0.04108 Y3.08824
G01 X-0.04696 Y3.09138
G01 X-0.05333 Y3.09332
G01 X-0.05997 Y3.09397
G01 X-0.10898 Y3.09397
G01 X-4.98430 Y3.09397
G01 X-5.05997 Y3.09397
G01 X-5.06660 Y3.09332
G01 X-5.07298 Y3.09138
G01 X-5.07886 Y3.08824
G01 X-5.08401 Y3.08401
G01 X-5.08824 Y3.07886
G01 X-5.09138 Y3.07298
G01 X-5.09331 Y3.06660
G01 X-5.09397 Y3.05997
G01 X-5.09397 Y3.03096
G01 X-5.09397 Y0.13564
G01 X-5.09397 Y0.07114
G01 X-5.09397 Y0.05997
G01 X-5.09331 Y0.05334
G01 X-5.09138 Y0.04696
G01 X-5.08824 Y0.04108
G01 X-5.08401 Y0.03593
G01 X-5.07886 Y0.03170
G01 X-5.07298 Y0.02856
G01 X-5.06660 Y0.02662
G01 X-5.05997 Y0.02597
G01 X-5.03096 Y0.02597
G01 X-4.96646 Y0.02597
G01 X-0.08898 Y0.02597
G01 X-0.05997 Y0.02597
G01 X-0.05333 Y0.02662
G01 X-0.04696 Y0.02856
G01 X-0.04108 Y0.03170
G01 X-0.03593 Y0.03593
G01 X-0.03170 Y0.04108
G01 X-0.02856 Y0.04696
G01 X-0.02662 Y0.05334
G01 X-0.02597 Y0.05997
G01 Z-0.07000 F5.00000 ( plunge. )
G04 P0 ( dwell for no time -- G64 should not smooth over this point )
G01 F5.00000
G00 Z-0.03500
G01 X-0.02597 Y0.13564
G01 Z-0.07000 F5.00000
G01 F5.00000
G01 X-0.02597 Y3.00430
G00 Z-0.03500
G01 X-0.02597 Y3.05997
G01 X-0.02662 Y3.06660
G01 X-0.02856 Y3.07298
G01 X-0.03170 Y3.07886
G01 X-0.03593 Y3.08401
G01 X-0.04108 Y3.08824
G01 X-0.04696 Y3.09138
G01 X-0.05333 Y3.09332
G01 X-0.05997 Y3.09397
G01 X-0.10898 Y3.09397
G01 Z-0.07000 F5.00000
G01 F5.00000
G01 X-4.98430 Y3.09397
G00 Z-0.03500
G01 X-5.05997 Y3.09397
G01 X-5.06660 Y3.09332
G01 X-5.07298 Y3.09138
G01 X-5.07886 Y3.08824
G01 X-5.08401 Y3.08401
G01 X-5.08824 Y3.07886
G01 X-5.09138 Y3.07298
G01 X-5.09331 Y3.06660
G01 X-5.09397 Y3.05997
G01 X-5.09397 Y3.03096
G01 Z-0.07000 F5.00000
G01 F5.00000
G01 X-5.09397 Y0.13564
G00 Z-0.03500
G01 X-5.09397 Y0.07114
G01 X-5.09397 Y0.05997
G01 X-5.09331 Y0.05334
G01 X-5.09138 Y0.04696
G01 X-5.08824 Y0.04108
G01 X-5.08401 Y0.03593
G01 X-5.07886 Y0.03170
G01 X-5.07298 Y0.02856
G01 X-5.06660 Y0.02662
G01 X-5.05997 Y0.02597
G01 X-5.03096 Y0.02597
G01 X-4.96646 Y0.02597
G01 Z-0.07000 F5.00000
G01 F5.00000
G01 X-0.08898 Y0.02597
G00 Z-0.03500
G01 X-0.05997 Y0.02597
G01 X-0.05333 Y0.02662
G01 X-0.04696 Y0.02856
G01 X-0.04108 Y0.03170
G01 X-0.03593 Y0.03593
G01 X-0.03170 Y0.04108
G01 X-0.02856 Y0.04696
G01 X-0.02662 Y0.05334
G01 X-0.02597 Y0.05997

G04 P0 ( dwell for no time -- G64 should not smooth over this point )
G00 Z0.100000 ( retract )

G04 P0.000000
M2 ( Program end. )

