( pcb2gcode 2.1.0 )
( Software-independent Gcode )

G94 ( Inches per minute feed rate. )
G20 ( Units == INCHES. )

G90 ( Absolute coordinates. )
G00 S30000 ( RPM spindle speed. )
G01 F100.00000 ( Feedrate. )


G00 Z0.05000 (Retract to tool change height)
G04 P0.00000 (Wait for spindle to stop)
(MSG, Change tool bit to cutter diameter 0.02600in)
G04 P0.00000 (Wait for spindle to get up to speed)
G04 P0 ( dwell for no time -- G64 should not smooth over this point )
G00 Z0.05000 ( retract )

G00 X-0.01497 Y0.02797 ( rapid move to begin. )
G01 Z-0.02000 F50.00000 ( plunge. )
G04 P0 ( dwell for no time -- G64 should not smooth over this point )
G01 F100.00000
G00 Z0.05000
G01 X-0.01497 Y0.27186
G01 Z-0.02000 F50.00000
G01 F100.00000
G01 X-0.01497 Y2.78408
G00 Z0.05000
G01 X-0.01497 Y3.02797
G01 X-0.01522 Y3.03051
G01 X-0.01596 Y3.03294
G01 X-0.01716 Y3.03519
G01 X-0.01878 Y3.03716
G01 X-0.02075 Y3.03878
G01 X-0.02299 Y3.03998
G01 X-0.02543 Y3.04072
G01 X-0.02797 Y3.04097
G01 X-0.28969 Y3.04097
G01 Z-0.02000 F50.00000
G01 F100.00000
G01 X-4.76624 Y3.04097
G00 Z0.05000
G01 X-5.02797 Y3.04097
G01 X-5.03050 Y3.04072
G01 X-5.03294 Y3.03998
G01 X-5.03519 Y3.03878
G01 X-5.03716 Y3.03716
G01 X-5.03878 Y3.03519
G01 X-5.03998 Y3.03294
G01 X-5.04072 Y3.03051
G01 X-5.04097 Y3.02797
G01 X-5.04097 Y2.78408
G01 Z-0.02000 F50.00000
G01 F100.00000
G01 X-5.04097 Y0.27186
G00 Z0.05000
G01 X-5.04097 Y0.02797
G01 X-5.04072 Y0.02543
G01 X-5.03998 Y0.02299
G01 X-5.03878 Y0.02075
G01 X-5.03716 Y0.01878
G01 X-5.03519 Y0.01716
G01 X-5.03294 Y0.01596
G01 X-5.03050 Y0.01522
G01 X-5.02797 Y0.01497
G01 X-4.76624 Y0.01497
G01 Z-0.02000 F50.00000
G01 F100.00000
G01 X-0.28969 Y0.01497
G00 Z0.05000
G01 X-0.02797 Y0.01497
G01 X-0.02543 Y0.01522
G01 X-0.02299 Y0.01596
G01 X-0.02075 Y0.01716
G01 X-0.01878 Y0.01878
G01 X-0.01716 Y0.02075
G01 X-0.01596 Y0.02299
G01 X-0.01522 Y0.02543
G01 X-0.01497 Y0.02797

G04 P0 ( dwell for no time -- G64 should not smooth over this point )
G00 Z0.050000 ( retract )

G04 P0.000000
M2 ( Program end. )

