( pcb2gcode 2.1.0 )
( Software-independent Gcode )

G94 ( Inches per minute feed rate. )
G20 ( Units == INCHES. )

G90 ( Absolute coordinates. )
G00 S30000 ( RPM spindle speed. )
G01 F100.00000 ( Feedrate. )


G00 Z0.05000 (Retract to tool change height)
T0
M5      (Spindle stop.)
G04 P0.00000 (Wait for spindle to stop)
(MSG, Change tool bit to cutter diameter 0.02600in)
M6      (Tool change.)
M0      (Temporary machine stop.)
M3 ( Spindle on clockwise. )
G04 P0.00000 (Wait for spindle to get up to speed)
G04 P0 ( dwell for no time -- G64 should not smooth over this point )
G00 Z0.05000 ( retract )

G00 X-0.01497 Y0.02797 ( rapid move to begin. )
G01 Z-0.02000 F50.00000 ( plunge. )
G04 P0 ( dwell for no time -- G64 should not smooth over this point )
G01 F100.00000
G01 X-0.01497 Y5.52797
G01 X-0.01522 Y5.53051
G01 X-0.01596 Y5.53294
G01 X-0.01716 Y5.53519
G01 X-0.01878 Y5.53716
G01 X-0.02075 Y5.53878
G01 X-0.02299 Y5.53998
G01 X-0.02543 Y5.54072
G01 X-0.02797 Y5.54097
G01 X-8.52797 Y5.54097
G01 X-8.53050 Y5.54072
G01 X-8.53294 Y5.53998
G01 X-8.53519 Y5.53878
G01 X-8.53716 Y5.53716
G01 X-8.53878 Y5.53519
G01 X-8.53998 Y5.53294
G01 X-8.54072 Y5.53051
G01 X-8.54097 Y5.52797
G01 X-8.54097 Y0.02797
G01 X-8.54072 Y0.02543
G01 X-8.53998 Y0.02299
G01 X-8.53878 Y0.02075
G01 X-8.53716 Y0.01878
G01 X-8.53519 Y0.01716
G01 X-8.53294 Y0.01596
G01 X-8.53050 Y0.01522
G01 X-8.52797 Y0.01497
G01 X-0.02797 Y0.01497
G01 X-0.02543 Y0.01522
G01 X-0.02299 Y0.01596
G01 X-0.02075 Y0.01716
G01 X-0.01878 Y0.01878
G01 X-0.01716 Y0.02075
G01 X-0.01596 Y0.02299
G01 X-0.01522 Y0.02543
G01 X-0.01497 Y0.02797

G04 P0 ( dwell for no time -- G64 should not smooth over this point )
G00 Z0.050000 ( retract )

M5 ( Spindle off. )
G04 P0.000000
M9 ( Coolant off. )
M2 ( Program end. )

