%
(PCB001)
(T1  D=3.175 CR=0 - ZMIN=-12.7 - flat end mill)
G90
G17
G21
G28 G91 Z0
G90

(Bore2)
T1 M6
S18000 M3
G54
M7
G0 X-142.931 Y127.283
Z15
Z2
G1 Z0.317 F1274.98
G18 G2 X-142.614 Z0 I0.317 K0
G1 X-142.455
G17 G3 X-142.138 Y127.6 I0 J0.317
X-147.862 Z-0.5 I-2.862 J0 F1500
X-142.138 Z-1 I2.862 J0
X-147.862 Z-1.5 I-2.862 J0
X-142.138 Z-2 I2.862 J0
X-147.862 Z-2.5 I-2.862 J0
X-142.138 Z-3 I2.862 J0
X-147.862 Z-3.5 I-2.862 J0
X-142.138 Z-4 I2.862 J0
X-147.862 Z-4.5 I-2.862 J0
X-142.138 Z-5 I2.862 J0
X-147.862 Z-5.5 I-2.862 J0
X-142.138 Z-6 I2.862 J0
X-147.862 Z-6.5 I-2.862 J0
X-142.138 Z-7 I2.862 J0
X-147.862 Z-7.5 I-2.862 J0
X-142.138 Z-8 I2.862 J0
X-147.862 Z-8.5 I-2.862 J0
X-142.138 Z-9 I2.862 J0
X-147.862 Z-9.5 I-2.862 J0
X-142.138 Z-10 I2.862 J0
X-147.862 Z-10.5 I-2.862 J0
X-142.138 Z-11 I2.862 J0
X-147.862 Z-11.5 I-2.862 J0
X-142.138 Z-12 I2.862 J0
X-147.862 Z-12.5 I-2.862 J0
X-145.884 Y124.878 Z-12.7 I2.862 J0
X-144.116 Y130.322 I0.884 J2.722
X-145.884 Y124.878 I-0.884 J-2.722
X-145.484 Y125.081 I0.098 J0.302 F1274.98
G1 X-145.435 Y125.232
X-145.414 Y125.3 Z-12.692
X-145.393 Y125.363 Z-12.669
X-145.374 Y125.421 Z-12.631
X-145.359 Y125.469 Z-12.58
X-145.347 Y125.504 Z-12.52
X-145.34 Y125.527 Z-12.453
X-145.337 Y125.534 Z-12.382
G0 Z5
X-223.581 Y125.732
Z2
G1 Z0.317 F1274.98
G18 G2 X-223.264 Z0 I0.317 K0
G1 X-223.105
G17 G3 X-222.787 Y126.05 I0 J0.318
X-228.513 Z-0.5 I-2.863 J0 F1500
X-222.787 Z-1 I2.863 J0
X-228.513 Z-1.5 I-2.863 J0
X-222.787 Z-2 I2.863 J0
X-228.513 Z-2.5 I-2.863 J0
X-222.787 Z-3 I2.863 J0
X-228.513 Z-3.5 I-2.863 J0
X-222.787 Z-4 I2.863 J0
X-228.513 Z-4.5 I-2.863 J0
X-222.787 Z-5 I2.863 J0
X-228.513 Z-5.5 I-2.863 J0
X-222.787 Z-6 I2.863 J0
X-228.513 Z-6.5 I-2.863 J0
X-222.787 Z-7 I2.863 J0
X-228.513 Z-7.5 I-2.863 J0
X-222.787 Z-8 I2.863 J0
X-228.513 Z-8.5 I-2.863 J0
X-222.787 Z-9 I2.863 J0
X-228.513 Z-9.5 I-2.863 J0
X-222.787 Z-10 I2.863 J0
X-228.513 Z-10.5 I-2.863 J0
X-222.787 Z-11 I2.863 J0
X-228.513 Z-11.5 I-2.863 J0
X-222.787 Z-12 I2.863 J0
X-228.513 Z-12.5 I-2.863 J0
X-226.535 Y123.327 Z-12.7 I2.863 J0
X-224.765 Y128.773 I0.885 J2.723
X-226.535 Y123.327 I-0.885 J-2.723
X-226.133 Y123.531 I0.099 J0.303 F1274.98
G1 X-226.085 Y123.682
X-226.064 Y123.75 Z-12.692
X-226.043 Y123.813 Z-12.669
X-226.024 Y123.871 Z-12.631
X-226.009 Y123.919 Z-12.58
X-225.997 Y123.954 Z-12.52
X-225.99 Y123.977 Z-12.453
X-225.987 Y123.984 Z-12.382
G0 Z5
X-278.881 Y105.882
Z2
G1 Z0.317 F1274.98
G18 G2 X-278.564 Z0 I0.317 K0
G1 X-278.405
G17 G3 X-278.087 Y106.2 I0 J0.318
X-281.913 Z-0.5 I-1.913 J0 F1500
X-278.087 Z-1 I1.913 J0
X-281.913 Z-1.5 I-1.913 J0
X-278.087 Z-2 I1.913 J0
X-281.913 Z-2.5 I-1.913 J0
X-278.087 Z-3 I1.913 J0
X-281.913 Z-3.5 I-1.913 J0
X-278.087 Z-4 I1.913 J0
X-281.913 Z-4.5 I-1.913 J0
X-278.087 Z-5 I1.913 J0
X-281.913 Z-5.5 I-1.913 J0
X-278.087 Z-6 I1.913 J0
X-281.913 Z-6.5 I-1.913 J0
X-278.087 Z-7 I1.913 J0
X-281.913 Z-7.5 I-1.913 J0
X-278.087 Z-8 I1.913 J0
X-281.913 Z-8.5 I-1.913 J0
X-278.087 Z-9 I1.913 J0
X-281.913 Z-9.5 I-1.913 J0
X-278.087 Z-10 I1.913 J0
X-281.913 Z-10.5 I-1.913 J0
X-278.087 Z-11 I1.913 J0
X-281.913 Z-11.5 I-1.913 J0
X-278.087 Z-12 I1.913 J0
X-281.913 Z-12.5 I-1.913 J0
X-280.591 Y104.381 Z-12.7 I1.913 J0
X-279.409 Y108.019 I0.591 J1.819
X-280.591 Y104.381 I-0.591 J-1.819
X-280.191 Y104.585 I0.098 J0.302 F1274.98
G1 X-280.142 Y104.736
X-280.12 Y104.803 Z-12.692
X-280.099 Y104.867 Z-12.669
X-280.081 Y104.924 Z-12.631
X-280.065 Y104.972 Z-12.58
X-280.053 Y105.008 Z-12.52
X-280.046 Y105.03 Z-12.453
X-280.044 Y105.038 Z-12.382
G0 Z5
X-278.881 Y70.482
Z2
G1 Z0.317 F1274.98
G18 G2 X-278.564 Z0 I0.317 K0
G1 X-278.405
G17 G3 X-278.087 Y70.8 I0 J0.318
X-281.913 Z-0.5 I-1.913 J0 F1500
X-278.087 Z-1 I1.913 J0
X-281.913 Z-1.5 I-1.913 J0
X-278.087 Z-2 I1.913 J0
X-281.913 Z-2.5 I-1.913 J0
X-278.087 Z-3 I1.913 J0
X-281.913 Z-3.5 I-1.913 J0
X-278.087 Z-4 I1.913 J0
X-281.913 Z-4.5 I-1.913 J0
X-278.087 Z-5 I1.913 J0
X-281.913 Z-5.5 I-1.913 J0
X-278.087 Z-6 I1.913 J0
X-281.913 Z-6.5 I-1.913 J0
X-278.087 Z-7 I1.913 J0
X-281.913 Z-7.5 I-1.913 J0
X-278.087 Z-8 I1.913 J0
X-281.913 Z-8.5 I-1.913 J0
X-278.087 Z-9 I1.913 J0
X-281.913 Z-9.5 I-1.913 J0
X-278.087 Z-10 I1.913 J0
X-281.913 Z-10.5 I-1.913 J0
X-278.087 Z-11 I1.913 J0
X-281.913 Z-11.5 I-1.913 J0
X-278.087 Z-12 I1.913 J0
X-281.913 Z-12.5 I-1.913 J0
X-280.591 Y68.981 Z-12.7 I1.913 J0
X-279.409 Y72.619 I0.591 J1.819
X-280.591 Y68.981 I-0.591 J-1.819
X-280.191 Y69.185 I0.098 J0.302 F1274.98
G1 X-280.142 Y69.336
X-280.12 Y69.403 Z-12.692
X-280.099 Y69.467 Z-12.669
X-280.081 Y69.524 Z-12.631
X-280.065 Y69.572 Z-12.58
X-280.053 Y69.608 Z-12.52
X-280.046 Y69.63 Z-12.453
X-280.044 Y69.638 Z-12.382
G0 Z5
X-278.881 Y35.083
Z2
G1 Z0.317 F1274.98
G18 G2 X-278.564 Z0 I0.317 K0
G1 X-278.405
G17 G3 X-278.088 Y35.4 I0 J0.317
X-281.912 Z-0.5 I-1.912 J0 F1500
X-278.088 Z-1 I1.912 J0
X-281.912 Z-1.5 I-1.912 J0
X-278.088 Z-2 I1.912 J0
X-281.912 Z-2.5 I-1.912 J0
X-278.088 Z-3 I1.912 J0
X-281.912 Z-3.5 I-1.912 J0
X-278.088 Z-4 I1.912 J0
X-281.912 Z-4.5 I-1.912 J0
X-278.088 Z-5 I1.912 J0
X-281.912 Z-5.5 I-1.912 J0
X-278.088 Z-6 I1.912 J0
X-281.912 Z-6.5 I-1.912 J0
X-278.088 Z-7 I1.912 J0
X-281.912 Z-7.5 I-1.912 J0
X-278.088 Z-8 I1.912 J0
X-281.912 Z-8.5 I-1.912 J0
X-278.088 Z-9 I1.912 J0
X-281.912 Z-9.5 I-1.912 J0
X-278.088 Z-10 I1.912 J0
X-281.912 Z-10.5 I-1.912 J0
X-278.088 Z-11 I1.912 J0
X-281.912 Z-11.5 I-1.912 J0
X-278.088 Z-12 I1.912 J0
X-281.912 Z-12.5 I-1.912 J0
X-280.591 Y33.582 Z-12.7 I1.912 J0
X-279.409 Y37.218 I0.591 J1.818
X-280.591 Y33.582 I-0.591 J-1.818
X-280.192 Y33.785 I0.098 J0.301 F1274.98
G1 X-280.142 Y33.936
X-280.12 Y34.003 Z-12.692
X-280.099 Y34.067 Z-12.669
X-280.081 Y34.124 Z-12.631
X-280.065 Y34.172 Z-12.58
X-280.053 Y34.208 Z-12.52
X-280.046 Y34.23 Z-12.453
X-280.044 Y34.238 Z-12.382
G0 Z5
X-223.581 Y15.233
Z2
G1 Z0.317 F1274.98
G18 G2 X-223.264 Z0 I0.317 K0
G1 X-223.105
G17 G3 X-222.788 Y15.55 I0 J0.317
X-228.512 Z-0.5 I-2.862 J0 F1500
X-222.788 Z-1 I2.862 J0
X-228.512 Z-1.5 I-2.862 J0
X-222.788 Z-2 I2.862 J0
X-228.512 Z-2.5 I-2.862 J0
X-222.788 Z-3 I2.862 J0
X-228.512 Z-3.5 I-2.862 J0
X-222.788 Z-4 I2.862 J0
X-228.512 Z-4.5 I-2.862 J0
X-222.788 Z-5 I2.862 J0
X-228.512 Z-5.5 I-2.862 J0
X-222.788 Z-6 I2.862 J0
X-228.512 Z-6.5 I-2.862 J0
X-222.788 Z-7 I2.862 J0
X-228.512 Z-7.5 I-2.862 J0
X-222.788 Z-8 I2.862 J0
X-228.512 Z-8.5 I-2.862 J0
X-222.788 Z-9 I2.862 J0
X-228.512 Z-9.5 I-2.862 J0
X-222.788 Z-10 I2.862 J0
X-228.512 Z-10.5 I-2.862 J0
X-222.788 Z-11 I2.862 J0
X-228.512 Z-11.5 I-2.862 J0
X-222.788 Z-12 I2.862 J0
X-228.512 Z-12.5 I-2.862 J0
X-226.534 Y12.828 Z-12.7 I2.862 J0
X-224.766 Y18.272 I0.884 J2.722
X-226.534 Y12.828 I-0.884 J-2.722
X-226.134 Y13.031 I0.098 J0.302 F1274.98
G1 X-226.085 Y13.182
X-226.064 Y13.25 Z-12.692
X-226.043 Y13.313 Z-12.669
X-226.024 Y13.371 Z-12.631
X-226.009 Y13.419 Z-12.58
X-225.997 Y13.454 Z-12.52
X-225.99 Y13.477 Z-12.453
X-225.987 Y13.484 Z-12.382
G0 Z5
X-142.931 Y13.682
Z2
G1 Z0.317 F1274.98
G18 G2 X-142.614 Z0 I0.317 K0
G1 X-142.455
G17 G3 X-142.137 Y14 I0 J0.318
X-147.863 Z-0.5 I-2.863 J0 F1500
X-142.137 Z-1 I2.863 J0
X-147.863 Z-1.5 I-2.863 J0
X-142.137 Z-2 I2.863 J0
X-147.863 Z-2.5 I-2.863 J0
X-142.137 Z-3 I2.863 J0
X-147.863 Z-3.5 I-2.863 J0
X-142.137 Z-4 I2.863 J0
X-147.863 Z-4.5 I-2.863 J0
X-142.137 Z-5 I2.863 J0
X-147.863 Z-5.5 I-2.863 J0
X-142.137 Z-6 I2.863 J0
X-147.863 Z-6.5 I-2.863 J0
X-142.137 Z-7 I2.863 J0
X-147.863 Z-7.5 I-2.863 J0
X-142.137 Z-8 I2.863 J0
X-147.863 Z-8.5 I-2.863 J0
X-142.137 Z-9 I2.863 J0
X-147.863 Z-9.5 I-2.863 J0
X-142.137 Z-10 I2.863 J0
X-147.863 Z-10.5 I-2.863 J0
X-142.137 Z-11 I2.863 J0
X-147.863 Z-11.5 I-2.863 J0
X-142.137 Z-12 I2.863 J0
X-147.863 Z-12.5 I-2.863 J0
X-145.885 Y11.277 Z-12.7 I2.863 J0
X-144.115 Y16.723 I0.885 J2.723
X-145.885 Y11.277 I-0.885 J-2.723
X-145.483 Y11.481 I0.099 J0.303 F1274.98
G1 X-145.435 Y11.632
X-145.414 Y11.7 Z-12.692
X-145.393 Y11.763 Z-12.669
X-145.374 Y11.821 Z-12.631
X-145.359 Y11.869 Z-12.58
X-145.347 Y11.904 Z-12.52
X-145.34 Y11.927 Z-12.453
X-145.337 Y11.934 Z-12.382
G0 Z5
X-62.281 Y15.233
Z2
G1 Z0.317 F1274.98
G18 G2 X-61.964 Z0 I0.317 K0
G1 X-61.805
G17 G3 X-61.488 Y15.55 I0 J0.317
X-67.212 Z-0.5 I-2.862 J0 F1500
X-61.488 Z-1 I2.862 J0
X-67.212 Z-1.5 I-2.862 J0
X-61.488 Z-2 I2.862 J0
X-67.212 Z-2.5 I-2.862 J0
X-61.488 Z-3 I2.862 J0
X-67.212 Z-3.5 I-2.862 J0
X-61.488 Z-4 I2.862 J0
X-67.212 Z-4.5 I-2.862 J0
X-61.488 Z-5 I2.862 J0
X-67.212 Z-5.5 I-2.862 J0
X-61.488 Z-6 I2.862 J0
X-67.212 Z-6.5 I-2.862 J0
X-61.488 Z-7 I2.862 J0
X-67.212 Z-7.5 I-2.862 J0
X-61.488 Z-8 I2.862 J0
X-67.212 Z-8.5 I-2.862 J0
X-61.488 Z-9 I2.862 J0
X-67.212 Z-9.5 I-2.862 J0
X-61.488 Z-10 I2.862 J0
X-67.212 Z-10.5 I-2.862 J0
X-61.488 Z-11 I2.862 J0
X-67.212 Z-11.5 I-2.862 J0
X-61.488 Z-12 I2.862 J0
X-67.212 Z-12.5 I-2.862 J0
X-65.234 Y12.828 Z-12.7 I2.862 J0
X-63.466 Y18.272 I0.884 J2.722
X-65.234 Y12.828 I-0.884 J-2.722
X-64.834 Y13.031 I0.098 J0.302 F1274.98
G1 X-64.785 Y13.182
X-64.764 Y13.25 Z-12.692
X-64.743 Y13.313 Z-12.669
X-64.724 Y13.371 Z-12.631
X-64.709 Y13.419 Z-12.58
X-64.697 Y13.454 Z-12.52
X-64.69 Y13.477 Z-12.453
X-64.687 Y13.484 Z-12.382
G0 Z5
X-8.881 Y35.083
Z2
G1 Z0.317 F1274.98
G18 G2 X-8.564 Z0 I0.317 K0
G1 X-8.405
G17 G3 X-8.088 Y35.4 I0 J0.317
X-11.912 Z-0.5 I-1.912 J0 F1500
X-8.088 Z-1 I1.912 J0
X-11.912 Z-1.5 I-1.912 J0
X-8.088 Z-2 I1.912 J0
X-11.912 Z-2.5 I-1.912 J0
X-8.088 Z-3 I1.912 J0
X-11.912 Z-3.5 I-1.912 J0
X-8.088 Z-4 I1.912 J0
X-11.912 Z-4.5 I-1.912 J0
X-8.088 Z-5 I1.912 J0
X-11.912 Z-5.5 I-1.912 J0
X-8.088 Z-6 I1.912 J0
X-11.912 Z-6.5 I-1.912 J0
X-8.088 Z-7 I1.912 J0
X-11.912 Z-7.5 I-1.912 J0
X-8.088 Z-8 I1.912 J0
X-11.912 Z-8.5 I-1.912 J0
X-8.088 Z-9 I1.912 J0
X-11.912 Z-9.5 I-1.912 J0
X-8.088 Z-10 I1.912 J0
X-11.912 Z-10.5 I-1.912 J0
X-8.088 Z-11 I1.912 J0
X-11.912 Z-11.5 I-1.912 J0
X-8.088 Z-12 I1.912 J0
X-11.912 Z-12.5 I-1.912 J0
X-10.591 Y33.582 Z-12.7 I1.912 J0
X-9.409 Y37.218 I0.591 J1.818
X-10.591 Y33.582 I-0.591 J-1.818
X-10.192 Y33.785 I0.098 J0.301 F1274.98
G1 X-10.142 Y33.936
X-10.12 Y34.003 Z-12.692
X-10.099 Y34.067 Z-12.669
X-10.081 Y34.124 Z-12.631
X-10.065 Y34.172 Z-12.58
X-10.053 Y34.208 Z-12.52
X-10.046 Y34.23 Z-12.453
X-10.044 Y34.238 Z-12.382
G0 Z5
X-8.881 Y70.482
Z2
G1 Z0.317 F1274.98
G18 G2 X-8.564 Z0 I0.317 K0
G1 X-8.405
G17 G3 X-8.087 Y70.8 I0 J0.318
X-11.913 Z-0.5 I-1.913 J0 F1500
X-8.087 Z-1 I1.913 J0
X-11.913 Z-1.5 I-1.913 J0
X-8.087 Z-2 I1.913 J0
X-11.913 Z-2.5 I-1.913 J0
X-8.087 Z-3 I1.913 J0
X-11.913 Z-3.5 I-1.913 J0
X-8.087 Z-4 I1.913 J0
X-11.913 Z-4.5 I-1.913 J0
X-8.087 Z-5 I1.913 J0
X-11.913 Z-5.5 I-1.913 J0
X-8.087 Z-6 I1.913 J0
X-11.913 Z-6.5 I-1.913 J0
X-8.087 Z-7 I1.913 J0
X-11.913 Z-7.5 I-1.913 J0
X-8.087 Z-8 I1.913 J0
X-11.913 Z-8.5 I-1.913 J0
X-8.087 Z-9 I1.913 J0
X-11.913 Z-9.5 I-1.913 J0
X-8.087 Z-10 I1.913 J0
X-11.913 Z-10.5 I-1.913 J0
X-8.087 Z-11 I1.913 J0
X-11.913 Z-11.5 I-1.913 J0
X-8.087 Z-12 I1.913 J0
X-11.913 Z-12.5 I-1.913 J0
X-10.591 Y68.981 Z-12.7 I1.913 J0
X-9.409 Y72.619 I0.591 J1.819
X-10.591 Y68.981 I-0.591 J-1.819
X-10.191 Y69.185 I0.098 J0.302 F1274.98
G1 X-10.142 Y69.336
X-10.12 Y69.403 Z-12.692
X-10.099 Y69.467 Z-12.669
X-10.081 Y69.524 Z-12.631
X-10.065 Y69.572 Z-12.58
X-10.053 Y69.608 Z-12.52
X-10.046 Y69.63 Z-12.453
X-10.044 Y69.638 Z-12.382
G0 Z5
X-8.881 Y105.882
Z2
G1 Z0.317 F1274.98
G18 G2 X-8.564 Z0 I0.317 K0
G1 X-8.405
G17 G3 X-8.087 Y106.2 I0 J0.318
X-11.913 Z-0.5 I-1.913 J0 F1500
X-8.087 Z-1 I1.913 J0
X-11.913 Z-1.5 I-1.913 J0
X-8.087 Z-2 I1.913 J0
X-11.913 Z-2.5 I-1.913 J0
X-8.087 Z-3 I1.913 J0
X-11.913 Z-3.5 I-1.913 J0
X-8.087 Z-4 I1.913 J0
X-11.913 Z-4.5 I-1.913 J0
X-8.087 Z-5 I1.913 J0
X-11.913 Z-5.5 I-1.913 J0
X-8.087 Z-6 I1.913 J0
X-11.913 Z-6.5 I-1.913 J0
X-8.087 Z-7 I1.913 J0
X-11.913 Z-7.5 I-1.913 J0
X-8.087 Z-8 I1.913 J0
X-11.913 Z-8.5 I-1.913 J0
X-8.087 Z-9 I1.913 J0
X-11.913 Z-9.5 I-1.913 J0
X-8.087 Z-10 I1.913 J0
X-11.913 Z-10.5 I-1.913 J0
X-8.087 Z-11 I1.913 J0
X-11.913 Z-11.5 I-1.913 J0
X-8.087 Z-12 I1.913 J0
X-11.913 Z-12.5 I-1.913 J0
X-10.591 Y104.381 Z-12.7 I1.913 J0
X-9.409 Y108.019 I0.591 J1.819
X-10.591 Y104.381 I-0.591 J-1.819
X-10.191 Y104.585 I0.098 J0.302 F1274.98
G1 X-10.142 Y104.736
X-10.12 Y104.803 Z-12.692
X-10.099 Y104.867 Z-12.669
X-10.081 Y104.924 Z-12.631
X-10.065 Y104.972 Z-12.58
X-10.053 Y105.008 Z-12.52
X-10.046 Y105.03 Z-12.453
X-10.044 Y105.038 Z-12.382
G0 Z5
X-62.281 Y125.732
Z2
G1 Z0.317 F1274.98
G18 G2 X-61.964 Z0 I0.317 K0
G1 X-61.805
G17 G3 X-61.487 Y126.05 I0 J0.318
X-67.213 Z-0.5 I-2.863 J0 F1500
X-61.487 Z-1 I2.863 J0
X-67.213 Z-1.5 I-2.863 J0
X-61.487 Z-2 I2.863 J0
X-67.213 Z-2.5 I-2.863 J0
X-61.487 Z-3 I2.863 J0
X-67.213 Z-3.5 I-2.863 J0
X-61.487 Z-4 I2.863 J0
X-67.213 Z-4.5 I-2.863 J0
X-61.487 Z-5 I2.863 J0
X-67.213 Z-5.5 I-2.863 J0
X-61.487 Z-6 I2.863 J0
X-67.213 Z-6.5 I-2.863 J0
X-61.487 Z-7 I2.863 J0
X-67.213 Z-7.5 I-2.863 J0
X-61.487 Z-8 I2.863 J0
X-67.213 Z-8.5 I-2.863 J0
X-61.487 Z-9 I2.863 J0
X-67.213 Z-9.5 I-2.863 J0
X-61.487 Z-10 I2.863 J0
X-67.213 Z-10.5 I-2.863 J0
X-61.487 Z-11 I2.863 J0
X-67.213 Z-11.5 I-2.863 J0
X-61.487 Z-12 I2.863 J0
X-67.213 Z-12.5 I-2.863 J0
X-65.235 Y123.327 Z-12.7 I2.863 J0
X-63.465 Y128.773 I0.885 J2.723
X-65.235 Y123.327 I-0.885 J-2.723
X-64.833 Y123.531 I0.099 J0.303 F1274.98
G1 X-64.785 Y123.682
X-64.764 Y123.75 Z-12.692
X-64.743 Y123.813 Z-12.669
X-64.724 Y123.871 Z-12.631
X-64.709 Y123.919 Z-12.58
X-64.697 Y123.954 Z-12.52
X-64.69 Y123.977 Z-12.453
X-64.687 Y123.984 Z-12.382
G0 Z15

(2D Adaptive1)
S12000 M3
X-145.571 Y69.404
Z15
Z2.55
G3 X-144.429 Y72.196 Z2.385 I0.571 J1.396 F1274.98
X-145.571 Y69.404 Z2.219 I-0.571 J-1.396
X-144.429 Y72.196 Z2.054 I0.571 J1.396
X-145.571 Y69.404 Z1.888 I-0.571 J-1.396
X-144.429 Y72.196 Z1.723 I0.571 J1.396
X-145.571 Y69.404 Z1.557 I-0.571 J-1.396
X-144.429 Y72.196 Z1.392 I0.571 J1.396
X-145.571 Y69.404 Z1.226 I-0.571 J-1.396
X-144.429 Y72.196 Z1.061 I0.571 J1.396
X-145.571 Y69.404 Z0.895 I-0.571 J-1.396
X-144.429 Y72.196 Z0.73 I0.571 J1.396
X-145.571 Y69.404 Z0.565 I-0.571 J-1.396
X-144.429 Y72.196 Z0.399 I0.571 J1.396
X-145.571 Y69.404 Z0.234 I-0.571 J-1.396
X-144.429 Y72.196 Z0.068 I0.571 J1.396
X-145.571 Y69.404 Z-0.097 I-0.571 J-1.396
X-144.429 Y72.196 Z-0.263 I0.571 J1.396
X-145.571 Y69.404 Z-0.428 I-0.571 J-1.396
X-144.429 Y72.196 Z-0.594 I0.571 J1.396
X-145.571 Y69.404 Z-0.759 I-0.571 J-1.396
X-144.429 Y72.196 Z-0.924 I0.571 J1.396
X-145.571 Y69.404 Z-1.09 I-0.571 J-1.396
X-144.429 Y72.196 Z-1.255 I0.571 J1.396
X-145.571 Y69.404 Z-1.421 I-0.571 J-1.396
X-143.492 Y70.8 Z-1.524 I0.571 J1.396
X-146.508 I-1.508 J0
X-143.492 I1.508 J0
S18000
G1 X-143.491 Y70.846 F1500
X-143.476 Y70.89
X-143.45 Y70.928
X-142.872 Y71.386
X-142.634 Y71.519
X-142.411 Y71.72
X-142.223 Y71.987
X-142.088 Y72.314
X-142.024 Y72.691
X-142.046 Y73.105
X-142.171 Y73.542
X-142.412 Y73.982
X-142.786 Y74.405
X-143.309 Y74.781
X-143.988 Y75.069
X-144.714 Y75.201
X-145.452 Y75.194
X-146.177 Y75.06
X-146.87 Y74.805
X-147.51 Y74.438
X-148.08 Y73.97
X-148.565 Y73.414
X-148.95 Y72.784
X-149.225 Y72.1
X-149.382 Y71.379
X-149.417 Y70.642
X-149.33 Y69.909
X-149.121 Y69.202
X-148.798 Y68.538
X-148.369 Y67.938
X-147.846 Y67.418
X-147.244 Y66.992
X-146.579 Y66.671
X-145.87 Y66.466
X-145.137 Y66.382
X-144.4 Y66.421
X-143.68 Y66.581
X-142.997 Y66.86
X-142.37 Y67.248
X-141.815 Y67.735
X-141.35 Y68.307
X-140.986 Y68.949
X-140.491 Y69.496
X-140.013 Y70.058
X-139.624 Y70.685
X-139.336 Y71.365
X-139.164 Y72.082
X-139.116 Y72.818
X-139.173 Y73.554
X-139.34 Y74.273
X-139.622 Y74.954
G3 X-142.213 Y77.485 I-4.983 J-2.51
G1 X-142.889 Y77.779
X-143.603 Y77.967
X-144.329 Y78.095
X-145.067 Y78.124
X-145.804 Y78.086
X-146.533 Y77.973
X-147.244 Y77.778
X-147.938 Y77.527
X-148.595 Y77.19
X-149.22 Y76.798
X-149.803 Y76.346
X-150.331 Y75.832
G3 X-151.883 Y73.343 I5.412 J-5.102
G1 X-152.097 Y72.637
X-152.255 Y71.917
X-152.322 Y71.182
X-152.325 Y70.444
G3 X-151.599 Y67.604 I7.425 J0.384
G1 X-151.245 Y66.956
G3 X-149.24 Y64.818 I6.317 J3.913
G1 X-148.618 Y64.422
X-147.961 Y64.085
X-147.269 Y63.829
X-146.559 Y63.628
X-145.83 Y63.514
X-145.094 Y63.468
X-144.357 Y63.489
X-143.627 Y63.599
X-142.908 Y63.765
X-142.215 Y64.017
X-141.547 Y64.331
G3 X-139.289 Y66.2 I-3.509 J6.539
G1 X-138.856 Y66.798
X-138.429 Y67.399
X-137.948 Y67.959
X-137.51 Y68.553
G3 X-136.351 Y71.248 I-6.362 J4.332
G1 X-136.244 Y71.978
X-136.195 Y72.714
X-136.228 Y73.451
X-136.325 Y74.182
X-136.48 Y74.904
X-136.723 Y75.6
G3 X-139.335 Y79.109 I-7.596 J-2.928
G1 X-139.927 Y79.549
G3 X-146.276 Y80.967 I-5.099 J-7.906
X-151.028 Y79.093 I1.174 J-9.939
X-153.566 Y76.443 I5.92 J-8.211
G1 X-153.945 Y75.81
G3 X-155.225 Y71.608 I8.867 J-4.998
X-154.346 Y66.572 I10.3 J-0.797
X-151.719 Y63.05 I9.443 J4.303
X-146.418 Y60.641 I6.746 J7.806
X-143.476 Y60.657 I1.415 J10.444
X-137.169 Y64.176 I-1.543 J10.177
G1 X-136.717 Y64.758
X-136.284 Y65.356
G3 X-134.565 Y67.751 I-12.875 J11.054
X-133.389 Y71.229 I-9.464 J5.139
X-134.454 Y77.677 I-10.599 J1.561
X-137.761 Y81.585 I-9.914 J-5.035
X-143.888 Y83.915 I-7.139 J-9.554
X-154.035 Y80.395 I-1.17 J-13.012
X-143.987 Y57.659 I9.033 J-9.596
X-134.105 Y63.375 I-1.019 J13.162
X-131.978 Y66.385 I-16.365 J13.817
X-130.835 Y76.401 I-11.868 J6.427
X-136.852 Y84.514 I-13.569 J-3.776
X-144.51 Y86.888 I-8.1 J-12.593
X-150.313 Y86.005 I-0.559 J-15.839
X-140.092 Y55.459 I5.311 J-15.206
X-131.886 Y61.44 I-4.921 J15.371
G1 X-130.98 Y62.605
G3 X-128.724 Y66.401 I-14.134 J10.971
X-127.56 Y70.659 I-15.517 J6.528
X-129.769 Y81.297 I-16.496 J2.123
X-140.088 Y89.139 I-14.94 J-8.948
X-145.189 Y89.827 I-4.977 J-17.634
X-154.052 Y54.059 I0.182 J-19.027
X-129.645 Y59.551 I9.055 J16.739
G1 X-128.735 Y60.713
G3 X-125.801 Y65.812 I-16.41 J12.836
X-124.68 Y70.086 I-18.947 J7.252
X-125.69 Y79.531 I-19.546 J2.686
G1 X-125.966 Y80.215
X-126.262 Y80.891
G3 X-134.595 Y89.99 I-18.194 J-8.296
X-145.916 Y92.734 I-10.405 J-18.2
X-165.604 Y78.395 I0.886 J-21.903
X-137.255 Y50.251 I20.601 J-7.599
X-127.372 Y57.695 I-7.768 J20.596
X-125.186 Y60.664 I-28.764 J23.471
X-124.114 Y83.153 I-18.615 J12.157
X-130.743 Y90.956 I-20.141 J-10.394
X-145.213 Y95.675 I-14.21 J-19.027
X-169.531 Y74.987 I0.177 J-24.844
X-138.224 Y46.851 I24.527 J-4.194
X-125.077 Y55.873 I-6.781 J23.972
X-121.73 Y60.726 I-26.095 J21.578
X-122.02 Y85.433 I-22.121 J12.095
G1 X-122.386 Y86.074
X-122.777 Y86.699
X-123.188 Y87.312
G3 X-141.607 Y98.388 I-21.643 J-15.138
X-164.552 Y90.587 I-3.469 J-27.442
X-166.537 Y88.406 I16.465 J-16.976
X-157.169 Y45.783 I21.526 J-17.61
X-123.211 Y53.5 I12.172 J25.01
X-119.756 Y58.281 I-34.233 J28.375
X-117.022 Y64.316 I-23.94 J14.481
X-119.974 Y87.729 I-26.881 J8.503
X-128.652 Y96.647 I-24.393 J-15.054
X-140.983 Y101.266 I-16.237 J-24.576
X-173.245 Y82.947 I-4.067 J-30.405
X-175.673 Y72.958 I27.824 J-12.052
X-145.293 Y40.05 I30.668 J-2.165
X-120.869 Y51.737 I0.295 J30.748
X-117.405 Y56.511 I-36.097 J29.835
X-112.793 Y71.881 I-26.328 J16.278
X-122.716 Y95.668 I-31.336 J0.892
X-134.659 Y102.789 I-21.927 J-23.2
X-144.07 Y104.45 I-10.24 J-30.518
X-173.372 Y88.939 I-0.986 J-33.571
X-178.477 Y74.457 I28.189 J-18.078
X-151.361 Y37.729 I33.468 J-3.665
X-118.509 Y50.003 I6.365 J33.065
X-114.654 Y55.403 I-35.648 J29.526
X-111.821 Y61.396 I-29.83 J17.768
X-116.441 Y92.965 I-32.156 J11.417
X-129.313 Y103.761 I-28.175 J-20.52
X-153.753 Y106.335 I-15.752 J-32.247
X-169.825 Y97.698 I8.601 J-35.277
X-174.268 Y92.779 I23.184 J-25.405
X-172.369 Y46.492 I29.243 J-21.983
X-126.627 Y39.138 I27.369 J24.3
X-116.126 Y48.293 I-18.401 J31.706
X-111.527 Y54.966 I-35.388 J29.313
X-108.117 Y82.115 I-32.252 J17.839
X-125.494 Y105.021 I-36.254 J-9.458
X-145.2 Y110.32 I-19.436 J-32.99
X-171.444 Y100.185 I0.117 J-39.35
X-182.804 Y82.367 I26.319 J-29.311
X-167.289 Y38.146 I37.791 J-11.573
X-120.453 Y39.806 I22.29 J32.648
X-113.268 Y47.186 I-25.42 J31.936
X-106.598 Y58.608 I-33.252 J27.078
X-104.862 Y81.101 I-37.453 J14.204
X-105.795 Y84.669 I-44.287 J-9.682
X-125.579 Y108.427 I-38.663 J-12.08
X-143.23 Y113.214 I-19.324 J-36.321
X-182.601 Y90.535 I-1.823 J-42.349
G1 X-182.948 Y89.884
X-183.273 Y89.222
X-183.585 Y88.553
G3 X-176.078 Y41.847 I38.58 J-17.755
X-130.02 Y31.056 I31.076 J28.949
X-111.757 Y44.362 I-14.966 J39.728
X-106.683 Y51.606 I-41.111 J34.193
X-101.214 Y69.074 I-37.229 J21.247
X-115.348 Y104.82 I-42.94 J3.689
X-123.753 Y110.78 I-28.646 J-31.489
X-148.662 Y116.045 I-21.251 J-38.982
X-171.271 Y107.832 I3.588 J-45.103
X-189.885 Y63.961 I26.266 J-37.029
X-159.05 Y27.624 I44.882 J6.835
X-112.735 Y38.853 I14.05 J43.179
X-104.618 Y49.331 I-43.59 J42.154
X-99.533 Y61.55 I-39.528 J23.619
X-99.754 Y84.897 I-44.35 J11.255
X-122.606 Y113.487 I-44.666 J-12.274
X-134.307 Y117.895 I-21.963 J-40.566
X-167.274 Y113.689 I-10.787 J-46.755
X-180.167 Y103.957 I22.068 J-42.641
X-191.426 Y57.35 I35.162 J-33.158
X-156.998 Y23.976 I46.433 J13.455
X-110.762 Y36.68 I11.994 J46.838
X-102.168 Y47.718 I-45.481 J44.276
X-95.233 Y70.794 I-41.743 J25.125
X-96.171 Y82.534 I-49.793 J1.928
X-121.482 Y116.21 I-48.266 J-9.927
X-127.535 Y118.927 I-21.782 J-40.431
X-129.205 Y119.508 I-14.58 J-39.21
G1 X-129.221 Y119.512
X-129.238
X-160.087
X-160.824 Y119.476
X-161.543 Y119.31
G3 X-168.987 Y116.102 I14.983 J-45.005
X-194.09 Y85.572 I23.912 J-45.247
X-184.658 Y38.313 I49.059 J-14.78
X-160.965 Y22.083 I39.627 J32.44
G1 X-129.913 Y22.087
X-129.176 Y22.124
X-128.458 Y22.295
G3 X-115.968 Y28.555 I-15.67 J46.856
X-105.166 Y38.531 I-28.519 J41.718
X-98.846 Y47.598 I-47.71 J39.994
X-95.195 Y55.653 I-46.968 J26.143
X-102.254 Y103.36 I-48.784 J17.158
X-121.49 Y119.512 I-42.312 J-30.859
G1 X-121.515
X-129.238
G3 X-129.414 Y118.94 I0.012 J-0.317 F1274.98
G1 X-129.357 Y118.897 Z-1.516
X-129.303 Y118.858 Z-1.493
X-129.255 Y118.822 Z-1.455
X-129.214 Y118.792 Z-1.404
X-129.184 Y118.77 Z-1.344
X-129.165 Y118.756 Z-1.277
X-129.158 Y118.751 Z-1.207
G0 Z5
X-130.939 Y22.471
Z-0.889
G1 Z-1.207 F1274.98
X-130.932 Y22.467 Z-1.277
X-130.912 Y22.455 Z-1.344
X-130.88 Y22.436 Z-1.404
X-130.837 Y22.41 Z-1.455
X-130.785 Y22.379 Z-1.493
X-130.727 Y22.345 Z-1.516
X-130.666 Y22.309 Z-1.524
G3 X-129.913 Y22.088 I0.808 J1.36
G1 X-122.09 Y22.087 F1500
X-121.587 Y22.113
X-120.876 Y22.312
G3 X-118.254 Y23.663 I-9.799 J22.24
X-102.636 Y36.993 I-26.696 J47.093
X-95.98 Y46.722 I-49.049 J40.698
X-90.916 Y59.754 I-48.149 J26.209
X-101.377 Y107.04 I-53.091 J13.055
X-115.46 Y119.518 I-42.985 J-34.33
G1 X-115.495 Y119.512
X-121.515
G3 X-121.691 Y118.939 I0.011 J-0.317 F1274.98
G1 X-121.634 Y118.897 Z-1.516
X-121.58 Y118.858 Z-1.493
X-121.532 Y118.822 Z-1.455
X-121.491 Y118.792 Z-1.404
X-121.461 Y118.77 Z-1.344
X-121.442 Y118.756 Z-1.277
X-121.435 Y118.751 Z-1.207
G0 Z5
X-123.116 Y22.471
Z-0.889
G1 Z-1.207 F1274.98
X-123.11 Y22.467 Z-1.277
X-123.089 Y22.455 Z-1.344
X-123.057 Y22.436 Z-1.404
X-123.014 Y22.41 Z-1.455
X-122.962 Y22.379 Z-1.493
X-122.904 Y22.345 Z-1.516
X-122.843 Y22.309 Z-1.524
G3 X-122.09 Y22.088 I0.808 J1.36
G1 X-115.943 Y22.087 F1500
X-115.679 Y22.101
X-114.969 Y22.3
X-114.311 Y22.633
G3 X-104.03 Y30.989 I-29.285 J46.533
X-94.217 Y43.875 I-51.708 J49.553
X-87.775 Y60.296 I-50.049 J29.11
G1 X-87.622 Y61.018
X-87.475 Y61.741
G3 X-99.13 Y108.924 I-56.544 J11.064
X-110.184 Y119.501 I-45.372 J-36.356
G1 X-110.218 Y119.509
X-110.251 Y119.512
X-115.495
G3 X-115.671 Y118.939 I0.011 J-0.317 F1274.98
G1 X-115.614 Y118.897 Z-1.516
X-115.56 Y118.858 Z-1.493
X-115.512 Y118.822 Z-1.455
X-115.471 Y118.792 Z-1.404
X-115.441 Y118.77 Z-1.344
X-115.422 Y118.756 Z-1.277
X-115.415 Y118.751 Z-1.207
G0 Z5
X-116.97 Y22.471
Z-0.889
G1 Z-1.207 F1274.98
X-116.963 Y22.467 Z-1.277
X-116.943 Y22.455 Z-1.344
X-116.91 Y22.436 Z-1.404
X-116.867 Y22.41 Z-1.455
X-116.815 Y22.379 Z-1.493
X-116.758 Y22.345 Z-1.516
X-116.697 Y22.309 Z-1.524
G3 X-115.943 Y22.088 I0.809 J1.36
G1 X-110.914 Y22.087 F1500
X-110.479 Y22.109
X-109.787 Y22.303
X-109.138 Y22.654
G3 X-105.673 Y25.405 I-23.839 J33.584
X-97.101 Y34.532 I-40.561 J46.684
X-88.062 Y49.694 I-49.611 J39.85
X-84.242 Y63.15 I-56.417 J23.287
X-96.503 Y110.333 I-59.806 J9.644
X-105.422 Y119.498 I-47.869 J-37.664
G1 X-105.458 Y119.508
X-105.495 Y119.512
X-110.251
G3 X-110.428 Y118.939 I0.011 J-0.317 F1274.98
G1 X-110.371 Y118.897 Z-1.516
X-110.317 Y118.858 Z-1.493
X-110.268 Y118.822 Z-1.455
X-110.228 Y118.792 Z-1.404
X-110.197 Y118.77 Z-1.344
X-110.178 Y118.756 Z-1.277
X-110.172 Y118.751 Z-1.207
G0 Z5
X-111.941 Y22.471
Z-0.889
G1 Z-1.207 F1274.98
X-111.934 Y22.467 Z-1.277
X-111.914 Y22.455 Z-1.344
X-111.881 Y22.436 Z-1.404
X-111.838 Y22.41 Z-1.455
X-111.786 Y22.379 Z-1.493
X-111.729 Y22.345 Z-1.516
X-111.668 Y22.309 Z-1.524
G3 X-110.914 Y22.088 I0.809 J1.36
G1 X-105.885 Y22.087 F1500
X-105.735 Y22.095
X-105.097 Y22.284
X-104.454 Y22.645
G3 X-102.216 Y24.566 I-15.514 J20.333
X-94.325 Y33.326 I-45.653 J49.056
X-83.357 Y54.087 I-50.999 J40.221
X-81.124 Y64.162 I-63.341 J19.326
X-93.629 Y111.414 I-62.959 J8.619
X-100.983 Y119.495 I-50.34 J-38.425
G1 X-101.021 Y119.508
X-101.061 Y119.512
X-105.495
G3 X-105.671 Y118.939 I0.011 J-0.317 F1274.98
G1 X-105.615 Y118.897 Z-1.516
X-105.56 Y118.858 Z-1.493
X-105.512 Y118.822 Z-1.455
X-105.471 Y118.792 Z-1.404
X-105.441 Y118.77 Z-1.344
X-105.422 Y118.756 Z-1.277
X-105.415 Y118.751 Z-1.207
G0 Z5
X-106.912 Y22.471
Z-0.889
G1 Z-1.207 F1274.98
X-106.905 Y22.467 Z-1.277
X-106.885 Y22.455 Z-1.344
X-106.852 Y22.436 Z-1.404
X-106.809 Y22.41 Z-1.455
X-106.757 Y22.379 Z-1.493
X-106.699 Y22.345 Z-1.516
X-106.639 Y22.309 Z-1.524
G3 X-105.885 Y22.088 I0.809 J1.36
G1 X-101.666 Y22.087 F1500
X-101.341 Y22.104
X-100.751 Y22.269
X-100.102 Y22.62
X-99.528 Y23.084
G3 X-92.164 Y31.328 I-46.682 J49.108
X-80.956 Y51.975 I-53.444 J42.378
X-78.07 Y64.917 I-64.71 J21.221
X-90.609 Y112.276 I-66.023 J7.859
X-96.773 Y119.493 I-52.586 J-38.675
G1 X-96.814 Y119.507
X-96.856 Y119.512
X-101.061
G3 X-101.237 Y118.939 I0.011 J-0.317 F1274.98
G1 X-101.18 Y118.897 Z-1.516
X-101.126 Y118.858 Z-1.493
X-101.078 Y118.822 Z-1.455
X-101.037 Y118.792 Z-1.404
X-101.007 Y118.77 Z-1.344
X-100.988 Y118.756 Z-1.277
X-100.981 Y118.751 Z-1.207
G0 Z5
X-102.693 Y22.471
Z-0.889
G1 Z-1.207 F1274.98
X-102.686 Y22.467 Z-1.277
X-102.666 Y22.455 Z-1.344
X-102.633 Y22.436 Z-1.404
X-102.59 Y22.41 Z-1.455
X-102.538 Y22.379 Z-1.493
X-102.481 Y22.345 Z-1.516
X-102.42 Y22.309 Z-1.524
G3 X-101.666 Y22.088 I0.809 J1.36
G1 X-97.503 Y22.087 F1500
X-97.152 Y22.105
X-96.592 Y22.262
X-95.943 Y22.613
X-95.379 Y23.088
G3 X-90.994 Y28.07 I-44.652 J43.724
X-82.44 Y40.958 I-59.65 J48.873
X-75.05 Y65.547 I-61.632 J31.928
X-87.53 Y113.021 I-69.024 J7.233
X-92.738 Y119.491 I-54.708 J-38.7
G1 X-92.78 Y119.506
X-92.824 Y119.512
X-96.856
G3 X-97.032 Y118.939 I0.011 J-0.317 F1274.98
G1 X-96.975 Y118.897 Z-1.516
X-96.921 Y118.858 Z-1.493
X-96.873 Y118.822 Z-1.455
X-96.832 Y118.792 Z-1.404
X-96.802 Y118.77 Z-1.344
X-96.783 Y118.756 Z-1.277
X-96.776 Y118.751 Z-1.207
G0 Z5
X-98.53 Y22.471
Z-0.889
G1 Z-1.207 F1274.98
X-98.523 Y22.467 Z-1.277
X-98.503 Y22.455 Z-1.344
X-98.47 Y22.436 Z-1.404
X-98.427 Y22.41 Z-1.455
X-98.375 Y22.379 Z-1.493
X-98.318 Y22.345 Z-1.516
X-98.257 Y22.309 Z-1.524
G3 X-97.503 Y22.088 I0.809 J1.36
G1 X-93.592 Y22.087 F1500
X-93.125 Y22.111
X-92.588 Y22.261
X-91.939 Y22.613
X-91.383 Y23.098
G3 X-88.06 Y27.049 I-44.366 J40.693
X-78.651 Y42.004 I-60.203 J48.315
X-72.053 Y66.077 I-65.412 J30.87
X-84.409 Y113.67 I-72.01 J6.705
X-88.838 Y119.488 I-57.07 J-38.85
G1 X-88.882 Y119.506
X-88.928 Y119.512
X-92.824
G3 X-93.001 Y118.939 I0.011 J-0.317 F1274.98
G1 X-92.944 Y118.897 Z-1.516
X-92.89 Y118.858 Z-1.493
X-92.841 Y118.822 Z-1.455
X-92.801 Y118.792 Z-1.404
X-92.77 Y118.77 Z-1.344
X-92.751 Y118.756 Z-1.277
X-92.745 Y118.751 Z-1.207
G0 Z5
X-94.618 Y22.471
Z-0.889
G1 Z-1.207 F1274.98
X-94.612 Y22.467 Z-1.277
X-94.591 Y22.455 Z-1.344
X-94.559 Y22.436 Z-1.404
X-94.516 Y22.41 Z-1.455
X-94.464 Y22.379 Z-1.493
X-94.406 Y22.345 Z-1.516
X-94.346 Y22.309 Z-1.524
G3 X-93.592 Y22.088 I0.809 J1.36
G1 X-89.68 Y22.087 F1500
X-89.237 Y22.11
X-88.714 Y22.256
X-88.097 Y22.59
X-87.542 Y23.076
G3 X-85.209 Y25.933 I-34.233 J30.336
X-74.14 Y45.015 I-61.268 J48.29
X-70.883 Y55.29 I-70.595 J28.033
G1 X-70.887 Y89.775
X-70.924 Y90.512
G3 X-85.048 Y119.488 I-73.352 J-17.825
G1 X-85.096 Y119.505
X-85.143 Y119.512
X-88.928
G3 X-89.105 Y118.939 I0.011 J-0.317 F1274.98
G1 X-89.048 Y118.897 Z-1.516
X-88.994 Y118.858 Z-1.493
X-88.945 Y118.822 Z-1.455
X-88.905 Y118.792 Z-1.404
X-88.874 Y118.77 Z-1.344
X-88.855 Y118.756 Z-1.277
X-88.849 Y118.751 Z-1.207
G0 Z5
X-71.271 Y88.748
Z-0.889
G1 Z-1.207 F1274.98
X-71.267 Y88.755 Z-1.277
X-71.255 Y88.775 Z-1.344
X-71.236 Y88.808 Z-1.404
X-71.21 Y88.851 Z-1.455
X-71.179 Y88.903 Z-1.493
X-71.145 Y88.96 Z-1.516
X-71.109 Y89.021 Z-1.524
G3 X-70.888 Y89.775 I-1.36 J0.809
G1 X-70.887 Y99.262 F1500
X-70.924 Y99.999
X-71.075 Y100.721
G3 X-72.446 Y104.145 I-37.239 J-12.925
X-81.353 Y119.486 I-71.833 J-31.451
G1 X-81.402 Y119.505
X-81.45 Y119.512
X-85.143
G3 X-85.32 Y118.939 I0.011 J-0.317 F1274.98
G1 X-85.263 Y118.897 Z-1.516
X-85.209 Y118.858 Z-1.493
X-85.16 Y118.822 Z-1.455
X-85.12 Y118.792 Z-1.404
X-85.089 Y118.77 Z-1.344
X-85.07 Y118.756 Z-1.277
X-85.064 Y118.751 Z-1.207
G0 Z5
X-71.271 Y98.236
Z-0.889
G1 Z-1.207 F1274.98
X-71.267 Y98.243 Z-1.277
X-71.255 Y98.263 Z-1.344
X-71.236 Y98.295 Z-1.404
X-71.21 Y98.338 Z-1.455
X-71.179 Y98.39 Z-1.493
X-71.145 Y98.448 Z-1.516
X-71.109 Y98.509 Z-1.524
G3 X-70.888 Y99.262 I-1.36 J0.808
G1 X-70.887 Y107.075 F1500
X-70.905 Y107.434
X-71.104 Y108.144
G3 X-72.406 Y110.792 I-27.876 J-12.062
X-77.736 Y119.484 I-70.743 J-37.401
G1 X-77.786 Y119.504
X-77.836 Y119.512
X-81.45
G3 X-81.627 Y118.939 I0.011 J-0.317 F1274.98
G1 X-81.57 Y118.897 Z-1.516
X-81.516 Y118.858 Z-1.493
X-81.467 Y118.822 Z-1.455
X-81.427 Y118.792 Z-1.404
X-81.396 Y118.77 Z-1.344
X-81.377 Y118.756 Z-1.277
X-81.371 Y118.751 Z-1.207
G0 Z5
X-71.271 Y106.049
Z-0.889
G1 Z-1.207 F1274.98
X-71.267 Y106.056 Z-1.277
X-71.255 Y106.076 Z-1.344
X-71.236 Y106.108 Z-1.404
X-71.21 Y106.152 Z-1.455
X-71.179 Y106.203 Z-1.493
X-71.145 Y106.261 Z-1.516
X-71.109 Y106.322 Z-1.524
G3 X-70.888 Y107.075 I-1.36 J0.809
G1 X-70.887 Y113.214 F1500
X-70.911 Y113.677
X-71.11 Y114.387
X-71.43 Y115.052
G3 X-74.35 Y119.726 I-58.767 J-33.461
G1 X-74.423 Y119.743
X-74.492 Y119.734
X-74.593 Y119.699
X-74.873 Y119.603
X-75.152 Y119.538
X-75.711 Y119.512
X-77.836
G3 X-78.037 Y118.959 I0.011 J-0.317 F1274.98
G1 X-78.014 Y118.938
X-71.466 Y113.033 F1500
X-71.417 Y112.989 F1274.98
G3 X-70.888 Y113.214 I0.212 J0.236
G1 X-70.887 Y114.888 F1500
X-70.873 Y115.167
X-70.82 Y115.447
X-70.682 Y115.862
X-70.478 Y116.441
G3 X-70.39 Y118.237 I-9.406 J1.363
G1 X-70.4 Y118.481
X-70.599 Y119.191
X-70.934 Y119.848
X-70.99 Y119.938
X-71.025 Y119.978
X-71.072 Y120.004
X-71.124 Y120.012
G3 X-71.418 Y119.609 I0.011 J-0.317 F1274.98
G1 X-71.362 Y119.406
X-71.01 Y118.162 F1500
X-70.99 Y118.109
X-70.961 Y118.06
G3 X-70.388 Y118.237 I0.256 J0.188 F1274.98
G1 X-70.387 Y120 F1500
X-70.406 Y120.012
X-72.917
X-73.476 Y119.979
X-73.941 Y119.926
X-73.957 Y119.922
X-74.492 Y119.734
G0 Z5
X-90.707 Y22.471
Z-0.889
G1 Z-1.207 F1274.98
X-90.7 Y22.467 Z-1.277
X-90.68 Y22.455 Z-1.344
X-90.647 Y22.436 Z-1.404
X-90.604 Y22.41 Z-1.455
X-90.552 Y22.379 Z-1.493
X-90.495 Y22.345 Z-1.516
X-90.434 Y22.309 Z-1.524
G3 X-89.68 Y22.088 I0.809 J1.36
G1 X-85.769 Y22.087 F1500
X-85.449 Y22.104
X-84.937 Y22.247
X-84.343 Y22.568
X-83.788 Y23.054
G3 X-81.954 Y25.365 I-24.999 J21.731
X-70.883 Y45.318 I-63.463 J48.261
G1 X-70.887 Y45.34
Y55.291
G3 X-71.461 Y55.469 I-0.318 J-0.011 F1274.98
G1 X-71.503 Y55.411 Z-1.516
X-71.542 Y55.357 Z-1.493
X-71.578 Y55.309 Z-1.455
X-71.608 Y55.268 Z-1.404
X-71.63 Y55.238 Z-1.344
X-71.644 Y55.219 Z-1.277
X-71.649 Y55.212 Z-1.207
G0 Z5
X-86.795 Y22.471
Z-0.889
G1 Z-1.207 F1274.98
X-86.789 Y22.467 Z-1.277
X-86.768 Y22.455 Z-1.344
X-86.736 Y22.436 Z-1.404
X-86.693 Y22.41 Z-1.455
X-86.641 Y22.379 Z-1.493
X-86.583 Y22.345 Z-1.516
X-86.523 Y22.309 Z-1.524
G3 X-85.769 Y22.088 I0.809 J1.36
G1 X-81.858 Y22.087 F1500
X-81.708 Y22.095
X-81.201 Y22.244
X-80.618 Y22.57
X-80.069 Y23.063
G3 X-78.283 Y25.411 I-23.83 J19.986
X-70.884 Y37.881 I-66.413 J47.835
G1 X-70.887 Y37.907
Y45.34
G3 X-71.462 Y45.517 I-0.318 J-0.011 F1274.98
G1 X-71.503 Y45.459 Z-1.516
X-71.542 Y45.405 Z-1.493
X-71.578 Y45.357 Z-1.455
X-71.608 Y45.316 Z-1.404
X-71.63 Y45.286 Z-1.344
X-71.644 Y45.267 Z-1.277
X-71.649 Y45.26 Z-1.207
G0 Z5
X-82.884 Y22.471
Z-0.889
G1 Z-1.207 F1274.98
X-82.877 Y22.467 Z-1.277
X-82.857 Y22.455 Z-1.344
X-82.824 Y22.436 Z-1.404
X-82.781 Y22.41 Z-1.455
X-82.73 Y22.379 Z-1.493
X-82.672 Y22.345 Z-1.516
X-82.611 Y22.309 Z-1.524
G3 X-81.858 Y22.088 I0.809 J1.36
G1 X-78.505 Y22.087 F1500
X-78.057 Y22.11
X-77.562 Y22.249
X-77.001 Y22.552
X-76.446 Y23.038
G3 X-74.702 Y25.416 I-19.479 J16.118
X-70.885 Y31.549 I-66.55 J45.674
G1 X-70.887 Y31.579
Y37.907
G3 X-71.462 Y38.084 I-0.318 J-0.011 F1274.98
G1 X-71.503 Y38.026 Z-1.516
X-71.542 Y37.972 Z-1.493
X-71.578 Y37.924 Z-1.455
X-71.608 Y37.883 Z-1.404
X-71.63 Y37.853 Z-1.344
X-71.644 Y37.834 Z-1.277
X-71.649 Y37.827 Z-1.207
G0 Z5
X-79.531 Y22.471
Z-0.889
G1 Z-1.207 F1274.98
X-79.524 Y22.467 Z-1.277
X-79.504 Y22.455 Z-1.344
X-79.472 Y22.436 Z-1.404
X-79.429 Y22.41 Z-1.455
X-79.377 Y22.379 Z-1.493
X-79.319 Y22.345 Z-1.516
X-79.258 Y22.309 Z-1.524
G3 X-78.505 Y22.088 I0.808 J1.36
G1 X-75.711 Y22.087 F1500
X-75.152 Y22.062
X-75.068 Y22.042
X-74.92 Y22.016
X-74.48 Y22.042
X-73.991 Y22.184
X-73.441 Y22.488
X-72.89 Y22.98
X-72.43 Y23.556
G3 X-70.798 Y26.007 I-43.743 J30.883
G1 X-70.795 Y26.056
X-70.803 Y26.102
G3 X-71.318 Y26.223 I-0.298 J-0.111 F1274.98
G1 X-71.435 Y26.113
X-75.123 Y22.656 F1500
X-75.203 Y22.581 F1274.98
G3 X-75.068 Y22.042 I0.217 J-0.232
G1 X-74.873 Y21.997 F1500
X-74.593 Y21.901
X-73.958 Y21.678
X-73.941 Y21.673
X-73.476 Y21.621
X-72.917 Y21.587
X-71.492
X-71.244 Y21.6
X-70.76 Y21.735
X-70.471 Y21.892
X-70.427 Y21.928
X-70.398 Y21.976
X-70.387 Y22.032
G3 X-70.752 Y22.336 I-0.318 J-0.011 F1274.98
G1 X-71 Y22.298
X-71.528 Y22.219 F1500
X-71.578 Y22.207
X-71.625 Y22.188
X-71.669 Y22.161
G3 X-71.492 Y21.588 I0.188 J-0.256 F1274.98
G1 X-70.406 Y21.587 F1500
X-70.387 Y21.6
Y23.921
X-70.398 Y24.479
X-70.474 Y25.142
X-70.478 Y25.159
X-70.682 Y25.738
X-70.82 Y26.153
X-70.873 Y26.433
X-70.887 Y26.712
Y31.579
G3 X-71.461 Y31.756 I-0.318 J-0.011 F1274.98
G1 X-71.503 Y31.699 Z-1.516
X-71.542 Y31.645 Z-1.493
X-71.578 Y31.596 Z-1.455
X-71.608 Y31.556 Z-1.404
X-71.63 Y31.525 Z-1.344
X-71.644 Y31.506 Z-1.277
X-71.649 Y31.5 Z-1.207
G0 Z5
X-159.061 Y119.129
Z-0.889
G1 Z-1.207 F1274.98
X-159.068 Y119.133 Z-1.277
X-159.088 Y119.145 Z-1.344
X-159.12 Y119.164 Z-1.404
X-159.163 Y119.19 Z-1.455
X-159.215 Y119.221 Z-1.493
X-159.273 Y119.255 Z-1.516
X-159.334 Y119.291 Z-1.524
G3 X-160.087 Y119.512 I-0.808 J-1.36
G1 X-167.91 F1500
X-168.398 Y119.488
X-169.109 Y119.289
G3 X-171.733 Y117.943 I10.023 J-22.775
X-198.147 Y81.425 I26.711 J-47.133
X-185.446 Y34.723 I53.145 J-10.625
X-168.745 Y22.082 I40.377 J35.993
G1 X-168.717 Y22.087
X-160.963
G3 X-160.786 Y22.662 I-0.011 J0.318 F1274.98
G1 X-160.843 Y22.703 Z-1.516
X-160.898 Y22.742 Z-1.493
X-160.946 Y22.778 Z-1.455
X-160.987 Y22.808 Z-1.404
X-161.017 Y22.83 Z-1.344
X-161.036 Y22.844 Z-1.277
X-161.042 Y22.849 Z-1.207
G0 Z5
X-166.884 Y119.129
Z-0.889
G1 Z-1.207 F1274.98
X-166.89 Y119.133 Z-1.277
X-166.911 Y119.145 Z-1.344
X-166.943 Y119.164 Z-1.404
X-166.986 Y119.19 Z-1.455
X-167.038 Y119.221 Z-1.493
X-167.096 Y119.255 Z-1.516
X-167.157 Y119.291 Z-1.524
G3 X-167.91 Y119.512 I-0.808 J-1.36
G1 X-174.057 F1500
X-174.33 Y119.499
X-175.04 Y119.3
X-175.698 Y118.966
G3 X-182.768 Y113.654 I28.292 J-45.014
X-201.479 Y79.394 I37.669 J-42.812
X-187.678 Y32.822 I56.461 J-8.599
X-174.843 Y22.084 I42.64 J37.929
G1 X-174.81 Y22.087
X-168.717
G3 X-168.54 Y22.661 I-0.012 J0.318 F1274.98
G1 X-168.598 Y22.703 Z-1.516
X-168.652 Y22.742 Z-1.493
X-168.7 Y22.778 Z-1.455
X-168.741 Y22.808 Z-1.404
X-168.771 Y22.83 Z-1.344
X-168.79 Y22.844 Z-1.277
X-168.797 Y22.849 Z-1.207
G0 Z5
X-173.03 Y119.129
Z-0.889
G1 Z-1.207 F1274.98
X-173.037 Y119.133 Z-1.277
X-173.057 Y119.145 Z-1.344
X-173.09 Y119.164 Z-1.404
X-173.133 Y119.19 Z-1.455
X-173.185 Y119.221 Z-1.493
X-173.242 Y119.255 Z-1.516
X-173.303 Y119.291 Z-1.524
G3 X-174.057 Y119.512 I-0.809 J-1.36
G1 X-179.086 F1500
X-179.522 Y119.491
X-180.211 Y119.298
X-180.86 Y118.946
G3 X-184.321 Y116.19 I24.413 J-34.215
X-204.628 Y77.982 I39.226 J-45.348
X-190.332 Y31.403 I59.593 J-7.193
X-180.117 Y22.085 I44.584 J38.618
G1 X-180.08 Y22.087
X-174.81
G3 X-174.633 Y22.661 I-0.011 J0.318 F1274.98
G1 X-174.69 Y22.703 Z-1.516
X-174.744 Y22.742 Z-1.493
X-174.793 Y22.778 Z-1.455
X-174.833 Y22.808 Z-1.404
X-174.864 Y22.83 Z-1.344
X-174.883 Y22.844 Z-1.277
X-174.889 Y22.849 Z-1.207
G0 Z5
X-178.059 Y119.129
Z-0.889
G1 Z-1.207 F1274.98
X-178.066 Y119.133 Z-1.277
X-178.086 Y119.145 Z-1.344
X-178.119 Y119.164 Z-1.404
X-178.162 Y119.19 Z-1.455
X-178.214 Y119.221 Z-1.493
X-178.271 Y119.255 Z-1.516
X-178.332 Y119.291 Z-1.524
G3 X-179.086 Y119.512 I-0.809 J-1.36
G1 X-184.115 F1500
X-184.265 Y119.505
X-184.906 Y119.312
X-185.548 Y118.948
G3 X-187.786 Y117.027 I16.234 J-21.181
X-207.69 Y76.954 I42.718 J-46.198
X-193.235 Y30.288 I62.653 J-6.165
X-184.949 Y22.103 I46.899 J39.192
G1 X-184.914 Y22.092
X-184.878 Y22.087
X-180.08
G3 X-179.903 Y22.662 I-0.011 J0.318 F1274.98
G1 X-179.961 Y22.703 Z-1.516
X-180.015 Y22.742 Z-1.493
X-180.063 Y22.778 Z-1.455
X-180.104 Y22.808 Z-1.404
X-180.134 Y22.83 Z-1.344
X-180.153 Y22.844 Z-1.277
X-180.16 Y22.849 Z-1.207
G0 Z5
X-183.088 Y119.129
Z-0.889
G1 Z-1.207 F1274.98
X-183.095 Y119.133 Z-1.277
X-183.115 Y119.145 Z-1.344
X-183.148 Y119.164 Z-1.404
X-183.191 Y119.19 Z-1.455
X-183.243 Y119.221 Z-1.493
X-183.301 Y119.255 Z-1.516
X-183.361 Y119.291 Z-1.524
G3 X-184.115 Y119.512 I-0.809 J-1.36
G1 X-188.334 F1500
X-188.654 Y119.496
X-189.245 Y119.331
X-189.894 Y118.98
X-190.469 Y118.517
G3 X-201.123 Y105.372 I44.085 J-46.62
X-210.699 Y76.203 I55.813 J-34.48
X-196.302 Y29.401 I65.631 J-5.426
X-189.438 Y22.103 I49.812 J39.977
G1 X-189.398 Y22.092
X-189.36 Y22.087
X-184.878
G3 X-184.701 Y22.662 I-0.011 J0.318 F1274.98
G1 X-184.758 Y22.703 Z-1.516
X-184.812 Y22.742 Z-1.493
X-184.861 Y22.778 Z-1.455
X-184.901 Y22.808 Z-1.404
X-184.932 Y22.83 Z-1.344
X-184.951 Y22.844 Z-1.277
X-184.957 Y22.849 Z-1.207
G0 Z5
X-187.307 Y119.129
Z-0.889
G1 Z-1.207 F1274.98
X-187.314 Y119.133 Z-1.277
X-187.334 Y119.145 Z-1.344
X-187.367 Y119.164 Z-1.404
X-187.41 Y119.19 Z-1.455
X-187.462 Y119.221 Z-1.493
X-187.519 Y119.255 Z-1.516
X-187.58 Y119.291 Z-1.524
G3 X-188.334 Y119.512 I-0.809 J-1.36
G1 X-192.497 F1500
X-192.854 Y119.495
X-193.414 Y119.338
X-194.063 Y118.986
X-194.628 Y118.511
G3 X-199.452 Y112.936 I41.995 J-41.216
X-213.688 Y75.563 I54.318 J-42.089
X-199.42 Y28.617 I68.629 J-4.783
X-193.689 Y22.106 I54.071 J41.811
G1 X-193.648 Y22.093
X-193.606 Y22.087
X-189.36
G3 X-189.183 Y22.661 I-0.011 J0.318 F1274.98
G1 X-189.24 Y22.703 Z-1.516
X-189.294 Y22.742 Z-1.493
X-189.343 Y22.778 Z-1.455
X-189.383 Y22.808 Z-1.404
X-189.414 Y22.83 Z-1.344
X-189.432 Y22.844 Z-1.277
X-189.439 Y22.849 Z-1.207
G0 Z5
X-191.47 Y119.129
Z-0.889
G1 Z-1.207 F1274.98
X-191.477 Y119.133 Z-1.277
X-191.497 Y119.145 Z-1.344
X-191.53 Y119.164 Z-1.404
X-191.573 Y119.19 Z-1.455
X-191.625 Y119.221 Z-1.493
X-191.682 Y119.255 Z-1.516
X-191.743 Y119.291 Z-1.524
G3 X-192.497 Y119.512 I-0.809 J-1.36
G1 X-196.408 F1500
X-196.883 Y119.489
X-197.42 Y119.338
X-198.069 Y118.987
X-198.624 Y118.502
G3 X-201.924 Y114.531 I39.079 J-35.836
X-216.66 Y75.031 I56.787 J-43.684
X-202.584 Y27.935 I71.598 J-4.253
X-197.755 Y22.108 I58.668 J43.704
G1 X-197.712 Y22.093
X-197.669 Y22.087
X-193.606
G3 X-193.429 Y22.661 I-0.012 J0.318 F1274.98
G1 X-193.487 Y22.703 Z-1.516
X-193.541 Y22.742 Z-1.493
X-193.589 Y22.778 Z-1.455
X-193.63 Y22.808 Z-1.404
X-193.66 Y22.83 Z-1.344
X-193.679 Y22.844 Z-1.277
X-193.686 Y22.849 Z-1.207
G0 Z5
X-195.382 Y119.129
Z-0.889
G1 Z-1.207 F1274.98
X-195.388 Y119.133 Z-1.277
X-195.409 Y119.145 Z-1.344
X-195.441 Y119.164 Z-1.404
X-195.484 Y119.19 Z-1.455
X-195.536 Y119.221 Z-1.493
X-195.594 Y119.255 Z-1.516
X-195.654 Y119.291 Z-1.524
G3 X-196.408 Y119.512 I-0.809 J-1.36
G1 X-200.32 F1500
X-200.762 Y119.49
X-201.283 Y119.344
X-201.896 Y119.013
X-202.451 Y118.527
G3 X-204.756 Y115.649 I29.496 J-25.991
X-219.116 Y80.272 I59.583 J-44.788
G1 X-219.113 Y61.871
X-219.076 Y61.134
G3 X-207.336 Y29.605 I73.598 J9.455
X-201.677 Y22.11 I62.675 J41.441
G1 X-201.632 Y22.094
X-201.586 Y22.087
X-197.669
G3 X-197.491 Y22.661 I-0.011 J0.318 F1274.98
G1 X-197.549 Y22.703 Z-1.516
X-197.603 Y22.742 Z-1.493
X-197.651 Y22.778 Z-1.455
X-197.692 Y22.808 Z-1.404
X-197.723 Y22.83 Z-1.344
X-197.741 Y22.844 Z-1.277
X-197.748 Y22.849 Z-1.207
G0 Z5
X-218.729 Y62.897
Z-0.889
G1 Z-1.207 F1274.98
X-218.733 Y62.89 Z-1.277
X-218.745 Y62.87 Z-1.344
X-218.764 Y62.838 Z-1.404
X-218.79 Y62.794 Z-1.455
X-218.821 Y62.743 Z-1.493
X-218.855 Y62.685 Z-1.516
X-218.891 Y62.624 Z-1.524
G3 X-219.112 Y61.871 I1.36 J-0.809
G1 X-219.113 Y48.477 F1500
X-219.076 Y47.74
X-218.91 Y47.021
G3 X-205.485 Y22.113 I73.305 J23.439
G1 X-205.44 Y22.095
X-205.393 Y22.087
X-201.586
G3 X-201.409 Y22.662 I-0.011 J0.318 F1274.98
G1 X-201.467 Y22.703 Z-1.516
X-201.521 Y22.742 Z-1.493
X-201.569 Y22.778 Z-1.455
X-201.61 Y22.808 Z-1.404
X-201.64 Y22.83 Z-1.344
X-201.659 Y22.844 Z-1.277
X-201.666 Y22.849 Z-1.207
G0 Z5
X-218.729 Y49.503
Z-0.889
G1 Z-1.207 F1274.98
X-218.733 Y49.496 Z-1.277
X-218.745 Y49.476 Z-1.344
X-218.764 Y49.444 Z-1.404
X-218.79 Y49.4 Z-1.455
X-218.821 Y49.349 Z-1.493
X-218.855 Y49.291 Z-1.516
X-218.891 Y49.23 Z-1.524
G3 X-219.112 Y48.477 I1.36 J-0.808
G1 X-219.113 Y40.106 F1500
X-219.077 Y39.401
X-218.878 Y38.691
G3 X-217.029 Y34.67 I48.059 J19.669
X-209.204 Y22.115 I70.222 J35.048
G1 X-209.159 Y22.095
X-209.111 Y22.087
X-205.393
G3 X-205.216 Y22.662 I-0.011 J0.318 F1274.98
G1 X-205.273 Y22.703 Z-1.516
X-205.328 Y22.742 Z-1.493
X-205.376 Y22.778 Z-1.455
X-205.417 Y22.808 Z-1.404
X-205.447 Y22.83 Z-1.344
X-205.466 Y22.844 Z-1.277
X-205.472 Y22.849 Z-1.207
G0 Z5
X-218.729 Y41.132
Z-0.889
G1 Z-1.207 F1274.98
X-218.733 Y41.125 Z-1.277
X-218.745 Y41.105 Z-1.344
X-218.764 Y41.072 Z-1.404
X-218.79 Y41.029 Z-1.455
X-218.821 Y40.977 Z-1.493
X-218.855 Y40.92 Z-1.516
X-218.891 Y40.859 Z-1.524
G3 X-219.112 Y40.106 I1.36 J-0.809
G1 X-219.113 Y33.409 F1500
X-219.076 Y32.672
X-218.879 Y31.96
G3 X-217.507 Y29.35 I23.046 J10.452
X-212.849 Y22.115 I69.258 J39.473
G1 X-212.801 Y22.095
X-212.752 Y22.087
X-209.111
G3 X-208.934 Y22.661 I-0.011 J0.318 F1274.98
G1 X-208.991 Y22.703 Z-1.516
X-209.045 Y22.742 Z-1.493
X-209.094 Y22.778 Z-1.455
X-209.134 Y22.808 Z-1.404
X-209.165 Y22.83 Z-1.344
X-209.183 Y22.844 Z-1.277
X-209.19 Y22.849 Z-1.207
G0 Z5
X-218.729 Y34.435
Z-0.889
G1 Z-1.207 F1274.98
X-218.733 Y34.428 Z-1.277
X-218.745 Y34.408 Z-1.344
X-218.764 Y34.375 Z-1.404
X-218.79 Y34.332 Z-1.455
X-218.821 Y34.281 Z-1.493
X-218.855 Y34.223 Z-1.516
X-218.891 Y34.162 Z-1.524
G3 X-219.112 Y33.409 I1.36 J-0.809
G1 X-219.113 Y27.27 F1500
X-219.088 Y26.778
X-218.889 Y26.068
X-218.559 Y25.408
G3 X-216.139 Y21.702 I50.184 J30.125
G1 X-216.069 Y21.684
X-216.001 Y21.692
G3 X-215.833 Y22.132 I-0.115 J0.296 F1274.98
G1 X-215.949 Y22.36
X-218.512 Y27.402 F1500
X-218.539 Y27.446
G3 X-219.112 Y27.27 I-0.256 J-0.187 F1274.98
G1 X-219.113 Y26.712 F1500
X-219.127 Y26.433
X-219.18 Y26.153
X-219.318 Y25.738
X-219.522 Y25.159
X-219.526 Y25.142
X-219.601 Y24.479
X-219.613 Y23.921
Y22.805
X-219.579 Y22.127
X-219.46 Y21.703
X-219.428 Y21.643
X-219.374 Y21.602
X-219.307 Y21.587
G3 X-219 Y21.897 I-0.011 J0.318 F1274.98
G1 X-218.993 Y22.202
X-218.978 Y22.786 F1500
X-218.984 Y22.855
X-219.004 Y22.921
X-219.039 Y22.982
G3 X-219.612 Y22.805 I-0.256 J-0.188 F1274.98
G1 X-219.613 Y21.6 F1500
X-219.594 Y21.587
X-217.083
X-216.524 Y21.621
X-216.059 Y21.673
X-216.043 Y21.678
X-215.407 Y21.901
X-215.127 Y21.998
X-214.848 Y22.062
X-214.289 Y22.087
X-212.752
G3 X-212.574 Y22.661 I-0.011 J0.318 F1274.98
G1 X-212.632 Y22.703 Z-1.516
X-212.686 Y22.742 Z-1.493
X-212.734 Y22.778 Z-1.455
X-212.775 Y22.808 Z-1.404
X-212.806 Y22.83 Z-1.344
X-212.824 Y22.844 Z-1.277
X-212.831 Y22.849 Z-1.207
G0 Z5
X-199.293 Y119.129
Z-0.889
G1 Z-1.207 F1274.98
X-199.3 Y119.133 Z-1.277
X-199.32 Y119.145 Z-1.344
X-199.353 Y119.164 Z-1.404
X-199.396 Y119.19 Z-1.455
X-199.448 Y119.221 Z-1.493
X-199.505 Y119.255 Z-1.516
X-199.566 Y119.291 Z-1.524
G3 X-200.32 Y119.512 I-0.809 J-1.36
G1 X-204.231 F1500
X-204.528 Y119.498
X-205.037 Y119.355
X-205.62 Y119.039
X-206.176 Y118.553
G3 X-207.978 Y116.218 I21.546 J-18.489
X-219.116 Y93.955 I62.476 J-45.172
G1 X-219.113 Y80.271
G3 X-218.538 Y80.094 I0.318 J0.011 F1274.98
G1 X-218.497 Y80.151 Z-1.516
X-218.458 Y80.206 Z-1.493
X-218.422 Y80.254 Z-1.455
X-218.392 Y80.295 Z-1.404
X-218.37 Y80.325 Z-1.344
X-218.356 Y80.344 Z-1.277
X-218.351 Y80.35 Z-1.207
G0 Z5
X-203.205 Y119.129
Z-0.889
G1 Z-1.207 F1274.98
X-203.211 Y119.133 Z-1.277
X-203.232 Y119.145 Z-1.344
X-203.264 Y119.164 Z-1.404
X-203.307 Y119.19 Z-1.455
X-203.359 Y119.221 Z-1.493
X-203.417 Y119.255 Z-1.516
X-203.477 Y119.291 Z-1.524
G3 X-204.231 Y119.512 I-0.809 J-1.36
G1 X-207.891 F1500
X-208.215 Y119.496
X-208.712 Y119.357
X-209.275 Y119.052
X-209.83 Y118.566
G3 X-211.578 Y116.191 I19.119 J-15.896
X-219.122 Y102.406 I64.842 J-44.441
G1 X-219.113 Y93.954
G3 X-218.539 Y93.777 I0.318 J0.011 F1274.98
G1 X-218.497 Y93.834 Z-1.516
X-218.458 Y93.888 Z-1.493
X-218.422 Y93.937 Z-1.455
X-218.392 Y93.977 Z-1.404
X-218.37 Y94.008 Z-1.344
X-218.356 Y94.027 Z-1.277
X-218.351 Y94.033 Z-1.207
G0 Z5
X-206.865 Y119.129
Z-0.889
G1 Z-1.207 F1274.98
X-206.871 Y119.133 Z-1.277
X-206.892 Y119.145 Z-1.344
X-206.924 Y119.164 Z-1.404
X-206.967 Y119.19 Z-1.455
X-207.019 Y119.221 Z-1.493
X-207.077 Y119.255 Z-1.516
X-207.137 Y119.291 Z-1.524
G3 X-207.891 Y119.512 I-0.809 J-1.36
G1 X-211.495 F1500
X-211.83 Y119.496
X-212.317 Y119.359
X-212.863 Y119.064
X-213.418 Y118.578
X-213.881 Y118.003
G3 X-219.115 Y109.296 I64.511 J-44.701
G1 X-219.113 Y109.268
Y102.402
G3 X-218.538 Y102.225 I0.318 J0.011 F1274.98
G1 X-218.497 Y102.283 Z-1.516
X-218.458 Y102.337 Z-1.493
X-218.422 Y102.385 Z-1.455
X-218.392 Y102.426 Z-1.404
X-218.37 Y102.456 Z-1.344
X-218.356 Y102.475 Z-1.277
X-218.351 Y102.482 Z-1.207
G0 Z5
X-210.469 Y119.129
Z-0.889
G1 Z-1.207 F1274.98
X-210.476 Y119.133 Z-1.277
X-210.496 Y119.145 Z-1.344
X-210.528 Y119.164 Z-1.404
X-210.571 Y119.19 Z-1.455
X-210.623 Y119.221 Z-1.493
X-210.681 Y119.255 Z-1.516
X-210.742 Y119.291 Z-1.524
G3 X-211.495 Y119.512 I-0.808 J-1.36
G1 X-214.289 F1500
X-214.848 Y119.538
X-215.166 Y119.553
X-215.624 Y119.471
X-216.132 Y119.256
X-216.713 Y118.839
X-217.202 Y118.286
G3 X-219.143 Y115.238 I33.093 J-23.213
G1 X-219.132 Y115.195
G3 X-218.597 Y115.043 I0.309 J0.07 F1274.98
G1 X-218.523 Y115.117
X-214.789 Y118.921 F1500
X-214.703 Y119.009 F1274.98
G3 X-214.848 Y119.538 I-0.227 J0.222
G1 X-215.127 Y119.602 F1500
X-215.407 Y119.699
X-216.043 Y119.922
X-216.059 Y119.926
X-216.524 Y119.979
X-217.083 Y120.012
X-218.201
X-218.557 Y119.995
X-219.031 Y119.862
X-219.558 Y119.576
X-219.588 Y119.542
X-219.606 Y119.501
X-219.613 Y119.457
G3 X-219.23 Y119.157 I0.318 J0.011 F1274.98
G1 X-219.003 Y119.205
X-218.146 Y119.384 F1500
X-218.082 Y119.405
X-218.024 Y119.439
G3 X-218.201 Y120.012 I-0.188 J0.256 F1274.98
G1 X-219.594 F1500
X-219.613 Y120
Y117.679
X-219.601 Y117.121
X-219.526 Y116.458
X-219.521 Y116.441
X-219.318 Y115.862
X-219.18 Y115.447
X-219.127 Y115.167
X-219.113 Y114.888
Y109.268
G3 X-218.538 Y109.091 I0.318 J0.011 F1274.98
G1 X-218.497 Y109.148 Z-1.516
X-218.458 Y109.202 Z-1.493
X-218.422 Y109.251 Z-1.455
X-218.392 Y109.291 Z-1.404
X-218.37 Y109.322 Z-1.344
X-218.356 Y109.341 Z-1.277
X-218.351 Y109.347 Z-1.207
G0 Z15

(2D Contour2)
X-71.34 Y70.482
Z15
Z5
G1 Z1 F424.96
Z-1.207
G18 G2 X-71.023 Z-1.525 I0.318 K0 F1274.98
G1 X-70.705 Z-1.524
G17 G3 X-70.387 Y70.8 I0 J0.318
G1 Y114.921 F1500
G2 X-70.228 Y115.613 I1.587 J0
G3 X-69.887 Y117.1 I-3.072 J1.488
G1 Y120.512
X-73.3
G3 X-74.787 Y120.171 I0 J-3.412
G2 X-75.479 Y120.012 I-0.692 J1.429
G1 X-214.521
G2 X-215.213 Y120.171 I0 J1.588
G3 X-216.7 Y120.513 I-1.488 J-3.071
G1 X-220.112 Y120.512
X-220.113 Y117.1
G3 X-219.771 Y115.613 I3.413 J0.001
G2 X-219.612 Y114.921 I-1.429 J-0.692
G1 X-219.613 Y26.679
G2 X-219.772 Y25.988 I-1.587 J0
G3 X-220.113 Y24.5 I3.072 J-1.488
G1 Y21.087
X-216.7
G3 X-215.213 Y21.429 I-0.001 J3.413
G2 X-214.521 Y21.588 I0.692 J-1.429
G1 X-75.479 Y21.587
G2 X-74.788 Y21.428 I0 J-1.587
G3 X-73.3 Y21.087 I1.488 J3.072
G1 X-69.887
Y24.5
G3 X-70.228 Y25.988 I-3.413 J0
G2 X-70.386 Y26.679 I1.428 J0.691
G1 X-70.387 Y70.8
G3 X-70.705 Y71.118 I-0.318 J0 F1274.98
G1 X-71.022
G18 G3 X-71.339 Z-1.207 I0 K0.317
G0 X-71.34 Z15
G17
M9
G28 G91 Z0
G90
G28 G91 X0 Y0
G90
M30
%
