%
(PCB002)
(T1  D=3.175 CR=0 - ZMIN=-12.7 - flat end mill)
G90
G17
G21
G28 G91 Z0
G90

(2D Contour1)
T1 M6
S18000 M3
G54
M7
G0 X-290.318 Y144.14
Z15
Z5
G1 Z2.5 F424.96
Z-1.183
G19 G2 Y143.822 Z-1.501 J-0.318 K0 F1274.98
G1 Y143.505 Z-1.5
G17 G3 X-290 Y143.187 I0.318 J0
G1 X0 Y143.188 F1500
G2 X1.588 Y141.6 I0 J-1.588
G1 X1.587 Y0
G2 X0 Y-1.587 I-1.587 J0
G1 X-290
G2 X-291.587 Y0 I0 J1.587
G1 Y141.6
G2 X-290 Y143.187 I1.587 J0
G3 X-289.682 Y143.505 I0 J0.318 F1274.98
G1 Y143.822
G19 G3 Y144.139 Z-1.183 J0 K0.317
G0 Y144.14 Z5
X-290.318
G1 Z1 F424.96
Z-2.683
G2 Y143.822 Z-3 J-0.318 K0.001 F1274.98
G1 Y143.505
G17 G3 X-290 Y143.187 I0.318 J0
G1 X0 Y143.188 F1500
G2 X1.588 Y141.6 I0 J-1.588
G1 X1.587 Y0
G2 X0 Y-1.587 I-1.587 J0
G1 X-290
G2 X-291.587 Y0 I0 J1.587
G1 Y141.6
G2 X-290 Y143.187 I1.587 J0
G3 X-289.682 Y143.505 I0 J0.318 F1274.98
G1 Y143.822
G19 G3 Y144.14 Z-2.683 J0 K0.318
G0 Z5
X-290.318
G1 Z-0.5 F424.96
Z-4.183
G2 Y143.822 Z-4.5 J-0.318 K0.001 F1274.98
G1 Y143.505
G17 G3 X-290 Y143.187 I0.318 J0
G1 X0 Y143.188 F1500
G2 X1.588 Y141.6 I0 J-1.588
G1 X1.587 Y0
G2 X0 Y-1.587 I-1.587 J0
G1 X-290
G2 X-291.587 Y0 I0 J1.587
G1 Y141.6
G2 X-290 Y143.187 I1.587 J0
G3 X-289.682 Y143.505 I0 J0.318 F1274.98
G1 Y143.822
G19 G3 Y144.14 Z-4.183 J0 K0.318
G0 Z5
X-290.318
G1 Z-2 F424.96
Z-5.683
G2 Y143.822 Z-6 J-0.318 K0.001 F1274.98
G1 Y143.505
G17 G3 X-290 Y143.187 I0.318 J0
G1 X0 Y143.188 F1500
G2 X1.588 Y141.6 I0 J-1.588
G1 X1.587 Y0
G2 X0 Y-1.587 I-1.587 J0
G1 X-290
G2 X-291.587 Y0 I0 J1.587
G1 Y141.6
G2 X-290 Y143.187 I1.587 J0
G3 X-289.682 Y143.505 I0 J0.318 F1274.98
G1 Y143.822
G19 G3 Y144.14 Z-5.683 J0 K0.318
G0 Z5
X-290.318
G1 Z-3.5 F424.96
Z-7.183
G2 Y143.822 Z-7.5 J-0.318 K0.001 F1274.98
G1 Y143.505
G17 G3 X-290 Y143.187 I0.318 J0
G1 X0 Y143.188 F1500
G2 X1.588 Y141.6 I0 J-1.588
G1 X1.587 Y0
G2 X0 Y-1.587 I-1.587 J0
G1 X-290
G2 X-291.587 Y0 I0 J1.587
G1 Y141.6
G2 X-290 Y143.187 I1.587 J0
G3 X-289.682 Y143.505 I0 J0.318 F1274.98
G1 Y143.822
G19 G3 Y144.14 Z-7.183 J0 K0.318
G0 Z5
X-290.318
G1 Z-5 F424.96
Z-8.683
G2 Y143.822 Z-9 J-0.318 K0.001 F1274.98
G1 Y143.505
G17 G3 X-290 Y143.187 I0.318 J0
G1 X0 Y143.188 F1500
G2 X1.588 Y141.6 I0 J-1.588
G1 X1.587 Y0
G2 X0 Y-1.587 I-1.587 J0
G1 X-290
G2 X-291.587 Y0 I0 J1.587
G1 Y141.6
G2 X-290 Y143.187 I1.587 J0
G3 X-289.682 Y143.505 I0 J0.318 F1274.98
G1 Y143.822
G19 G3 Y144.14 Z-8.683 J0 K0.318
G0 Z5
X-290.318
G1 Z-6.5 F424.96
Z-10.183
G2 Y143.822 Z-10.5 J-0.318 K0.001 F1274.98
G1 Y143.505
G17 G3 X-290 Y143.187 I0.318 J0
G1 X0 Y143.188 F1500
G2 X1.588 Y141.6 I0 J-1.588
G1 X1.587 Y0
G2 X0 Y-1.587 I-1.587 J0
G1 X-290
G2 X-291.587 Y0 I0 J1.587
G1 Y141.6
G2 X-290 Y143.187 I1.587 J0
G3 X-289.682 Y143.505 I0 J0.318 F1274.98
G1 Y143.822
G19 G3 Y144.14 Z-10.183 J0 K0.318
G0 Z5
X-290.318
G1 Z-8 F424.96
Z-11.683
G2 Y143.822 Z-12 J-0.318 K0.001 F1274.98
G1 Y143.505
G17 G3 X-290 Y143.187 I0.318 J0
G1 X-278.593 Y143.188 F1500
X-278.405 Z-11.906
X-275.23
X-275.043 Z-12 F424.96
X-252.23 F1500
X-252.042 Z-11.906
X-248.867
X-248.68 Z-12 F424.96
X-225.866 F1500
X-225.678 Z-11.906
X-222.503
X-222.316 Z-12 F424.96
X-199.502 F1500
X-199.314 Z-11.906
X-196.139
X-195.952 Z-12 F424.96
X-173.139 F1500
X-172.952 Z-11.906
X-169.777
X-169.589 Z-12 F424.96
X-146.775 F1500
X-146.587 Z-11.906
X-143.413
X-143.225 Z-12 F424.96
X-120.411 F1500
X-120.224 Z-11.906
X-117.049
X-116.861 Z-12 F424.96
X-94.048 F1500
X-93.86 Z-11.906
X-90.685
X-90.498 Z-12 F424.96
X-67.684 F1500
X-67.497 Z-11.906
X-64.322
X-64.134 Z-12 F424.96
X-41.32 F1500
X-41.133 Z-11.906
X-37.958
X-37.771 Z-12 F424.96
X-14.957 F1500
X-14.769 Z-11.906
X-11.594
X-11.407 Z-12 F424.96
X0 F1500
G2 X1.588 Y141.6 I0 J-1.588
G1 X1.587 Y129.215
Y129.027 Z-11.906
Y125.853
Y125.665 Z-12 F424.96
Y100.895 F1500
Y100.707 Z-11.906
Y97.533
Y97.345 Z-12 F424.96
Y72.575 F1500
Y72.387 Z-11.906
Y69.213
Y69.025 Z-12 F424.96
Y44.255 F1500
Y44.068 Z-11.906
Y40.893
Y40.705 Z-12 F424.96
Y15.935 F1500
Y15.748 Z-11.906
Y12.573
Y12.385 Z-12 F424.96
Y0 F1500
G2 X0 Y-1.587 I-1.587 J0
G1 X-11.407
X-11.594 Z-11.906
X-14.769
X-14.957 Z-12 F424.96
X-37.771 F1500
X-37.958 Z-11.906
X-41.133
X-41.32 Z-12 F424.96
X-64.134 F1500
X-64.322 Z-11.906
X-67.497
X-67.684 Z-12 F424.96
X-90.498 F1500
X-90.685 Z-11.906
X-93.86
X-94.048 Z-12 F424.96
X-116.861 F1500
X-117.049 Z-11.906
X-120.224
X-120.411 Z-12 F424.96
X-143.225 F1500
X-143.413 Z-11.906
X-146.587
X-146.775 Z-12 F424.96
X-169.589 F1500
X-169.777 Z-11.906
X-172.952
X-173.139 Z-12 F424.96
X-195.952 F1500
X-196.139 Z-11.906
X-199.314
X-199.502 Z-12 F424.96
X-222.316 F1500
X-222.503 Z-11.906
X-225.678
X-225.866 Z-12 F424.96
X-248.68 F1500
X-248.867 Z-11.906
X-252.042
X-252.23 Z-12 F424.96
X-275.043 F1500
X-275.23 Z-11.906
X-278.405
X-278.593 Z-12 F424.96
X-290 F1500
G2 X-291.587 Y0 I0 J1.587
G1 Y12.385
Y12.573 Z-11.906
Y15.748
Y15.935 Z-12 F424.96
Y40.705 F1500
Y40.893 Z-11.906
Y44.068
Y44.255 Z-12 F424.96
Y69.025 F1500
Y69.213 Z-11.906
Y72.387
Y72.575 Z-12 F424.96
Y97.345 F1500
Y97.533 Z-11.906
Y100.707
Y100.895 Z-12 F424.96
Y125.665 F1500
Y125.853 Z-11.906
Y129.027
Y129.215 Z-12 F424.96
Y141.6 F1500
G2 X-290 Y143.187 I1.587 J0
G3 X-289.682 Y143.505 I0 J0.318 F1274.98
G1 Y143.822
G19 G3 Y144.14 Z-11.683 J0 K0.318
G0 Z5
X-290.318
G1 Z-9.5 F424.96
Z-12.383
G2 Y143.822 Z-12.7 J-0.318 K0.001 F1274.98
G1 Y143.505
G17 G3 X-290 Y143.187 I0.318 J0
G1 X-279.993 Y143.188 F1500
X-278.405 Z-11.906
X-275.23
X-273.643 Z-12.7 F424.96
X-253.63 F1500
X-252.042 Z-11.906
X-248.867
X-247.28 Z-12.7 F424.96
X-227.266 F1500
X-225.678 Z-11.906
X-222.503
X-220.916 Z-12.7 F424.96
X-200.902 F1500
X-199.314 Z-11.906
X-196.139
X-194.552 Z-12.7 F424.96
X-174.539 F1500
X-172.952 Z-11.906
X-169.777
X-168.189 Z-12.7 F424.96
X-148.175 F1500
X-146.587 Z-11.906
X-143.413
X-141.825 Z-12.7 F424.96
X-121.811 F1500
X-120.224 Z-11.906
X-117.049
X-115.461 Z-12.7 F424.96
X-95.448 F1500
X-93.86 Z-11.906
X-90.685
X-89.098 Z-12.7 F424.96
X-69.084 F1500
X-67.497 Z-11.906
X-64.322
X-62.734 Z-12.7 F424.96
X-42.721 F1500
X-41.133 Z-11.906
X-37.958
X-36.37 Z-12.7 F424.96
X-16.357 F1500
X-14.769 Z-11.906
X-11.594
X-10.007 Z-12.7 F424.96
X0 F1500
G2 X1.588 Y141.6 I0 J-1.588
G1 X1.587 Y130.615
Y129.027 Z-11.906
Y125.853
Y124.265 Z-12.7 F424.96
Y102.295 F1500
Y100.707 Z-11.906
Y97.533
Y95.945 Z-12.7 F424.96
Y73.975 F1500
Y72.387 Z-11.906
Y69.213
Y67.625 Z-12.7 F424.96
Y45.655 F1500
Y44.068 Z-11.906
Y40.893
Y39.305 Z-12.7 F424.96
Y17.335 F1500
Y15.748 Z-11.906
Y12.573
Y10.985 Z-12.7 F424.96
Y0 F1500
G2 X0 Y-1.587 I-1.587 J0
G1 X-10.007
X-11.594 Z-11.906
X-14.769
X-16.357 Z-12.7 F424.96
X-36.37 F1500
X-37.958 Z-11.906
X-41.133
X-42.721 Z-12.7 F424.96
X-62.734 F1500
X-64.322 Z-11.906
X-67.497
X-69.084 Z-12.7 F424.96
X-89.098 F1500
X-90.685 Z-11.906
X-93.86
X-95.448 Z-12.7 F424.96
X-115.461 F1500
X-117.049 Z-11.906
X-120.224
X-121.811 Z-12.7 F424.96
X-141.825 F1500
X-143.413 Z-11.906
X-146.587
X-148.175 Z-12.7 F424.96
X-168.189 F1500
X-169.777 Z-11.906
X-172.952
X-174.539 Z-12.7 F424.96
X-194.552 F1500
X-196.139 Z-11.906
X-199.314
X-200.902 Z-12.7 F424.96
X-220.916 F1500
X-222.503 Z-11.906
X-225.678
X-227.266 Z-12.7 F424.96
X-247.28 F1500
X-248.867 Z-11.906
X-252.042
X-253.63 Z-12.7 F424.96
X-273.643 F1500
X-275.23 Z-11.906
X-278.405
X-279.993 Z-12.7 F424.96
X-290 F1500
G2 X-291.587 Y0 I0 J1.587
G1 Y10.985
Y12.573 Z-11.906
Y15.748
Y17.335 Z-12.7 F424.96
Y39.305 F1500
Y40.893 Z-11.906
Y44.068
Y45.655 Z-12.7 F424.96
Y67.625 F1500
Y69.213 Z-11.906
Y72.387
Y73.975 Z-12.7 F424.96
Y95.945 F1500
Y97.533 Z-11.906
Y100.707
Y102.295 Z-12.7 F424.96
Y124.265 F1500
Y125.853 Z-11.906
Y129.027
Y130.615 Z-12.7 F424.96
Y141.6 F1500
G2 X-290 Y143.187 I1.587 J0
G3 X-289.682 Y143.505 I0 J0.318 F1274.98
G1 Y143.822
G19 G3 Y144.14 Z-12.383 J0 K0.318
G0 Z15
G17
M9
G28 G91 Z0
G90
G28 G91 X0 Y0
G90
M30
%
